/* XPM */
static char *out[] = {
/* columns rows colors chars-per-pixel */
"500 503 16 1 ",
"  c #FF00FF",
". c black",
"X c #634221",
"o c #735A21",
"O c #103942",
"+ c #315A7B",
"@ c gray45",
"# c #A57352",
"$ c #C69C5A",
"% c #528CAD",
"& c #73A5BD",
"* c #E7C6AD",
"= c #F7D6BD",
"- c #F7E7BD",
"; c #CECECE",
": c white",
/* pixels */
"                                                                                                                                                                                                                                                                                                                                                                                                                                                                                                                    ",
"                                                                                                                                                                                                                                                                                                                                                                                                                                                                                                                    ",
"                                                                                                                                                                                                                                                                                                                                                                                                                                                                                                                    ",
"                                                                                                                                                                                                                                                                                                                                                                                                                                                                                                                    ",
"                                                                                                                                                                                                                                                                                                                                                                                                                                                                                                                    ",
"                                                                                                                                                                                                                                                                                                                                                                                                                                                                                                                    ",
"                                                                                                                                                                                                                                                                                                                                                                                                                                                                                                                    ",
"                                                                                                                                                                                                                                                                                                                                                                                                                                                                                                                    ",
"                                                                                                                                                                                                                                                                                                                                                                                                                                                                                                                    ",
"                                                                                                                                                                                                                                                                                                                                                                                                                                                                                                                    ",
"                                                                                                                                                                                                                                                                                                                                                                                                                                                                                                                    ",
"                                                                                                                                                                                                                                                                                                                                                                                                                                                                                                                    ",
"                                                                                                                                                                                                                                                                                                                                                                                                                                                                                                                    ",
"                                                                                                                                                                                                                        .......                                                                                                                                                                                                                                                                                     ",
"                                                                                                                                                                                                                        .......                                                                                                                                                                                                                                                                                     ",
"                                                                                                                                                                                                                        .......                                                                                                                                                                                                                                                                                     ",
"                                                                                                                                                                                                                        .......                                                                                                                                                                                                                                                                                     ",
"                                                                                                                                                                                                                        .......                                                                                                                                                                                                                                                                                     ",
"                                                                                                                                                                                                                        .......                                                                                                                                                                                                                                                                                     ",
"                                                                                                                                                                                                                        .......                                                                                                                                                                                                                                                                                     ",
"                                                                                                                                                                                                                 OOOOOOO%%%%%%%.......                                                                                              ....................                                                                                                                                                            ",
"                                                                                                                                                                                                                 OOOOOOO%%%%%%%.......                                                                                              ....................                                                                                                                                                            ",
"                                                                                                                                                                                                                 OOOOOOO%%%%%%%.......                                                                                              ....................                                                                                                                                                            ",
"                                                                                                                                                                                                                 OOOOOOO%%%%%%%.......                                                                                              ....................                                                                                                                                                            ",
"                                                                                                                                                                                                                 OOOOOOO%%%%%%%.......                                                                                              ....................                                                                                                                                                            ",
"                                                                                                                                                                                                                 OOOOOOO%%%%%%%.......                                                                                              ....................                                                                                                                                                            ",
"                                                                                                                                                                                                                 OOOOOOO%%%%%%%.......                                                                                              ....................                                                                                                                                                            ",
"                                                                                                                                                                                                           OOOOOO%%%%%%%+++++++.............                                                                           OOOOOO%%%%%%%++++++++++++++                                                                                                                                                                  ",
"                                                                                                                                                                                                           OOOOOO%%%%%%%+++++++.............                                                                           OOOOOO%%%%%%%++++++++++++++                                                                                                                                                                  ",
"                                                                                                                                                                                                           OOOOOO%%%%%%%+++++++.............                                                                           OOOOOO%%%%%%%++++++++++++++                                                                                                                                                                  ",
"                                                                                                                                                                                                           OOOOOO%%%%%%%+++++++.............                                                                           OOOOOO%%%%%%%++++++++++++++                                                                                                                                                                  ",
"                                                                                                                                                                                                           OOOOOO%%%%%%%+++++++.............                                                                           OOOOOO%%%%%%%++++++++++++++                                                                                                                                                                  ",
"                                                                                                                                                                                                           OOOOOO%%%%%%%+++++++.............                                                                           OOOOOO%%%%%%%++++++++++++++                                                                                                                                                                  ",
"                                                                                                                                                                                                           OOOOOO%%%%%%%+++++++.............                                                                           OOOOOO%%%%%%%++++++++++++++                                                                                                                                                                  ",
"                                                                                                                                                                                                    OOOOOOO%%%%%%%%%%%%%%%%%%%%+++++++++++++.......                                                      OOOOOOOOOOOOOO%%%%%%%%%%%%%%%%%%%%+++++++......                                                                                                                                                            ",
"                                                                                                                                                                                                    OOOOOOO%%%%%%%%%%%%%%%%%%%%+++++++++++++.......                                                      OOOOOOOOOOOOOO%%%%%%%%%%%%%%%%%%%%+++++++......                                                                                                                                                            ",
"                                                                                                                                                                                                    OOOOOOO%%%%%%%%%%%%%%%%%%%%+++++++++++++.......                                                      OOOOOOOOOOOOOO%%%%%%%%%%%%%%%%%%%%+++++++......                                                                                                                                                            ",
"                                                                                                                                                                                                    OOOOOOO%%%%%%%%%%%%%%%%%%%%+++++++++++++.......                                                      OOOOOOOOOOOOOO%%%%%%%%%%%%%%%%%%%%+++++++......                                                                                                                                                            ",
"                                                                                                                                                                                                    OOOOOOO%%%%%%%%%%%%%%%%%%%%+++++++++++++.......                                                      OOOOOOOOOOOOOO%%%%%%%%%%%%%%%%%%%%+++++++......                                                                                                                                                            ",
"                                                                                                                                                                                                    OOOOOOO%%%%%%%%%%%%%%%%%%%%+++++++++++++.......                                                      OOOOOOOOOOOOOO%%%%%%%%%%%%%%%%%%%%+++++++......                                                                                                                                                            ",
"                                                                                                                                                                                                    OOOOOOO%%%%%%%%%%%%%%%%%%%%++++++++++++++++++++..............                                 OOOOOOOOOOOOOO%%%%%%%%%%%%%%%%%%%%%%%%%%%+++++++......                                                                                                                                                            ",
"                                                                                                                                                                                                    OOOOOOO%%%%%%%%%%%%%%%%%%%%++++++++++++++++++++..............                                 OOOOOOOOOOOOOO%%%%%%%%%%%%%%%%%%%%%%%%%%%+++++++......                                                                                                                                                            ",
"                                                                                                                                                                                                    OOOOOOO%%%%%%%%%%%%%%%%%%%%++++++++++++++++++++..............                                 OOOOOOOOOOOOOO%%%%%%%%%%%%%%%%%%%%%%%%%%%+++++++......                                                                                                                                                            ",
"                                                                                                                                                                                                    OOOOOOO%%%%%%%%%%%%%%%%%%%%++++++++++++++++++++..............                                 OOOOOOOOOOOOOO%%%%%%%%%%%%%%%%%%%%%%%%%%%+++++++......                                                                                                                                                            ",
"                                                                                                                                                                                                    OOOOOOO%%%%%%%%%%%%%%%%%%%%++++++++++++++++++++..............                                 OOOOOOOOOOOOOO%%%%%%%%%%%%%%%%%%%%%%%%%%%+++++++......                                                                                                                                                            ",
"                                                                                                                                                                                                    OOOOOOO%%%%%%%%%%%%%%%%%%%%++++++++++++++++++++..............                                 OOOOOOOOOOOOOO%%%%%%%%%%%%%%%%%%%%%%%%%%%+++++++......                                                                                                                                                            ",
"                                                                                                                                                                                                    OOOOOOO%%%%%%%%%%%%%%%%%%%%++++++++++++++++++++..............                                 OOOOOOOOOOOOOO%%%%%%%%%%%%%%%%%%%%%%%%%%%+++++++......                                                                                                                                                            ",
"                                                                                                                                                                                                    OOOOOOO%%%%%%%%%%%%%%%%%%%%+++++++OOOOOOOOOOOOO+++++++&&&&&&&.................................%%%%%%%%%%%%%%%%%%%%%%%%%%%%%%%%%%%%%%%%%+++++++++++++.......                                                                                                                                                     ",
"                                                                                                                                                                                                    OOOOOOO%%%%%%%%%%%%%%%%%%%%+++++++OOOOOOOOOOOOO+++++++&&&&&&&.................................%%%%%%%%%%%%%%%%%%%%%%%%%%%%%%%%%%%%%%%%%+++++++++++++.......                                                                                                                                                     ",
"                                                                                                                                                                                                    OOOOOOO%%%%%%%%%%%%%%%%%%%%+++++++OOOOOOOOOOOOO+++++++&&&&&&&.................................%%%%%%%%%%%%%%%%%%%%%%%%%%%%%%%%%%%%%%%%%+++++++++++++.......                                                                                                                                                     ",
"                                                                                                                                                                                                    OOOOOOO%%%%%%%%%%%%%%%%%%%%+++++++OOOOOOOOOOOOO+++++++&&&&&&&.................................%%%%%%%%%%%%%%%%%%%%%%%%%%%%%%%%%%%%%%%%%+++++++++++++.......                                                                                                                                                     ",
"                                                                                                                                                                                                    OOOOOOO%%%%%%%%%%%%%%%%%%%%+++++++OOOOOOOOOOOOO+++++++&&&&&&&.................................%%%%%%%%%%%%%%%%%%%%%%%%%%%%%%%%%%%%%%%%%+++++++++++++.......                                                                                                                                                     ",
"                                                                                                                                                                                                    OOOOOOO%%%%%%%%%%%%%%%%%%%%+++++++OOOOOOOOOOOOO+++++++&&&&&&&.................................%%%%%%%%%%%%%%%%%%%%%%%%%%%%%%%%%%%%%%%%%+++++++++++++.......                                                                                                                                                     ",
"                                                                                                                                                                                                    OOOOOOO%%%%%%%%%%%%%%%%%%%%+++++++OOOOOOOOOOOOO+++++++&&&&&&&.................................%%%%%%%%%%%%%%%%%%%%%%%%%%%%%%%%%%%%%%%%%+++++++++++++.......                                                                                                                                                     ",
"                                                                                                                                                                                                    OOOOOOO%%%%%%+++++++%%%%%%%+++++++%%%%%%&&&&&&&&&&&&&&&&&&&&&&&&&&&%%%%%%%%%%%%%%%%%%%%%%%%%%%%%%%%%%%%%%%%%%%%%%%%%%%%%%%%%%%%%++++++++++++++++++++.......                                                                                                                                                     ",
"                                                                                                                                                                                                    OOOOOOO%%%%%%+++++++%%%%%%%+++++++%%%%%%&&&&&&&&&&&&&&&&&&&&&&&&&&&%%%%%%%%%%%%%%%%%%%%%%%%%%%%%%%%%%%%%%%%%%%%%%%%%%%%%%%%%%%%%++++++++++++++++++++.......                                                                                                                                                     ",
"                                                                                                                                                                                                    OOOOOOO%%%%%%+++++++%%%%%%%+++++++%%%%%%&&&&&&&&&&&&&&&&&&&&&&&&&&&%%%%%%%%%%%%%%%%%%%%%%%%%%%%%%%%%%%%%%%%%%%%%%%%%%%%%%%%%%%%%++++++++++++++++++++.......                                                                                                                                                     ",
"                                                                                                                                                                                                    OOOOOOO%%%%%%+++++++%%%%%%%+++++++%%%%%%&&&&&&&&&&&&&&&&&&&&&&&&&&&%%%%%%%%%%%%%%%%%%%%%%%%%%%%%%%%%%%%%%%%%%%%%%%%%%%%%%%%%%%%%++++++++++++++++++++.......                                                                                                                                                     ",
"                                                                                                                                                                                                    OOOOOOO%%%%%%+++++++%%%%%%%+++++++%%%%%%&&&&&&&&&&&&&&&&&&&&&&&&&&&%%%%%%%%%%%%%%%%%%%%%%%%%%%%%%%%%%%%%%%%%%%%%%%%%%%%%%%%%%%%%++++++++++++++++++++.......                                                                                                                                                     ",
"                                                                                                                                                                                                    OOOOOOO%%%%%%+++++++%%%%%%%+++++++%%%%%%&&&&&&&&&&&&&&&&&&&&&&&&&&&%%%%%%%%%%%%%%%%%%%%%%%%%%%%%%%%%%%%%%%%%%%%%%%%%%%%%%%%%%%%%++++++++++++++++++++.......                                                                                                                                                     ",
"                                                                                                                                                                                                    OOOOOOO%%%%%%+++++++%%%%%%%+++++++%%%%%%&&&&&&&&&&&&&&&&&&&&&&&&&&&%%%%%%%%%%%%%%%%%%%%%%%%%%%%%%%%%%%%%%%%%%%%%%%%%%%%%%%%%%%%%++++++++++++++++++++.......                                                                                                                                                     ",
"                                                                                                                                                                                                    .......++++++%%%%%%%+++++++%%%%%%%%%%%%%%%%%%%%&&&&&&&&&&&&&&&&&&&&&&&&&&&%%%%%%%%%%%%%%%%%%%%%%%%%%%%%%%%%%%%%%%%%%%%%%%%%%%%%%+++++++++++++++++++++++++++.......                                                                                                                                              ",
"                                                                                                                                                                                                    .......++++++%%%%%%%+++++++%%%%%%%%%%%%%%%%%%%%&&&&&&&&&&&&&&&&&&&&&&&&&&&%%%%%%%%%%%%%%%%%%%%%%%%%%%%%%%%%%%%%%%%%%%%%%%%%%%%%%+++++++++++++++++++++++++++.......                                                                                                                                              ",
"                                                                                                                                                                                                    .......++++++%%%%%%%+++++++%%%%%%%%%%%%%%%%%%%%&&&&&&&&&&&&&&&&&&&&&&&&&&&%%%%%%%%%%%%%%%%%%%%%%%%%%%%%%%%%%%%%%%%%%%%%%%%%%%%%%+++++++++++++++++++++++++++.......                                                                                                                                              ",
"                                                                                                                                                                                                    .......++++++%%%%%%%+++++++%%%%%%%%%%%%%%%%%%%%&&&&&&&&&&&&&&&&&&&&&&&&&&&%%%%%%%%%%%%%%%%%%%%%%%%%%%%%%%%%%%%%%%%%%%%%%%%%%%%%%+++++++++++++++++++++++++++.......                                                                                                                                              ",
"                                                                                                                                                                                                    .......++++++%%%%%%%+++++++%%%%%%%%%%%%%%%%%%%%&&&&&&&&&&&&&&&&&&&&&&&&&&&%%%%%%%%%%%%%%%%%%%%%%%%%%%%%%%%%%%%%%%%%%%%%%%%%%%%%%+++++++++++++++++++++++++++.......                                                                                                                                              ",
"                                                                                                                                                                                                    .......++++++%%%%%%%+++++++%%%%%%%%%%%%%%%%%%%%&&&&&&&&&&&&&&&&&&&&&&&&&&&%%%%%%%%%%%%%%%%%%%%%%%%%%%%%%%%%%%%%%%%%%%%%%%%%%%%%%+++++++++++++++++++++++++++.......                                                                                                                                              ",
"                                                                                                                                                                                             .......+++++++++++++-------+++++++%%%%%%%%%%%%%%%%%%%%%%%%%%%%%%%%%%%%%%%%%%%%%%%%%%%%%%%%%%%%%+++++++++++++%%%%%%%%%%%%%%++++++++++++++++++++++++++++++++++++++++.......                                        ..............             ..............                                                             ",
"                                                                                                                                                                                             .......+++++++++++++-------+++++++%%%%%%%%%%%%%%%%%%%%%%%%%%%%%%%%%%%%%%%%%%%%%%%%%%%%%%%%%%%%%+++++++++++++%%%%%%%%%%%%%%++++++++++++++++++++++++++++++++++++++++.......                                        ..............             ..............                                                             ",
"                                                                                                                                                                                             .......+++++++++++++-------+++++++%%%%%%%%%%%%%%%%%%%%%%%%%%%%%%%%%%%%%%%%%%%%%%%%%%%%%%%%%%%%%+++++++++++++%%%%%%%%%%%%%%++++++++++++++++++++++++++++++++++++++++.......                                        ..............             ..............                                                             ",
"                                                                                                                                                                                             .......+++++++++++++-------+++++++%%%%%%%%%%%%%%%%%%%%%%%%%%%%%%%%%%%%%%%%%%%%%%%%%%%%%%%%%%%%%+++++++++++++%%%%%%%%%%%%%%++++++++++++++++++++++++++++++++++++++++.......                                        ..............             ..............                                                             ",
"                                                                                                                                                                                             .......+++++++++++++-------+++++++%%%%%%%%%%%%%%%%%%%%%%%%%%%%%%%%%%%%%%%%%%%%%%%%%%%%%%%%%%%%%+++++++++++++%%%%%%%%%%%%%%++++++++++++++++++++++++++++++++++++++++.......                                        ..............             ..............                                                             ",
"                                                                                                                                                                                             .......+++++++++++++-------+++++++%%%%%%%%%%%%%%%%%%%%%%%%%%%%%%%%%%%%%%%%%%%%%%%%%%%%%%%%%%%%%+++++++++++++%%%%%%%%%%%%%%++++++++++++++++++++++++++++++++++++++++.......                                        ..............             ..............                                                             ",
"                                                                                                                                                                                             .......+++++++++++++-------+++++++%%%%%%%%%%%%%%%%%%%%%%%%%%%%%%%%%%%%%%%%%%%%%%%%%%%%%%%%%%%%%+++++++++++++%%%%%%%%%%%%%%++++++++++++++++++++++++++++++++++++++++.......                                        ..............             ..............                                                             ",
"                                                                                                                                                                                      .......++++++++++++++-------------*******+++++++%%%%%%%%%%%%%%%%%%%%%%%%%%%%%%%%%%%%%%%%++++++++++++++------*******+++++++++++++++++++++++++++++++++++++++++++++++++++++++++++++.......                                 .....................      :::::::..............                                                      ",
"                                                                                                                                                                                      .......++++++++++++++-------------*******+++++++%%%%%%%%%%%%%%%%%%%%%%%%%%%%%%%%%%%%%%%%++++++++++++++------*******+++++++++++++++++++++++++++++++++++++++++++++++++++++++++++++.......                                 .....................      :::::::..............                                                      ",
"                                                                                                                                                                                      .......++++++++++++++-------------*******+++++++%%%%%%%%%%%%%%%%%%%%%%%%%%%%%%%%%%%%%%%%++++++++++++++------*******+++++++++++++++++++++++++++++++++++++++++++++++++++++++++++++.......                                 .....................      :::::::..............                                                      ",
"                                                                                                                                                                                      .......++++++++++++++-------------*******+++++++%%%%%%%%%%%%%%%%%%%%%%%%%%%%%%%%%%%%%%%%++++++++++++++------*******+++++++++++++++++++++++++++++++++++++++++++++++++++++++++++++.......                                 .....................      :::::::..............                                                      ",
"                                                                                                                                                                                      .......++++++++++++++-------------*******+++++++%%%%%%%%%%%%%%%%%%%%%%%%%%%%%%%%%%%%%%%%++++++++++++++------*******+++++++++++++++++++++++++++++++++++++++++++++++++++++++++++++.......                                 .....................      :::::::..............                                                      ",
"                                                                                                                                                                                      .......++++++++++++++-------------*******+++++++%%%%%%%%%%%%%%%%%%%%%%%%%%%%%%%%%%%%%%%%++++++++++++++------*******+++++++++++++++++++++++++++++++++++++++++++++++++++++++++++++.......                                 .....................      :::::::..............                                                      ",
"                                                                                                                                                                                      .......++++++++++++++-------------*******+++++++%%%%%%%%%%%%%%%%%%%%%%%%%%%%%%%%%%%%%%%%++++++++++++++------*******+++++++++++++++++++++++++++++++++++++++++++++++++++++++++++++.......                                 .....................      :::::::..............                                                      ",
"                                                                                                                                                                                      .......+++++++*******---------------------------++++++%%%%%%%%%%%%%%%%%%%%%%%%%%%+++++++--------------------*******OOOOOOOOOOOOOO+++++++++++++++++++++++++++++++++++++++++++++++.......                           ....................OOOOOOO.............:::::::.......                                                      ",
"                                                                                                                                                                                      .......+++++++*******---------------------------++++++%%%%%%%%%%%%%%%%%%%%%%%%%%%+++++++--------------------*******OOOOOOOOOOOOOO+++++++++++++++++++++++++++++++++++++++++++++++.......                           ....................OOOOOOO.............:::::::.......                                                      ",
"                                                                                                                                                                                      .......+++++++*******---------------------------++++++%%%%%%%%%%%%%%%%%%%%%%%%%%%+++++++--------------------*******OOOOOOOOOOOOOO+++++++++++++++++++++++++++++++++++++++++++++++.......                           ....................OOOOOOO.............:::::::.......                                                      ",
"                                                                                                                                                                                      .......+++++++*******---------------------------++++++%%%%%%%%%%%%%%%%%%%%%%%%%%%+++++++--------------------*******OOOOOOOOOOOOOO+++++++++++++++++++++++++++++++++++++++++++++++.......                           ....................OOOOOOO.............:::::::.......                                                      ",
"                                                                                                                                                                                      .......+++++++*******---------------------------++++++%%%%%%%%%%%%%%%%%%%%%%%%%%%+++++++--------------------*******OOOOOOOOOOOOOO+++++++++++++++++++++++++++++++++++++++++++++++.......                           ....................OOOOOOO.............:::::::.......                                                      ",
"                                                                                                                                                                                      .......+++++++*******---------------------------++++++%%%%%%%%%%%%%%%%%%%%%%%%%%%+++++++--------------------*******OOOOOOOOOOOOOO+++++++++++++++++++++++++++++++++++++++++++++++.......                           ....................OOOOOOO.............:::::::.......                                                      ",
"                                                                                                                                                                                      .......+++++++*******---------------------------++++++%%%%%%%%%%%%%%%%%%%%%%%%%%%+++++++--------------------*******OOOOOOOOOOOOOO+++++++++++++++++++++++++++++++++++++++++++++++.......                           ....................OOOOOOO.............:::::::.......                                                      ",
"                                                                                                                                                                                      .......+++++++----------------------------------------++++++++++++++*******++++++-----------------------------------------*******OOOOOO++++++++++++++++++++++++++++++++++++++++++++++++......              ....................%%%%%%%%%%%%%%%%%%%%.......:::::::..............                                               ",
"                                                                                                                                                                                      .......+++++++----------------------------------------++++++++++++++*******++++++-----------------------------------------*******OOOOOO++++++++++++++++++++++++++++++++++++++++++++++++......              ....................%%%%%%%%%%%%%%%%%%%%.......:::::::..............                                               ",
"                                                                                                                                                                                      .......+++++++----------------------------------------++++++++++++++*******++++++-----------------------------------------*******OOOOOO++++++++++++++++++++++++++++++++++++++++++++++++......              ....................%%%%%%%%%%%%%%%%%%%%.......:::::::..............                                               ",
"                                                                                                                                                                                      .......+++++++----------------------------------------++++++++++++++*******++++++-----------------------------------------*******OOOOOO++++++++++++++++++++++++++++++++++++++++++++++++......              ....................%%%%%%%%%%%%%%%%%%%%.......:::::::..............                                               ",
"                                                                                                                                                                                      .......+++++++----------------------------------------++++++++++++++*******++++++-----------------------------------------*******OOOOOO++++++++++++++++++++++++++++++++++++++++++++++++......              ....................%%%%%%%%%%%%%%%%%%%%.......:::::::..............                                               ",
"                                                                                                                                                                                      .......+++++++----------------------------------------++++++++++++++*******++++++-----------------------------------------*******OOOOOO++++++++++++++++++++++++++++++++++++++++++++++++......              ....................%%%%%%%%%%%%%%%%%%%%.......:::::::..............                                               ",
"                                                                                                                                                                                      .......*******-------------------------------------------------------------------------------------------------------------------------OOOOOOO+++++++++++++++++++++++++++++++++++++++++....................:::::::%%%%%%%%%%%%%%%%%%%%%%%%%%%%%%%%%+++++++OOOOOOOOOOOOOO.............                                         ",
"                                                                                                                                                                                      .......*******-------------------------------------------------------------------------------------------------------------------------OOOOOOO+++++++++++++++++++++++++++++++++++++++++....................:::::::%%%%%%%%%%%%%%%%%%%%%%%%%%%%%%%%%+++++++OOOOOOOOOOOOOO.............                                         ",
"                                                                                                                                                                                      .......*******-------------------------------------------------------------------------------------------------------------------------OOOOOOO+++++++++++++++++++++++++++++++++++++++++....................:::::::%%%%%%%%%%%%%%%%%%%%%%%%%%%%%%%%%+++++++OOOOOOOOOOOOOO.............                                         ",
"                                                                                                                                                                                      .......*******-------------------------------------------------------------------------------------------------------------------------OOOOOOO+++++++++++++++++++++++++++++++++++++++++....................:::::::%%%%%%%%%%%%%%%%%%%%%%%%%%%%%%%%%+++++++OOOOOOOOOOOOOO.............                                         ",
"                                                                                                                                                                                      .......*******-------------------------------------------------------------------------------------------------------------------------OOOOOOO+++++++++++++++++++++++++++++++++++++++++....................:::::::%%%%%%%%%%%%%%%%%%%%%%%%%%%%%%%%%+++++++OOOOOOOOOOOOOO.............                                         ",
"                                                                                                                                                                                      .......*******-------------------------------------------------------------------------------------------------------------------------OOOOOOO+++++++++++++++++++++++++++++++++++++++++....................:::::::%%%%%%%%%%%%%%%%%%%%%%%%%%%%%%%%%+++++++OOOOOOOOOOOOOO.............                                         ",
"                                                                                                                                                                                      .......*******-------------------------------------------------------------------------------------------------------------------------OOOOOOO+++++++++++++++++++++++++++++++++++++++++....................:::::::%%%%%%%%%%%%%%%%%%%%%%%%%%%%%%%%%+++++++OOOOOOOOOOOOOO.............                                         ",
"                                                                                                                         ..............                                        .......+++++++---------------------------------------------------------------------------------------------------------------------------------------OOOOOOO++++++++++++++++++++++++++++++++++++++++       ..............%%%%%%%%%%%%%%%%%%%%%%%%%%%%%%%%%+++++++..............OOOOOOO......                                         ",
"                                                                                                                         ..............                                        .......+++++++---------------------------------------------------------------------------------------------------------------------------------------OOOOOOO++++++++++++++++++++++++++++++++++++++++       ..............%%%%%%%%%%%%%%%%%%%%%%%%%%%%%%%%%+++++++..............OOOOOOO......                                         ",
"                                                                                                                         ..............                                        .......+++++++---------------------------------------------------------------------------------------------------------------------------------------OOOOOOO++++++++++++++++++++++++++++++++++++++++       ..............%%%%%%%%%%%%%%%%%%%%%%%%%%%%%%%%%+++++++..............OOOOOOO......                                         ",
"                                                                                                                         ..............                                        .......+++++++---------------------------------------------------------------------------------------------------------------------------------------OOOOOOO++++++++++++++++++++++++++++++++++++++++       ..............%%%%%%%%%%%%%%%%%%%%%%%%%%%%%%%%%+++++++..............OOOOOOO......                                         ",
"                                                                                                                         ..............                                        .......+++++++---------------------------------------------------------------------------------------------------------------------------------------OOOOOOO++++++++++++++++++++++++++++++++++++++++       ..............%%%%%%%%%%%%%%%%%%%%%%%%%%%%%%%%%+++++++..............OOOOOOO......                                         ",
"                                                                                                                         ..............                                        .......+++++++---------------------------------------------------------------------------------------------------------------------------------------OOOOOOO++++++++++++++++++++++++++++++++++++++++       ..............%%%%%%%%%%%%%%%%%%%%%%%%%%%%%%%%%+++++++..............OOOOOOO......                                         ",
"                                                                                                                         ..............                                        .......+++++++---------------------------------------------------------------------------------------------------------------------------------------OOOOOOO++++++++++++++++++++++++++++++++++++++++       ..............%%%%%%%%%%%%%%%%%%%%%%%%%%%%%%%%%+++++++..............OOOOOOO......                                         ",
"                                                                                                                   ......:::::::.......       .............              ......+++++++@@@@@@@...........................-----------------------------------------------------------------------------------------------------*******OOOOOOO++++++++++++++++++++++++++++++++++......              %%%%%%%%%%%%%%%%%%%%%%%%%%%%%%%%%%++++++.....................OOOOOOO                                               ",
"                                                                                                                   ......:::::::.......       .............              ......+++++++@@@@@@@...........................-----------------------------------------------------------------------------------------------------*******OOOOOOO++++++++++++++++++++++++++++++++++......              %%%%%%%%%%%%%%%%%%%%%%%%%%%%%%%%%%++++++.....................OOOOOOO                                               ",
"                                                                                                                   ......:::::::.......       .............              ......+++++++@@@@@@@...........................-----------------------------------------------------------------------------------------------------*******OOOOOOO++++++++++++++++++++++++++++++++++......              %%%%%%%%%%%%%%%%%%%%%%%%%%%%%%%%%%++++++.....................OOOOOOO                                               ",
"                                                                                                                   ......:::::::.......       .............              ......+++++++@@@@@@@...........................-----------------------------------------------------------------------------------------------------*******OOOOOOO++++++++++++++++++++++++++++++++++......              %%%%%%%%%%%%%%%%%%%%%%%%%%%%%%%%%%++++++.....................OOOOOOO                                               ",
"                                                                                                                   ......:::::::.......       .............              ......+++++++@@@@@@@...........................-----------------------------------------------------------------------------------------------------*******OOOOOOO++++++++++++++++++++++++++++++++++......              %%%%%%%%%%%%%%%%%%%%%%%%%%%%%%%%%%++++++.....................OOOOOOO                                               ",
"                                                                                                                   ......:::::::.......       .............              ......+++++++@@@@@@@...........................-----------------------------------------------------------------------------------------------------*******OOOOOOO++++++++++++++++++++++++++++++++++......              %%%%%%%%%%%%%%%%%%%%%%%%%%%%%%%%%%++++++.....................OOOOOOO                                               ",
"                                                                                                                   ......:::::::.......       .............              ......+++++++@@@@@@@...........................-----------------------------------------------------------------------------------------------------*******OOOOOOO++++++++++++++++++++++++++++++++++......              %%%%%%%%%%%%%%%%%%%%%%%%%%%%%%%%%%++++++.....................OOOOOOO                                               ",
"                                                                                                            .............OOOOOOO%%%%%%%%%%%%%%%%%%%%:::::::              ......+++++++---------------------------------------------------------------------------@@@@@@...........................----------------------------------OOOOOOO++++++++++++++++++++++++++++++++++......       .......%%%%%%%%%%%%%%%%%%%%%%%%%%%%%%%%%%++++++++++++++++++++++++++++++++++......                                         ",
"                                                                                                            .............OOOOOOO%%%%%%%%%%%%%%%%%%%%:::::::              ......+++++++---------------------------------------------------------------------------@@@@@@...........................----------------------------------OOOOOOO++++++++++++++++++++++++++++++++++......       .......%%%%%%%%%%%%%%%%%%%%%%%%%%%%%%%%%%++++++++++++++++++++++++++++++++++......                                         ",
"                                                                                                            .............OOOOOOO%%%%%%%%%%%%%%%%%%%%:::::::              ......+++++++---------------------------------------------------------------------------@@@@@@...........................----------------------------------OOOOOOO++++++++++++++++++++++++++++++++++......       .......%%%%%%%%%%%%%%%%%%%%%%%%%%%%%%%%%%++++++++++++++++++++++++++++++++++......                                         ",
"                                                                                                            .............OOOOOOO%%%%%%%%%%%%%%%%%%%%:::::::              ......+++++++---------------------------------------------------------------------------@@@@@@...........................----------------------------------OOOOOOO++++++++++++++++++++++++++++++++++......       .......%%%%%%%%%%%%%%%%%%%%%%%%%%%%%%%%%%++++++++++++++++++++++++++++++++++......                                         ",
"                                                                                                            .............OOOOOOO%%%%%%%%%%%%%%%%%%%%:::::::              ......+++++++---------------------------------------------------------------------------@@@@@@...........................----------------------------------OOOOOOO++++++++++++++++++++++++++++++++++......       .......%%%%%%%%%%%%%%%%%%%%%%%%%%%%%%%%%%++++++++++++++++++++++++++++++++++......                                         ",
"                                                                                                            .............OOOOOOO%%%%%%%%%%%%%%%%%%%%:::::::              ......+++++++---------------------------------------------------------------------------@@@@@@...........................----------------------------------OOOOOOO++++++++++++++++++++++++++++++++++......       .......%%%%%%%%%%%%%%%%%%%%%%%%%%%%%%%%%%++++++++++++++++++++++++++++++++++......                                         ",
"                                                                                                     .......:::::::OOOOOO%%%%%%%%%%%%%%%%%%%%%%%%%%%...........................+++++++------------------------------------------------------------------------------------------------------------.......@@@@@@@--------------------OOOOOOO++++++++++++++++++++++++++++++++++....................%%%%%%%%%%%%%%%%%%%%%%%%%%%%%%%%%%++++++++++++++++++++++++++++++++++                                               ",
"                                                                                                     .......:::::::OOOOOO%%%%%%%%%%%%%%%%%%%%%%%%%%%...........................+++++++------------------------------------------------------------------------------------------------------------.......@@@@@@@--------------------OOOOOOO++++++++++++++++++++++++++++++++++....................%%%%%%%%%%%%%%%%%%%%%%%%%%%%%%%%%%++++++++++++++++++++++++++++++++++                                               ",
"                                                                                                     .......:::::::OOOOOO%%%%%%%%%%%%%%%%%%%%%%%%%%%...........................+++++++------------------------------------------------------------------------------------------------------------.......@@@@@@@--------------------OOOOOOO++++++++++++++++++++++++++++++++++....................%%%%%%%%%%%%%%%%%%%%%%%%%%%%%%%%%%++++++++++++++++++++++++++++++++++                                               ",
"                                                                                                     .......:::::::OOOOOO%%%%%%%%%%%%%%%%%%%%%%%%%%%...........................+++++++------------------------------------------------------------------------------------------------------------.......@@@@@@@--------------------OOOOOOO++++++++++++++++++++++++++++++++++....................%%%%%%%%%%%%%%%%%%%%%%%%%%%%%%%%%%++++++++++++++++++++++++++++++++++                                               ",
"                                                                                                     .......:::::::OOOOOO%%%%%%%%%%%%%%%%%%%%%%%%%%%...........................+++++++------------------------------------------------------------------------------------------------------------.......@@@@@@@--------------------OOOOOOO++++++++++++++++++++++++++++++++++....................%%%%%%%%%%%%%%%%%%%%%%%%%%%%%%%%%%++++++++++++++++++++++++++++++++++                                               ",
"                                                                                                     .......:::::::OOOOOO%%%%%%%%%%%%%%%%%%%%%%%%%%%...........................+++++++------------------------------------------------------------------------------------------------------------.......@@@@@@@--------------------OOOOOOO++++++++++++++++++++++++++++++++++....................%%%%%%%%%%%%%%%%%%%%%%%%%%%%%%%%%%++++++++++++++++++++++++++++++++++                                               ",
"                                                                                                     .......:::::::OOOOOO%%%%%%%%%%%%%%%%%%%%%%%%%%%...........................+++++++------------------------------------------------------------------------------------------------------------.......@@@@@@@--------------------OOOOOOO++++++++++++++++++++++++++++++++++....................%%%%%%%%%%%%%%%%%%%%%%%%%%%%%%%%%%++++++++++++++++++++++++++++++++++                                               ",
"                                                                                              .......OOOOOOOOOOOOOO%%%%%%%%%%%%%%%%%%%%%%%%%%%%%%%%%:::::::....................+++++++------------------------------------------------....................--------------------------------------------------------------------------*******OOOOOOO+++++++++++++++++++++++++++++++++.......%%%%%%%%%%%%%%%%%%%%%%%%%%%%%%%%%%%%%%%%%++++++++++++++++++++++++++++++++++......                                         ",
"                                                                                              .......OOOOOOOOOOOOOO%%%%%%%%%%%%%%%%%%%%%%%%%%%%%%%%%:::::::....................+++++++------------------------------------------------....................--------------------------------------------------------------------------*******OOOOOOO+++++++++++++++++++++++++++++++++.......%%%%%%%%%%%%%%%%%%%%%%%%%%%%%%%%%%%%%%%%%++++++++++++++++++++++++++++++++++......                                         ",
"                                                                                              .......OOOOOOOOOOOOOO%%%%%%%%%%%%%%%%%%%%%%%%%%%%%%%%%:::::::....................+++++++------------------------------------------------....................--------------------------------------------------------------------------*******OOOOOOO+++++++++++++++++++++++++++++++++.......%%%%%%%%%%%%%%%%%%%%%%%%%%%%%%%%%%%%%%%%%++++++++++++++++++++++++++++++++++......                                         ",
"                                                                                              .......OOOOOOOOOOOOOO%%%%%%%%%%%%%%%%%%%%%%%%%%%%%%%%%:::::::....................+++++++------------------------------------------------....................--------------------------------------------------------------------------*******OOOOOOO+++++++++++++++++++++++++++++++++.......%%%%%%%%%%%%%%%%%%%%%%%%%%%%%%%%%%%%%%%%%++++++++++++++++++++++++++++++++++......                                         ",
"                                                                                              .......OOOOOOOOOOOOOO%%%%%%%%%%%%%%%%%%%%%%%%%%%%%%%%%:::::::....................+++++++------------------------------------------------....................--------------------------------------------------------------------------*******OOOOOOO+++++++++++++++++++++++++++++++++.......%%%%%%%%%%%%%%%%%%%%%%%%%%%%%%%%%%%%%%%%%++++++++++++++++++++++++++++++++++......                                         ",
"                                                                                              .......OOOOOOOOOOOOOO%%%%%%%%%%%%%%%%%%%%%%%%%%%%%%%%%:::::::....................+++++++------------------------------------------------....................--------------------------------------------------------------------------*******OOOOOOO+++++++++++++++++++++++++++++++++.......%%%%%%%%%%%%%%%%%%%%%%%%%%%%%%%%%%%%%%%%%++++++++++++++++++++++++++++++++++......                                         ",
"                                                                                              .......OOOOOOOOOOOOOO%%%%%%%%%%%%%%%%%%%%%%%%%%%%%%%%%:::::::....................+++++++------------------------------------------------....................--------------------------------------------------------------------------*******OOOOOOO+++++++++++++++++++++++++++++++++.......%%%%%%%%%%%%%%%%%%%%%%%%%%%%%%%%%%%%%%%%%++++++++++++++++++++++++++++++++++......                                         ",
"                                                                                                     OOOOOOO:::::::++++++%%%%%%%%%%%%%%%%%%%%%%%%%%%..............             .......*******---------------------------.......####################.......---------------------------------------------------------------------------------OOOOOOO+++++++++++++++++++++++++++++++++.......%%%%%%%%%%%%%%%%%%%%%%%%%%%%%%%%%%+++++++++++++++++++++++++++++++++++++++++......                                         ",
"                                                                                                     OOOOOOO:::::::++++++%%%%%%%%%%%%%%%%%%%%%%%%%%%..............             .......*******---------------------------.......####################.......---------------------------------------------------------------------------------OOOOOOO+++++++++++++++++++++++++++++++++.......%%%%%%%%%%%%%%%%%%%%%%%%%%%%%%%%%%+++++++++++++++++++++++++++++++++++++++++......                                         ",
"                                                                                                     OOOOOOO:::::::++++++%%%%%%%%%%%%%%%%%%%%%%%%%%%..............             .......*******---------------------------.......####################.......---------------------------------------------------------------------------------OOOOOOO+++++++++++++++++++++++++++++++++.......%%%%%%%%%%%%%%%%%%%%%%%%%%%%%%%%%%+++++++++++++++++++++++++++++++++++++++++......                                         ",
"                                                                                                     OOOOOOO:::::::++++++%%%%%%%%%%%%%%%%%%%%%%%%%%%..............             .......*******---------------------------.......####################.......---------------------------------------------------------------------------------OOOOOOO+++++++++++++++++++++++++++++++++.......%%%%%%%%%%%%%%%%%%%%%%%%%%%%%%%%%%+++++++++++++++++++++++++++++++++++++++++......                                         ",
"                                                                                                     OOOOOOO:::::::++++++%%%%%%%%%%%%%%%%%%%%%%%%%%%..............             .......*******---------------------------.......####################.......---------------------------------------------------------------------------------OOOOOOO+++++++++++++++++++++++++++++++++.......%%%%%%%%%%%%%%%%%%%%%%%%%%%%%%%%%%+++++++++++++++++++++++++++++++++++++++++......                                         ",
"                                                                                                     OOOOOOO:::::::++++++%%%%%%%%%%%%%%%%%%%%%%%%%%%..............             .......*******---------------------------.......####################.......---------------------------------------------------------------------------------OOOOOOO+++++++++++++++++++++++++++++++++.......%%%%%%%%%%%%%%%%%%%%%%%%%%%%%%%%%%+++++++++++++++++++++++++++++++++++++++++......                                         ",
"                                                                                                     OOOOOOO:::::::++++++%%%%%%%%%%%%%%%%%%%%%%%%%%%..............             .......*******---------------------------.......####################.......---------------------------------------------------------------------------------OOOOOOO+++++++++++++++++++++++++++++++++.......%%%%%%%%%%%%%%%%%%%%%%%%%%%%%%%%%%+++++++++++++++++++++++++++++++++++++++++......                                         ",
"                                                                                              .......+++++++++++++++++++++++++++%%%%%%%%%%%%%%%%%%%%%%%%%%%%%%%%%%       ......+++++++----------------------------------.......###########################--------------------------------------------------------------------------OOOOOOO++++++++++++++++++++++++++++++++++.............%%%%%%%%%%%%%%%%%%%%%%%%%%%%%%%%%%+++++++++++++++++++++++++++++++++++++++++                                               ",
"                                                                                              .......+++++++++++++++++++++++++++%%%%%%%%%%%%%%%%%%%%%%%%%%%%%%%%%%       ......+++++++----------------------------------.......###########################--------------------------------------------------------------------------OOOOOOO++++++++++++++++++++++++++++++++++.............%%%%%%%%%%%%%%%%%%%%%%%%%%%%%%%%%%+++++++++++++++++++++++++++++++++++++++++                                               ",
"                                                                                              .......+++++++++++++++++++++++++++%%%%%%%%%%%%%%%%%%%%%%%%%%%%%%%%%%       ......+++++++----------------------------------.......###########################--------------------------------------------------------------------------OOOOOOO++++++++++++++++++++++++++++++++++.............%%%%%%%%%%%%%%%%%%%%%%%%%%%%%%%%%%+++++++++++++++++++++++++++++++++++++++++                                               ",
"                                                                                              .......+++++++++++++++++++++++++++%%%%%%%%%%%%%%%%%%%%%%%%%%%%%%%%%%       ......+++++++----------------------------------.......###########################--------------------------------------------------------------------------OOOOOOO++++++++++++++++++++++++++++++++++.............%%%%%%%%%%%%%%%%%%%%%%%%%%%%%%%%%%+++++++++++++++++++++++++++++++++++++++++                                               ",
"                                                                                              .......+++++++++++++++++++++++++++%%%%%%%%%%%%%%%%%%%%%%%%%%%%%%%%%%       ......+++++++----------------------------------.......###########################--------------------------------------------------------------------------OOOOOOO++++++++++++++++++++++++++++++++++.............%%%%%%%%%%%%%%%%%%%%%%%%%%%%%%%%%%+++++++++++++++++++++++++++++++++++++++++                                               ",
"                                                                                              .......+++++++++++++++++++++++++++%%%%%%%%%%%%%%%%%%%%%%%%%%%%%%%%%%       ......+++++++----------------------------------.......###########################--------------------------------------------------------------------------OOOOOOO++++++++++++++++++++++++++++++++++.............%%%%%%%%%%%%%%%%%%%%%%%%%%%%%%%%%%+++++++++++++++++++++++++++++++++++++++++                                               ",
"                                                                                              .......+++++++++++++++++++++++++++%%%%%%%%%%%%%%%%%%%%%%%%%%%%%%%%%%       ......+++++++----------------------------------.......###########################--------------------------------------------------------------------------OOOOOOO++++++++++++++++++++++++++++++++++.............%%%%%%%%%%%%%%%%%%%%%%%%%%%%%%%%%%+++++++++++++++++++++++++++++++++++++++++                                               ",
"                                                                                              +++++++++++++++++++++++++++%%%%%%%%%%%%%%%%%%%%%%%%%%%%%%%%%%OOOOOOO             .......*******--------------------@@@@@@@##################################.......------------------------------------------------------------*******OOOOOOO+++++++++++++++++++++++++++OOOOOOO++++++%%%%%%%%%%%%%%%%%%%%%%%%%%%++++++++++++++++++++++++++++++++++++++++++++++++.......                                               ",
"                                                                                              +++++++++++++++++++++++++++%%%%%%%%%%%%%%%%%%%%%%%%%%%%%%%%%%OOOOOOO             .......*******--------------------@@@@@@@##################################.......------------------------------------------------------------*******OOOOOOO+++++++++++++++++++++++++++OOOOOOO++++++%%%%%%%%%%%%%%%%%%%%%%%%%%%++++++++++++++++++++++++++++++++++++++++++++++++.......                                               ",
"                                                                                              +++++++++++++++++++++++++++%%%%%%%%%%%%%%%%%%%%%%%%%%%%%%%%%%OOOOOOO             .......*******--------------------@@@@@@@##################################.......------------------------------------------------------------*******OOOOOOO+++++++++++++++++++++++++++OOOOOOO++++++%%%%%%%%%%%%%%%%%%%%%%%%%%%++++++++++++++++++++++++++++++++++++++++++++++++.......                                               ",
"                                                                                              +++++++++++++++++++++++++++%%%%%%%%%%%%%%%%%%%%%%%%%%%%%%%%%%OOOOOOO             .......*******--------------------@@@@@@@##################################.......------------------------------------------------------------*******OOOOOOO+++++++++++++++++++++++++++OOOOOOO++++++%%%%%%%%%%%%%%%%%%%%%%%%%%%++++++++++++++++++++++++++++++++++++++++++++++++.......                                               ",
"                                                                                              +++++++++++++++++++++++++++%%%%%%%%%%%%%%%%%%%%%%%%%%%%%%%%%%OOOOOOO             .......*******--------------------@@@@@@@##################################.......------------------------------------------------------------*******OOOOOOO+++++++++++++++++++++++++++OOOOOOO++++++%%%%%%%%%%%%%%%%%%%%%%%%%%%++++++++++++++++++++++++++++++++++++++++++++++++.......                                               ",
"                                                                                              +++++++++++++++++++++++++++%%%%%%%%%%%%%%%%%%%%%%%%%%%%%%%%%%OOOOOOO             .......*******--------------------@@@@@@@##################################.......------------------------------------------------------------*******OOOOOOO+++++++++++++++++++++++++++OOOOOOO++++++%%%%%%%%%%%%%%%%%%%%%%%%%%%++++++++++++++++++++++++++++++++++++++++++++++++.......                                               ",
"                                                                                              .......+++++++++++++++++++++++++++%%%%%%%%%%%%%%%%%%%%%%%%%%%OOOOOOOOOOOOOO      .......+++++++--------------------.......@@@@@@@##################################@@@@@@------------------------------------------------------OOOOOOOOOOOOOO+++++++++++++++++++++++++++OOOOOOO......+++++++%%%%%%%+++++++++++++%%%%%%%++++++++++++++++++++++++++++++++++++++++++++++++......                                         ",
"                                                                                              .......+++++++++++++++++++++++++++%%%%%%%%%%%%%%%%%%%%%%%%%%%OOOOOOOOOOOOOO      .......+++++++--------------------.......@@@@@@@##################################@@@@@@------------------------------------------------------OOOOOOOOOOOOOO+++++++++++++++++++++++++++OOOOOOO......+++++++%%%%%%%+++++++++++++%%%%%%%++++++++++++++++++++++++++++++++++++++++++++++++......                                         ",
"                                                                                              .......+++++++++++++++++++++++++++%%%%%%%%%%%%%%%%%%%%%%%%%%%OOOOOOOOOOOOOO      .......+++++++--------------------.......@@@@@@@##################################@@@@@@------------------------------------------------------OOOOOOOOOOOOOO+++++++++++++++++++++++++++OOOOOOO......+++++++%%%%%%%+++++++++++++%%%%%%%++++++++++++++++++++++++++++++++++++++++++++++++......                                         ",
"                                                                                              .......+++++++++++++++++++++++++++%%%%%%%%%%%%%%%%%%%%%%%%%%%OOOOOOOOOOOOOO      .......+++++++--------------------.......@@@@@@@##################################@@@@@@------------------------------------------------------OOOOOOOOOOOOOO+++++++++++++++++++++++++++OOOOOOO......+++++++%%%%%%%+++++++++++++%%%%%%%++++++++++++++++++++++++++++++++++++++++++++++++......                                         ",
"                                                                                              .......+++++++++++++++++++++++++++%%%%%%%%%%%%%%%%%%%%%%%%%%%OOOOOOOOOOOOOO      .......+++++++--------------------.......@@@@@@@##################################@@@@@@------------------------------------------------------OOOOOOOOOOOOOO+++++++++++++++++++++++++++OOOOOOO......+++++++%%%%%%%+++++++++++++%%%%%%%++++++++++++++++++++++++++++++++++++++++++++++++......                                         ",
"                                                                                              .......+++++++++++++++++++++++++++%%%%%%%%%%%%%%%%%%%%%%%%%%%OOOOOOOOOOOOOO      .......+++++++--------------------.......@@@@@@@##################################@@@@@@------------------------------------------------------OOOOOOOOOOOOOO+++++++++++++++++++++++++++OOOOOOO......+++++++%%%%%%%+++++++++++++%%%%%%%++++++++++++++++++++++++++++++++++++++++++++++++......                                         ",
"                                                                                              .......+++++++++++++++++++++++++++%%%%%%%%%%%%%%%%%%%%%%%%%%%OOOOOOOOOOOOOO      .......+++++++--------------------.......@@@@@@@##################################@@@@@@------------------------------------------------------OOOOOOOOOOOOOO+++++++++++++++++++++++++++OOOOOOO......+++++++%%%%%%%+++++++++++++%%%%%%%++++++++++++++++++++++++++++++++++++++++++++++++......                                         ",
"                                                                                              ++++++++++++++++++++++++++++++++++%%%%%%%%%%%%%%%%%%%%%%%%%%%%%%%%%%%%%%%%%             .......OOOOOOO-------------.......:::::::@@@@@@@####################@@@@@@@::::::*******-----------------------------------------******OOOOOOO+++++++++++++++++++++++++++OOOOOOO.............+++++++++++++++++++++++++++++++++++++++++++++++++++++++++++++++++++++++++++.......                                               ",
"                                                                                              ++++++++++++++++++++++++++++++++++%%%%%%%%%%%%%%%%%%%%%%%%%%%%%%%%%%%%%%%%%             .......OOOOOOO-------------.......:::::::@@@@@@@####################@@@@@@@::::::*******-----------------------------------------******OOOOOOO+++++++++++++++++++++++++++OOOOOOO.............+++++++++++++++++++++++++++++++++++++++++++++++++++++++++++++++++++++++++++.......                                               ",
"                                                                                              ++++++++++++++++++++++++++++++++++%%%%%%%%%%%%%%%%%%%%%%%%%%%%%%%%%%%%%%%%%             .......OOOOOOO-------------.......:::::::@@@@@@@####################@@@@@@@::::::*******-----------------------------------------******OOOOOOO+++++++++++++++++++++++++++OOOOOOO.............+++++++++++++++++++++++++++++++++++++++++++++++++++++++++++++++++++++++++++.......                                               ",
"                                                                                              ++++++++++++++++++++++++++++++++++%%%%%%%%%%%%%%%%%%%%%%%%%%%%%%%%%%%%%%%%%             .......OOOOOOO-------------.......:::::::@@@@@@@####################@@@@@@@::::::*******-----------------------------------------******OOOOOOO+++++++++++++++++++++++++++OOOOOOO.............+++++++++++++++++++++++++++++++++++++++++++++++++++++++++++++++++++++++++++.......                                               ",
"                                                                                              ++++++++++++++++++++++++++++++++++%%%%%%%%%%%%%%%%%%%%%%%%%%%%%%%%%%%%%%%%%             .......OOOOOOO-------------.......:::::::@@@@@@@####################@@@@@@@::::::*******-----------------------------------------******OOOOOOO+++++++++++++++++++++++++++OOOOOOO.............+++++++++++++++++++++++++++++++++++++++++++++++++++++++++++++++++++++++++++.......                                               ",
"                                                                                              ++++++++++++++++++++++++++++++++++%%%%%%%%%%%%%%%%%%%%%%%%%%%%%%%%%%%%%%%%%             .......OOOOOOO-------------.......:::::::@@@@@@@####################@@@@@@@::::::*******-----------------------------------------******OOOOOOO+++++++++++++++++++++++++++OOOOOOO.............+++++++++++++++++++++++++++++++++++++++++++++++++++++++++++++++++++++++++++.......                                               ",
"                                                                                              ++++++++++++++++++++++++++++++++++%%%%%%%%%%%%%%%%%%%%%%%%%%%%%%%%%%%%%%%%%             .......OOOOOOO-------------.......:::::::@@@@@@@####################@@@@@@@::::::*******-----------------------------------------******OOOOOOO+++++++++++++++++++++++++++OOOOOOO.............+++++++++++++++++++++++++++++++++++++++++++++++++++++++++++++++++++++++++++.......                                               ",
"                                                                                        .............+++++++++++++++++++++++++++%%%%%%%%%%%%%%%%%%%%%%%%%%%%%%%%%%OOOOOOOOOOOOO              OOOOOOOOOOOOOO------*******.......@@@@@@@.............#######.......@@@@@@*******-----------------------------------------OOOOOO++++++++++++++++++++++++++++++++++OOOOOOO++++++++++++++++++++++++++++++++++++++++++++++++++++++++++++++++++++++++++++++++++++++++.......                                               ",
"                                                                                        .............+++++++++++++++++++++++++++%%%%%%%%%%%%%%%%%%%%%%%%%%%%%%%%%%OOOOOOOOOOOOO              OOOOOOOOOOOOOO------*******.......@@@@@@@.............#######.......@@@@@@*******-----------------------------------------OOOOOO++++++++++++++++++++++++++++++++++OOOOOOO++++++++++++++++++++++++++++++++++++++++++++++++++++++++++++++++++++++++++++++++++++++++.......                                               ",
"                                                                                        .............+++++++++++++++++++++++++++%%%%%%%%%%%%%%%%%%%%%%%%%%%%%%%%%%OOOOOOOOOOOOO              OOOOOOOOOOOOOO------*******.......@@@@@@@.............#######.......@@@@@@*******-----------------------------------------OOOOOO++++++++++++++++++++++++++++++++++OOOOOOO++++++++++++++++++++++++++++++++++++++++++++++++++++++++++++++++++++++++++++++++++++++++.......                                               ",
"                                                                                        .............+++++++++++++++++++++++++++%%%%%%%%%%%%%%%%%%%%%%%%%%%%%%%%%%OOOOOOOOOOOOO              OOOOOOOOOOOOOO------*******.......@@@@@@@.............#######.......@@@@@@*******-----------------------------------------OOOOOO++++++++++++++++++++++++++++++++++OOOOOOO++++++++++++++++++++++++++++++++++++++++++++++++++++++++++++++++++++++++++++++++++++++++.......                                               ",
"                                                                                        .............+++++++++++++++++++++++++++%%%%%%%%%%%%%%%%%%%%%%%%%%%%%%%%%%OOOOOOOOOOOOO              OOOOOOOOOOOOOO------*******.......@@@@@@@.............#######.......@@@@@@*******-----------------------------------------OOOOOO++++++++++++++++++++++++++++++++++OOOOOOO++++++++++++++++++++++++++++++++++++++++++++++++++++++++++++++++++++++++++++++++++++++++.......                                               ",
"                                                                                        .............+++++++++++++++++++++++++++%%%%%%%%%%%%%%%%%%%%%%%%%%%%%%%%%%OOOOOOOOOOOOO              OOOOOOOOOOOOOO------*******.......@@@@@@@.............#######.......@@@@@@*******-----------------------------------------OOOOOO++++++++++++++++++++++++++++++++++OOOOOOO++++++++++++++++++++++++++++++++++++++++++++++++++++++++++++++++++++++++++++++++++++++++.......                                               ",
"                                                                                        .............+++++++++++++++++++++++++++%%%%%%%%%%%%%%%%%%%%%%%%%%%%%%%%%%OOOOOOOOOOOOO              OOOOOOOOOOOOOO------*******.......@@@@@@@.............#######.......@@@@@@*******-----------------------------------------OOOOOO++++++++++++++++++++++++++++++++++OOOOOOO++++++++++++++++++++++++++++++++++++++++++++++++++++++++++++++++++++++++++++++++++++++++.......                                               ",
"                                                                                              .......++++++++++++++++++++++++++++++++++%%%%%%%%%%%%%%%%%%%%%%%%%%%%%%%%%%%%%%%%                     OOOOOOO-----------------------------------------------------------------------------------------------------OOOOOOO+++++++++++++++++++++++++++++++++OOOOOOOOOOOOOO.......+++++++++++++++++++++++++++++++++++++++++++++++++++++++++++++++++++++++++++++++++.......                                               ",
"                                                                                              .......++++++++++++++++++++++++++++++++++%%%%%%%%%%%%%%%%%%%%%%%%%%%%%%%%%%%%%%%%                     OOOOOOO-----------------------------------------------------------------------------------------------------OOOOOOO+++++++++++++++++++++++++++++++++OOOOOOOOOOOOOO.......+++++++++++++++++++++++++++++++++++++++++++++++++++++++++++++++++++++++++++++++++.......                                               ",
"                                                                                              .......++++++++++++++++++++++++++++++++++%%%%%%%%%%%%%%%%%%%%%%%%%%%%%%%%%%%%%%%%                     OOOOOOO-----------------------------------------------------------------------------------------------------OOOOOOO+++++++++++++++++++++++++++++++++OOOOOOOOOOOOOO.......+++++++++++++++++++++++++++++++++++++++++++++++++++++++++++++++++++++++++++++++++.......                                               ",
"                                                                                              .......++++++++++++++++++++++++++++++++++%%%%%%%%%%%%%%%%%%%%%%%%%%%%%%%%%%%%%%%%                     OOOOOOO-----------------------------------------------------------------------------------------------------OOOOOOO+++++++++++++++++++++++++++++++++OOOOOOOOOOOOOO.......+++++++++++++++++++++++++++++++++++++++++++++++++++++++++++++++++++++++++++++++++.......                                               ",
"                                                                                              .......++++++++++++++++++++++++++++++++++%%%%%%%%%%%%%%%%%%%%%%%%%%%%%%%%%%%%%%%%                     OOOOOOO-----------------------------------------------------------------------------------------------------OOOOOOO+++++++++++++++++++++++++++++++++OOOOOOOOOOOOOO.......+++++++++++++++++++++++++++++++++++++++++++++++++++++++++++++++++++++++++++++++++.......                                               ",
"                                                                                              .......++++++++++++++++++++++++++++++++++%%%%%%%%%%%%%%%%%%%%%%%%%%%%%%%%%%%%%%%%                     OOOOOOO-----------------------------------------------------------------------------------------------------OOOOOOO+++++++++++++++++++++++++++++++++OOOOOOOOOOOOOO.......+++++++++++++++++++++++++++++++++++++++++++++++++++++++++++++++++++++++++++++++++.......                                               ",
"                                                                                                     ++++++++++++++++++++++++++++++++++%%%%%%%%%%%%%%%%%%%%%%%%%%%%%%%%%%%%%%%%..............       .......OOOOOO#######-======-------------------------------------------------------------------OOOOOOO+++++++++++++++++++++++++++++++++++++++++++++++OOOOOOO+++++++++++++++++++++++++++++++++++++++++++++++++++++++++++++++++++++++++++++++++++++++++++++++OOOOOOO                                               ",
"                                                                                                     ++++++++++++++++++++++++++++++++++%%%%%%%%%%%%%%%%%%%%%%%%%%%%%%%%%%%%%%%%..............       .......OOOOOO#######-====-==------------------------------------------------------------------OOOOOOO+++++++++++++++++++++++++++++++++++++++++++++++OOOOOOO+++++++++++++++++++++++++++++++++++++++++++++++++++++++++++++++++++++++++++++++++++++++++++++++OOOOOOO                                               ",
"                                                                                                     ++++++++++++++++++++++++++++++++++%%%%%%%%%%%%%%%%%%%%%%%%%%%%%%%%%%%%%%%%..............       .......OOOOOO#######-=====-=------------------------------------------------------------------OOOOOOO+++++++++++++++++++++++++++++++++++++++++++++++OOOOOOO+++++++++++++++++++++++++++++++++++++++++++++++++++++++++++++++++++++++++++++++++++++++++++++++OOOOOOO                                               ",
"                                                                                                     ++++++++++++++++++++++++++++++++++%%%%%%%%%%%%%%%%%%%%%%%%%%%%%%%%%%%%%%%%..............       .......OOOOOO#######-======-=-----------------------------------------------------------------OOOOOOO+++++++++++++++++++++++++++++++++++++++++++++++OOOOOOO+++++++++++++++++++++++++++++++++++++++++++++++++++++++++++++++++++++++++++++++++++++++++++++++OOOOOOO                                               ",
"                                                                                                     ++++++++++++++++++++++++++++++++++%%%%%%%%%%%%%%%%%%%%%%%%%%%%%%%%%%%%%%%%..............       .......OOOOOO#######-===-===------------------------------------------------------------------OOOOOOO+++++++++++++++++++++++++++++++++++++++++++++++OOOOOOO+++++++++++++++++++++++++++++++++++++++++++++++++++++++++++++++++++++++++++++++++++++++++++++++OOOOOOO                                               ",
"                                                                                                     ++++++++++++++++++++++++++++++++++%%%%%%%%%%%%%%%%%%%%%%%%%%%%%%%%%%%%%%%%..............       .......OOOOOO#######-====-=-------------------------------------------------------------------OOOOOOO+++++++++++++++++++++++++++++++++++++++++++++++OOOOOOO+++++++++++++++++++++++++++++++++++++++++++++++++++++++++++++++++++++++++++++++++++++++++++++++OOOOOOO                                               ",
"                                                                                                     ++++++++++++++++++++++++++++++++++%%%%%%%%%%%%%%%%%%%%%%%%%%%%%%%%%%%%%%%%..............       .......OOOOOO#######===-====------------------------------------------------------------------OOOOOOO+++++++++++++++++++++++++++++++++++++++++++++++OOOOOOO+++++++++++++++++++++++++++++++++++++++++++++++++++++++++++++++++++++++++++++++++++++++++++++++OOOOOOO                                               ",
"                                                                                              .......+++++++++++++++++++++++++++++++++++++++++++++++++++++++++++++++++++++++++++++++++..............--------------===-==***************************--------===-==********************#######OOOOOO++++++++++++++-------------+++++++-------OOOOOOO+++++++++++++++++++++++++++++++++++++++++++++++++++++++++++++++++++++++++++++++++++++++++++++++++++++OOOOOOO                                                      ",
"                                                                                              .......+++++++++++++++++++++++++++++++++++++++++++++++++++++++++++++++++++++++++++++++++..............--------------===-==***************************-------====-==********************#######OOOOOO++++++++++++++-------------+++++++-------OOOOOOO+++++++++++++++++++++++++++++++++++++++++++++++++++++++++++++++++++++++++++++++++++++++++++++++++++++OOOOOOO                                                      ",
"                                                                                              .......+++++++++++++++++++++++++++++++++++++++++++++++++++++++++++++++++++++++++++++++++..............--------------===-==***************************------=====-==********************#######OOOOOO++++++++++++++-------------+++++++-------OOOOOOO+++++++++++++++++++++++++++++++++++++++++++++++++++++++++++++++++++++++++++++++++++++++++++++++++++++OOOOOOO                                                      ",
"                                                                                              .......+++++++++++++++++++++++++++++++++++++++++++++++++++++++++++++++++++++++++++++++++..............--------------===-==***************************-------===-===********************#######OOOOOO++++++++++++++-------------+++++++-------OOOOOOO+++++++++++++++++++++++++++++++++++++++++++++++++++++++++++++++++++++++++++++++++++++++++++++++++++++OOOOOOO                                                      ",
"                                                                                              .......+++++++++++++++++++++++++++++++++++++++++++++++++++++++++++++++++++++++++++++++++..............--------------===-==***************************--------===-==********************#######OOOOOO++++++++++++++-------------+++++++-------OOOOOOO+++++++++++++++++++++++++++++++++++++++++++++++++++++++++++++++++++++++++++++++++++++++++++++++++++++OOOOOOO                                                      ",
"                                                                                              .......+++++++++++++++++++++++++++++++++++++++++++++++++++++++++++++++++++++++++++++++++..............--------------===-==***************************------======-=********************#######OOOOOO++++++++++++++-------------+++++++-------OOOOOOO+++++++++++++++++++++++++++++++++++++++++++++++++++++++++++++++++++++++++++++++++++++++++++++++++++++OOOOOOO                                                      ",
"                                                                                              .......+++++++++++++++++++++++++++++++++++++++++++++++++++++++++++++++++++++++++++++++++..............------------=======-***************************------========********************#######OOOOOO++++++++++++++-------------+++++++-------OOOOOOO+++++++++++++++++++++++++++++++++++++++++++++++++++++++++++++++++++++++++++++++++++++++++++++++++++++OOOOOOO                                                      ",
"                                                                                                     .......+++++++++++++++++++++++++++++++++++++++++++++++++++++++++++++++++++.......-----------------------------------===-==****************************************===-===-------------------------------------------------------------*******OOOOOO++++++++++++++++++++++++++++++++++++++++++++++++++++++++++++++++++++++++++++++++++++++++++++++++++++++                                                      ",
"                                                                                                     .......+++++++++++++++++++++++++++++++++++++++++++++++++++++++++++++++++++.......-----------------------------------===-==****************************************-===-===------------------------------------------------------------*******OOOOOO++++++++++++++++++++++++++++++++++++++++++++++++++++++++++++++++++++++++++++++++++++++++++++++++++++++                                                      ",
"                                                                                                     .......+++++++++++++++++++++++++++++++++++++++++++++++++++++++++++++++++++.......-----------------------------------===-==****************************************-===-===------------------------------------------------------------*******OOOOOO++++++++++++++++++++++++++++++++++++++++++++++++++++++++++++++++++++++++++++++++++++++++++++++++++++++                                                      ",
"                                                                                                     .......+++++++++++++++++++++++++++++++++++++++++++++++++++++++++++++++++++.......-----------------------------------===-==****************************************-===-===------------------------------------------------------------*******OOOOOO++++++++++++++++++++++++++++++++++++++++++++++++++++++++++++++++++++++++++++++++++++++++++++++++++++++                                                      ",
"                                                                                                     .......+++++++++++++++++++++++++++++++++++++++++++++++++++++++++++++++++++.......-----------------------------------===-==****************************************-===-===------------------------------------------------------------*******OOOOOO++++++++++++++++++++++++++++++++++++++++++++++++++++++++++++++++++++++++++++++++++++++++++++++++++++++                                                      ",
"                                                                                                     .......+++++++++++++++++++++++++++++++++++++++++++++++++++++++++++++++++++.......-----------------------------------===-==****************************************===-===-------------------------------------------------------------*******OOOOOO++++++++++++++++++++++++++++++++++++++++++++++++++++++++++++++++++++++++++++++++++++++++++++++++++++++                                                      ",
"                                                                                                     .......+++++++++++++++++++++++++++++++++++++++++++++++++++++++++++++++++++.......-----------------------------------===-==****************************************===-===-------------------------------------------------------------*******OOOOOO++++++++++++++++++++++++++++++++++++++++++++++++++++++++++++++++++++++++++++++++++++++++++++++++++++++                                                      ",
"                                                                                                     .......+++++++++++++++++++++++++++++++++++++++++++++++++++++++++++++......-------------------------------------------------------------**************===-===---------------------------------------------------------------------------------------OOOOOOO+++++++++++++++++++++++++++++++++++++++++++++++++++++++++++++++++++++++++++++++++++++++++++++++                                                      ",
"                                                                                                     .......+++++++++++++++++++++++++++++++++++++++++++++++++++++++++++++......-------------------------------------------------------------**************===-===---------------------------------------------------------------------------------------OOOOOOO+++++++++++++++++++++++++++++++++++++++++++++++++++++++++++++++++++++++++++++++++++++++++++++++                                                      ",
"                                                                                                     .......+++++++++++++++++++++++++++++++++++++++++++++++++++++++++++++......-------------------------------------------------------------**************====-===--------------------------------------------------------------------------------------OOOOOOO+++++++++++++++++++++++++++++++++++++++++++++++++++++++++++++++++++++++++++++++++++++++++++++++                                                      ",
"                                                                                                     .......+++++++++++++++++++++++++++++++++++++++++++++++++++++++++++++......-------------------------------------------------------------**************====-===--------------------------------------------------------------------------------------OOOOOOO+++++++++++++++++++++++++++++++++++++++++++++++++++++++++++++++++++++++++++++++++++++++++++++++                                                      ",
"                                                                                                     .......+++++++++++++++++++++++++++++++++++++++++++++++++++++++++++++......-------------------------------------------------------------**************=====-=---------------------------------------------------------------------------------------OOOOOOO+++++++++++++++++++++++++++++++++++++++++++++++++++++++++++++++++++++++++++++++++++++++++++++++                                                      ",
"                                                                                                     .......+++++++++++++++++++++++++++++++++++++++++++++++++++++++++++++......-------------------------------------------------------------**************=====-=---------------------------------------------------------------------------------------OOOOOOO+++++++++++++++++++++++++++++++++++++++++++++++++++++++++++++++++++++++++++++++++++++++++++++++                                                      ",
"                                                                                                     ..............+++++++++++++++++++++++++++++++++++++++++++++++.......--------------------------------------------------------------------------------------------------------------------------------------------------------------------------------------OOOOOOO++++++++++++++++++++++++++++++++++++++++++++++++++++++++++++++++++++++++++                                                                    ",
"                                                                                                     ..............+++++++++++++++++++++++++++++++++++++++++++++++.......--------------------------------------------------------------------------------------------------------------------------------------------------------------------------------------OOOOOOO++++++++++++++++++++++++++++++++++++++++++++++++++++++++++++++++++++++++++                                                                    ",
"                                                                                                     ..............+++++++++++++++++++++++++++++++++++++++++++++++.......--------------------------------------------------------------------------------------------------------------------------------------------------------------------------------------OOOOOOO++++++++++++++++++++++++++++++++++++++++++++++++++++++++++++++++++++++++++                                                                    ",
"                                                                                                     ..............+++++++++++++++++++++++++++++++++++++++++++++++.......--------------------------------------------------------------------------------------------------------------------------------------------------------------------------------------OOOOOOO++++++++++++++++++++++++++++++++++++++++++++++++++++++++++++++++++++++++++                                                                    ",
"                                                                                                     ..............+++++++++++++++++++++++++++++++++++++++++++++++.......--------------------------------------------------------------------------------------------------------------------------------------------------------------------------------------OOOOOOO++++++++++++++++++++++++++++++++++++++++++++++++++++++++++++++++++++++++++                                                                    ",
"                                                                                                     ..............+++++++++++++++++++++++++++++++++++++++++++++++.......--------------------------------------------------------------------------------------------------------------------------------------------------------------------------------------OOOOOOO++++++++++++++++++++++++++++++++++++++++++++++++++++++++++++++++++++++++++                                                                    ",
"                                                                                                     ..............+++++++++++++++++++++++++++++++++++++++++++++++.......--------------------------------------------------------------------------------------------------------------------------------------------------------------------------------------OOOOOOO++++++++++++++++++++++++++++++++++++++++++++++++++++++++++++++++++++++++++                                                                    ",
"                                                                                                            .......++++++++++++++++++++++++++++++++++++++++.......----------------------------------------------------------------------------------------------------------------------------------------------------------------------------------------------------OOOOOOO++++++++++++++++++++++++++++++++++++++++++++++++++++++++++++.......                                                                    ",
"                                                                                                            .......++++++++++++++++++++++++++++++++++++++++.......----------------------------------------------------------------------------------------------------------------------------------------------------------------------------------------------------OOOOOOO++++++++++++++++++++++++++++++++++++++++++++++++++++++++++++.......                                                                    ",
"                                                                                                            .......++++++++++++++++++++++++++++++++++++++++.......----------------------------------------------------------------------------------------------------------------------------------------------------------------------------------------------------OOOOOOO++++++++++++++++++++++++++++++++++++++++++++++++++++++++++++.......                                                                    ",
"                                                                                                            .......++++++++++++++++++++++++++++++++++++++++.......----------------------------------------------------------------------------------------------------------------------------------------------------------------------------------------------------OOOOOOO++++++++++++++++++++++++++++++++++++++++++++++++++++++++++++.......                                                                    ",
"                                                                                                            .......++++++++++++++++++++++++++++++++++++++++.......----------------------------------------------------------------------------------------------------------------------------------------------------------------------------------------------------OOOOOOO++++++++++++++++++++++++++++++++++++++++++++++++++++++++++++.......                                                                    ",
"                                                                                                            .......++++++++++++++++++++++++++++++++++++++++.......----------------------------------------------------------------------------------------------------------------------------------------------------------------------------------------------------OOOOOOO++++++++++++++++++++++++++++++++++++++++++++++++++++++++++++.......                                                                    ",
"                                                                                                            .......++++++++++++++++++++++++++++++++++++++++.......----------------------------------------------------------------------------------------------------------------------------------------------------------------------------------------------------OOOOOOO++++++++++++++++++++++++++++++++++++++++++++++++++++++++++++.......                                                                    ",
"                                                                                                                   ++++++++++++++++++++++++++++++++++++++++.......----------------------------------------------------------------------------------------------------------------------------------------------------------------------------------------------------OOOOOOO++++++++++++++++++++++++++++++++++++++++++++++++++++++++++++.......                                                                    ",
"                                                                                                                   ++++++++++++++++++++++++++++++++++++++++.......----------------------------------------------------------------------------------------------------------------------------------------------------------------------------------------------------OOOOOOO++++++++++++++++++++++++++++++++++++++++++++++++++++++++++++.......                                                                    ",
"                                                                                                                   ++++++++++++++++++++++++++++++++++++++++.......----------------------------------------------------------------------------------------------------------------------------------------------------------------------------------------------------OOOOOOO++++++++++++++++++++++++++++++++++++++++++++++++++++++++++++.......                                                                    ",
"                                                                                                                   ++++++++++++++++++++++++++++++++++++++++.......----------------------------------------------------------------------------------------------------------------------------------------------------------------------------------------------------OOOOOOO++++++++++++++++++++++++++++++++++++++++++++++++++++++++++++.......                                                                    ",
"                                                                                                                   ++++++++++++++++++++++++++++++++++++++++.......----------------------------------------------------------------------------------------------------------------------------------------------------------------------------------------------------OOOOOOO++++++++++++++++++++++++++++++++++++++++++++++++++++++++++++.......                                                                    ",
"                                                                                                                   ++++++++++++++++++++++++++++++++++++++++.......----------------------------------------------------------------------------------------------------------------------------------------------------------------------------------------------------OOOOOOO++++++++++++++++++++++++++++++++++++++++++++++++++++++++++++.......                                                                    ",
"                                                                                                                   ++++++++++++++++++++++++++++++++++++++++.......----------------------------------------------------------------------------------------------------------------------------------------------------------------------------------------------------OOOOOOO++++++++++++++++++++++++++++++++++++++++++++++++++++++++++++.......                                                                    ",
"                                                                                                            .......+++++++++++++++++++++++++++++++++.......-----------------------------------------------------------------------------------------------------------------------------------------------------------------------------------------------------------OOOOOOO++++++++++++++++++++++++++++++++++++++++++++++++++++++++++++OOOOOOO.......                                                             ",
"                                                                                                            .......+++++++++++++++++++++++++++++++++.......-----------------------------------------------------------------------------------------------------------------------------------------------------------------------------------------------------------OOOOOOO++++++++++++++++++++++++++++++++++++++++++++++++++++++++++++OOOOOOO.......                                                             ",
"                                                                                                            .......+++++++++++++++++++++++++++++++++.......-----------------------------------------------------------------------------------------------------------------------------------------------------------------------------------------------------------OOOOOOO++++++++++++++++++++++++++++++++++++++++++++++++++++++++++++OOOOOOO.......                                                             ",
"                                                                                                            .......+++++++++++++++++++++++++++++++++.......-----------------------------------------------------------------------------------------------------------------------------------------------------------------------------------------------------------OOOOOOO++++++++++++++++++++++++++++++++++++++++++++++++++++++++++++OOOOOOO.......                                                             ",
"                                                                                                            .......+++++++++++++++++++++++++++++++++.......-----------------------------------------------------------------------------------------------------------------------------------------------------------------------------------------------------------OOOOOOO++++++++++++++++++++++++++++++++++++++++++++++++++++++++++++OOOOOOO.......                                                             ",
"                                                                                                            .......+++++++++++++++++++++++++++++++++.......-----------------------------------------------------------------------------------------------------------------------------------------------------------------------------------------------------------OOOOOOO++++++++++++++++++++++++++++++++++++++++++++++++++++++++++++OOOOOOO.......                                                             ",
"                                                                                                                         +++++++++++++++++++++++++++.......------------------------------------------------------------------------------------------------------------------------------------------------------------------------------------------------------------------OOOOOO++++++++++++++++++++++++++++++++++++++++++++++++OOOOOO+++++++..............                                                      ",
"                                                                                                                         +++++++++++++++++++++++++++.......------------------------------------------------------------------------------------------------------------------------------------------------------------------------------------------------------------------OOOOOO++++++++++++++++++++++++++++++++++++++++++++++++OOOOOO+++++++..............                                                      ",
"                                                                                                                         +++++++++++++++++++++++++++.......------------------------------------------------------------------------------------------------------------------------------------------------------------------------------------------------------------------OOOOOO++++++++++++++++++++++++++++++++++++++++++++++++OOOOOO+++++++..............                                                      ",
"                                                                                                                         +++++++++++++++++++++++++++.......------------------------------------------------------------------------------------------------------------------------------------------------------------------------------------------------------------------OOOOOO++++++++++++++++++++++++++++++++++++++++++++++++OOOOOO+++++++..............                                                      ",
"                                                                                                                         +++++++++++++++++++++++++++.......------------------------------------------------------------------------------------------------------------------------------------------------------------------------------------------------------------------OOOOOO++++++++++++++++++++++++++++++++++++++++++++++++OOOOOO+++++++..............                                                      ",
"                                                                                                                         +++++++++++++++++++++++++++.......------------------------------------------------------------------------------------------------------------------------------------------------------------------------------------------------------------------OOOOOO++++++++++++++++++++++++++++++++++++++++++++++++OOOOOO+++++++..............                                                      ",
"                                                                                                                         +++++++++++++++++++++++++++.......------------------------------------------------------------------------------------------------------------------------------------------------------------------------------------------------------------------OOOOOO++++++++++++++++++++++++++++++++++++++++++++++++OOOOOO+++++++..............                                                      ",
"                                                                                                                                ++++++++++++++......-------------------------------------------------------------------------------------------------------------------------------------------------------------------------------------------------------------------------OOOOOO+++++++++++++++++++++++++++++++++++++++++OOOOOOOOOOOOO+++++++OOOOOOO.......                                                      ",
"                                                                                                                                ++++++++++++++......-------------------------------------------------------------------------------------------------------------------------------------------------------------------------------------------------------------------------OOOOOO+++++++++++++++++++++++++++++++++++++++++OOOOOOOOOOOOO+++++++OOOOOOO.......                                                      ",
"                                                                                                                                ++++++++++++++......-------------------------------------------------------------------------------------------------------------------------------------------------------------------------------------------------------------------------OOOOOO+++++++++++++++++++++++++++++++++++++++++OOOOOOOOOOOOO+++++++OOOOOOO.......                                                      ",
"                                                                                                                                ++++++++++++++......-------------------------------------------------------------------------------------------------------------------------------------------------------------------------------------------------------------------------OOOOOO+++++++++++++++++++++++++++++++++++++++++OOOOOOOOOOOOO+++++++OOOOOOO.......                                                      ",
"                                                                                                                                ++++++++++++++......-------------------------------------------------------------------------------------------------------------------------------------------------------------------------------------------------------------------------OOOOOO+++++++++++++++++++++++++++++++++++++++++OOOOOOOOOOOOO+++++++OOOOOOO.......                                                      ",
"                                                                                                                                ++++++++++++++......-------------------------------------------------------------------------------------------------------------------------------------------------------------------------------------------------------------------------OOOOOO+++++++++++++++++++++++++++++++++++++++++OOOOOOOOOOOOO+++++++OOOOOOO.......                                                      ",
"                                                                                                                                ++++++++++++++......-------------------------------------------------------------------------------------------------------------------------------------------------------------------------------------------------------------------------OOOOOO+++++++++++++++++++++++++++++++++++++++++OOOOOOOOOOOOO+++++++OOOOOOO.......                                                      ",
"                                                                                                                                              ......--------------------------------------------------------------------------------------------------------------------------------------------------------------------------------------------------------------------------===-=OOOOOOO+++++++++++++++++++++++++++OOOOOOOOOOOOOOOOOOOOOOOOOOOOOOOOOOOOOOOOO.......                                               ",
"                                                                                                                                              ......--------------------------------------------------------------------------------------------------------------------------------------------------------------------------------------------------------------------------===-=OOOOOOO+++++++++++++++++++++++++++OOOOOOOOOOOOOOOOOOOOOOOOOOOOOOOOOOOOOOOOO.......                                               ",
"                                                                                                                                              ......--------------------------------------------------------------------------------------------------------------------------------------------------------------------------------------------------------------------------===-=OOOOOOO+++++++++++++++++++++++++++OOOOOOOOOOOOOOOOOOOOOOOOOOOOOOOOOOOOOOOOO.......                                               ",
"                                                                                                                                              ......--------------------------------------------------------------------------------------------------------------------------------------------------------------------------------------------------------------------------===-=OOOOOOO+++++++++++++++++++++++++++OOOOOOOOOOOOOOOOOOOOOOOOOOOOOOOOOOOOOOOOO.......                                               ",
"                                                                                                                                              ......--------------------------------------------------------------------------------------------------------------------------------------------------------------------------------------------------------------------------===-=OOOOOOO+++++++++++++++++++++++++++OOOOOOOOOOOOOOOOOOOOOOOOOOOOOOOOOOOOOOOOO.......                                               ",
"                                                                                                                                              ......-------------------------------------------------------------------------------------------------------------------------------------------------------------------------------------------------------------------------====-=OOOOOOO+++++++++++++++++++++++++++OOOOOOOOOOOOOOOOOOOOOOOOOOOOOOOOOOOOOOOOO.......                                               ",
"                                                                                                                                              ......--------------------------------------------------------------------------------------------------------------------------------------------------------------------------------------------------------------------------===-=OOOOOOO+++++++++++++++++++++++++++OOOOOOOOOOOOOOOOOOOOOOOOOOOOOOOOOOOOOOOOO.......                                               ",
"                                                                                                                                       .......-------------------------------------------------------------------------------------------------------------------------------------------------------------------------------------------------------------------------------------OOOOOOO++++++++++++++++++++OOOOOOOOOOOOOOOOOOOOOOOOOOOOOOOOOOOOOOOOOOOOOOOO.......                                               ",
"                                                                                                                                       .......-------------------------------------------------------------------------------------------------------------------------------------------------------------------------------------------------------------------------------------OOOOOOO++++++++++++++++++++OOOOOOOOOOOOOOOOOOOOOOOOOOOOOOOOOOOOOOOOOOOOOOOO.......                                               ",
"                                                                                                                                       .......-------------------------------------------------------------------------------------------------------------------------------------------------------------------------------------------------------------------------------------OOOOOOO++++++++++++++++++++OOOOOOOOOOOOOOOOOOOOOOOOOOOOOOOOOOOOOOOOOOOOOOOO.......                                               ",
"                                                                                                                                       .......-------------------------------------------------------------------------------------------------------------------------------------------------------------------------------------------------------------------------------------OOOOOOO++++++++++++++++++++OOOOOOOOOOOOOOOOOOOOOOOOOOOOOOOOOOOOOOOOOOOOOOOO.......                                               ",
"                                                                                                                                       .......-------------------------------------------------------------------------------------------------------------------------------------------------------------------------------------------------------------------------------------OOOOOOO++++++++++++++++++++OOOOOOOOOOOOOOOOOOOOOOOOOOOOOOOOOOOOOOOOOOOOOOOO.......                                               ",
"                                                                                                                                       .......-------------------------------------------------------------------------------------------------------------------------------------------------------------------------------------------------------------------------------------OOOOOOO++++++++++++++++++++OOOOOOOOOOOOOOOOOOOOOOOOOOOOOOOOOOOOOOOOOOOOOOOO.......                                               ",
"                                                                                                                                       .......-------------------------------------------------------------------------------------------------------------------------------------------------------------------------------------------------------------------------------------OOOOOOO++++++++++++++++++++OOOOOOOOOOOOOOOOOOOOOOOOOOOOOOOOOOOOOOOOOOOOOOOO.......                                               ",
"                                                                                                                                       .......-------------------------------------------------------------------------------------------------------------------------------------------------------------------------------------------------------------------------------------OOOOOOO++++++++++++++++++++OOOOOOOOOOOOOOOOOOOOOOOOOOOOOOOOOOOOOOOOOOOOOOOO.......                                               ",
"                                                                                                                                       .......-------------------------------------------------------------------------------------------------------------------------------------------------------------------------------------------------------------------------------------OOOOOOO++++++++++++++++++++OOOOOOOOOOOOOOOOOOOOOOOOOOOOOOOOOOOOOOOOOOOOOOOO.......                                               ",
"                                                                                                                                       .......-------------------------------------------------------------------------------------------------------------------------------------------------------------------------------------------------------------------------------------OOOOOOO++++++++++++++++++++OOOOOOOOOOOOOOOOOOOOOOOOOOOOOOOOOOOOOOOOOOOOOOOO.......                                               ",
"                                                                                                                                       .......-------------------------------------------------------------------------------------------------------------------------------------------------------------------------------------------------------------------------------------OOOOOOO++++++++++++++++++++OOOOOOOOOOOOOOOOOOOOOOOOOOOOOOOOOOOOOOOOOOOOOOOO.......                                               ",
"                                                                                                                                       .......-------------------------------------------------------------------------------------------------------------------------------------------------------------------------------------------------------------------------------------OOOOOOO++++++++++++++++++++OOOOOOOOOOOOOOOOOOOOOOOOOOOOOOOOOOOOOOOOOOOOOOOO.......                                               ",
"                                                                                                                                       .......-------------------------------------------------------------------------------------------------------------------------------------------------------------------------------------------------------------------------------------OOOOOOO++++++++++++++++++++OOOOOOOOOOOOOOOOOOOOOOOOOOOOOOOOOOOOOOOOOOOOOOOO.......                                               ",
"                                                                                                                                       .......-------------------------------------------------------------------------------------------------------------------------------------------------------------------------------------------------------------------------------------OOOOOOO+++++++OOOOOOOOOOOOOOOOOOOOOOOOOOOOOOOOOOOOOOOOOOOOOOOOOOOOOOOOOOOOO.......                                               ",
"                                                                                                                                       .......-------------------------------------------------------------------------------------------------------------------------------------------------------------------------------------------------------------------------------------OOOOOOO+++++++OOOOOOOOOOOOOOOOOOOOOOOOOOOOOOOOOOOOOOOOOOOOOOOOOOOOOOOOOOOOO.......                                               ",
"                                                                                                                                       .......-------------------------------------------------------------------------------------------------------------------------------------------------------------------------------------------------------------------------------------OOOOOOO+++++++OOOOOOOOOOOOOOOOOOOOOOOOOOOOOOOOOOOOOOOOOOOOOOOOOOOOOOOOOOOOO.......                                               ",
"                                                                                                                                       .......-------------------------------------------------------------------------------------------------------------------------------------------------------------------------------------------------------------------------------------OOOOOOO+++++++OOOOOOOOOOOOOOOOOOOOOOOOOOOOOOOOOOOOOOOOOOOOOOOOOOOOOOOOOOOOO.......                                               ",
"                                                                                                                                       .......-------------------------------------------------------------------------------------------------------------------------------------------------------------------------------------------------------------------------------------OOOOOOO+++++++OOOOOOOOOOOOOOOOOOOOOOOOOOOOOOOOOOOOOOOOOOOOOOOOOOOOOOOOOOOOO.......                                               ",
"                                                                                                                                       .......-------------------------------------------------------------------------------------------------------------------------------------------------------------------------------------------------------------------------------------OOOOOOO+++++++OOOOOOOOOOOOOOOOOOOOOOOOOOOOOOOOOOOOOOOOOOOOOOOOOOOOOOOOOOOOO.......                                               ",
"                                                                                                                                       .......-------------------------------------------------------------------------------------------------------------------------------------------------------------------------------------------------------------------------------------OOOOOOO+++++++OOOOOOOOOOOOOOOOOOOOOOOOOOOOOOOOOOOOOOOOOOOOOOOOOOOOOOOOOOOOO.......                                               ",
"                                                                                                                                       .......--------------------------------------------------------------------------------------------------------------------------------------------------------------------------------------------------------------------------------------------OOOOOOOOOOOOOOOOOOOOOOOOOOOOOOOOOOOOOOOOOOOOOOOOOOOOOOOOOOOOOOOOOOOOOOOOOOO......                                         ",
"                                                                                                                                       .......--------------------------------------------------------------------------------------------------------------------------------------------------------------------------------------------------------------------------------------------OOOOOOOOOOOOOOOOOOOOOOOOOOOOOOOOOOOOOOOOOOOOOOOOOOOOOOOOOOOOOOOOOOOOOOOOOOO......                                         ",
"                                                                                                                                       .......--------------------------------------------------------------------------------------------------------------------------------------------------------------------------------------------------------------------------------------------OOOOOOOOOOOOOOOOOOOOOOOOOOOOOOOOOOOOOOOOOOOOOOOOOOOOOOOOOOOOOOOOOOOOOOOOOOO......                                         ",
"                                                                                                                                       .......--------------------------------------------------------------------------------------------------------------------------------------------------------------------------------------------------------------------------------------------OOOOOOOOOOOOOOOOOOOOOOOOOOOOOOOOOOOOOOOOOOOOOOOOOOOOOOOOOOOOOOOOOOOOOOOOOOO......                                         ",
"                                                                                                                                       .......--------------------------------------------------------------------------------------------------------------------------------------------------------------------------------------------------------------------------------------------OOOOOOOOOOOOOOOOOOOOOOOOOOOOOOOOOOOOOOOOOOOOOOOOOOOOOOOOOOOOOOOOOOOOOOOOOOO......                                         ",
"                                                                                                                                       .......--------------------------------------------------------------------------------------------------------------------------------------------------------------------------------------------------------------------------------------------OOOOOOOOOOOOOOOOOOOOOOOOOOOOOOOOOOOOOOOOOOOOOOOOOOOOOOOOOOOOOOOOOOOOOOOOOOO......                                         ",
"                                                                                                                                       .......--------------------------------------------------------------------------------------------------------------------------------------------------------------------------------------------------------------------------------------------OOOOOOOOOOOOOOOOOOOOOOOOOOOOOOOOOOOOOOOOOOOOOOOOOOOOOOOOOOOOOOOOOOOOOOOOOOO......                                         ",
"                                                                                                                                .......--------------------------------------------------------------------------------------------------------------------------------------------------------------------------------------------------------------------------------------------*******OOOOOOOOOOOOOOOOOOOOOOOOOOOOOOOOOOOOOOOOOOOOOOOOOOOOOOOOOOOOOOOOOOOOOOOOOOO......                                         ",
"                                                                                                                                .......--------------------------------------------------------------------------------------------------------------------------------------------------------------------------------------------------------------------------------------------*******OOOOOOOOOOOOOOOOOOOOOOOOOOOOOOOOOOOOOOOOOOOOOOOOOOOOOOOOOOOOOOOOOOOOOOOOOOO......                                         ",
"                                                                                                                                .......--------------------------------------------------------------------------------------------------------------------------------------------------------------------------------------------------------------------------------------------*******OOOOOOOOOOOOOOOOOOOOOOOOOOOOOOOOOOOOOOOOOOOOOOOOOOOOOOOOOOOOOOOOOOOOOOOOOOO......                                         ",
"                                                                                                                                .......--------------------------------------------------------------------------------------------------------------------------------------------------------------------------------------------------------------------------------------------*******OOOOOOOOOOOOOOOOOOOOOOOOOOOOOOOOOOOOOOOOOOOOOOOOOOOOOOOOOOOOOOOOOOOOOOOOOOO......                                         ",
"                                                                                                                                .......--------------------------------------------------------------------------------------------------------------------------------------------------------------------------------------------------------------------------------------------*******OOOOOOOOOOOOOOOOOOOOOOOOOOOOOOOOOOOOOOOOOOOOOOOOOOOOOOOOOOOOOOOOOOOOOOOOOOO......                                         ",
"                                                                                                                                .......--------------------------------------------------------------------------------------------------------------------------------------------------------------------------------------------------------------------------------------------*******OOOOOOOOOOOOOOOOOOOOOOOOOOOOOOOOOOOOOOOOOOOOOOOOOOOOOOOOOOOOOOOOOOOOOOOOOOO......                                         ",
"                                                                                                                                .......--------------------------------------------------------------------------------------------------------------------------------------------------------------------------------------------------------------------------------------********************OOOOOOOOOOOOOOOOOOOOOOOOOOOOOOOOOOOOOOOOOOOOOOOOOOOOOOOOOOOOOOOOOOOO......                                         ",
"                                                                                                                                .......--------------------------------------------------------------------------------------------------------------------------------------------------------------------------------------------------------------------------------------********************OOOOOOOOOOOOOOOOOOOOOOOOOOOOOOOOOOOOOOOOOOOOOOOOOOOOOOOOOOOOOOOOOOOO......                                         ",
"                                                                                                                                .......--------------------------------------------------------------------------------------------------------------------------------------------------------------------------------------------------------------------------------------********************OOOOOOOOOOOOOOOOOOOOOOOOOOOOOOOOOOOOOOOOOOOOOOOOOOOOOOOOOOOOOOOOOOOO......                                         ",
"                                                                                                                                .......--------------------------------------------------------------------------------------------------------------------------------------------------------------------------------------------------------------------------------------********************OOOOOOOOOOOOOOOOOOOOOOOOOOOOOOOOOOOOOOOOOOOOOOOOOOOOOOOOOOOOOOOOOOOO......                                         ",
"                                                                                                                                .......--------------------------------------------------------------------------------------------------------------------------------------------------------------------------------------------------------------------------------------********************OOOOOOOOOOOOOOOOOOOOOOOOOOOOOOOOOOOOOOOOOOOOOOOOOOOOOOOOOOOOOOOOOOOO......                                         ",
"                                                                                                                                .......--------------------------------------------------------------------------------------------------------------------------------------------------------------------------------------------------------------------------------------********************OOOOOOOOOOOOOOOOOOOOOOOOOOOOOOOOOOOOOOOOOOOOOOOOOOOOOOOOOOOOOOOOOOOO......                                         ",
"                                                                                                                                .......--------------------------------------------------------------------------------------------------------------------------------------------------------------------------------------------------------------------------------------********************OOOOOOOOOOOOOOOOOOOOOOOOOOOOOOOOOOOOOOOOOOOOOOOOOOOOOOOOOOOOOOOOOOOO......                                         ",
"                                                                                                                                .......--------------------------------------------------------------------------------------------------------------------------------------------------------------------------------------------------------------------------------------********************OOOOOOOOOOOOOOOOOOOOOOOOOOOOOOOOOOOOOOOOOOOOOOOOOOOOOOOOOOOOOOOOOOOO......                                         ",
"                                                                                                                                .......--------------------------------------------------------------------------------------------------------------------------------------------------------------------------------------------------------------------------------------********************OOOOOOOOOOOOOOOOOOOOOOOOOOOOOOOOOOOOOOOOOOOOOOOOOOOOOOOOOOOOOOOOOOOO......                                         ",
"                                                                                                                                .......--------------------------------------------------------------------------------------------------------------------------------------------------------------------------------------------------------------------------------------********************OOOOOOOOOOOOOOOOOOOOOOOOOOOOOOOOOOOOOOOOOOOOOOOOOOOOOOOOOOOOOOOOOOOO......                                         ",
"                                                                                                                                .......--------------------------------------------------------------------------------------------------------------------------------------------------------------------------------------------------------------------------------------********************OOOOOOOOOOOOOOOOOOOOOOOOOOOOOOOOOOOOOOOOOOOOOOOOOOOOOOOOOOOOOOOOOOOO......                                         ",
"                                                                                                                                .......--------------------------------------------------------------------------------------------------------------------------------------------------------------------------------------------------------------------------------------********************OOOOOOOOOOOOOOOOOOOOOOOOOOOOOOOOOOOOOOOOOOOOOOOOOOOOOOOOOOOOOOOOOOOO......                                         ",
"                                                                                                                                .......--------------------------------------------------------------------------------------------------------------------------------------------------------------------------------------------------------------------------------------********************OOOOOOOOOOOOOOOOOOOOOOOOOOOOOOOOOOOOOOOOOOOOOOOOOOOOOOOOOOOOOOOOOOOO......                                         ",
"                                                                                                                                .......--------------------------------------------------------------------------------------------------------------------------------------------------------------------------------------------------------------------------------------********************OOOOOOOOOOOOOOOOOOOOOOOOOOOOOOOOOOOOOOOOOOOOOOOOOOOOOOOOOOOOOOOOOOOO......                                         ",
"                                                                                                                                .......-===-===------------------------------------------------------------------------------------------------------------------------------------------------------------------------------------------------------------------------------********************OOOOOOOOOOOOOOOOOOOOOOOOOOOOOOOOOOOOOOOOOOOOOOOOOOOOOOOOOOOOOOOOOOOO......                                         ",
"                                                                                                                                .......-===-===------------------------------------------------------------------------------------------------------------------------------------------------------------------------------------------------------------------------------********************OOOOOOOOOOOOOOOOOOOOOOOOOOOOOOOOOOOOOOOOOOOOOOOOOOOOOOOOOOOOOOOOOOOO......                                         ",
"                                                                                                                                .......-====-=-------------------------------------------------------------------------------------------------------------------------------------------------------------------------------------------------------------------------------********************OOOOOOOOOOOOOOOOOOOOOOOOOOOOOOOOOOOOOOOOOOOOOOOOOOOOOOOOOOOOOOOOOOOO......                                         ",
"                                                                                                                                .......===-===-------------------------------------------------------------------------------------------------------------------------------------------------------------------------------------------------------------------------------********************OOOOOOOOOOOOOOOOOOOOOOOOOOOOOOOOOOOOOOOOOOOOOOOOOOOOOOOOOOOOOOOOOOOO......                                         ",
"                                                                                                                                .......-===-===------------------------------------------------------------------------------------------------------------------------------------------------------------------------------------------------------------------------------********************OOOOOOOOOOOOOOOOOOOOOOOOOOOOOOOOOOOOOOOOOOOOOOOOOOOOOOOOOOOOOOOOOOOO......                                         ",
"                                                                                                                                .......========------------------------------------------------------------------------------------------------------------------------------------------------------------------------------------------------------------------------------********************OOOOOOOOOOOOOOOOOOOOOOOOOOOOOOOOOOOOOOOOOOOOOOOOOOOOOOOOOOOOOOOOOOOO......                                         ",
"                                                                                                                                .......========------------------------------------------------------------------------------------------------------------------------------------------------------------------------------------------------------------------------------********************OOOOOOOOOOOOOOOOOOOOOOOOOOOOOOOOOOOOOOOOOOOOOOOOOOOOOOOOOOOOOOOOOOOO......                                         ",
"                                                                                                                                .......========----------------------------------------------------------------------------------------------------------------------------------------------------------------------------------------------------------=============***************************OOOOOOOOOOOOOOOOOOOOOOOOOOOOOOOOOOOOOOOOOOOOOOOOOOOOOOOOOOOOOOOOOOOOOOOOOO........                                 ",
"                                                                                                                                .......=======-----------------------------------------------------------------------------------------------------------------------------------------------------------------------------------------------------------=======-=====***************************OOOOOOOOOOOOOOOOOOOOOOOOOOOOOOOOOOOOOOOOOOOOOOOOOOOOOOOOOOOOOOOOOOOOOOOOOO........                                 ",
"                                                                                                                                .......========----------------------------------------------------------------------------------------------------------------------------------------------------------------------------------------------------------=======-=====***************************OOOOOOOOOOOOOOOOOOOOOOOOOOOOOOOOOOOOOOOOOOOOOOOOOOOOOOOOOOOOOOOOOOOOOOOOOO........                                 ",
"                                                                                                                                .......========----------------------------------------------------------------------------------------------------------------------------------------------------------------------------------------------------------=======-=====***************************OOOOOOOOOOOOOOOOOOOOOOOOOOOOOOOOOOOOOOOOOOOOOOOOOOOOOOOOOOOOOOOOOOOOOOOOOO........                                 ",
"                                                                                                                                .......=======-----------------------------------------------------------------------------------------------------------------------------------------------------------------------------------------------------------=======-=====***************************OOOOOOOOOOOOOOOOOOOOOOOOOOOOOOOOOOOOOOOOOOOOOOOOOOOOOOOOOOOOOOOOOOOOOOOOOO........                                 ",
"                                                                                                                                .......=======-----------------------------------------------------------------------------------------------------------------------------------------------------------------------------------------------------------=======-=====***************************OOOOOOOOOOOOOOOOOOOOOOOOOOOOOOOOOOOOOOOOOOOOOOOOOOOOOOOOOOOOOOOOOOOOOOOOOO........                                 ",
"                                                                                                                                .......========----------------------------------------------------------------------------------------------------------------------------------------------------------------------------------------------------------=======-=====***************************OOOOOOOOOOOOOOOOOOOOOOOOOOOOOOOOOOOOOOOOOOOOOOOOOOOOOOOOOOOOOOOOOOOOOOOOOO........                                 ",
"                                                                                                                         .......*******=======-----------------------------------------------------------------------------------------------------------------------------------------------------------------------------------------------------=======-====**********************************OOOOOOOOOOOOOOOOOOOOOOOOOOOOOOOOOOOOOOOOOOOOOOOOOOOOOOOOOOOOOOOOOOOOOOOOOO........                                 ",
"                                                                                                                         .......*******=======-----------------------------------------------------------------------------------------------------------------------------------------------------------------------------------------------------=======-====**********************************OOOOOOOOOOOOOOOOOOOOOOOOOOOOOOOOOOOOOOOOOOOOOOOOOOOOOOOOOOOOOOOOOOOOOOOOOO........                                 ",
"                                                                                                                         .......*******=======-----------------------------------------------------------------------------------------------------------------------------------------------------------------------------------------------------=======-====**********************************OOOOOOOOOOOOOOOOOOOOOOOOOOOOOOOOOOOOOOOOOOOOOOOOOOOOOOOOOOOOOOOOOOOOOOOOOO........                                 ",
"                                                                                                                         .......*******========----------------------------------------------------------------------------------------------------------------------------------------------------------------------------------------------------=======-====**********************************OOOOOOOOOOOOOOOOOOOOOOOOOOOOOOOOOOOOOOOOOOOOOOOOOOOOOOOOOOOOOOOOOOOOOOOOOO........                                 ",
"                                                                                                                         .......*******=======-----------------------------------------------------------------------------------------------------------------------------------------------------------------------------------------------------=======-====**********************************OOOOOOOOOOOOOOOOOOOOOOOOOOOOOOOOOOOOOOOOOOOOOOOOOOOOOOOOOOOOOOOOOOOOOOOOOO........                                 ",
"                                                                                                                         .......*******=======-----------------------------------------------------------------------------------------------------------------------------------------------------------------------------------------------------=======-====**********************************OOOOOOOOOOOOOOOOOOOOOOOOOOOOOOOOOOOOOOOOOOOOOOOOOOOOOOOOOOOOOOOOOOOOOOOOOO........                                 ",
"                                                                                                                         .......**************=======---------------------------------------------------------------------------------------------------------------------------------------------------------------------------------------=======-====************************************************OOOOOOOOOOOOOOOOOOOOOOOOOOOOOOOOOOOOOOOOOOOOOOOOOOOOOOOOOOOOOOOOOOO........                                 ",
"                                                                                                                         .......**************=======---------------------------------------------------------------------------------------------------------------------------------------------------------------------------------------=======-====************************************************OOOOOOOOOOOOOOOOOOOOOOOOOOOOOOOOOOOOOOOOOOOOOOOOOOOOOOOOOOOOOOOOOOO........                                 ",
"                                                                                                                         .......**************=======--------------------------------------------------------------------------------------------------------------------------------------------------------------------------------------========-====************************************************OOOOOOOOOOOOOOOOOOOOOOOOOOOOOOOOOOOOOOOOOOOOOOOOOOOOOOOOOOOOOOOOOOO........                                 ",
"                                                                                                                         .......**************=======---------------------------------------------------------------------------------------------------------------------------------------------------------------------------------------=======-====************************************************OOOOOOOOOOOOOOOOOOOOOOOOOOOOOOOOOOOOOOOOOOOOOOOOOOOOOOOOOOOOOOOOOOO........                                 ",
"                                                                                                                         .......**************=======---------------------------------------------------------------------------------------------------------------------------------------------------------------------------------------=======-====************************************************OOOOOOOOOOOOOOOOOOOOOOOOOOOOOOOOOOOOOOOOOOOOOOOOOOOOOOOOOOOOOOOOOOO........                                 ",
"                                                                                                                         .......**************=======--------------------------------------------------------------------------------------------------------------------------------------------------------------------------------------========-====************************************************OOOOOOOOOOOOOOOOOOOOOOOOOOOOOOOOOOOOOOOOOOOOOOOOOOOOOOOOOOOOOOOOOOO........                                 ",
"                                                                                                                         .......**************======----------------------------------------------------------------------------------------------------------------------------------------------------------------------------------------========-===************************************************OOOOOOOOOOOOOOOOOOOOOOOOOOOOOOOOOOOOOOOOOOOOOOOOOOOOOOOOOOOOOOOOOOO........                                 ",
"                                                                                                                         .......********************=======-------------------------------------------------------------------------------------------------------------------------------------------------------------------=======-============******************************************************OOOOOOOOOOOOOOOOOOOOOOOOOOOOOOOOOOOOOOOOOOOOOOOOOOOOOOOOOOOOOOOOOOO........                                 ",
"                                                                                                                         .......********************=======-------------------------------------------------------------------------------------------------------------------------------------------------------------------=======-============******************************************************OOOOOOOOOOOOOOOOOOOOOOOOOOOOOOOOOOOOOOOOOOOOOOOOOOOOOOOOOOOOOOOOOOO........                                 ",
"                                                                                                                         .......********************========------------------------------------------------------------------------------------------------------------------------------------------------------------------========-===========******************************************************OOOOOOOOOOOOOOOOOOOOOOOOOOOOOOOOOOOOOOOOOOOOOOOOOOOOOOOOOOOOOOOOOOO........                                 ",
"                                                                                                                         .......********************========------------------------------------------------------------------------------------------------------------------------------------------------------------------=======-============******************************************************OOOOOOOOOOOOOOOOOOOOOOOOOOOOOOOOOOOOOOOOOOOOOOOOOOOOOOOOOOOOOOOOOOO........                                 ",
"                                                                                                                         .......********************========------------------------------------------------------------------------------------------------------------------------------------------------------------------========-===========******************************************************OOOOOOOOOOOOOOOOOOOOOOOOOOOOOOOOOOOOOOOOOOOOOOOOOOOOOOOOOOOOOOOOOOO........                                 ",
"                                                                                                                         .......********************========------------------------------------------------------------------------------------------------------------------------------------------------------------------=======-============******************************************************OOOOOOOOOOOOOOOOOOOOOOOOOOOOOOOOOOOOOOOOOOOOOOOOOOOOOOOOOOOOOOOOOOO........                                 ",
"                                                                                                                         .......********************=======-------------------------------------------------------------------------------------------------------------------------------------------------------------------=======-============******************************************************OOOOOOOOOOOOOOOOOOOOOOOOOOOOOOOOOOOOOOOOOOOOOOOOOOOOOOOOOOOOOOOOOOO........                                 ",
"                                                                                                                         .......********************========------------------------------------------------------------------------------------------------------------------------------------------------------------------=======-============******************************************************OOOOOOOOOOOOOOOOOOOOOOOOOOOOOOOOOOOOOOOOOOOOOOOOOOOOOOOOOOOOOOOOOOO........                                 ",
"                                                                                                                         .......********************=======-------------------------------------------------------------------------------------------------------------------------------------------------------------------=======-============******************************************************OOOOOOOOOOOOOOOOOOOOOOOOOOOOOOOOOOOOOOOOOOOOOOOOOOOOOOOOOOOOOOOOOOO........                                 ",
"                                                                                                                         .......********************=======-------------------------------------------------------------------------------------------------------------------------------------------------------------------=======-============******************************************************OOOOOOOOOOOOOOOOOOOOOOOOOOOOOOOOOOOOOOOOOOOOOOOOOOOOOOOOOOOOOOOOOOO........                                 ",
"                                                                                                                         .......********************========------------------------------------------------------------------------------------------------------------------------------------------------------------------=======-============******************************************************OOOOOOOOOOOOOOOOOOOOOOOOOOOOOOOOOOOOOOOOOOOOOOOOOOOOOOOOOOOOOOOOOOO........                                 ",
"                                                                                                                         .......********************========------------------------------------------------------------------------------------------------------------------------------------------------------------------=======-============******************************************************OOOOOOOOOOOOOOOOOOOOOOOOOOOOOOOOOOOOOOOOOOOOOOOOOOOOOOOOOOOOOOOOOOO........                                 ",
"                                                                                                                         .......********************======-------------------------------------------------------------------------------------------------------------------------------------------------------------------========-============******************************************************OOOOOOOOOOOOOOOOOOOOOOOOOOOOOOOOOOOOOOOOOOOOOOOOOOOOOOOOOOOOOOOOOOO........                                 ",
"                                                                                                                         .......********************======------------------------------------------------------------------------------------------------------------------------------------------------------------------=========-============******************************************************OOOOOOOOOOOOOOOOOOOOOOOOOOOOOOOOOOOOOOOOOOOOOOOOOOOOOOOOOOOOOOOOOOO........                                 ",
"                                                                                                                         .......***************************=======-=======---------------------------------------------------------------------------------------------------------------------------------------========-==========********************************************************************OOOOOOOOOOOOOOOOOOOOOOOOOOOOOOOOOOOOOOOOOOOOOOOOOOOOOOOOOOOOOOOOOOO........                                 ",
"                                                                                                                         .......***************************=======-=======--------------------------------------------------------------------------------------------------------------------------------------========-===========********************************************************************OOOOOOOOOOOOOOOOOOOOOOOOOOOOOOOOOOOOOOOOOOOOOOOOOOOOOOOOOOOOOOOOOOO........                                 ",
"                                                                                                                         .......***************************==========-====--------------------------------------------------------------------------------------------------------------------------------------=========-==========********************************************************************OOOOOOOOOOOOOOOOOOOOOOOOOOOOOOOOOOOOOOOOOOOOOOOOOOOOOOOOOOOOOOOOOOO........                                 ",
"                                                                                                                         .......***************************==========-====---------------------------------------------------------------------------------------------------------------------------------------=======-===========********************************************************************OOOOOOOOOOOOOOOOOOOOOOOOOOOOOOOOOOOOOOOOOOOOOOOOOOOOOOOOOOOOOOOOOOO........                                 ",
"                                                                                                                         .......***************************=======-=======---------------------------------------------------------------------------------------------------------------------------------------========-==========********************************************************************OOOOOOOOOOOOOOOOOOOOOOOOOOOOOOOOOOOOOOOOOOOOOOOOOOOOOOOOOOOOOOOOOOO........                                 ",
"                                                                                                                         .......***************************=========-====----------------------------------------------------------------------------------------------------------------------------------------=========-=========********************************************************************OOOOOOOOOOOOOOOOOOOOOOOOOOOOOOOOOOOOOOOOOOOOOOOOOOOOOOOOOOOOOOOOOOO........                                 ",
"                                                                                 .............                     .............**********************************=======-============-------------------------------------------------------------------------------------------------------=======-============-=======-===***************************************************************************OOOOOOOOOOOOOOOOOOOOOOOOOOOOOOOOOOOOOOOOOOOOOOOOOOOOOOOOOOOOOOOOOOO........                                 ",
"                                                                                 .............                     .............**********************************=======-============-=-----------------------------------------------------------------------------------------------------=======-============-========-==***************************************************************************OOOOOOOOOOOOOOOOOOOOOOOOOOOOOOOOOOOOOOOOOOOOOOOOOOOOOOOOOOOOOOOOOOO........                                 ",
"                                                                                 .............                     .............**********************************========-============------------------------------------------------------------------------------------------------------========-============-=========-***************************************************************************OOOOOOOOOOOOOOOOOOOOOOOOOOOOOOOOOOOOOOOOOOOOOOOOOOOOOOOOOOOOOOOOOOO........                                 ",
"                                                                                 .............                     .............**********************************=========-===========-----------------------------------------------------------------------------------------------------=========-============-==========***************************************************************************OOOOOOOOOOOOOOOOOOOOOOOOOOOOOOOOOOOOOOOOOOOOOOOOOOOOOOOOOOOOOOOOOOO........                                 ",
"                                                                                 .............                     .............**********************************==========-==========-----------------------------------------------------------------------------------------------------==========-============-=========***************************************************************************OOOOOOOOOOOOOOOOOOOOOOOOOOOOOOOOOOOOOOOOOOOOOOOOOOOOOOOOOOOOOOOOOOO........                                 ",
"                                                                                 .............                     .............**********************************========-============------------------------------------------------------------------------------------------------------=======-============-===========***************************************************************************OOOOOOOOOOOOOOOOOOOOOOOOOOOOOOOOOOOOOOOOOOOOOOOOOOOOOOOOOOOOOOOOOOO........                                 ",
"                                                                                 .............                     .............**********************************===========-=======--------------------------------------------------------------------------------------------------------===========-============-=======***************************************************************************OOOOOOOOOOOOOOOOOOOOOOOOOOOOOOOOOOOOOOOOOOOOOOOOOOOOOOOOOOOOOOOOOOO........                                 ",
"                                                                                 .......::::::.......       .......::::::.......*****************************************=======-============-=======-------------------------------------------------------------------=======-============-=======-=======-===**********************************......*****************************************.............OOOOOOOOOOOOOOOOOOOOOOOOOOOOOOOOOOOOOOOOOOOOOOOOOOOOOOOOOOOOO........                                 ",
"                                                                                 .......::::::.......       .......::::::.......*****************************************=======-============-=======------------------------------------------------------------------========-============-=======-========-==**********************************......*****************************************.............OOOOOOOOOOOOOOOOOOOOOOOOOOOOOOOOOOOOOOOOOOOOOOOOOOOOOOOOOOOOO........                                 ",
"                                                                                 .......::::::.......       .......::::::.......*****************************************=======-============-=======-------------------------------------------------------------------=========-============-=======-=========**********************************......*****************************************.............OOOOOOOOOOOOOOOOOOOOOOOOOOOOOOOOOOOOOOOOOOOOOOOOOOOOOOOOOOOOO........                                 ",
"                                                                                 .......::::::.......       .......::::::.......*****************************************=======-============-=======------------------------------------------------------------------========-============-=======-==========-**********************************......*****************************************.............OOOOOOOOOOOOOOOOOOOOOOOOOOOOOOOOOOOOOOOOOOOOOOOOOOOOOOOOOOOOO........                                 ",
"                                                                                 .......::::::.......       .......::::::.......*****************************************=======-============-=======-------------------------------------------------------------------=========-============-=======-=========**********************************......*****************************************.............OOOOOOOOOOOOOOOOOOOOOOOOOOOOOOOOOOOOOOOOOOOOOOOOOOOOOOOOOOOOO........                                 ",
"                                                                                 .......::::::.......       .......::::::.......*****************************************=======-============-=======-------------------------------------------------------------------========-============-=======-==========**********************************......*****************************************.............OOOOOOOOOOOOOOOOOOOOOOOOOOOOOOOOOOOOOOOOOOOOOOOOOOOOOOOOOOOOO........                                 ",
"                                                                                 .......::::::.......       .......::::::.......*****************************************========-============-======-----------------------------------------------------------------==========-============-=======-==========**********************************......*****************************************.............OOOOOOOOOOOOOOOOOOOOOOOOOOOOOOOOOOOOOOOOOOOOOOOOOOOOOOOOOOOOO........                                 ",
"                                                            ..............       .......:::::::::::::..............::::::;;;;;;;.......***********************************************========-============-=======-==============-============-=======-===============-============-=======******************************************************::::::.......***************************.......;;;;;;;......OOOOOOOOOOOOOOOOOOOOOOOOOOOOOOOOOOOOOOOOOOOOOOOOOOOOOOOOOOOOO........                                 ",
"                                                            ..............       .......:::::::::::::..............::::::;;;;;;;.......***********************************************=======-============-=======-================-============-=======-=================-============-====******************************************************::::::.......***************************.......;;;;;;;......OOOOOOOOOOOOOOOOOOOOOOOOOOOOOOOOOOOOOOOOOOOOOOOOOOOOOOOOOOOOO........                                 ",
"                                                            ..............       .......:::::::::::::..............::::::;;;;;;;.......***********************************************========-============-=======-==================-============-=======-===================-============******************************************************::::::.......***************************.......;;;;;;;......OOOOOOOOOOOOOOOOOOOOOOOOOOOOOOOOOOOOOOOOOOOOOOOOOOOOOOOOOOOOO........                                 ",
"                                                            ..............       .......:::::::::::::..............::::::;;;;;;;.......***********************************************========-============-=======-====================-============-=======-=====================-========******************************************************::::::.......***************************.......;;;;;;;......OOOOOOOOOOOOOOOOOOOOOOOOOOOOOOOOOOOOOOOOOOOOOOOOOOOOOOOOOOOOO........                                 ",
"                                                            ..............       .......:::::::::::::..............::::::;;;;;;;.......***********************************************========-============-=======-======================-============-=======-=======================-====******************************************************::::::.......***************************.......;;;;;;;......OOOOOOOOOOOOOOOOOOOOOOOOOOOOOOOOOOOOOOOOOOOOOOOOOOOOOOOOOOOOO........                                 ",
"                                                            ..............       .......:::::::::::::..............::::::;;;;;;;.......***********************************************=======-============-=======-========================-============-=======-=========================-=******************************************************::::::.......***************************.......;;;;;;;......OOOOOOOOOOOOOOOOOOOOOOOOOOOOOOOOOOOOOOOOOOOOOOOOOOOOOOOOOOOOO........                                 ",
"                                                            ..............       .......:::::::::::::..............::::::;;;;;;;.......***********************************************=======-============-=======-==========================-============-=======-=========================******************************************************::::::.......***************************.......;;;;;;;......OOOOOOOOOOOOOOOOOOOOOOOOOOOOOOOOOOOOOOOOOOOOOOOOOOOOOOOOOOOOO........                                 ",
"                                                            .......:::::::..............:::::::::::::ooooooo.......::::::;;;;;;;;;;;;;;.......*************************************************************=======-============-=======-============================-==********************************************************************.......::::::.......********************.......:::::::;;;;;;;......OOOOOOOOOOOOOOOOOOOOOOOOOOOOOOOOOOOOOOOOOOOOOOOOOOOOOOOOOOOOO........                                 ",
"                                                            .......:::::::..............:::::::::::::ooooooo.......::::::;;;;;;;;;;;;;;.......*************************************************************=======-============-=======-=============================-=********************************************************************.......::::::.......********************.......:::::::;;;;;;;......OOOOOOOOOOOOOOOOOOOOOOOOOOOOOOOOOOOOOOOOOOOOOOOOOOOOOOOOOOOOO........                                 ",
"                                                            .......:::::::..............:::::::::::::ooooooo.......::::::;;;;;;;;;;;;;;.......*************************************************************=======-============-=======-==============================-********************************************************************.......::::::.......********************.......:::::::;;;;;;;......OOOOOOOOOOOOOOOOOOOOOOOOOOOOOOOOOOOOOOOOOOOOOOOOOOOOOOOOOOOOO........                                 ",
"                                                            .......:::::::..............:::::::::::::ooooooo.......::::::;;;;;;;;;;;;;;.......*************************************************************=======-============-=======-===============================********************************************************************.......::::::.......********************.......:::::::;;;;;;;......OOOOOOOOOOOOOOOOOOOOOOOOOOOOOOOOOOOOOOOOOOOOOOOOOOOOOOOOOOOOO........                                 ",
"                                                            .......:::::::..............:::::::::::::ooooooo.......::::::;;;;;;;;;;;;;;.......*************************************************************=======-============-=======-===============================********************************************************************.......::::::.......********************.......:::::::;;;;;;;......OOOOOOOOOOOOOOOOOOOOOOOOOOOOOOOOOOOOOOOOOOOOOOOOOOOOOOOOOOOOO........                                 ",
"                                                            .......:::::::..............:::::::::::::ooooooo.......::::::;;;;;;;;;;;;;;.......*************************************************************=======-============-=======-===============================********************************************************************.......::::::.......********************.......:::::::;;;;;;;......OOOOOOOOOOOOOOOOOOOOOOOOOOOOOOOOOOOOOOOOOOOOOOOOOOOOOOOOOOOOO........                                 ",
"                                                                   .......:::::::;;;;;;;ooooooooooooo-------.......;;;;;;;;;;;;;ooooooo.............*******************************************************=======-============-=======-===============================********************************************************************.......:::::::::::::....................::::::::::::::;;;;;;;......OOOOOOOOOOOOOO.............OOOOOOOOOOOOOOOOOOOOOOOOOOOOOOOOOO........                                 ",
"                                                                   .......:::::::;;;;;;;ooooooooooooo-------.......;;;;;;;;;;;;;ooooooo.............*******************************************************=======-============-=======-===============================********************************************************************.......:::::::::::::....................::::::::::::::;;;;;;;......OOOOOOOOOOOOOO.............OOOOOOOOOOOOOOOOOOOOOOOOOOOOOOOOOO........                                 ",
"                                                                   .......:::::::;;;;;;;ooooooooooooo-------.......;;;;;;;;;;;;;ooooooo.............*******************************************************=======-============-=======-===============================********************************************************************.......:::::::::::::....................::::::::::::::;;;;;;;......OOOOOOOOOOOOOO.............OOOOOOOOOOOOOOOOOOOOOOOOOOOOOOOOOO........                                 ",
"                                                                   .......:::::::;;;;;;;ooooooooooooo-------.......;;;;;;;;;;;;;ooooooo.............*******************************************************========-============-=======-==============================********************************************************************.......:::::::::::::....................::::::::::::::;;;;;;;......OOOOOOOOOOOOOO.............OOOOOOOOOOOOOOOOOOOOOOOOOOOOOOOOOO........                                 ",
"                                                                   .......:::::::;;;;;;;ooooooooooooo-------.......;;;;;;;;;;;;;ooooooo.............*******************************************************=======-============-=======-===============================********************************************************************.......:::::::::::::....................::::::::::::::;;;;;;;......OOOOOOOOOOOOOO.............OOOOOOOOOOOOOOOOOOOOOOOOOOOOOOOOOO........                                 ",
"                                                                   .......:::::::;;;;;;;ooooooooooooo-------.......;;;;;;;;;;;;;ooooooo.............*******************************************************=========-============-=======-=============================********************************************************************.......:::::::::::::....................::::::::::::::;;;;;;;......OOOOOOOOOOOOOO.............OOOOOOOOOOOOOOOOOOOOOOOOOOOOOOOOOO........                                 ",
"                                                                   .......:::::::;;;;;;;ooooooooooooo-------.......;;;;;;;;;;;;;ooooooo.............*******************************************************=======-============-=======-===============================********************************************************************.......:::::::::::::....................::::::::::::::;;;;;;;......OOOOOOOOOOOOOO.............OOOOOOOOOOOOOOOOOOOOOOOOOOOOOOOOOO........                                 ",
"                                                                   .......:::::::.......=--------------------------ooooooooooooo.......=------******.......*************************************************************************************************************************************************************************.......:::::::::::::;;;;;;;.......*******......;;;;;;;;;;;;;;;;;;;;;....................:::::::......OOOOOOOOOOOOOOOOOOOOOOOOOOOOOOOOOO........                                 ",
"                                                                   .......:::::::.......=--------------------------ooooooooooooo.......=------******.......*************************************************************************************************************************************************************************.......:::::::::::::;;;;;;;.......*******......;;;;;;;;;;;;;;;;;;;;;....................:::::::......OOOOOOOOOOOOOOOOOOOOOOOOOOOOOOOOOO........                                 ",
"                                                                   .......:::::::.......=--------------------------ooooooooooooo.......-------******.......*************************************************************************************************************************************************************************.......:::::::::::::;;;;;;;.......*******......;;;;;;;;;;;;;;;;;;;;;....................:::::::......OOOOOOOOOOOOOOOOOOOOOOOOOOOOOOOOOO........                                 ",
"                                                                   .......:::::::.......---------------------------ooooooooooooo.......-------******.......*************************************************************************************************************************************************************************.......:::::::::::::;;;;;;;.......*******......;;;;;;;;;;;;;;;;;;;;;....................:::::::......OOOOOOOOOOOOOOOOOOOOOOOOOOOOOOOOOO........                                 ",
"                                                                   .......:::::::.......=--------------------------ooooooooooooo.......-------******.......*************************************************************************************************************************************************************************.......:::::::::::::;;;;;;;.......*******......;;;;;;;;;;;;;;;;;;;;;....................:::::::......OOOOOOOOOOOOOOOOOOOOOOOOOOOOOOOOOO........                                 ",
"                                                                   .......:::::::.......=--------------------------ooooooooooooo.......=------******.......*************************************************************************************************************************************************************************.......:::::::::::::;;;;;;;.......*******......;;;;;;;;;;;;;;;;;;;;;....................:::::::......OOOOOOOOOOOOOOOOOOOOOOOOOOOOOOOOOO........                                 ",
"                                                                   .......:::::::.......=--------------------------ooooooooooooo.......=------******.......*************************************************************************************************************************************************************************.......:::::::::::::;;;;;;;.......*******......;;;;;;;;;;;;;;;;;;;;;....................:::::::......OOOOOOOOOOOOOOOOOOOOOOOOOOOOOOOOOO........                                 ",
"                                                                   .......;;;;;;;.......------------------------------------------------------------*******.......******************************************************************************************************************************************************************.......;;;;;;;XXXXXXXXXXXXX--------------******.....................******.......::::::::::::::......OOOOOOOOOOOOOOOOOOOOOOOOOOOO......                                         ",
"                                                                   .......;;;;;;;.......=-----------------------------------------------------------*******.......******************************************************************************************************************************************************************.......;;;;;;;XXXXXXXXXXXXX--------------******.....................******.......::::::::::::::......OOOOOOOOOOOOOOOOOOOOOOOOOOOO......                                         ",
"                                                                   .......;;;;;;;.......------------------------------------------------------------*******.......******************************************************************************************************************************************************************.......;;;;;;;XXXXXXXXXXXXX--------------******.....................******.......::::::::::::::......OOOOOOOOOOOOOOOOOOOOOOOOOOOO......                                         ",
"                                                                   .......;;;;;;;.......------------------------------------------------------------*******.......******************************************************************************************************************************************************************.......;;;;;;;XXXXXXXXXXXXX--------------******.....................******.......::::::::::::::......OOOOOOOOOOOOOOOOOOOOOOOOOOOO......                                         ",
"                                                                   .......;;;;;;;.......=-----------------------------------------------------------*******.......******************************************************************************************************************************************************************.......;;;;;;;XXXXXXXXXXXXX--------------******.....................******.......::::::::::::::......OOOOOOOOOOOOOOOOOOOOOOOOOOOO......                                         ",
"                                                                   .......;;;;;;;.......------------------------------------------------------------*******.......******************************************************************************************************************************************************************.......;;;;;;;XXXXXXXXXXXXX--------------******.....................******.......::::::::::::::......OOOOOOOOOOOOOOOOOOOOOOOOOOOO......                                         ",
"                                                                   .......;;;;;;;.......------------------------------------------------------------*******.......******************************************************************************************************************************************************************.......;;;;;;;XXXXXXXXXXXXX--------------******.....................******.......::::::::::::::......OOOOOOOOOOOOOOOOOOOOOOOOOOOO......                                         ",
"                                                                          .......=-------=======-============-=======-====---------------------------------*******.......****************************************************************************************************************************************************.......*******XXXXXXX--------------------------------==========-====*************.......;;;;;;;:::::::......OOOOOOOOOOOOOOOOOOOOOOOOOOOO......                                         ",
"                                                                          .......--------========-============-=======-===---------------------------------*******.......****************************************************************************************************************************************************.......*******XXXXXXX--------------------------------===========-===*************.......;;;;;;;:::::::......OOOOOOOOOOOOOOOOOOOOOOOOOOOO......                                         ",
"                                                                          .......--------=========-============-=======-==---------------------------------*******.......****************************************************************************************************************************************************.......*******XXXXXXX---------------------------------============-=*************.......;;;;;;;:::::::......OOOOOOOOOOOOOOOOOOOOOOOOOOOO......                                         ",
"                                                                          .......--------=======-============-=======-====---------------------------------*******.......****************************************************************************************************************************************************.......*******XXXXXXX--------------------------------=============-=*************.......;;;;;;;:::::::......OOOOOOOOOOOOOOOOOOOOOOOOOOOO......                                         ",
"                                                                          .......=-----=========-============-=======-====---------------------------------*******.......****************************************************************************************************************************************************.......*******XXXXXXX---------------------------------==============*************.......;;;;;;;:::::::......OOOOOOOOOOOOOOOOOOOOOOOOOOOO......                                         ",
"                                                                          .......=-----==========-============-=======-===---------------------------------*******.......****************************************************************************************************************************************************.......*******XXXXXXX---------------------------------==============*************.......;;;;;;;:::::::......OOOOOOOOOOOOOOOOOOOOOOOOOOOO......                                         ",
"                                                                          .......=-=======-===***************************======-----------------------------======.......**********************************************************************************************************************************************......=--------------------------------==========-==========**********************************....................OOOOOOOOOOOOOOOOOOOOOOOOOOOO......                                         ",
"                                                                          .......============-***************************======----------------------------=======.......**********************************************************************************************************************************************......----------------------------------================-===**********************************....................OOOOOOOOOOOOOOOOOOOOOOOOOOOO......                                         ",
"                                                                          .......-=======-====***************************========--------------------------=======.......**********************************************************************************************************************************************......=---------------------------------===========-========**********************************....................OOOOOOOOOOOOOOOOOOOOOOOOOOOO......                                         ",
"                                                                          .......-========-===***************************========--------------------------=======.......**********************************************************************************************************************************************......=----------------------------------============-======**********************************....................OOOOOOOOOOOOOOOOOOOOOOOOOOOO......                                         ",
"                                                                          .......-=======-====***************************======-----------------------------======.......**********************************************************************************************************************************************......-----------------------------------=================-=**********************************....................OOOOOOOOOOOOOOOOOOOOOOOOOOOO......                                         ",
"                                                                          .......-=========-==***************************=======----------------------------======.......**********************************************************************************************************************************************......---------------------------------=============-=======**********************************....................OOOOOOOOOOOOOOOOOOOOOOOOOOOO......                                         ",
"                                                                          .......-========-===***************************========--------------------------=======.......**********************************************************************************************************************************************......----------------------------------==============-=====**********************************....................OOOOOOOOOOOOOOOOOOOOOOOOOOOO......                                         ",
"                                                                          .......-======****************************************========-------------=======-=====.......***************************************************************************************************************************************.......=--------------------------------=======********************************************************************......OOOOOOOOOOOOOOOOOOOOO.......                                               ",
"                                                                          .......-======****************************************========-------------========-====.......***************************************************************************************************************************************.......---------------------------------=======********************************************************************......OOOOOOOOOOOOOOOOOOOOO.......                                               ",
"                                                                          .......-======****************************************========-------------=========-===.......***************************************************************************************************************************************.......=-------=------------------------=======********************************************************************......OOOOOOOOOOOOOOOOOOOOO.......                                               ",
"                                                                          .......-======****************************************======--------------===========-==.......***************************************************************************************************************************************.......=-------=-------------------------======********************************************************************......OOOOOOOOOOOOOOOOOOOOO.......                                               ",
"                                                                          .......=======****************************************=======--------------=======-=====.......***************************************************************************************************************************************.......--------------------------------========********************************************************************......OOOOOOOOOOOOOOOOOOOOO.......                                               ",
"                                                                          .......-======****************************************=======--------------=========-===.......***************************************************************************************************************************************.......--------------------------------========********************************************************************......OOOOOOOOOOOOOOOOOOOOO.......                                               ",
"                                                                          .......-======****************************************======---------------========-====.......***************************************************************************************************************************************.......=---------------------------------======********************************************************************......OOOOOOOOOOOOOOOOOOOOO.......                                               ",
"                                                                          .......******************************************************========-===========**************......**************************************************************************************************************************.......---------------------------------=======***************************************************************************......OOOOOOOOOOOOOOOOOOOOO.......                                               ",
"                                                                          .......******************************************************========-===========**************......**************************************************************************************************************************.......=-------=--------------------------=====***************************************************************************......OOOOOOOOOOOOOOOOOOOOO.......                                               ",
"                                                                          .......******************************************************=======-============**************......**************************************************************************************************************************.......-----------------------------------=====***************************************************************************......OOOOOOOOOOOOOOOOOOOOO.......                                               ",
"                                                                          .......******************************************************=========-==========**************......**************************************************************************************************************************.......-----------------------------------=====***************************************************************************......OOOOOOOOOOOOOOOOOOOOO.......                                               ",
"                                                                          .......******************************************************=========-==========**************......**************************************************************************************************************************.......=-------=-------------------------======***************************************************************************......OOOOOOOOOOOOOOOOOOOOO.......                                               ",
"                                                                          .......******************************************************========-===========**************......**************************************************************************************************************************.......=-------=--------------------------=====***************************************************************************......OOOOOOOOOOOOOOOOOOOOO.......                                               ",
"                                                                          .......******************************************************=========-==========**************......**************************************************************************************************************************.......---------------------------------=======***************************************************************************......OOOOOOOOOOOOOOOOOOOOO.......                                               ",
"                                                                                 .......******XXXXXXXXXXXXXXXXXXXXX******************************************************......**************************************************************************************************************************.......=-------=-----------------========********************XXXXXXXXXXXXXXXXXXXX*****************************************......OOOOOOOOOOOOOOOOOOOOO.......                                               ",
"                                                                                 .......******XXXXXXXXXXXXXXXXXXXXX******************************************************......**************************************************************************************************************************.......=-------=------------------=======********************XXXXXXXXXXXXXXXXXXXX*****************************************......OOOOOOOOOOOOOOOOOOOOO.......                                               ",
"                                                                                 .......******XXXXXXXXXXXXXXXXXXXXX******************************************************......**************************************************************************************************************************.......=-------=-------------------======********************XXXXXXXXXXXXXXXXXXXX*****************************************......OOOOOOOOOOOOOOOOOOOOO.......                                               ",
"                                                                                 .......******XXXXXXXXXXXXXXXXXXXXX******************************************************......**************************************************************************************************************************.......=-------=-------------------======********************XXXXXXXXXXXXXXXXXXXX*****************************************......OOOOOOOOOOOOOOOOOOOOO.......                                               ",
"                                                                                 .......******XXXXXXXXXXXXXXXXXXXXX******************************************************......**************************************************************************************************************************.......=-------=------------------=======********************XXXXXXXXXXXXXXXXXXXX*****************************************......OOOOOOOOOOOOOOOOOOOOO.......                                               ",
"                                                                                 .......******XXXXXXXXXXXXXXXXXXXXX******************************************************......**************************************************************************************************************************.......=--------------------------=======********************XXXXXXXXXXXXXXXXXXXX*****************************************......OOOOOOOOOOOOOOOOOOOOO.......                                               ",
"                                                                                 .......XXXXXX#####################XXXXXX******************************************************.......*******************************************************************************************************************.......*******--------------------=======*************XXXXXXXXXXXXXX####################XXXXXXX***************************......OOOOOOOOOOOOOO.......                                                      ",
"                                                                                 .......XXXXXX#####################XXXXXX******************************************************.......*******************************************************************************************************************.......*******---------------------======*************XXXXXXXXXXXXXX####################XXXXXXX***************************......OOOOOOOOOOOOOO.......                                                      ",
"                                                                                 .......XXXXXX#####################XXXXXX******************************************************.......*******************************************************************************************************************.......*******--------------------=======*************XXXXXXXXXXXXXX####################XXXXXXX***************************......OOOOOOOOOOOOOO.......                                                      ",
"                                                                                 .......XXXXXX#####################XXXXXX******************************************************.......*******************************************************************************************************************.......*******--------------------=======*************XXXXXXXXXXXXXX####################XXXXXXX***************************......OOOOOOOOOOOOOO.......                                                      ",
"                                                                                 .......XXXXXX#####################XXXXXX******************************************************.......*******************************************************************************************************************.......*******---------------------======*************XXXXXXXXXXXXXX####################XXXXXXX***************************......OOOOOOOOOOOOOO.......                                                      ",
"                                                                                 .......XXXXXX#####################XXXXXX******************************************************.......*******************************************************************************************************************.......*******---------------------======*************XXXXXXXXXXXXXX####################XXXXXXX***************************......OOOOOOOOOOOOOO.......                                                      ",
"                                                                                 .......XXXXXX#####################XXXXXX******************************************************.......*******************************************************************************************************************.......*******---------------------======*************XXXXXXXXXXXXXX####################XXXXXXX***************************......OOOOOOOOOOOOOO.......                                                      ",
"                                                                                 .......###########################XXXXXX************************************************......OOOOOOO*******************************************************************************************************************.......=--------------------======********************#########################################XXXXXX*********************......OOOOOOO.......                                                             ",
"                                                                                 .......###########################XXXXXX************************************************......OOOOOOO*******************************************************************************************************************.......--------------------=======********************#########################################XXXXXX*********************......OOOOOOO.......                                                             ",
"                                                                                 .......###########################XXXXXX************************************************......OOOOOOO*******************************************************************************************************************.......=-------------------=======********************#########################################XXXXXX*********************......OOOOOOO.......                                                             ",
"                                                                                 .......###########################XXXXXX************************************************......OOOOOOO*******************************************************************************************************************.......=-------=------------======********************#########################################XXXXXX*********************......OOOOOOO.......                                                             ",
"                                                                                 .......###########################XXXXXX************************************************......OOOOOOO*******************************************************************************************************************.......=-------=-----------=======********************#########################################XXXXXX*********************......OOOOOOO.......                                                             ",
"                                                                                 .......###########################XXXXXX************************************************......OOOOOOO*******************************************************************************************************************.......=-------=-----------=======********************#########################################XXXXXX*********************......OOOOOOO.......                                                             ",
"                                                                                 .......###########################XXXXXX************************************************......OOOOOOO*******************************************************************************************************************.......=-------------------=======********************#########################################XXXXXX*********************......OOOOOOO.......                                                             ",
"                                                                                 .......###########################XXXXXX************************************************......OOOOOOOOOOOOOO************************************************************************************************************.......=-------=-----------=======*************XXXXXXX#########################################XXXXXX*********************.............                                                                    ",
"                                                                                 .......###########################XXXXXX************************************************......OOOOOOOOOOOOOO************************************************************************************************************.......=--------------------======*************XXXXXXX#########################################XXXXXX*********************.............                                                                    ",
"                                                                                 .......###########################XXXXXX************************************************......OOOOOOOOOOOOOO************************************************************************************************************.......=--------------------======*************XXXXXXX#########################################XXXXXX*********************.............                                                                    ",
"                                                                                 .......###########################XXXXXX************************************************......OOOOOOOOOOOOOO************************************************************************************************************.......-------------------========*************XXXXXXX#########################################XXXXXX*********************.............                                                                    ",
"                                                                                 .......###########################XXXXXX************************************************......OOOOOOOOOOOOOO************************************************************************************************************.......---------------------======*************XXXXXXX#########################################XXXXXX*********************.............                                                                    ",
"                                                                                 .......###########################XXXXXX************************************************......OOOOOOOOOOOOOO************************************************************************************************************.......--------------------=======*************XXXXXXX#########################################XXXXXX*********************.............                                                                    ",
"                                                                                 .......###########################XXXXXX************************************************......OOOOOOOOOOOOOO************************************************************************************************************.......=------------------========*************XXXXXXX#########################################XXXXXX*********************.............                                                                    ",
"                                                                                        ......###########################XXXXXXX*****************************************......OOOOOOOOOOOOOO************************************************************************************************************.......--------------------=======*************XXXXXXX#########################################XXXXXX**************.......OOOOOO.......                                                                    ",
"                                                                                        ......###########################XXXXXXX*****************************************......OOOOOOOOOOOOOO************************************************************************************************************.......---------------------======*************XXXXXXX#########################################XXXXXX**************.......OOOOOO.......                                                                    ",
"                                                                                        ......###########################XXXXXXX*****************************************......OOOOOOOOOOOOOO************************************************************************************************************.......---------------------======*************XXXXXXX#########################################XXXXXX**************.......OOOOOO.......                                                                    ",
"                                                                                        ......###########################XXXXXXX*****************************************......OOOOOOOOOOOOOO************************************************************************************************************.......=--------------------======*************XXXXXXX#########################################XXXXXX**************.......OOOOOO.......                                                                    ",
"                                                                                        ......###########################XXXXXXX*****************************************......OOOOOOOOOOOOOO************************************************************************************************************.......--------------------=======*************XXXXXXX#########################################XXXXXX**************.......OOOOOO.......                                                                    ",
"                                                                                        ......###########################XXXXXXX*****************************************......OOOOOOOOOOOOOO************************************************************************************************************.......---------------------======*************XXXXXXX#########################################XXXXXX**************.......OOOOOO.......                                                                    ",
"                                                                                              .......####################XXXXXXX*****************************************..................................$$$$$$***************************-------*******=------******=------*******=------******=------.......=-------------======**************XXXXXX#########################################XXXXXXX********************.............                                                                           ",
"                                                                                              .......####################XXXXXXX*****************************************..................................$$$$$$***************************=------*******=------******=------*******=------******-------.......=------------=======**************XXXXXX#########################################XXXXXXX********************.............                                                                           ",
"                                                                                              .......####################XXXXXXX*****************************************..................................$$$$$$***************************-------*******-------******-------*******=------******=------.......------------========**************XXXXXX#########################################XXXXXXX********************.............                                                                           ",
"                                                                                              .......####################XXXXXXX*****************************************..................................$$$$$$***************************=------*******=------******=------*******=------******=------.......=-------=-----======**************XXXXXX#########################################XXXXXXX********************.............                                                                           ",
"                                                                                              .......####################XXXXXXX*****************************************..................................$$$$$$***************************-------*******-------******-------*******-------******=------.......=-------=-----======**************XXXXXX#########################################XXXXXXX********************.............                                                                           ",
"                                                                                              .......####################XXXXXXX*****************************************..................................$$$$$$***************************-------*******=------******=------*******=------******=------.......=-------=-----======**************XXXXXX#########################################XXXXXXX********************.............                                                                           ",
"                                                                                              .......####################XXXXXXX*****************************************..................................$$$$$$***************************=------*******-------******-------*******-------******-------.......------------========**************XXXXXX#########################################XXXXXXX********************.............                                                                           ",
"                                                                                                     .......#############XXXXXXX**********************************.............                            .................................$$$$$$$-------*******------*******=------*******=-----*******..............=------======**************XXXXXX##################################XXXXXXX********************.......                                                                                        ",
"                                                                                                     .......#############XXXXXXX**********************************.............                            .................................$$$$$$$-------*******------*******-------*******------*******..............=------======**************XXXXXX##################################XXXXXXX********************.......                                                                                        ",
"                                                                                                     .......#############XXXXXXX**********************************.............                            .................................$$$$$$$-------*******------*******=------*******=-----*******..............-------======**************XXXXXX##################################XXXXXXX********************.......                                                                                        ",
"                                                                                                     .......#############XXXXXXX**********************************.............                            .................................$$$$$$$-------*******------*******-------*******=-----*******..............=------======**************XXXXXX##################################XXXXXXX********************.......                                                                                        ",
"                                                                                                     .......#############XXXXXXX**********************************.............                            .................................$$$$$$$-------*******------*******-------*******=-----*******..............=------======**************XXXXXX##################################XXXXXXX********************.......                                                                                        ",
"                                                                                                     .......#############XXXXXXX**********************************.............                            .................................$$$$$$$-------*******------*******-------*******------*******..............-------======**************XXXXXX##################################XXXXXXX********************.......                                                                                        ",
"                                                                                                     .......#############XXXXXXX**********************************.............                            .................................$$$$$$$-------*******------*******-------*******------*******..............=------======**************XXXXXX##################################XXXXXXX********************.......                                                                                        ",
"                                                                                                            .............***************************.......*******.......                                                                   .............................................................       .......=------======********************XXXXXXXXXXXXXXXXXXXXXXXXXXXXXXXXXX********************.......                                                                                               ",
"                                                                                                            .............***************************.......*******.......                                                                   .............................................................       .......-------======********************XXXXXXXXXXXXXXXXXXXXXXXXXXXXXXXXXX********************.......                                                                                               ",
"                                                                                                            .............***************************.......*******.......                                                                   .............................................................       .......-------======********************XXXXXXXXXXXXXXXXXXXXXXXXXXXXXXXXXX********************.......                                                                                               ",
"                                                                                                            .............***************************.......*******.......                                                                   .............................................................       .......=-----=======********************XXXXXXXXXXXXXXXXXXXXXXXXXXXXXXXXXX********************.......                                                                                               ",
"                                                                                                            .............***************************.......*******.......                                                                   .............................................................       .......-------======********************XXXXXXXXXXXXXXXXXXXXXXXXXXXXXXXXXX********************.......                                                                                               ",
"                                                                                                            .............***************************.......*******.......                                                                   .............................................................       .......-----========********************XXXXXXXXXXXXXXXXXXXXXXXXXXXXXXXXXX********************.......                                                                                               ",
"                                                                                                            .............***************************.......*******.......                                                                   .............................................................       .......------=======********************XXXXXXXXXXXXXXXXXXXXXXXXXXXXXXXXXX********************.......                                                                                               ",
"                                                                                                                         ...........................       .......                                                                                                                                                     ......********************************************************************.............                                                                                                      ",
"                                                                                                                         ...........................       .......                                                                                                                                                     ......********************************************************************.............                                                                                                      ",
"                                                                                                                         ...........................       .......                                                                                                                                                     ......********************************************************************.............                                                                                                      ",
"                                                                                                                         ...........................       .......                                                                                                                                                     ......********************************************************************.............                                                                                                      ",
"                                                                                                                         ...........................       .......                                                                                                                                                     ......********************************************************************.............                                                                                                      ",
"                                                                                                                         ...........................       .......                                                                                                                                                     ......********************************************************************.............                                                                                                      ",
"                                                                                                                         ...........................       .......                                                                                                                                                     ......********************************************************************.............                                                                                                      ",
"                                                                                                                                                                                                                                                                                                                             .......***********************************************..............                                                                                                                   ",
"                                                                                                                                                                                                                                                                                                                             .......***********************************************..............                                                                                                                   ",
"                                                                                                                                                                                                                                                                                                                             .......***********************************************..............                                                                                                                   ",
"                                                                                                                                                                                                                                                                                                                             .......***********************************************..............                                                                                                                   ",
"                                                                                                                                                                                                                                                                                                                             .......***********************************************..............                                                                                                                   ",
"                                                                                                                                                                                                                                                                                                                             .......***********************************************..............                                                                                                                   ",
"                                                                                                                                                                                                                                                                                                                                    ..............*************....................                                                                                                                                 ",
"                                                                                                                                                                                                                                                                                                                                    ..............*************....................                                                                                                                                 ",
"                                                                                                                                                                                                                                                                                                                                    ..............*************....................                                                                                                                                 ",
"                                                                                                                                                                                                                                                                                                                                    ..............*************....................                                                                                                                                 ",
"                                                                                                                                                                                                                                                                                                                                    ..............*************....................                                                                                                                                 ",
"                                                                                                                                                                                                                                                                                                                                    ..............*************....................                                                                                                                                 ",
"                                                                                                                                                                                                                                                                                                                                    ..............*************....................                                                                                                                                 ",
"                                                                                                                                                                                                                                                                                                                                                  .............                                                                                                                                                     ",
"                                                                                                                                                                                                                                                                                                                                                  .............                                                                                                                                                     ",
"                                                                                                                                                                                                                                                                                                                                                  .............                                                                                                                                                     "
};
