/* XPM */
static char *out[] = {
/* columns rows colors chars-per-pixel */
"500 503 16 1 ",
"  c #FF00FF",
". c black",
"X c #634221",
"o c #735A21",
"O c #103942",
"+ c #315A7B",
"@ c gray45",
"# c #A57352",
"$ c #C69C5A",
"% c #528CAD",
"& c #73A5BD",
"* c #E7C6AD",
"= c #F7D6BD",
"- c #F7E7BD",
"; c #CECECE",
": c white",
/* pixels */
"                                                                                                                                                                                                                                                                                                                                                                                                                                                                                                                    ",
"                                                                                                                                                                                                                                                                                                                                                                                                                                                                                                                    ",
"                                                                                                                                                                                                                                                                                                                                                                                                                                                                                                                    ",
"                                                                                                                                                                                                                                                                                                                                                                                                                                                                                                                    ",
"                                                                                                                                                                                                                                                                                                                                                                                                                                                                                                                    ",
"                                                                                                                                                                                                                                                                                                                                                                                                                                                                                                                    ",
"                                                                                                                                                                                                                                                                                                                                                                                                                                                                                                                    ",
"                                                                                                                                                                                                                                                                                                                                                                                                                                                                                                                    ",
"                                                                                                                                                                                                                                                                                                                                                                                                                                                                                                                    ",
"                                                                                                                                                                                                                                                                                                                                                                                                                                                                                                                    ",
"                                                                                                                                                                                                                                                                                                                                                                                                                                                                                                                    ",
"                                                                                                                                                                                                                                                                                                                                                                                                                                                                                                                    ",
"                                                                                                                                                                                                                                                                                                                                                                                                                                                                                                                    ",
"                                                                                                                                                                                                                                                                                                                                                                                                                                                                                                                    ",
"                                                                                                                                                                                                                                                                                                                                                                                                                                                                                                                    ",
"                                                                                                                                                                                                                                                                                                                                                                                                                                                                                                                    ",
"                                                                                                                                                                                                                                                                                                                                                                                                                                                                                                                    ",
"                                                                                                                                                                                                                                                                                                                                                                                                                                                                                                                    ",
"                                                                                                                                                                                                                                                                                                                                                                                                                                                                                                                    ",
"                                                                                                                                                                                                                                                                                                                                                                                                                                                                                                                    ",
"                                                                                                                                                                                                                                                                                                                                                                                                                                                                                                                    ",
"                                                                                                                                                                                                                                                                                                                                                                                                                                                                                                                    ",
"                                                                                                                                                                                                                                                                                                                                                                                                                                                                                                                    ",
"                                                                                                                                                                                                                                                                                                                                                                                                                                                                                                                    ",
"                                                                                                                                                                                                                                                                                                                                                                                                                                                                                                                    ",
"                                                                                                                                                                                                                                                                                                                                                                                                                                                                                                                    ",
"                                                                                                                                                                                                                                                                                                                                                                                                                                                                                                                    ",
"                                                                                                                                                                                                                                                                                                                                                                                                                                                                                                                    ",
"                                                                                                                                                                                                                                                                                                                                                                                                                                                                                                                    ",
"                                                                                                                                                                                                                                                                                                                                                                                                                                                                                                                    ",
"                                                                                                                                                                                                                                                                                                                                                                                                                                                                                                                    ",
"                                                                                                                                                                                                                                                                                                                                                                                                                                                                                                                    ",
"                                                                                                                                                                                                                                                                                                                                                                                                                                                                                                                    ",
"                                                                                                                                                                                                                                                                                                                                                                                                                                                                                                                    ",
"                                                                                                                                                                                                                                                                                                                                                                                                                                                                                                                    ",
"                                                                                                                                                                                                                                                                                                                                                                                                                                                                                                                    ",
"                                                                                                                                                                                                                                                                                                                                                                                                                                                                                                                    ",
"                                                                                                                                                                                                                                                                                                                                                                                                                                                                                                                    ",
"                                                                                                                                                                                                                                                                                                                                                                                                                                                                                                                    ",
"                                                                                                                                                                                                                                                                                                                                                                                                                                                                                                                    ",
"                                                                                                                                                                                                                                                                                                                                                                                                                                                                                                                    ",
"                                                                                                                                                                                                                                                                                                                                                                                                                                                                                                                    ",
"                                                                                                                                                                                                                                                                                                                                                                                                                                                                                                                    ",
"                                                                                                                                                                                                                                                                                                                                                                                                                                                                                                                    ",
"                                                                                                                                                                                                                                                                                                                                                                                                                                                                                                                    ",
"                                                                                                                                                                                                                                                                                                                                                                                                                                                                                                                    ",
"                                                                                                                                                                                                                                                                                                                                                                                                                                                                                                                    ",
"                                                                                                                                                                                                                                                                                                                ....................                                                                                                                                                                                ",
"                                                                                                                                                                                                                                                                                                                ....................                                                                                                                                                                                ",
"                                                                                                                                                                                                                                                                                                                ....................                                                                                                                                                                                ",
"                                                                                                                                                                                                                                                                                                                ....................                                                                                                                                                                                ",
"                                                                                                                                                                                                                                                                                                                ....................                                                                                                                                                                                ",
"                                                                                                                                                                                                                                                                                                                ....................                                                                                                                                                                                ",
"                                                                                                                                                                                                                                                                                                                ....................                                                                                                                                                                                ",
"                                                                                                                                                                                                    .............                                                                                        OOOOOOO%%%%%%%+++++++++++++.......                                                                                                                                                                         ",
"                                                                                                                                                                                                    .............                                                                                        OOOOOOO%%%%%%%+++++++++++++.......                                                                                                                                                                         ",
"                                                                                                                                                                                                    .............                                                                                        OOOOOOO%%%%%%%+++++++++++++.......                                                                                                                                                                         ",
"                                                                                                                                                                                                    .............                                                                                        OOOOOOO%%%%%%%+++++++++++++.......                                                                                                                                                                         ",
"                                                                                                                                                                                                    .............                                                                                        OOOOOOO%%%%%%%+++++++++++++.......                                                                                                                                                                         ",
"                                                                                                                                                                                                    .............                                                                                        OOOOOOO%%%%%%%+++++++++++++.......                                                                                                                                                                         ",
"                                                                                                                                                                                                    .............                                                                                        OOOOOOO%%%%%%%+++++++++++++.......                                                                                                                                                                         ",
"                                                                                                                                                                                             OOOOOOO%%%%%%%++++++..............                                                                   OOOOOOO%%%%%%%%%%%%%%%%%%%%+++++++.......                                                                                                                                                                         ",
"                                                                                                                                                                                             OOOOOOO%%%%%%%++++++..............                                                                   OOOOOOO%%%%%%%%%%%%%%%%%%%%+++++++.......                                                                                                                                                                         ",
"                                                                                                                                                                                             OOOOOOO%%%%%%%++++++..............                                                                   OOOOOOO%%%%%%%%%%%%%%%%%%%%+++++++.......                                                                                                                                                                         ",
"                                                                                                                                                                                             OOOOOOO%%%%%%%++++++..............                                                                   OOOOOOO%%%%%%%%%%%%%%%%%%%%+++++++.......                                                                                                                                                                         ",
"                                                                                                                                                                                             OOOOOOO%%%%%%%++++++..............                                                                   OOOOOOO%%%%%%%%%%%%%%%%%%%%+++++++.......                                                                                                                                                                         ",
"                                                                                                                                                                                             OOOOOOO%%%%%%%++++++..............                                                                   OOOOOOO%%%%%%%%%%%%%%%%%%%%+++++++.......                                                                                                                                                                         ",
"                                                                                                                                                                                             OOOOOOO%%%%%%%++++++++++++++++++++.......                                                      OOOOOO%%%%%%%%%%%%%%%%%%%%%%%%%%%++++++++++++++                                                                                                                                                                         ",
"                                                                                                                                                                                             OOOOOOO%%%%%%%++++++++++++++++++++.......                                                      OOOOOO%%%%%%%%%%%%%%%%%%%%%%%%%%%++++++++++++++                                                                                                                                                                         ",
"                                                                                                                                                                                             OOOOOOO%%%%%%%++++++++++++++++++++.......                                                      OOOOOO%%%%%%%%%%%%%%%%%%%%%%%%%%%++++++++++++++                                                                                                                                                                         ",
"                                                                                                                                                                                             OOOOOOO%%%%%%%++++++++++++++++++++.......                                                      OOOOOO%%%%%%%%%%%%%%%%%%%%%%%%%%%++++++++++++++                                                                                                                                                                         ",
"                                                                                                                                                                                             OOOOOOO%%%%%%%++++++++++++++++++++.......                                                      OOOOOO%%%%%%%%%%%%%%%%%%%%%%%%%%%++++++++++++++                                                                                                                                                                         ",
"                                                                                                                                                                                             OOOOOOO%%%%%%%++++++++++++++++++++.......                                                      OOOOOO%%%%%%%%%%%%%%%%%%%%%%%%%%%++++++++++++++                                                                                                                                                                         ",
"                                                                                                                                                                                             OOOOOOO%%%%%%%++++++++++++++++++++.......                                                      OOOOOO%%%%%%%%%%%%%%%%%%%%%%%%%%%++++++++++++++                                                                                                                                                                         ",
"                                                                                                                                                                                      OOOOOOO%%%%%%%%%%%%%%%%%%%%+++++++++++++++++++++                                               OOOOOOO%%%%%%%%%%%%%%%%%%%%%%%%%%%%%%%%%++++++++++++++.......                                                                                                                                                                  ",
"                                                                                                                                                                                      OOOOOOO%%%%%%%%%%%%%%%%%%%%+++++++++++++++++++++                                               OOOOOOO%%%%%%%%%%%%%%%%%%%%%%%%%%%%%%%%%++++++++++++++.......                                                                                                                                                                  ",
"                                                                                                                                                                                      OOOOOOO%%%%%%%%%%%%%%%%%%%%+++++++++++++++++++++                                               OOOOOOO%%%%%%%%%%%%%%%%%%%%%%%%%%%%%%%%%++++++++++++++.......                                                                                                                                                                  ",
"                                                                                                                                                                                      OOOOOOO%%%%%%%%%%%%%%%%%%%%+++++++++++++++++++++                                               OOOOOOO%%%%%%%%%%%%%%%%%%%%%%%%%%%%%%%%%++++++++++++++.......                                                                                                                                                                  ",
"                                                                                                                                                                                      OOOOOOO%%%%%%%%%%%%%%%%%%%%+++++++++++++++++++++                                               OOOOOOO%%%%%%%%%%%%%%%%%%%%%%%%%%%%%%%%%++++++++++++++.......                                                                                                                                                                  ",
"                                                                                                                                                                                      OOOOOOO%%%%%%%%%%%%%%%%%%%%+++++++++++++++++++++                                               OOOOOOO%%%%%%%%%%%%%%%%%%%%%%%%%%%%%%%%%++++++++++++++.......                                                                                                                                                                  ",
"                                                                                                                                                                                      OOOOOOO%%%%%%%%%%%%%%%%%%%%+++++++++++++++++++++                                               OOOOOOO%%%%%%%%%%%%%%%%%%%%%%%%%%%%%%%%%++++++++++++++.......                                                                                                                                                                  ",
"                                                                                                                                                                                      OOOOOOO%%%%%%%%%%%%%%%%%%%%+++++++OOOOOOOOOOOOOO...............................................%%%%%%%%%%%%%%%%%%%%%%%%%%%%%%%%%%++++++++++++++++++++.......                                                                                                                                                                  ",
"                                                                                                                                                                                      OOOOOOO%%%%%%%%%%%%%%%%%%%%+++++++OOOOOOOOOOOOOO...............................................%%%%%%%%%%%%%%%%%%%%%%%%%%%%%%%%%%++++++++++++++++++++.......                                                                                                                                                                  ",
"                                                                                                                                                                                      OOOOOOO%%%%%%%%%%%%%%%%%%%%+++++++OOOOOOOOOOOOOO...............................................%%%%%%%%%%%%%%%%%%%%%%%%%%%%%%%%%%++++++++++++++++++++.......                                                                                                                                                                  ",
"                                                                                                                                                                                      OOOOOOO%%%%%%%%%%%%%%%%%%%%+++++++OOOOOOOOOOOOOO...............................................%%%%%%%%%%%%%%%%%%%%%%%%%%%%%%%%%%++++++++++++++++++++.......                                                                                                                                                                  ",
"                                                                                                                                                                                      OOOOOOO%%%%%%%%%%%%%%%%%%%%+++++++OOOOOOOOOOOOOO...............................................%%%%%%%%%%%%%%%%%%%%%%%%%%%%%%%%%%++++++++++++++++++++.......                                                                                                                                                                  ",
"                                                                                                                                                                                      OOOOOOO%%%%%%%%%%%%%%%%%%%%+++++++OOOOOOOOOOOOOO...............................................%%%%%%%%%%%%%%%%%%%%%%%%%%%%%%%%%%++++++++++++++++++++.......                                                                                                                                                                  ",
"                                                                                                                                                                                      OOOOOOO%%%%%%%%%%%%%%%%%%%%+++++++OOOOOOOOOOOOOO...............................................%%%%%%%%%%%%%%%%%%%%%%%%%%%%%%%%%%++++++++++++++++++++.......                                                                                                                                                                  ",
"                                                                                                                                                                                      OOOOOOO%%%%%%%%%%%%%%+++++++++++++%%%%%%%&&&&&&&++++++&&&&&&&&&&&&&&%%%%%%%%%%%%%%%%%%%%%%%%%%%%%%%%%%%%%%%%%%%%%%%%%%%%%%%%%%%%%+++++++++++++++++++++++++++......                                                .............       ....................                                                                    ",
"                                                                                                                                                                                      OOOOOOO%%%%%%%%%%%%%%+++++++++++++%%%%%%%&&&&&&&++++++&&&&&&&&&&&&&&%%%%%%%%%%%%%%%%%%%%%%%%%%%%%%%%%%%%%%%%%%%%%%%%%%%%%%%%%%%%%+++++++++++++++++++++++++++......                                                .............       ....................                                                                    ",
"                                                                                                                                                                                      OOOOOOO%%%%%%%%%%%%%%+++++++++++++%%%%%%%&&&&&&&++++++&&&&&&&&&&&&&&%%%%%%%%%%%%%%%%%%%%%%%%%%%%%%%%%%%%%%%%%%%%%%%%%%%%%%%%%%%%%+++++++++++++++++++++++++++......                                                .............       ....................                                                                    ",
"                                                                                                                                                                                      OOOOOOO%%%%%%%%%%%%%%+++++++++++++%%%%%%%&&&&&&&++++++&&&&&&&&&&&&&&%%%%%%%%%%%%%%%%%%%%%%%%%%%%%%%%%%%%%%%%%%%%%%%%%%%%%%%%%%%%%+++++++++++++++++++++++++++......                                                .............       ....................                                                                    ",
"                                                                                                                                                                                      OOOOOOO%%%%%%%%%%%%%%+++++++++++++%%%%%%%&&&&&&&++++++&&&&&&&&&&&&&&%%%%%%%%%%%%%%%%%%%%%%%%%%%%%%%%%%%%%%%%%%%%%%%%%%%%%%%%%%%%%+++++++++++++++++++++++++++......                                                .............       ....................                                                                    ",
"                                                                                                                                                                                      OOOOOOO%%%%%%%%%%%%%%+++++++++++++%%%%%%%&&&&&&&++++++&&&&&&&&&&&&&&%%%%%%%%%%%%%%%%%%%%%%%%%%%%%%%%%%%%%%%%%%%%%%%%%%%%%%%%%%%%%+++++++++++++++++++++++++++......                                                .............       ....................                                                                    ",
"                                                                                                                                                                                      OOOOOOO%%%%%%%+++++++%%%%%%%%%%%%%%%%%%%%&&&&&&&&&&&&&&&&&&&&&&&&&&&&&&&&&&%%%%%%%%%%%%%%%%%%%%%%%%%%%%%%%%%%%%%%%%%%%%%%%++++++++++++++++++++++++++++++++++++++++.......                                         ....................       ::::::..............                                                             ",
"                                                                                                                                                                                      OOOOOOO%%%%%%%+++++++%%%%%%%%%%%%%%%%%%%%&&&&&&&&&&&&&&&&&&&&&&&&&&&&&&&&&&%%%%%%%%%%%%%%%%%%%%%%%%%%%%%%%%%%%%%%%%%%%%%%%++++++++++++++++++++++++++++++++++++++++.......                                         ....................       ::::::..............                                                             ",
"                                                                                                                                                                                      OOOOOOO%%%%%%%+++++++%%%%%%%%%%%%%%%%%%%%&&&&&&&&&&&&&&&&&&&&&&&&&&&&&&&&&&%%%%%%%%%%%%%%%%%%%%%%%%%%%%%%%%%%%%%%%%%%%%%%%++++++++++++++++++++++++++++++++++++++++.......                                         ....................       ::::::..............                                                             ",
"                                                                                                                                                                                      OOOOOOO%%%%%%%+++++++%%%%%%%%%%%%%%%%%%%%&&&&&&&&&&&&&&&&&&&&&&&&&&&&&&&&&&%%%%%%%%%%%%%%%%%%%%%%%%%%%%%%%%%%%%%%%%%%%%%%%++++++++++++++++++++++++++++++++++++++++.......                                         ....................       ::::::..............                                                             ",
"                                                                                                                                                                                      OOOOOOO%%%%%%%+++++++%%%%%%%%%%%%%%%%%%%%&&&&&&&&&&&&&&&&&&&&&&&&&&&&&&&&&&%%%%%%%%%%%%%%%%%%%%%%%%%%%%%%%%%%%%%%%%%%%%%%%++++++++++++++++++++++++++++++++++++++++.......                                         ....................       ::::::..............                                                             ",
"                                                                                                                                                                                      OOOOOOO%%%%%%%+++++++%%%%%%%%%%%%%%%%%%%%&&&&&&&&&&&&&&&&&&&&&&&&&&&&&&&&&&%%%%%%%%%%%%%%%%%%%%%%%%%%%%%%%%%%%%%%%%%%%%%%%++++++++++++++++++++++++++++++++++++++++.......                                         ....................       ::::::..............                                                             ",
"                                                                                                                                                                                      OOOOOOO%%%%%%%+++++++%%%%%%%%%%%%%%%%%%%%&&&&&&&&&&&&&&&&&&&&&&&&&&&&&&&&&&%%%%%%%%%%%%%%%%%%%%%%%%%%%%%%%%%%%%%%%%%%%%%%%++++++++++++++++++++++++++++++++++++++++.......                                         ....................       ::::::..............                                                             ",
"                                                                                                                                                                                      .......+++++++%%%%%%%+++++++++++++%%%%%%%%%%%%%%&&&&&&&&&&&&&&&&&&&&%%%%%%%%%%%%%%%%%%%%%%%%%%%++++++++++++++++++++++++++++++++++++++++++++++++++++++++++++++++++++++++++.......                                  ....................OOOOOOOOOOOOO.....................                                                      ",
"                                                                                                                                                                                      .......+++++++%%%%%%%+++++++++++++%%%%%%%%%%%%%%&&&&&&&&&&&&&&&&&&&&%%%%%%%%%%%%%%%%%%%%%%%%%%%++++++++++++++++++++++++++++++++++++++++++++++++++++++++++++++++++++++++++.......                                  ....................OOOOOOOOOOOOO.....................                                                      ",
"                                                                                                                                                                                      .......+++++++%%%%%%%+++++++++++++%%%%%%%%%%%%%%&&&&&&&&&&&&&&&&&&&&%%%%%%%%%%%%%%%%%%%%%%%%%%%++++++++++++++++++++++++++++++++++++++++++++++++++++++++++++++++++++++++++.......                                  ....................OOOOOOOOOOOOO.....................                                                      ",
"                                                                                                                                                                                      .......+++++++%%%%%%%+++++++++++++%%%%%%%%%%%%%%&&&&&&&&&&&&&&&&&&&&%%%%%%%%%%%%%%%%%%%%%%%%%%%++++++++++++++++++++++++++++++++++++++++++++++++++++++++++++++++++++++++++.......                                  ....................OOOOOOOOOOOOO.....................                                                      ",
"                                                                                                                                                                                      .......+++++++%%%%%%%+++++++++++++%%%%%%%%%%%%%%&&&&&&&&&&&&&&&&&&&&%%%%%%%%%%%%%%%%%%%%%%%%%%%++++++++++++++++++++++++++++++++++++++++++++++++++++++++++++++++++++++++++.......                                  ....................OOOOOOOOOOOOO.....................                                                      ",
"                                                                                                                                                                                      .......+++++++%%%%%%%+++++++++++++%%%%%%%%%%%%%%&&&&&&&&&&&&&&&&&&&&%%%%%%%%%%%%%%%%%%%%%%%%%%%++++++++++++++++++++++++++++++++++++++++++++++++++++++++++++++++++++++++++.......                                  ....................OOOOOOOOOOOOO.....................                                                      ",
"                                                                                                                                                                                      .......+++++++%%%%%%%+++++++++++++%%%%%%%%%%%%%%&&&&&&&&&&&&&&&&&&&&%%%%%%%%%%%%%%%%%%%%%%%%%%%++++++++++++++++++++++++++++++++++++++++++++++++++++++++++++++++++++++++++.......                                  ....................OOOOOOOOOOOOO.....................                                                      ",
"                                                                                                                                                                               .......++++++++++++++-------******+++++++%%%%%%%%%%%%%%%%%%%%%%%%%%%%%%%%%%%%%%%%%+++++++++++++-------*******OOOOOOOOOOOOO+++++++++++++++++++++++++++++++++++++++++++++++.......                    .......       .......%%%%%%%%%%%%%%%%%%%%%%%%%%%...........................                                                      ",
"                                                                                                                                                                               .......++++++++++++++-------******+++++++%%%%%%%%%%%%%%%%%%%%%%%%%%%%%%%%%%%%%%%%%+++++++++++++-------*******OOOOOOOOOOOOO+++++++++++++++++++++++++++++++++++++++++++++++.......                    .......       .......%%%%%%%%%%%%%%%%%%%%%%%%%%%...........................                                                      ",
"                                                                                                                                                                               .......++++++++++++++-------******+++++++%%%%%%%%%%%%%%%%%%%%%%%%%%%%%%%%%%%%%%%%%+++++++++++++-------*******OOOOOOOOOOOOO+++++++++++++++++++++++++++++++++++++++++++++++.......                    .......       .......%%%%%%%%%%%%%%%%%%%%%%%%%%%...........................                                                      ",
"                                                                                                                                                                               .......++++++++++++++-------******+++++++%%%%%%%%%%%%%%%%%%%%%%%%%%%%%%%%%%%%%%%%%+++++++++++++-------*******OOOOOOOOOOOOO+++++++++++++++++++++++++++++++++++++++++++++++.......                    .......       .......%%%%%%%%%%%%%%%%%%%%%%%%%%%...........................                                                      ",
"                                                                                                                                                                               .......++++++++++++++-------******+++++++%%%%%%%%%%%%%%%%%%%%%%%%%%%%%%%%%%%%%%%%%+++++++++++++-------*******OOOOOOOOOOOOO+++++++++++++++++++++++++++++++++++++++++++++++.......                    .......       .......%%%%%%%%%%%%%%%%%%%%%%%%%%%...........................                                                      ",
"                                                                                                                                                                               .......++++++++++++++-------******+++++++%%%%%%%%%%%%%%%%%%%%%%%%%%%%%%%%%%%%%%%%%+++++++++++++-------*******OOOOOOOOOOOOO+++++++++++++++++++++++++++++++++++++++++++++++.......                    .......       .......%%%%%%%%%%%%%%%%%%%%%%%%%%%...........................                                                      ",
"                                                                                                                                                                               .......++++++++++++++-------******+++++++%%%%%%%%%%%%%%%%%%%%%%%%%%%%%%%%%%%%%%%%%+++++++++++++-------*******OOOOOOOOOOOOO+++++++++++++++++++++++++++++++++++++++++++++++.......                    .......       .......%%%%%%%%%%%%%%%%%%%%%%%%%%%...........................                                                      ",
"                                                                                                                                .......                                  ......++++++++++++++---------------------------%%%%%%%%%%%%%%%%%%%%%%%%%%%%%%%%%%+++++++---------------------------------*******OOOOOOO+++++++++++++++++++++++++++++++++++++++++++++++.......             .......:::::::%%%%%%%%%%%%%%%%%%%%%%%%%%%%%%%%%%++++++.......OOOOOOO..............                                               ",
"                                                                                                                                .......                                  ......++++++++++++++---------------------------%%%%%%%%%%%%%%%%%%%%%%%%%%%%%%%%%%+++++++---------------------------------*******OOOOOOO+++++++++++++++++++++++++++++++++++++++++++++++.......             .......:::::::%%%%%%%%%%%%%%%%%%%%%%%%%%%%%%%%%%++++++.......OOOOOOO..............                                               ",
"                                                                                                                                .......                                  ......++++++++++++++---------------------------%%%%%%%%%%%%%%%%%%%%%%%%%%%%%%%%%%+++++++---------------------------------*******OOOOOOO+++++++++++++++++++++++++++++++++++++++++++++++.......             .......:::::::%%%%%%%%%%%%%%%%%%%%%%%%%%%%%%%%%%++++++.......OOOOOOO..............                                               ",
"                                                                                                                                .......                                  ......++++++++++++++---------------------------%%%%%%%%%%%%%%%%%%%%%%%%%%%%%%%%%%+++++++---------------------------------*******OOOOOOO+++++++++++++++++++++++++++++++++++++++++++++++.......             .......:::::::%%%%%%%%%%%%%%%%%%%%%%%%%%%%%%%%%%++++++.......OOOOOOO..............                                               ",
"                                                                                                                                .......                                  ......++++++++++++++---------------------------%%%%%%%%%%%%%%%%%%%%%%%%%%%%%%%%%%+++++++---------------------------------*******OOOOOOO+++++++++++++++++++++++++++++++++++++++++++++++.......             .......:::::::%%%%%%%%%%%%%%%%%%%%%%%%%%%%%%%%%%++++++.......OOOOOOO..............                                               ",
"                                                                                                                                .......                                  ......++++++++++++++---------------------------%%%%%%%%%%%%%%%%%%%%%%%%%%%%%%%%%%+++++++---------------------------------*******OOOOOOO+++++++++++++++++++++++++++++++++++++++++++++++.......             .......:::::::%%%%%%%%%%%%%%%%%%%%%%%%%%%%%%%%%%++++++.......OOOOOOO..............                                               ",
"                                                                                                                                ..............                           ......+++++++*******---------------------------+++++++%%%%%%%%%%%%%%%%%%%%+++++++------------------------------------------------------OOOOOOO++++++++++++++++++++++++++++++++++++++++.......                    .......%%%%%%%%%%%%%%%%%%%%%%%%%%%%%%%%%%+++++++++++++:::::::OOOOOOO.......                                               ",
"                                                                                                                                ..............                           ......+++++++*******---------------------------+++++++%%%%%%%%%%%%%%%%%%%%+++++++------------------------------------------------------OOOOOOO++++++++++++++++++++++++++++++++++++++++.......                    .......%%%%%%%%%%%%%%%%%%%%%%%%%%%%%%%%%%+++++++++++++:::::::OOOOOOO.......                                               ",
"                                                                                                                                ..............                           ......+++++++*******---------------------------+++++++%%%%%%%%%%%%%%%%%%%%+++++++------------------------------------------------------OOOOOOO++++++++++++++++++++++++++++++++++++++++.......                    .......%%%%%%%%%%%%%%%%%%%%%%%%%%%%%%%%%%+++++++++++++:::::::OOOOOOO.......                                               ",
"                                                                                                                                ..............                           ......+++++++*******---------------------------+++++++%%%%%%%%%%%%%%%%%%%%+++++++------------------------------------------------------OOOOOOO++++++++++++++++++++++++++++++++++++++++.......                    .......%%%%%%%%%%%%%%%%%%%%%%%%%%%%%%%%%%+++++++++++++:::::::OOOOOOO.......                                               ",
"                                                                                                                                ..............                           ......+++++++*******---------------------------+++++++%%%%%%%%%%%%%%%%%%%%+++++++------------------------------------------------------OOOOOOO++++++++++++++++++++++++++++++++++++++++.......                    .......%%%%%%%%%%%%%%%%%%%%%%%%%%%%%%%%%%+++++++++++++:::::::OOOOOOO.......                                               ",
"                                                                                                                                ..............                           ......+++++++*******---------------------------+++++++%%%%%%%%%%%%%%%%%%%%+++++++------------------------------------------------------OOOOOOO++++++++++++++++++++++++++++++++++++++++.......                    .......%%%%%%%%%%%%%%%%%%%%%%%%%%%%%%%%%%+++++++++++++:::::::OOOOOOO.......                                               ",
"                                                                                                                                ..............                           ......+++++++*******---------------------------+++++++%%%%%%%%%%%%%%%%%%%%+++++++------------------------------------------------------OOOOOOO++++++++++++++++++++++++++++++++++++++++.......                    .......%%%%%%%%%%%%%%%%%%%%%%%%%%%%%%%%%%+++++++++++++:::::::OOOOOOO.......                                               ",
"                                                                                                                   .............OOOOOOO:::::::      ..............       ......+++++++-----------------------------------------+++++++++++++*******--------------------------------------------------------------------OOOOOO+++++++++++++++++++++++++++++++++++++++++.......             %%%%%%%%%%%%%%%%%%%%%%%%%%%%%%%%%%%%%%%%%++++++.......+++++++..............                                               ",
"                                                                                                                   .............OOOOOOO:::::::      ..............       ......+++++++-----------------------------------------+++++++++++++*******--------------------------------------------------------------------OOOOOO+++++++++++++++++++++++++++++++++++++++++.......             %%%%%%%%%%%%%%%%%%%%%%%%%%%%%%%%%%%%%%%%%++++++.......+++++++..............                                               ",
"                                                                                                                   .............OOOOOOO:::::::      ..............       ......+++++++-----------------------------------------+++++++++++++*******--------------------------------------------------------------------OOOOOO+++++++++++++++++++++++++++++++++++++++++.......             %%%%%%%%%%%%%%%%%%%%%%%%%%%%%%%%%%%%%%%%%++++++.......+++++++..............                                               ",
"                                                                                                                   .............OOOOOOO:::::::      ..............       ......+++++++-----------------------------------------+++++++++++++*******--------------------------------------------------------------------OOOOOO+++++++++++++++++++++++++++++++++++++++++.......             %%%%%%%%%%%%%%%%%%%%%%%%%%%%%%%%%%%%%%%%%++++++.......+++++++..............                                               ",
"                                                                                                                   .............OOOOOOO:::::::      ..............       ......+++++++-----------------------------------------+++++++++++++*******--------------------------------------------------------------------OOOOOO+++++++++++++++++++++++++++++++++++++++++.......             %%%%%%%%%%%%%%%%%%%%%%%%%%%%%%%%%%%%%%%%%++++++.......+++++++..............                                               ",
"                                                                                                                   .............OOOOOOO:::::::      ..............       ......+++++++-----------------------------------------+++++++++++++*******--------------------------------------------------------------------OOOOOO+++++++++++++++++++++++++++++++++++++++++.......             %%%%%%%%%%%%%%%%%%%%%%%%%%%%%%%%%%%%%%%%%++++++.......+++++++..............                                               ",
"                                                                                                                   .............OOOOOOO:::::::      ..............       ......+++++++-----------------------------------------+++++++++++++*******--------------------------------------------------------------------OOOOOO+++++++++++++++++++++++++++++++++++++++++.......             %%%%%%%%%%%%%%%%%%%%%%%%%%%%%%%%%%%%%%%%%++++++.......+++++++..............                                               ",
"                                                                                                            .............OOOOOOOOOOOOOO%%%%%%%%%%%%%:::::::.......       ......*******---------------------------------------------------------------------------------------------------------------------------------******+++++++++++++++++++++++++++++++++++++++++.......             %%%%%%%%%%%%%%%%%%%%%%%%%%%%%%%%%%++++++++++++++++++++++++++++++++++.......                                               ",
"                                                                                                            .............OOOOOOOOOOOOOO%%%%%%%%%%%%%:::::::.......       ......*******---------------------------------------------------------------------------------------------------------------------------------******+++++++++++++++++++++++++++++++++++++++++.......             %%%%%%%%%%%%%%%%%%%%%%%%%%%%%%%%%%++++++++++++++++++++++++++++++++++.......                                               ",
"                                                                                                            .............OOOOOOOOOOOOOO%%%%%%%%%%%%%:::::::.......       ......*******---------------------------------------------------------------------------------------------------------------------------------******+++++++++++++++++++++++++++++++++++++++++.......             %%%%%%%%%%%%%%%%%%%%%%%%%%%%%%%%%%++++++++++++++++++++++++++++++++++.......                                               ",
"                                                                                                            .............OOOOOOOOOOOOOO%%%%%%%%%%%%%:::::::.......       ......*******---------------------------------------------------------------------------------------------------------------------------------******+++++++++++++++++++++++++++++++++++++++++.......             %%%%%%%%%%%%%%%%%%%%%%%%%%%%%%%%%%++++++++++++++++++++++++++++++++++.......                                               ",
"                                                                                                            .............OOOOOOOOOOOOOO%%%%%%%%%%%%%:::::::.......       ......*******---------------------------------------------------------------------------------------------------------------------------------******+++++++++++++++++++++++++++++++++++++++++.......             %%%%%%%%%%%%%%%%%%%%%%%%%%%%%%%%%%++++++++++++++++++++++++++++++++++.......                                               ",
"                                                                                                            .............OOOOOOOOOOOOOO%%%%%%%%%%%%%:::::::.......       ......*******---------------------------------------------------------------------------------------------------------------------------------******+++++++++++++++++++++++++++++++++++++++++.......             %%%%%%%%%%%%%%%%%%%%%%%%%%%%%%%%%%++++++++++++++++++++++++++++++++++.......                                               ",
"                                                                                                            .............OOOOOOOOOOOOOO%%%%%%%%%%%%%:::::::.......       ......*******---------------------------------------------------------------------------------------------------------------------------------******+++++++++++++++++++++++++++++++++++++++++.......             %%%%%%%%%%%%%%%%%%%%%%%%%%%%%%%%%%++++++++++++++++++++++++++++++++++.......                                               ",
"                                                                                                     .......OOOOOOOOOOOOO%%%%%%%%%%%%%%%%%%%%%%%%%%%.....................++++++----------------------------------------------------------------------------------------------------------------------------------------------OOOOOOO++++++++++++++++++++++++++++++++++.......      ..............%%%%%%%%%%%%%%%%%%%%%%%%%%%++++++++++++++++++++++++++++++++++.......                                               ",
"                                                                                                     .......OOOOOOOOOOOOO%%%%%%%%%%%%%%%%%%%%%%%%%%%.....................++++++----------------------------------------------------------------------------------------------------------------------------------------------OOOOOOO++++++++++++++++++++++++++++++++++.......      ..............%%%%%%%%%%%%%%%%%%%%%%%%%%%++++++++++++++++++++++++++++++++++.......                                               ",
"                                                                                                     .......OOOOOOOOOOOOO%%%%%%%%%%%%%%%%%%%%%%%%%%%.....................++++++----------------------------------------------------------------------------------------------------------------------------------------------OOOOOOO++++++++++++++++++++++++++++++++++.......      ..............%%%%%%%%%%%%%%%%%%%%%%%%%%%++++++++++++++++++++++++++++++++++.......                                               ",
"                                                                                                     .......OOOOOOOOOOOOO%%%%%%%%%%%%%%%%%%%%%%%%%%%.....................++++++----------------------------------------------------------------------------------------------------------------------------------------------OOOOOOO++++++++++++++++++++++++++++++++++.......      ..............%%%%%%%%%%%%%%%%%%%%%%%%%%%++++++++++++++++++++++++++++++++++.......                                               ",
"                                                                                                     .......OOOOOOOOOOOOO%%%%%%%%%%%%%%%%%%%%%%%%%%%.....................++++++----------------------------------------------------------------------------------------------------------------------------------------------OOOOOOO++++++++++++++++++++++++++++++++++.......      ..............%%%%%%%%%%%%%%%%%%%%%%%%%%%++++++++++++++++++++++++++++++++++.......                                               ",
"                                                                                                     .......OOOOOOOOOOOOO%%%%%%%%%%%%%%%%%%%%%%%%%%%.....................++++++----------------------------------------------------------------------------------------------------------------------------------------------OOOOOOO++++++++++++++++++++++++++++++++++.......      ..............%%%%%%%%%%%%%%%%%%%%%%%%%%%++++++++++++++++++++++++++++++++++.......                                               ",
"                                                                                                     .......OOOOOOOOOOOOO%%%%%%%%%%%%%%%%%%%%%%%%%%%.....................++++++----------------------------------------------------------------------------------------------------------------------------------------------OOOOOOO++++++++++++++++++++++++++++++++++.......      ..............%%%%%%%%%%%%%%%%%%%%%%%%%%%++++++++++++++++++++++++++++++++++.......                                               ",
"                                                                                                     .......OOOOOOOOOOOOO+++++++%%%%%%%%%%%%%%%%%%%%%%%%%%%..............++++++.....................-------------------------------------------------------------------..................................--------------------OOOOOOO+++++++++++++++++++++++++++++++++++++++++.............%%%%%%%%%%%%%%%%%%%%%%%%%%%%%%%%%%+++++++++++++++++++++++++++++++++++++++++......                                         ",
"                                                                                                     .......OOOOOOOOOOOOO+++++++%%%%%%%%%%%%%%%%%%%%%%%%%%%..............++++++.....................-------------------------------------------------------------------..................................--------------------OOOOOOO+++++++++++++++++++++++++++++++++++++++++.............%%%%%%%%%%%%%%%%%%%%%%%%%%%%%%%%%%+++++++++++++++++++++++++++++++++++++++++......                                         ",
"                                                                                                     .......OOOOOOOOOOOOO+++++++%%%%%%%%%%%%%%%%%%%%%%%%%%%..............++++++.....................-------------------------------------------------------------------..................................--------------------OOOOOOO+++++++++++++++++++++++++++++++++++++++++.............%%%%%%%%%%%%%%%%%%%%%%%%%%%%%%%%%%+++++++++++++++++++++++++++++++++++++++++......                                         ",
"                                                                                                     .......OOOOOOOOOOOOO+++++++%%%%%%%%%%%%%%%%%%%%%%%%%%%..............++++++.....................-------------------------------------------------------------------..................................--------------------OOOOOOO+++++++++++++++++++++++++++++++++++++++++.............%%%%%%%%%%%%%%%%%%%%%%%%%%%%%%%%%%+++++++++++++++++++++++++++++++++++++++++......                                         ",
"                                                                                                     .......OOOOOOOOOOOOO+++++++%%%%%%%%%%%%%%%%%%%%%%%%%%%..............++++++.....................-------------------------------------------------------------------..................................--------------------OOOOOOO+++++++++++++++++++++++++++++++++++++++++.............%%%%%%%%%%%%%%%%%%%%%%%%%%%%%%%%%%+++++++++++++++++++++++++++++++++++++++++......                                         ",
"                                                                                                     .......OOOOOOOOOOOOO+++++++%%%%%%%%%%%%%%%%%%%%%%%%%%%..............++++++.....................-------------------------------------------------------------------..................................--------------------OOOOOOO+++++++++++++++++++++++++++++++++++++++++.............%%%%%%%%%%%%%%%%%%%%%%%%%%%%%%%%%%+++++++++++++++++++++++++++++++++++++++++......                                         ",
"                                                                                                     .......:::::::+++++++++++++%%%%%%%%%%%%%%%%%%%%%%%%%%%..............++++++--------------@@@@@@@.............-----------------------------------------.............@@@@@@@-----------------------------------------------*******OOOOOOO++++++++++++++++++++++++++++++++++.............%%%%%%%%%%%%%%%%%%%%%%%%%%%%%%%%%%++++++++++++++++++++++++++++++++++.............                                         ",
"                                                                                                     .......:::::::+++++++++++++%%%%%%%%%%%%%%%%%%%%%%%%%%%..............++++++--------------@@@@@@@.............-----------------------------------------.............@@@@@@@-----------------------------------------------*******OOOOOOO++++++++++++++++++++++++++++++++++.............%%%%%%%%%%%%%%%%%%%%%%%%%%%%%%%%%%++++++++++++++++++++++++++++++++++.............                                         ",
"                                                                                                     .......:::::::+++++++++++++%%%%%%%%%%%%%%%%%%%%%%%%%%%..............++++++--------------@@@@@@@.............-----------------------------------------.............@@@@@@@-----------------------------------------------*******OOOOOOO++++++++++++++++++++++++++++++++++.............%%%%%%%%%%%%%%%%%%%%%%%%%%%%%%%%%%++++++++++++++++++++++++++++++++++.............                                         ",
"                                                                                                     .......:::::::+++++++++++++%%%%%%%%%%%%%%%%%%%%%%%%%%%..............++++++--------------@@@@@@@.............-----------------------------------------.............@@@@@@@-----------------------------------------------*******OOOOOOO++++++++++++++++++++++++++++++++++.............%%%%%%%%%%%%%%%%%%%%%%%%%%%%%%%%%%++++++++++++++++++++++++++++++++++.............                                         ",
"                                                                                                     .......:::::::+++++++++++++%%%%%%%%%%%%%%%%%%%%%%%%%%%..............++++++--------------@@@@@@@.............-----------------------------------------.............@@@@@@@-----------------------------------------------*******OOOOOOO++++++++++++++++++++++++++++++++++.............%%%%%%%%%%%%%%%%%%%%%%%%%%%%%%%%%%++++++++++++++++++++++++++++++++++.............                                         ",
"                                                                                                     .......:::::::+++++++++++++%%%%%%%%%%%%%%%%%%%%%%%%%%%..............++++++--------------@@@@@@@.............-----------------------------------------.............@@@@@@@-----------------------------------------------*******OOOOOOO++++++++++++++++++++++++++++++++++.............%%%%%%%%%%%%%%%%%%%%%%%%%%%%%%%%%%++++++++++++++++++++++++++++++++++.............                                         ",
"                                                                                                     .......:::::::+++++++++++++%%%%%%%%%%%%%%%%%%%%%%%%%%%..............++++++--------------@@@@@@@.............-----------------------------------------.............@@@@@@@-----------------------------------------------*******OOOOOOO++++++++++++++++++++++++++++++++++.............%%%%%%%%%%%%%%%%%%%%%%%%%%%%%%%%%%++++++++++++++++++++++++++++++++++.............                                         ",
"                                                                                              .......+++++++++++++++++++++++++++%%%%%%%%%%%%%%%%%%%%%%%%%%%%%%%%%%.......++++++-----------------------------------------------------------------------------------------------------------------------------------------------------OOOOOOO++++++++++++++++++++++++++++++++++.............%%%%%%%%%%%%%%%%%%%%%%%%%%%+++++++++++++++++++++++++++++++++++++++++                                                      ",
"                                                                                              .......+++++++++++++++++++++++++++%%%%%%%%%%%%%%%%%%%%%%%%%%%%%%%%%%.......++++++-----------------------------------------------------------------------------------------------------------------------------------------------------OOOOOOO++++++++++++++++++++++++++++++++++.............%%%%%%%%%%%%%%%%%%%%%%%%%%%+++++++++++++++++++++++++++++++++++++++++                                                      ",
"                                                                                              .......+++++++++++++++++++++++++++%%%%%%%%%%%%%%%%%%%%%%%%%%%%%%%%%%.......++++++-----------------------------------------------------------------------------------------------------------------------------------------------------OOOOOOO++++++++++++++++++++++++++++++++++.............%%%%%%%%%%%%%%%%%%%%%%%%%%%+++++++++++++++++++++++++++++++++++++++++                                                      ",
"                                                                                              .......+++++++++++++++++++++++++++%%%%%%%%%%%%%%%%%%%%%%%%%%%%%%%%%%.......++++++-----------------------------------------------------------------------------------------------------------------------------------------------------OOOOOOO++++++++++++++++++++++++++++++++++.............%%%%%%%%%%%%%%%%%%%%%%%%%%%+++++++++++++++++++++++++++++++++++++++++                                                      ",
"                                                                                              .......+++++++++++++++++++++++++++%%%%%%%%%%%%%%%%%%%%%%%%%%%%%%%%%%.......++++++-----------------------------------------------------------------------------------------------------------------------------------------------------OOOOOOO++++++++++++++++++++++++++++++++++.............%%%%%%%%%%%%%%%%%%%%%%%%%%%+++++++++++++++++++++++++++++++++++++++++                                                      ",
"                                                                                              .......+++++++++++++++++++++++++++%%%%%%%%%%%%%%%%%%%%%%%%%%%%%%%%%%.......++++++-----------------------------------------------------------------------------------------------------------------------------------------------------OOOOOOO++++++++++++++++++++++++++++++++++.............%%%%%%%%%%%%%%%%%%%%%%%%%%%+++++++++++++++++++++++++++++++++++++++++                                                      ",
"                                                                                              .......+++++++++++++++++++++++++++%%%%%%%%%%%%%%%%%%%%%%%%%%%%%%%%%%.......++++++-----------------------------------------------------------------------------------------------------------------------------------------------------OOOOOOO++++++++++++++++++++++++++++++++++.............%%%%%%%%%%%%%%%%%%%%%%%%%%%+++++++++++++++++++++++++++++++++++++++++                                                      ",
"                                                                                              .......+++++++++++++++++++++++++++%%%%%%%%%%%%%%%%%%%%%%%%%%%%%%%%%%.......++++++-----------------------------------------------------------------------------------------------------------------------------------------------------OOOOOOO++++++++++++++++++++++++++++++++++++++++%%%%%%%%%%%%%%%%%%%%%%%%%%%++++++++++++++++++++++++++++++++++++++++++++++++.......                                               ",
"                                                                                              .......+++++++++++++++++++++++++++%%%%%%%%%%%%%%%%%%%%%%%%%%%%%%%%%%.......++++++-----------------------------------------------------------------------------------------------------------------------------------------------------OOOOOOO++++++++++++++++++++++++++++++++++++++++%%%%%%%%%%%%%%%%%%%%%%%%%%%++++++++++++++++++++++++++++++++++++++++++++++++.......                                               ",
"                                                                                              .......+++++++++++++++++++++++++++%%%%%%%%%%%%%%%%%%%%%%%%%%%%%%%%%%.......++++++-----------------------------------------------------------------------------------------------------------------------------------------------------OOOOOOO++++++++++++++++++++++++++++++++++++++++%%%%%%%%%%%%%%%%%%%%%%%%%%%++++++++++++++++++++++++++++++++++++++++++++++++.......                                               ",
"                                                                                              .......+++++++++++++++++++++++++++%%%%%%%%%%%%%%%%%%%%%%%%%%%%%%%%%%.......++++++-----------------------------------------------------------------------------------------------------------------------------------------------------OOOOOOO++++++++++++++++++++++++++++++++++++++++%%%%%%%%%%%%%%%%%%%%%%%%%%%++++++++++++++++++++++++++++++++++++++++++++++++.......                                               ",
"                                                                                              .......+++++++++++++++++++++++++++%%%%%%%%%%%%%%%%%%%%%%%%%%%%%%%%%%.......++++++-----------------------------------------------------------------------------------------------------------------------------------------------------OOOOOOO++++++++++++++++++++++++++++++++++++++++%%%%%%%%%%%%%%%%%%%%%%%%%%%++++++++++++++++++++++++++++++++++++++++++++++++.......                                               ",
"                                                                                              .......+++++++++++++++++++++++++++%%%%%%%%%%%%%%%%%%%%%%%%%%%%%%%%%%.......++++++-----------------------------------------------------------------------------------------------------------------------------------------------------OOOOOOO++++++++++++++++++++++++++++++++++++++++%%%%%%%%%%%%%%%%%%%%%%%%%%%++++++++++++++++++++++++++++++++++++++++++++++++.......                                               ",
"                                                                                              .......+++++++++++++++++++++++++++%%%%%%%%%%%%%%%%%%%%%%%%%%%%%%%%%%.......++++++-----------------------------------------------------------------------------------------------------------------------------------------------------OOOOOOO++++++++++++++++++++++++++++++++++++++++%%%%%%%%%%%%%%%%%%%%%%%%%%%++++++++++++++++++++++++++++++++++++++++++++++++.......                                               ",
"                                                                                              .......+++++++++++++++++++++++++++%%%%%%%%%%%%%%%%%%%%%%%%%%%%%%%%%%OOOOOOO......*******---------------------------------------------------------------------------@@@@@@*******------------------------------------------------------OOOOOOO+++++++++++++++++++++++++++.............++++++++++++++%%%%%%%+++++++++++++++++++++++++++++++++++++++++++++++++++++++++++++                                               ",
"                                                                                              .......+++++++++++++++++++++++++++%%%%%%%%%%%%%%%%%%%%%%%%%%%%%%%%%%OOOOOOO......*******---------------------------------------------------------------------------@@@@@@*******------------------------------------------------------OOOOOOO+++++++++++++++++++++++++++.............++++++++++++++%%%%%%%+++++++++++++++++++++++++++++++++++++++++++++++++++++++++++++                                               ",
"                                                                                              .......+++++++++++++++++++++++++++%%%%%%%%%%%%%%%%%%%%%%%%%%%%%%%%%%OOOOOOO......*******---------------------------------------------------------------------------@@@@@@*******------------------------------------------------------OOOOOOO+++++++++++++++++++++++++++.............++++++++++++++%%%%%%%+++++++++++++++++++++++++++++++++++++++++++++++++++++++++++++                                               ",
"                                                                                              .......+++++++++++++++++++++++++++%%%%%%%%%%%%%%%%%%%%%%%%%%%%%%%%%%OOOOOOO......*******---------------------------------------------------------------------------@@@@@@*******------------------------------------------------------OOOOOOO+++++++++++++++++++++++++++.............++++++++++++++%%%%%%%+++++++++++++++++++++++++++++++++++++++++++++++++++++++++++++                                               ",
"                                                                                              .......+++++++++++++++++++++++++++%%%%%%%%%%%%%%%%%%%%%%%%%%%%%%%%%%OOOOOOO......*******---------------------------------------------------------------------------@@@@@@*******------------------------------------------------------OOOOOOO+++++++++++++++++++++++++++.............++++++++++++++%%%%%%%+++++++++++++++++++++++++++++++++++++++++++++++++++++++++++++                                               ",
"                                                                                              .......+++++++++++++++++++++++++++%%%%%%%%%%%%%%%%%%%%%%%%%%%%%%%%%%OOOOOOO......*******---------------------------------------------------------------------------@@@@@@*******------------------------------------------------------OOOOOOO+++++++++++++++++++++++++++.............++++++++++++++%%%%%%%+++++++++++++++++++++++++++++++++++++++++++++++++++++++++++++                                               ",
"                                                                                              .......+++++++++++++++++++++++++++%%%%%%%%%%%%%%%%%%%%%%%%%%%%%%%%%%%%%%%%%......+++++++---------------------@@@@@@@@@@@@@----------------------------------@@@@@@@::::::.......-----------------------------------------------*******OOOOOOO+++++++++++++++++++++++++++.......++++++++++++++++++++++++++++++++++++++++++++++++++++++++++++++++++++++++++++++++++++++++                                               ",
"                                                                                              .......+++++++++++++++++++++++++++%%%%%%%%%%%%%%%%%%%%%%%%%%%%%%%%%%%%%%%%%......+++++++---------------------@@@@@@@@@@@@@----------------------------------@@@@@@@::::::.......-----------------------------------------------*******OOOOOOO+++++++++++++++++++++++++++.......++++++++++++++++++++++++++++++++++++++++++++++++++++++++++++++++++++++++++++++++++++++++                                               ",
"                                                                                              .......+++++++++++++++++++++++++++%%%%%%%%%%%%%%%%%%%%%%%%%%%%%%%%%%%%%%%%%......+++++++---------------------@@@@@@@@@@@@@----------------------------------@@@@@@@::::::.......-----------------------------------------------*******OOOOOOO+++++++++++++++++++++++++++.......++++++++++++++++++++++++++++++++++++++++++++++++++++++++++++++++++++++++++++++++++++++++                                               ",
"                                                                                              .......+++++++++++++++++++++++++++%%%%%%%%%%%%%%%%%%%%%%%%%%%%%%%%%%%%%%%%%......+++++++---------------------@@@@@@@@@@@@@----------------------------------@@@@@@@::::::.......-----------------------------------------------*******OOOOOOO+++++++++++++++++++++++++++.......++++++++++++++++++++++++++++++++++++++++++++++++++++++++++++++++++++++++++++++++++++++++                                               ",
"                                                                                              .......+++++++++++++++++++++++++++%%%%%%%%%%%%%%%%%%%%%%%%%%%%%%%%%%%%%%%%%......+++++++---------------------@@@@@@@@@@@@@----------------------------------@@@@@@@::::::.......-----------------------------------------------*******OOOOOOO+++++++++++++++++++++++++++.......++++++++++++++++++++++++++++++++++++++++++++++++++++++++++++++++++++++++++++++++++++++++                                               ",
"                                                                                              .......+++++++++++++++++++++++++++%%%%%%%%%%%%%%%%%%%%%%%%%%%%%%%%%%%%%%%%%......+++++++---------------------@@@@@@@@@@@@@----------------------------------@@@@@@@::::::.......-----------------------------------------------*******OOOOOOO+++++++++++++++++++++++++++.......++++++++++++++++++++++++++++++++++++++++++++++++++++++++++++++++++++++++++++++++++++++++                                               ",
"                                                                                              .......+++++++++++++++++++++++++++%%%%%%%%%%%%%%%%%%%%%%%%%%%%%%%%%%%%%%%%%......+++++++---------------------@@@@@@@@@@@@@----------------------------------@@@@@@@::::::.......-----------------------------------------------*******OOOOOOO+++++++++++++++++++++++++++.......++++++++++++++++++++++++++++++++++++++++++++++++++++++++++++++++++++++++++++++++++++++++                                               ",
"                                                                                              .......+++++++++++++++++++++++++++%%%%%%%%%%%%%%%%%%%%%%%%%%%%%%%%%%%%%%%%%OOOOOO.......*******--------------@@@@@@:::::::@@@@@@@-------******.....................@@@@@@*******-----------------------------------------******OOOOOOO+++++++++++++++++++++++++++OOOOOOO.......+++++++++++++++++++++++++++++++++++++++++++++++++++++++++++++++++++++++++++++++++.......                                               ",
"                                                                                              .......+++++++++++++++++++++++++++%%%%%%%%%%%%%%%%%%%%%%%%%%%%%%%%%%%%%%%%%OOOOOO.......*******--------------@@@@@@:::::::@@@@@@@-------******.....................@@@@@@*******-----------------------------------------******OOOOOOO+++++++++++++++++++++++++++OOOOOOO.......+++++++++++++++++++++++++++++++++++++++++++++++++++++++++++++++++++++++++++++++++.......                                               ",
"                                                                                              .......+++++++++++++++++++++++++++%%%%%%%%%%%%%%%%%%%%%%%%%%%%%%%%%%%%%%%%%OOOOOO.......*******--------------@@@@@@:::::::@@@@@@@-------******.....................@@@@@@*******-----------------------------------------******OOOOOOO+++++++++++++++++++++++++++OOOOOOO.......+++++++++++++++++++++++++++++++++++++++++++++++++++++++++++++++++++++++++++++++++.......                                               ",
"                                                                                              .......+++++++++++++++++++++++++++%%%%%%%%%%%%%%%%%%%%%%%%%%%%%%%%%%%%%%%%%OOOOOO.......*******--------------@@@@@@:::::::@@@@@@@-------******.....................@@@@@@*******-----------------------------------------******OOOOOOO+++++++++++++++++++++++++++OOOOOOO.......+++++++++++++++++++++++++++++++++++++++++++++++++++++++++++++++++++++++++++++++++.......                                               ",
"                                                                                              .......+++++++++++++++++++++++++++%%%%%%%%%%%%%%%%%%%%%%%%%%%%%%%%%%%%%%%%%OOOOOO.......*******--------------@@@@@@:::::::@@@@@@@-------******.....................@@@@@@*******-----------------------------------------******OOOOOOO+++++++++++++++++++++++++++OOOOOOO.......+++++++++++++++++++++++++++++++++++++++++++++++++++++++++++++++++++++++++++++++++.......                                               ",
"                                                                                              .......+++++++++++++++++++++++++++%%%%%%%%%%%%%%%%%%%%%%%%%%%%%%%%%%%%%%%%%OOOOOO.......*******--------------@@@@@@:::::::@@@@@@@-------******.....................@@@@@@*******-----------------------------------------******OOOOOOO+++++++++++++++++++++++++++OOOOOOO.......+++++++++++++++++++++++++++++++++++++++++++++++++++++++++++++++++++++++++++++++++.......                                               ",
"                                                                                              .......+++++++++++++++++++++++++++%%%%%%%%%%%%%%%%%%%%%%%%%%%%%%%%%%%%%%%%%OOOOOO.......*******--------------@@@@@@:::::::@@@@@@@-------******.....................@@@@@@*******-----------------------------------------******OOOOOOO+++++++++++++++++++++++++++OOOOOOO.......+++++++++++++++++++++++++++++++++++++++++++++++++++++++++++++++++++++++++++++++++.......                                               ",
"                                                                                              .......++++++++++++++++++++++++++++++++++%%%%%%%%%%%%%%%%%%%%%%%%%%%%%%%%%%%%%%%%.......+++++++--------------------...........................*******--------------------------------------------------------------------OOOOOOOOOOOOO+++++++++++++++++++++++++++.......++++++++++++++++++++++++++++++++++++++++++++++++++++++++++++++++++++++++++++++++++++++++                                                      ",
"                                                                                              .......++++++++++++++++++++++++++++++++++%%%%%%%%%%%%%%%%%%%%%%%%%%%%%%%%%%%%%%%%.......+++++++--------------------...........................*******--------------------------------------------------------------------OOOOOOOOOOOOO+++++++++++++++++++++++++++.......++++++++++++++++++++++++++++++++++++++++++++++++++++++++++++++++++++++++++++++++++++++++                                                      ",
"                                                                                              .......++++++++++++++++++++++++++++++++++%%%%%%%%%%%%%%%%%%%%%%%%%%%%%%%%%%%%%%%%.......+++++++--------------------...........................*******--------------------------------------------------------------------OOOOOOOOOOOOO+++++++++++++++++++++++++++.......++++++++++++++++++++++++++++++++++++++++++++++++++++++++++++++++++++++++++++++++++++++++                                                      ",
"                                                                                              .......++++++++++++++++++++++++++++++++++%%%%%%%%%%%%%%%%%%%%%%%%%%%%%%%%%%%%%%%%.......+++++++--------------------...........................*******--------------------------------------------------------------------OOOOOOOOOOOOO+++++++++++++++++++++++++++.......++++++++++++++++++++++++++++++++++++++++++++++++++++++++++++++++++++++++++++++++++++++++                                                      ",
"                                                                                              .......++++++++++++++++++++++++++++++++++%%%%%%%%%%%%%%%%%%%%%%%%%%%%%%%%%%%%%%%%.......+++++++--------------------...........................*******--------------------------------------------------------------------OOOOOOOOOOOOO+++++++++++++++++++++++++++.......++++++++++++++++++++++++++++++++++++++++++++++++++++++++++++++++++++++++++++++++++++++++                                                      ",
"                                                                                              .......++++++++++++++++++++++++++++++++++%%%%%%%%%%%%%%%%%%%%%%%%%%%%%%%%%%%%%%%%.......+++++++--------------------...........................*******--------------------------------------------------------------------OOOOOOOOOOOOO+++++++++++++++++++++++++++.......++++++++++++++++++++++++++++++++++++++++++++++++++++++++++++++++++++++++++++++++++++++++                                                      ",
"                                                                                              .......++++++++++++++++++++++++++++++++++%%%%%%%%%%%%%%%%%%%%%%%%%%%%%%%%%%%%%%%%.......+++++++--------------------...........................*******--------------------------------------------------------------------OOOOOOOOOOOOO+++++++++++++++++++++++++++.......++++++++++++++++++++++++++++++++++++++++++++++++++++++++++++++++++++++++++++++++++++++++                                                      ",
"                                                                                                     .......++++++++++++++++++++++++++++++++++%%%%%%+++++++%%%%%%%%%%%%%%%%%%%%..............OOOOOOO------------------------------------------------------------------------------------------------------------OOOOOOOOOOOOO+++++++++++++++++++++++++++OOOOOOO+++++++++++++++++++++++++++++++++++++++++++++++++++++++++++++++++++++++++++++++++++++++++++++++                                                      ",
"                                                                                                     .......++++++++++++++++++++++++++++++++++%%%%%%+++++++%%%%%%%%%%%%%%%%%%%%..............OOOOOOO------------------------------------------------------------------------------------------------------------OOOOOOOOOOOOO+++++++++++++++++++++++++++OOOOOOO+++++++++++++++++++++++++++++++++++++++++++++++++++++++++++++++++++++++++++++++++++++++++++++++                                                      ",
"                                                                                                     .......++++++++++++++++++++++++++++++++++%%%%%%+++++++%%%%%%%%%%%%%%%%%%%%..............OOOOOOO------------------------------------------------------------------------------------------------------------OOOOOOOOOOOOO+++++++++++++++++++++++++++OOOOOOO+++++++++++++++++++++++++++++++++++++++++++++++++++++++++++++++++++++++++++++++++++++++++++++++                                                      ",
"                                                                                                     .......++++++++++++++++++++++++++++++++++%%%%%%+++++++%%%%%%%%%%%%%%%%%%%%..............OOOOOOO------------------------------------------------------------------------------------------------------------OOOOOOOOOOOOO+++++++++++++++++++++++++++OOOOOOO+++++++++++++++++++++++++++++++++++++++++++++++++++++++++++++++++++++++++++++++++++++++++++++++                                                      ",
"                                                                                                     .......++++++++++++++++++++++++++++++++++%%%%%%+++++++%%%%%%%%%%%%%%%%%%%%..............OOOOOOO------------------------------------------------------------------------------------------------------------OOOOOOOOOOOOO+++++++++++++++++++++++++++OOOOOOO+++++++++++++++++++++++++++++++++++++++++++++++++++++++++++++++++++++++++++++++++++++++++++++++                                                      ",
"                                                                                                     .......++++++++++++++++++++++++++++++++++%%%%%%+++++++%%%%%%%%%%%%%%%%%%%%..............OOOOOOO------------------------------------------------------------------------------------------------------------OOOOOOOOOOOOO+++++++++++++++++++++++++++OOOOOOO+++++++++++++++++++++++++++++++++++++++++++++++++++++++++++++++++++++++++++++++++++++++++++++++                                                      ",
"                                                                                                     +++++++++++++++++++++++++++++++++++++++++++++++++++++++++++++++++++++++++++++++++OOOOOOOOOOOOOO----------------------------------------------------------------------------------------------OOOOOOO++++++++++++++++++++++++++++++++++++++++++++++++++++++++++++++++++++++++++++++++++++++++++++++++++++++++++++++++++++++++++++++++++++++++++++++OOOOOOO                                                      ",
"                                                                                                     +++++++++++++++++++++++++++++++++++++++++++++++++++++++++++++++++++++++++++++++++OOOOOOOOOOOOOO----------------------------------------------------------------------------------------------OOOOOOO++++++++++++++++++++++++++++++++++++++++++++++++++++++++++++++++++++++++++++++++++++++++++++++++++++++++++++++++++++++++++++++++++++++++++++++OOOOOOO                                                      ",
"                                                                                                     +++++++++++++++++++++++++++++++++++++++++++++++++++++++++++++++++++++++++++++++++OOOOOOOOOOOOOO----------------------------------------------------------------------------------------------OOOOOOO++++++++++++++++++++++++++++++++++++++++++++++++++++++++++++++++++++++++++++++++++++++++++++++++++++++++++++++++++++++++++++++++++++++++++++++OOOOOOO                                                      ",
"                                                                                                     +++++++++++++++++++++++++++++++++++++++++++++++++++++++++++++++++++++++++++++++++OOOOOOOOOOOOOO----------------------------------------------------------------------------------------------OOOOOOO++++++++++++++++++++++++++++++++++++++++++++++++++++++++++++++++++++++++++++++++++++++++++++++++++++++++++++++++++++++++++++++++++++++++++++++OOOOOOO                                                      ",
"                                                                                                     +++++++++++++++++++++++++++++++++++++++++++++++++++++++++++++++++++++++++++++++++OOOOOOOOOOOOOO----------------------------------------------------------------------------------------------OOOOOOO++++++++++++++++++++++++++++++++++++++++++++++++++++++++++++++++++++++++++++++++++++++++++++++++++++++++++++++++++++++++++++++++++++++++++++++OOOOOOO                                                      ",
"                                                                                                     +++++++++++++++++++++++++++++++++++++++++++++++++++++++++++++++++++++++++++++++++OOOOOOOOOOOOOO----------------------------------------------------------------------------------------------OOOOOOO++++++++++++++++++++++++++++++++++++++++++++++++++++++++++++++++++++++++++++++++++++++++++++++++++++++++++++++++++++++++++++++++++++++++++++++OOOOOOO                                                      ",
"                                                                                                     +++++++++++++++++++++++++++++++++++++++++++++++++++++++++++++++++++++++++++++++++OOOOOOOOOOOOOO----------------------------------------------------------------------------------------------OOOOOOO++++++++++++++++++++++++++++++++++++++++++++++++++++++++++++++++++++++++++++++++++++++++++++++++++++++++++++++++++++++++++++++++++++++++++++++OOOOOOO                                                      ",
"                                                                                                     +++++++++++++++++++++++++++++++++++++++++++++++++++++++++++++++++++++++++++++++++.......OOOOOOOOOOOOOO--------------------------------------------------------------------------#######OOOOOO++++++++++++++++++++++++++++++++++OOOOOOOOOOOOOO++++++++++++++++++++++++++++++++++++++++++++++++++++++++++++++++++++++++++++++++++++++++++++++++++++++++++++                                                      ",
"                                                                                                     +++++++++++++++++++++++++++++++++++++++++++++++++++++++++++++++++++++++++++++++++.......OOOOOOOOOOOOOO--------------------------------------------------------------------------#######OOOOOO++++++++++++++++++++++++++++++++++OOOOOOOOOOOOOO++++++++++++++++++++++++++++++++++++++++++++++++++++++++++++++++++++++++++++++++++++++++++++++++++++++++++++                                                      ",
"                                                                                                     +++++++++++++++++++++++++++++++++++++++++++++++++++++++++++++++++++++++++++++++++.......OOOOOOOOOOOOOO--------------------------------------------------------------------------#######OOOOOO++++++++++++++++++++++++++++++++++OOOOOOOOOOOOOO++++++++++++++++++++++++++++++++++++++++++++++++++++++++++++++++++++++++++++++++++++++++++++++++++++++++++++                                                      ",
"                                                                                                     +++++++++++++++++++++++++++++++++++++++++++++++++++++++++++++++++++++++++++++++++.......OOOOOOOOOOOOOO--------------------------------------------------------------------------#######OOOOOO++++++++++++++++++++++++++++++++++OOOOOOOOOOOOOO++++++++++++++++++++++++++++++++++++++++++++++++++++++++++++++++++++++++++++++++++++++++++++++++++++++++++++                                                      ",
"                                                                                                     +++++++++++++++++++++++++++++++++++++++++++++++++++++++++++++++++++++++++++++++++.......OOOOOOOOOOOOOO--------------------------------------------------------------------------#######OOOOOO++++++++++++++++++++++++++++++++++OOOOOOOOOOOOOO++++++++++++++++++++++++++++++++++++++++++++++++++++++++++++++++++++++++++++++++++++++++++++++++++++++++++++                                                      ",
"                                                                                                     +++++++++++++++++++++++++++++++++++++++++++++++++++++++++++++++++++++++++++++++++.......OOOOOOOOOOOOOO--------------------------------------------------------------------------#######OOOOOO++++++++++++++++++++++++++++++++++OOOOOOOOOOOOOO++++++++++++++++++++++++++++++++++++++++++++++++++++++++++++++++++++++++++++++++++++++++++++++++++++++++++++                                                      ",
"                                                                                                     +++++++++++++++++++++++++++++++++++++++++++++++++++++++++++++++++++++++++++++++++.......OOOOOOOOOOOOOO--------------------------------------------------------------------------#######OOOOOO++++++++++++++++++++++++++++++++++OOOOOOOOOOOOOO++++++++++++++++++++++++++++++++++++++++++++++++++++++++++++++++++++++++++++++++++++++++++++++++++++++++++++                                                      ",
"                                                                                                     .......+++++++++++++++++++++++++++++++++++++++++++++++++++++++++++++.............---------------------OOOOOO#######========---------------------------======********************-------------------------------------------------------------OOOOOO+++++++++++++++++++++++++++++++++++++++++++++++++++++++++++++++++++++++++++++++++++++++++++++++                                                             ",
"                                                                                                     .......+++++++++++++++++++++++++++++++++++++++++++++++++++++++++++++.............---------------------OOOOOO#######========---------------------------======********************-------------------------------------------------------------OOOOOO+++++++++++++++++++++++++++++++++++++++++++++++++++++++++++++++++++++++++++++++++++++++++++++++                                                             ",
"                                                                                                     .......+++++++++++++++++++++++++++++++++++++++++++++++++++++++++++++.............---------------------OOOOOO#######========---------------------------======********************-------------------------------------------------------------OOOOOO+++++++++++++++++++++++++++++++++++++++++++++++++++++++++++++++++++++++++++++++++++++++++++++++                                                             ",
"                                                                                                     .......+++++++++++++++++++++++++++++++++++++++++++++++++++++++++++++.............---------------------OOOOOO#######========---------------------------======********************-------------------------------------------------------------OOOOOO+++++++++++++++++++++++++++++++++++++++++++++++++++++++++++++++++++++++++++++++++++++++++++++++                                                             ",
"                                                                                                     .......+++++++++++++++++++++++++++++++++++++++++++++++++++++++++++++.............---------------------OOOOOO#######=======----------------------------======********************-------------------------------------------------------------OOOOOO+++++++++++++++++++++++++++++++++++++++++++++++++++++++++++++++++++++++++++++++++++++++++++++++                                                             ",
"                                                                                                     .......+++++++++++++++++++++++++++++++++++++++++++++++++++++++++++++.............---------------------OOOOOO#######========---------------------------======********************-------------------------------------------------------------OOOOOO+++++++++++++++++++++++++++++++++++++++++++++++++++++++++++++++++++++++++++++++++++++++++++++++                                                             ",
"                                                                                                     .......+++++++++++++++++++++++++++++++++++++++++++++++++++++++++++++.............---------------------OOOOOO#######========---------------------------======********************-------------------------------------------------------------OOOOOO+++++++++++++++++++++++++++++++++++++++++++++++++++++++++++++++++++++++++++++++++++++++++++++++                                                             ",
"                                                                                                            .......++++++++++++++++++++++++++++++++++++++++++++++++++++++.............---------------------------=======***********************************************======---------------------------------------------------------------------OOOOOO++++++++++++++++++++++++++++++++++++++++++++++++++++++++++++++++++++++++++++++++++++++++                                                                    ",
"                                                                                                            .......++++++++++++++++++++++++++++++++++++++++++++++++++++++.............---------------------------=======***********************************************-======--------------------------------------------------------------------OOOOOO++++++++++++++++++++++++++++++++++++++++++++++++++++++++++++++++++++++++++++++++++++++++                                                                    ",
"                                                                                                            .......++++++++++++++++++++++++++++++++++++++++++++++++++++++.............----------------------------======***********************************************-======--------------------------------------------------------------------OOOOOO++++++++++++++++++++++++++++++++++++++++++++++++++++++++++++++++++++++++++++++++++++++++                                                                    ",
"                                                                                                            .......++++++++++++++++++++++++++++++++++++++++++++++++++++++.............---------------------------=======***********************************************-======--------------------------------------------------------------------OOOOOO++++++++++++++++++++++++++++++++++++++++++++++++++++++++++++++++++++++++++++++++++++++++                                                                    ",
"                                                                                                            .......++++++++++++++++++++++++++++++++++++++++++++++++++++++.............---------------------------=======***********************************************======---------------------------------------------------------------------OOOOOO++++++++++++++++++++++++++++++++++++++++++++++++++++++++++++++++++++++++++++++++++++++++                                                                    ",
"                                                                                                            .......++++++++++++++++++++++++++++++++++++++++++++++++++++++.............----------------------------======***********************************************======---------------------------------------------------------------------OOOOOO++++++++++++++++++++++++++++++++++++++++++++++++++++++++++++++++++++++++++++++++++++++++                                                                    ",
"                                                                                                            .......+++++++++++++++++++++++++++++++++++++++++++++++.......------------------------------------------------======***************************======----------------------------------------------------------------------------------******OOOOOOOOOOOOOO++++++++++++++++++++++++++++++++++++++++++++++++++++++++++++++++++++++++++                                                                    ",
"                                                                                                            .......+++++++++++++++++++++++++++++++++++++++++++++++.......-----------------------------------------------=======***************************======----------------------------------------------------------------------------------******OOOOOOOOOOOOOO++++++++++++++++++++++++++++++++++++++++++++++++++++++++++++++++++++++++++                                                                    ",
"                                                                                                            .......+++++++++++++++++++++++++++++++++++++++++++++++.......------------------------------------------------======***************************======----------------------------------------------------------------------------------******OOOOOOOOOOOOOO++++++++++++++++++++++++++++++++++++++++++++++++++++++++++++++++++++++++++                                                                    ",
"                                                                                                            .......+++++++++++++++++++++++++++++++++++++++++++++++.......-----------------------------------------------=======***************************=======---------------------------------------------------------------------------------******OOOOOOOOOOOOOO++++++++++++++++++++++++++++++++++++++++++++++++++++++++++++++++++++++++++                                                                    ",
"                                                                                                            .......+++++++++++++++++++++++++++++++++++++++++++++++.......------------------------------------------------======***************************=======---------------------------------------------------------------------------------******OOOOOOOOOOOOOO++++++++++++++++++++++++++++++++++++++++++++++++++++++++++++++++++++++++++                                                                    ",
"                                                                                                            .......+++++++++++++++++++++++++++++++++++++++++++++++.......------------------------------------------------======***************************=======---------------------------------------------------------------------------------******OOOOOOOOOOOOOO++++++++++++++++++++++++++++++++++++++++++++++++++++++++++++++++++++++++++                                                                    ",
"                                                                                                            .......+++++++++++++++++++++++++++++++++++++++++++++++.......------------------------------------------------======***************************=======---------------------------------------------------------------------------------******OOOOOOOOOOOOOO++++++++++++++++++++++++++++++++++++++++++++++++++++++++++++++++++++++++++                                                                    ",
"                                                                                                                   ++++++++++++++++++++++++++++++++++++++++.......----------------------------------------------------------------------------------------------------------------------------------------------------------------------------------------------------OOOOOOO++++++++++++++++++++++++++++++++++++++++++++++++++++++++++++++++++++++++++                                                             ",
"                                                                                                                   ++++++++++++++++++++++++++++++++++++++++.......----------------------------------------------------------------------------------------------------------------------------------------------------------------------------------------------------OOOOOOO++++++++++++++++++++++++++++++++++++++++++++++++++++++++++++++++++++++++++                                                             ",
"                                                                                                                   ++++++++++++++++++++++++++++++++++++++++.......----------------------------------------------------------------------------------------------------------------------------------------------------------------------------------------------------OOOOOOO++++++++++++++++++++++++++++++++++++++++++++++++++++++++++++++++++++++++++                                                             ",
"                                                                                                                   ++++++++++++++++++++++++++++++++++++++++.......----------------------------------------------------------------------------------------------------------------------------------------------------------------------------------------------------OOOOOOO++++++++++++++++++++++++++++++++++++++++++++++++++++++++++++++++++++++++++                                                             ",
"                                                                                                                   ++++++++++++++++++++++++++++++++++++++++.......----------------------------------------------------------------------------------------------------------------------------------------------------------------------------------------------------OOOOOOO++++++++++++++++++++++++++++++++++++++++++++++++++++++++++++++++++++++++++                                                             ",
"                                                                                                                   ++++++++++++++++++++++++++++++++++++++++.......----------------------------------------------------------------------------------------------------------------------------------------------------------------------------------------------------OOOOOOO++++++++++++++++++++++++++++++++++++++++++++++++++++++++++++++++++++++++++                                                             ",
"                                                                                                                   ++++++++++++++++++++++++++++++++++++++++.......----------------------------------------------------------------------------------------------------------------------------------------------------------------------------------------------------OOOOOOO++++++++++++++++++++++++++++++++++++++++++++++++++++++++++++++++++++++++++                                                             ",
"                                                                                                            .......+++++++++++++++++++++++++++++++++.......------------------------------------------------------------------------------------------------------------------------------------------------------------------------------------------------------------------OOOOOO+++++++++++++++++++++++++++++++++++++++++++++++++++++++++++++OOOOOOO.......                                                      ",
"                                                                                                            .......+++++++++++++++++++++++++++++++++.......------------------------------------------------------------------------------------------------------------------------------------------------------------------------------------------------------------------OOOOOO+++++++++++++++++++++++++++++++++++++++++++++++++++++++++++++OOOOOOO.......                                                      ",
"                                                                                                            .......+++++++++++++++++++++++++++++++++.......------------------------------------------------------------------------------------------------------------------------------------------------------------------------------------------------------------------OOOOOO+++++++++++++++++++++++++++++++++++++++++++++++++++++++++++++OOOOOOO.......                                                      ",
"                                                                                                            .......+++++++++++++++++++++++++++++++++.......------------------------------------------------------------------------------------------------------------------------------------------------------------------------------------------------------------------OOOOOO+++++++++++++++++++++++++++++++++++++++++++++++++++++++++++++OOOOOOO.......                                                      ",
"                                                                                                            .......+++++++++++++++++++++++++++++++++.......------------------------------------------------------------------------------------------------------------------------------------------------------------------------------------------------------------------OOOOOO+++++++++++++++++++++++++++++++++++++++++++++++++++++++++++++OOOOOOO.......                                                      ",
"                                                                                                            .......+++++++++++++++++++++++++++++++++.......------------------------------------------------------------------------------------------------------------------------------------------------------------------------------------------------------------------OOOOOO+++++++++++++++++++++++++++++++++++++++++++++++++++++++++++++OOOOOOO.......                                                      ",
"                                                                                                            .......+++++++++++++++++++++++++++++++++.......------------------------------------------------------------------------------------------------------------------------------------------------------------------------------------------------------------------OOOOOO+++++++++++++++++++++++++++++++++++++++++++++++++++++++++++++OOOOOOO.......                                                      ",
"                                                                                                                         +++++++++++++++++++++......-------------------------------------------------------------------------------------------------------------------------------------------------------------------------------------------------------------------------------OOOOOOO++++++++++++++++++++++++++++++++++++++++++++++++++++++++++++++++++++.......                                               ",
"                                                                                                                         +++++++++++++++++++++......-------------------------------------------------------------------------------------------------------------------------------------------------------------------------------------------------------------------------------OOOOOOO++++++++++++++++++++++++++++++++++++++++++++++++++++++++++++++++++++.......                                               ",
"                                                                                                                         +++++++++++++++++++++......-------------------------------------------------------------------------------------------------------------------------------------------------------------------------------------------------------------------------------OOOOOOO++++++++++++++++++++++++++++++++++++++++++++++++++++++++++++++++++++.......                                               ",
"                                                                                                                         +++++++++++++++++++++......-------------------------------------------------------------------------------------------------------------------------------------------------------------------------------------------------------------------------------OOOOOOO++++++++++++++++++++++++++++++++++++++++++++++++++++++++++++++++++++.......                                               ",
"                                                                                                                         +++++++++++++++++++++......-------------------------------------------------------------------------------------------------------------------------------------------------------------------------------------------------------------------------------OOOOOOO++++++++++++++++++++++++++++++++++++++++++++++++++++++++++++++++++++.......                                               ",
"                                                                                                                         +++++++++++++++++++++......-------------------------------------------------------------------------------------------------------------------------------------------------------------------------------------------------------------------------------OOOOOOO++++++++++++++++++++++++++++++++++++++++++++++++++++++++++++++++++++.......                                               ",
"                                                                                                                                ..............-------------------------------------------------------------------------------------------------------------------------------------------------------------------------------------------------------------------------------------OOOOOOO++++++++++++++++++++++++++++++++++++++++++++++++++++++++++++++++++++OOOOOOO.............                                  ",
"                                                                                                                                ..............-------------------------------------------------------------------------------------------------------------------------------------------------------------------------------------------------------------------------------------OOOOOOO++++++++++++++++++++++++++++++++++++++++++++++++++++++++++++++++++++OOOOOOO.............                                  ",
"                                                                                                                                ..............-------------------------------------------------------------------------------------------------------------------------------------------------------------------------------------------------------------------------------------OOOOOOO++++++++++++++++++++++++++++++++++++++++++++++++++++++++++++++++++++OOOOOOO.............                                  ",
"                                                                                                                                ..............-------------------------------------------------------------------------------------------------------------------------------------------------------------------------------------------------------------------------------------OOOOOOO++++++++++++++++++++++++++++++++++++++++++++++++++++++++++++++++++++OOOOOOO.............                                  ",
"                                                                                                                                ..............-------------------------------------------------------------------------------------------------------------------------------------------------------------------------------------------------------------------------------------OOOOOOO++++++++++++++++++++++++++++++++++++++++++++++++++++++++++++++++++++OOOOOOO.............                                  ",
"                                                                                                                                ..............-------------------------------------------------------------------------------------------------------------------------------------------------------------------------------------------------------------------------------------OOOOOOO++++++++++++++++++++++++++++++++++++++++++++++++++++++++++++++++++++OOOOOOO.............                                  ",
"                                                                                                                                ..............-------------------------------------------------------------------------------------------------------------------------------------------------------------------------------------------------------------------------------------OOOOOOO++++++++++++++++++++++++++++++++++++++++++++++++++++++++++++++++++++OOOOOOO.............                                  ",
"                                                                                                                                ..............--------------------------------------------------------------------------------------------------------------------------------------------------------------------------------------------------------------------------------------------OOOOOOO++++++++++++++++++++++++++++++++++++++++++++++++++++++OOOOOOO+++++++....................                           ",
"                                                                                                                                ..............--------------------------------------------------------------------------------------------------------------------------------------------------------------------------------------------------------------------------------------------OOOOOOO++++++++++++++++++++++++++++++++++++++++++++++++++++++OOOOOOO+++++++....................                           ",
"                                                                                                                                ..............--------------------------------------------------------------------------------------------------------------------------------------------------------------------------------------------------------------------------------------------OOOOOOO++++++++++++++++++++++++++++++++++++++++++++++++++++++OOOOOOO+++++++....................                           ",
"                                                                                                                                ..............--------------------------------------------------------------------------------------------------------------------------------------------------------------------------------------------------------------------------------------------OOOOOOO++++++++++++++++++++++++++++++++++++++++++++++++++++++OOOOOOO+++++++....................                           ",
"                                                                                                                                ..............--------------------------------------------------------------------------------------------------------------------------------------------------------------------------------------------------------------------------------------------OOOOOOO++++++++++++++++++++++++++++++++++++++++++++++++++++++OOOOOOO+++++++....................                           ",
"                                                                                                                                ..............--------------------------------------------------------------------------------------------------------------------------------------------------------------------------------------------------------------------------------------------OOOOOOO++++++++++++++++++++++++++++++++++++++++++++++++++++++OOOOOOO+++++++....................                           ",
"                                                                                                                                ..............--------------------------------------------------------------------------------------------------------------------------------------------------------------------------------------------------------------------------------------------OOOOOOO++++++++++++++++++++++++++++++++++++++++++++++++++++++OOOOOOO+++++++....................                           ",
"                                                                                                                         .......----------------------------------------------------------------------------------------------------------------------------------------------------------------------------------------------------------------------------------------------------------OOOOOOO+++++++++++++++++++++++++++++++++++++++++++++++OOOOOOOOOOOOOO+++++++OOOOOOOOOOOOO.......                           ",
"                                                                                                                         .......----------------------------------------------------------------------------------------------------------------------------------------------------------------------------------------------------------------------------------------------------------OOOOOOO+++++++++++++++++++++++++++++++++++++++++++++++OOOOOOOOOOOOOO+++++++OOOOOOOOOOOOO.......                           ",
"                                                                                                                         .......----------------------------------------------------------------------------------------------------------------------------------------------------------------------------------------------------------------------------------------------------------OOOOOOO+++++++++++++++++++++++++++++++++++++++++++++++OOOOOOOOOOOOOO+++++++OOOOOOOOOOOOO.......                           ",
"                                                                                                                         .......----------------------------------------------------------------------------------------------------------------------------------------------------------------------------------------------------------------------------------------------------------OOOOOOO+++++++++++++++++++++++++++++++++++++++++++++++OOOOOOOOOOOOOO+++++++OOOOOOOOOOOOO.......                           ",
"                                                                                                                         .......----------------------------------------------------------------------------------------------------------------------------------------------------------------------------------------------------------------------------------------------------------OOOOOOO+++++++++++++++++++++++++++++++++++++++++++++++OOOOOOOOOOOOOO+++++++OOOOOOOOOOOOO.......                           ",
"                                                                                                                         .......----------------------------------------------------------------------------------------------------------------------------------------------------------------------------------------------------------------------------------------------------------OOOOOOO+++++++++++++++++++++++++++++++++++++++++++++++OOOOOOOOOOOOOO+++++++OOOOOOOOOOOOO.......                           ",
"                                                                                                                         .......----------------------------------------------------------------------------------------------------------------------------------------------------------------------------------------------------------------------------------------------------------OOOOOOO+++++++++++++++++++++++++++++++++++++++++++++++OOOOOOOOOOOOOO+++++++OOOOOOOOOOOOO.......                           ",
"                                                                                                                         .......-----------------------------------------------------------------------------------------------------------------------------------------------------------------------------------------------------------------------------------------------------------======OOOOOOO+++++++++++++++++++++++++++++++++OOOOOOOOOOOOOOOOOOOOOOOOOOOOOOOOOOOOOOOOOOOOOOOO.......                    ",
"                                                                                                                         .......----------------------------------------------------------------------------------------------------------------------------------------------------------------------------------------------------------------------------------------------------------=======OOOOOOO+++++++++++++++++++++++++++++++++OOOOOOOOOOOOOOOOOOOOOOOOOOOOOOOOOOOOOOOOOOOOOOOO.......                    ",
"                                                                                                                         .......-----------------------------------------------------------------------------------------------------------------------------------------------------------------------------------------------------------------------------------------------------------======OOOOOOO+++++++++++++++++++++++++++++++++OOOOOOOOOOOOOOOOOOOOOOOOOOOOOOOOOOOOOOOOOOOOOOOO.......                    ",
"                                                                                                                         .......----------------------------------------------------------------------------------------------------------------------------------------------------------------------------------------------------------------------------------------------------------=======OOOOOOO+++++++++++++++++++++++++++++++++OOOOOOOOOOOOOOOOOOOOOOOOOOOOOOOOOOOOOOOOOOOOOOOO.......                    ",
"                                                                                                                         .......-----------------------------------------------------------------------------------------------------------------------------------------------------------------------------------------------------------------------------------------------------------======OOOOOOO+++++++++++++++++++++++++++++++++OOOOOOOOOOOOOOOOOOOOOOOOOOOOOOOOOOOOOOOOOOOOOOOO.......                    ",
"                                                                                                                         .......----------------------------------------------------------------------------------------------------------------------------------------------------------------------------------------------------------------------------------------------------------=======OOOOOOO+++++++++++++++++++++++++++++++++OOOOOOOOOOOOOOOOOOOOOOOOOOOOOOOOOOOOOOOOOOOOOOOO.......                    ",
"                                                                                                                   ......------------------------------------------------------------------------------------------------------------------------------------------------------------------------------------------------------------------------------------------------------------------------OOOOOOO+++++++++++++++++++++++++++OOOOOOOOOOOOOOOOOOOOOOOOOOOOOOOOOOOOOOOOOOOOOOOOOOOOOO.......                    ",
"                                                                                                                   ......------------------------------------------------------------------------------------------------------------------------------------------------------------------------------------------------------------------------------------------------------------------------OOOOOOO+++++++++++++++++++++++++++OOOOOOOOOOOOOOOOOOOOOOOOOOOOOOOOOOOOOOOOOOOOOOOOOOOOOO.......                    ",
"                                                                                                                   ......------------------------------------------------------------------------------------------------------------------------------------------------------------------------------------------------------------------------------------------------------------------------OOOOOOO+++++++++++++++++++++++++++OOOOOOOOOOOOOOOOOOOOOOOOOOOOOOOOOOOOOOOOOOOOOOOOOOOOOO.......                    ",
"                                                                                                                   ......------------------------------------------------------------------------------------------------------------------------------------------------------------------------------------------------------------------------------------------------------------------------OOOOOOO+++++++++++++++++++++++++++OOOOOOOOOOOOOOOOOOOOOOOOOOOOOOOOOOOOOOOOOOOOOOOOOOOOOO.......                    ",
"                                                                                                                   ......------------------------------------------------------------------------------------------------------------------------------------------------------------------------------------------------------------------------------------------------------------------------OOOOOOO+++++++++++++++++++++++++++OOOOOOOOOOOOOOOOOOOOOOOOOOOOOOOOOOOOOOOOOOOOOOOOOOOOOO.......                    ",
"                                                                                                                   ......------------------------------------------------------------------------------------------------------------------------------------------------------------------------------------------------------------------------------------------------------------------------OOOOOOO+++++++++++++++++++++++++++OOOOOOOOOOOOOOOOOOOOOOOOOOOOOOOOOOOOOOOOOOOOOOOOOOOOOO.......                    ",
"                                                                                                                   ......------------------------------------------------------------------------------------------------------------------------------------------------------------------------------------------------------------------------------------------------------------------------OOOOOOO+++++++++++++++++++++++++++OOOOOOOOOOOOOOOOOOOOOOOOOOOOOOOOOOOOOOOOOOOOOOOOOOOOOO.......                    ",
"                                                                                                                   ......------------------------------------------------------------------------------------------------------------------------------------------------------------------------------------------------------------------------------------------------------------------------OOOOOOO++++++OOOOOOOOOOOOOOOOOOOOOOOOOOOOOOOOOOOOOOOOOOOOOOOOOOOOOOOOOOOOOOOOOOOOOOOOOOO.......                    ",
"                                                                                                                   ......------------------------------------------------------------------------------------------------------------------------------------------------------------------------------------------------------------------------------------------------------------------------OOOOOOO++++++OOOOOOOOOOOOOOOOOOOOOOOOOOOOOOOOOOOOOOOOOOOOOOOOOOOOOOOOOOOOOOOOOOOOOOOOOOO.......                    ",
"                                                                                                                   ......------------------------------------------------------------------------------------------------------------------------------------------------------------------------------------------------------------------------------------------------------------------------OOOOOOO++++++OOOOOOOOOOOOOOOOOOOOOOOOOOOOOOOOOOOOOOOOOOOOOOOOOOOOOOOOOOOOOOOOOOOOOOOOOOO.......                    ",
"                                                                                                                   ......------------------------------------------------------------------------------------------------------------------------------------------------------------------------------------------------------------------------------------------------------------------------OOOOOOO++++++OOOOOOOOOOOOOOOOOOOOOOOOOOOOOOOOOOOOOOOOOOOOOOOOOOOOOOOOOOOOOOOOOOOOOOOOOOO.......                    ",
"                                                                                                                   ......------------------------------------------------------------------------------------------------------------------------------------------------------------------------------------------------------------------------------------------------------------------------OOOOOOO++++++OOOOOOOOOOOOOOOOOOOOOOOOOOOOOOOOOOOOOOOOOOOOOOOOOOOOOOOOOOOOOOOOOOOOOOOOOOO.......                    ",
"                                                                                                                   ......------------------------------------------------------------------------------------------------------------------------------------------------------------------------------------------------------------------------------------------------------------------------OOOOOOO++++++OOOOOOOOOOOOOOOOOOOOOOOOOOOOOOOOOOOOOOOOOOOOOOOOOOOOOOOOOOOOOOOOOOOOOOOOOOO.......                    ",
"                                                                                                                   ......------------------------------------------------------------------------------------------------------------------------------------------------------------------------------------------------------------------------------------------------------------------------OOOOOOO++++++OOOOOOOOOOOOOOOOOOOOOOOOOOOOOOOOOOOOOOOOOOOOOOOOOOOOOOOOOOOOOOOOOOOOOOOOOOO.......                    ",
"                                                                                                                   ......-------------------------------------------------------------------------------------------------------------------------------------------------------------------------------------------------------------------------------------------------------------------------------OOOOOOOOOOOOOOOOOOOOOOOOOOOOOOOOOOOOOOOOOOOOOOOOOOOOOOOOOOOOOOOOOOOOOOOOOOOOOOOOOOOOOOOO......              ",
"                                                                                                                   ......-------------------------------------------------------------------------------------------------------------------------------------------------------------------------------------------------------------------------------------------------------------------------------OOOOOOOOOOOOOOOOOOOOOOOOOOOOOOOOOOOOOOOOOOOOOOOOOOOOOOOOOOOOOOOOOOOOOOOOOOOOOOOOOOOOOOOO......              ",
"                                                                                                                   ......-------------------------------------------------------------------------------------------------------------------------------------------------------------------------------------------------------------------------------------------------------------------------------OOOOOOOOOOOOOOOOOOOOOOOOOOOOOOOOOOOOOOOOOOOOOOOOOOOOOOOOOOOOOOOOOOOOOOOOOOOOOOOOOOOOOOOO......              ",
"                                                                                                                   ......-------------------------------------------------------------------------------------------------------------------------------------------------------------------------------------------------------------------------------------------------------------------------------OOOOOOOOOOOOOOOOOOOOOOOOOOOOOOOOOOOOOOOOOOOOOOOOOOOOOOOOOOOOOOOOOOOOOOOOOOOOOOOOOOOOOOOO......              ",
"                                                                                                                   ......-------------------------------------------------------------------------------------------------------------------------------------------------------------------------------------------------------------------------------------------------------------------------------OOOOOOOOOOOOOOOOOOOOOOOOOOOOOOOOOOOOOOOOOOOOOOOOOOOOOOOOOOOOOOOOOOOOOOOOOOOOOOOOOOOOOOOO......              ",
"                                                                                                                   ......-------------------------------------------------------------------------------------------------------------------------------------------------------------------------------------------------------------------------------------------------------------------------------OOOOOOOOOOOOOOOOOOOOOOOOOOOOOOOOOOOOOOOOOOOOOOOOOOOOOOOOOOOOOOOOOOOOOOOOOOOOOOOOOOOOOOOO......              ",
"                                                                                                                   ......-------------------------------------------------------------------------------------------------------------------------------------------------------------------------------------------------------------------------------------------------------------------------------OOOOOOOOOOOOOOOOOOOOOOOOOOOOOOOOOOOOOOOOOOOOOOOOOOOOOOOOOOOOOOOOOOOOOOOOOOOOOOOOOOOOOOOO......              ",
"                                                                                                            .......------------------------------------------------------------------------------------------------------------------------------------------------------------------------------------------------------------------------------------------------------------------------------*******OOOOOOOOOOOOOOOOOOOOOOOOOOOOOOOOOOOOOOOOOOOOOOOOOOOOOOOOOOOOOOOOOOOOOOOOOOOOOOOOOOOOOOOO......              ",
"                                                                                                            .......------------------------------------------------------------------------------------------------------------------------------------------------------------------------------------------------------------------------------------------------------------------------------*******OOOOOOOOOOOOOOOOOOOOOOOOOOOOOOOOOOOOOOOOOOOOOOOOOOOOOOOOOOOOOOOOOOOOOOOOOOOOOOOOOOOOOOOO......              ",
"                                                                                                            .......------------------------------------------------------------------------------------------------------------------------------------------------------------------------------------------------------------------------------------------------------------------------------*******OOOOOOOOOOOOOOOOOOOOOOOOOOOOOOOOOOOOOOOOOOOOOOOOOOOOOOOOOOOOOOOOOOOOOOOOOOOOOOOOOOOOOOOO......              ",
"                                                                                                            .......------------------------------------------------------------------------------------------------------------------------------------------------------------------------------------------------------------------------------------------------------------------------------*******OOOOOOOOOOOOOOOOOOOOOOOOOOOOOOOOOOOOOOOOOOOOOOOOOOOOOOOOOOOOOOOOOOOOOOOOOOOOOOOOOOOOOOOO......              ",
"                                                                                                            .......------------------------------------------------------------------------------------------------------------------------------------------------------------------------------------------------------------------------------------------------------------------------------*******OOOOOOOOOOOOOOOOOOOOOOOOOOOOOOOOOOOOOOOOOOOOOOOOOOOOOOOOOOOOOOOOOOOOOOOOOOOOOOOOOOOOOOOO......              ",
"                                                                                                            .......------------------------------------------------------------------------------------------------------------------------------------------------------------------------------------------------------------------------------------------------------------------------------*******OOOOOOOOOOOOOOOOOOOOOOOOOOOOOOOOOOOOOOOOOOOOOOOOOOOOOOOOOOOOOOOOOOOOOOOOOOOOOOOOOOOOOOOO......              ",
"                                                                                                            .......------------------------------------------------------------------------------------------------------------------------------------------------------------------------------------------------------------------------------------------------------------------------------*******OOOOOOOOOOOOOOOOOOOOOOOOOOOOOOOOOOOOOOOOOOOOOOOOOOOOOOOOOOOOOOOOOOOOOOOOOOOOOOOOOOOOOOOO......              ",
"                                                                                                            .......-----------------------------------------------------------------------------------------------------------------------------------------------------------------------------------------------------------------------------------------------------------------------********************OOOOOOOOOOOOOOOOOOOOOOOOOOOOOOOOOOOOOOOOOOOOOOOOOOOOOOOOOOOOOOOOOOOOOOOOOOOOOOOOOO......              ",
"                                                                                                            .......-----------------------------------------------------------------------------------------------------------------------------------------------------------------------------------------------------------------------------------------------------------------------********************OOOOOOOOOOOOOOOOOOOOOOOOOOOOOOOOOOOOOOOOOOOOOOOOOOOOOOOOOOOOOOOOOOOOOOOOOOOOOOOOOO......              ",
"                                                                                                            .......-----------------------------------------------------------------------------------------------------------------------------------------------------------------------------------------------------------------------------------------------------------------------********************OOOOOOOOOOOOOOOOOOOOOOOOOOOOOOOOOOOOOOOOOOOOOOOOOOOOOOOOOOOOOOOOOOOOOOOOOOOOOOOOOO......              ",
"                                                                                                            .......-----------------------------------------------------------------------------------------------------------------------------------------------------------------------------------------------------------------------------------------------------------------------********************OOOOOOOOOOOOOOOOOOOOOOOOOOOOOOOOOOOOOOOOOOOOOOOOOOOOOOOOOOOOOOOOOOOOOOOOOOOOOOOOOO......              ",
"                                                                                                            .......-----------------------------------------------------------------------------------------------------------------------------------------------------------------------------------------------------------------------------------------------------------------------********************OOOOOOOOOOOOOOOOOOOOOOOOOOOOOOOOOOOOOOOOOOOOOOOOOOOOOOOOOOOOOOOOOOOOOOOOOOOOOOOOOO......              ",
"                                                                                                            .......-----------------------------------------------------------------------------------------------------------------------------------------------------------------------------------------------------------------------------------------------------------------------********************OOOOOOOOOOOOOOOOOOOOOOOOOOOOOOOOOOOOOOOOOOOOOOOOOOOOOOOOOOOOOOOOOOOOOOOOOOOOOOOOOO......              ",
"                                                                                                            .......-======----------------------------------------------------------------------------------------------------------------------------------------------------------------------------------------------------------------------------------------------------------------********************OOOOOOOOOOOOOOOOOOOOOOOOOOOOOOOOOOOOOOOOOOOOOOOOOOOOOOOOOOOOOOOOOOOOOOOOOOOOOOOOOO......              ",
"                                                                                                            .......-======----------------------------------------------------------------------------------------------------------------------------------------------------------------------------------------------------------------------------------------------------------------********************OOOOOOOOOOOOOOOOOOOOOOOOOOOOOOOOOOOOOOOOOOOOOOOOOOOOOOOOOOOOOOOOOOOOOOOOOOOOOOOOOO......              ",
"                                                                                                            .......-======----------------------------------------------------------------------------------------------------------------------------------------------------------------------------------------------------------------------------------------------------------------********************OOOOOOOOOOOOOOOOOOOOOOOOOOOOOOOOOOOOOOOOOOOOOOOOOOOOOOOOOOOOOOOOOOOOOOOOOOOOOOOOOO......              ",
"                                                                                                            .......-====------------------------------------------------------------------------------------------------------------------------------------------------------------------------------------------------------------------------------------------------------------------********************OOOOOOOOOOOOOOOOOOOOOOOOOOOOOOOOOOOOOOOOOOOOOOOOOOOOOOOOOOOOOOOOOOOOOOOOOOOOOOOOOO......              ",
"                                                                                                            .......-======----------------------------------------------------------------------------------------------------------------------------------------------------------------------------------------------------------------------------------------------------------------********************OOOOOOOOOOOOOOOOOOOOOOOOOOOOOOOOOOOOOOOOOOOOOOOOOOOOOOOOOOOOOOOOOOOOOOOOOOOOOOOOOO......              ",
"                                                                                                            .......-======----------------------------------------------------------------------------------------------------------------------------------------------------------------------------------------------------------------------------------------------------------------********************OOOOOOOOOOOOOOOOOOOOOOOOOOOOOOOOOOOOOOOOOOOOOOOOOOOOOOOOOOOOOOOOOOOOOOOOOOOOOOOOOO......              ",
"                                                                                                            .......-======----------------------------------------------------------------------------------------------------------------------------------------------------------------------------------------------------------------------------------------------------------------********************OOOOOOOOOOOOOOOOOOOOOOOOOOOOOOOOOOOOOOOOOOOOOOOOOOOOOOOOOOOOOOOOOOOOOOOOOOOOOOOOOO......              ",
"                                                                                                            .......-======---------------------------------------------------------------------------------------------------------------------------------------------------------------------------------------------------------------------------------------------============***************************OOOOOOOOOOOOOOOOOOOOOOOOOOOOOOOOOOOOOOOOOOOOOOOOOOOOOOOOOOOOOOOOOOOOOOOOOOOOOOOOOOOOOOOO........      ",
"                                                                                                            .......-======-------------------------------------------------------------------------------------------------------------------------------------------------------------------------------------------------------------------------------------------==============***************************OOOOOOOOOOOOOOOOOOOOOOOOOOOOOOOOOOOOOOOOOOOOOOOOOOOOOOOOOOOOOOOOOOOOOOOOOOOOOOOOOOOOOOOO........      ",
"                                                                                                            .......-====---------------------------------------------------------------------------------------------------------------------------------------------------------------------------------------------------------------------------------------------==============***************************OOOOOOOOOOOOOOOOOOOOOOOOOOOOOOOOOOOOOOOOOOOOOOOOOOOOOOOOOOOOOOOOOOOOOOOOOOOOOOOOOOOOOOOO........      ",
"                                                                                                            .......-=====----------------------------------------------------------------------------------------------------------------------------------------------------------------------------------------------------------------------------------------------============***************************OOOOOOOOOOOOOOOOOOOOOOOOOOOOOOOOOOOOOOOOOOOOOOOOOOOOOOOOOOOOOOOOOOOOOOOOOOOOOOOOOOOOOOOO........      ",
"                                                                                                            .......-====-----------------------------------------------------------------------------------------------------------------------------------------------------------------------------------------------------------------------------------------------============***************************OOOOOOOOOOOOOOOOOOOOOOOOOOOOOOOOOOOOOOOOOOOOOOOOOOOOOOOOOOOOOOOOOOOOOOOOOOOOOOOOOOOOOOOO........      ",
"                                                                                                            .......-======---------------------------------------------------------------------------------------------------------------------------------------------------------------------------------------------------------------------------------------------============***************************OOOOOOOOOOOOOOOOOOOOOOOOOOOOOOOOOOOOOOOOOOOOOOOOOOOOOOOOOOOOOOOOOOOOOOOOOOOOOOOOOOOOOOOO........      ",
"                                                                                                            .......-=====----------------------------------------------------------------------------------------------------------------------------------------------------------------------------------------------------------------------------------------------============***************************OOOOOOOOOOOOOOOOOOOOOOOOOOOOOOOOOOOOOOOOOOOOOOOOOOOOOOOOOOOOOOOOOOOOOOOOOOOOOOOOOOOOOOOO........      ",
"                                                                                                     .......*******-======-------------------------------------------------------------------------------------------------------------------------------------------------------------------------------------------------------------------------------====================*********************************OOOOOOOOOOOOOOOOOOOOOOOOOOOOOOOOOOOOOOOOOOOOOOOOOOOOOOOOOOOOOOOOOOOOOOOOOOOOOOOOOOOOOOOO........      ",
"                                                                                                     .......*******-======-------------------------------------------------------------------------------------------------------------------------------------------------------------------------------------------------------------------------------====================*********************************OOOOOOOOOOOOOOOOOOOOOOOOOOOOOOOOOOOOOOOOOOOOOOOOOOOOOOOOOOOOOOOOOOOOOOOOOOOOOOOOOOOOOOOO........      ",
"                                                                                                     .......*******-======-------------------------------------------------------------------------------------------------------------------------------------------------------------------------------------------------------------------------------====================*********************************OOOOOOOOOOOOOOOOOOOOOOOOOOOOOOOOOOOOOOOOOOOOOOOOOOOOOOOOOOOOOOOOOOOOOOOOOOOOOOOOOOOOOOOO........      ",
"                                                                                                     .......*******-======-------------------------------------------------------------------------------------------------------------------------------------------------------------------------------------------------------------------------------====================*********************************OOOOOOOOOOOOOOOOOOOOOOOOOOOOOOOOOOOOOOOOOOOOOOOOOOOOOOOOOOOOOOOOOOOOOOOOOOOOOOOOOOOOOOOO........      ",
"                                                                                                     .......*******-======-------------------------------------------------------------------------------------------------------------------------------------------------------------------------------------------------------------------------------====================*********************************OOOOOOOOOOOOOOOOOOOOOOOOOOOOOOOOOOOOOOOOOOOOOOOOOOOOOOOOOOOOOOOOOOOOOOOOOOOOOOOOOOOOOOOO........      ",
"                                                                                                     .......*******-======-------------------------------------------------------------------------------------------------------------------------------------------------------------------------------------------------------------------------------====================*********************************OOOOOOOOOOOOOOOOOOOOOOOOOOOOOOOOOOOOOOOOOOOOOOOOOOOOOOOOOOOOOOOOOOOOOOOOOOOOOOOOOOOOOOOO........      ",
"                                                                                                     .......*******-======-------------------------------------------------------------------------------------------------------------------------------------------------------------------------------------------------------------------------------====================*********************************OOOOOOOOOOOOOOOOOOOOOOOOOOOOOOOOOOOOOOOOOOOOOOOOOOOOOOOOOOOOOOOOOOOOOOOOOOOOOOOOOOOOOOOO........      ",
"                                                                                                     .......*************======--------------------------------------------------------------------------------------------------------------------------------------------------------------------------------------------------------------------===================******************************************************OOOOOOOOOOOOOOOOOOOOOOOOOOOOOOOOOOOOOOOOOOOOOOOOOOOOOOOOOOOOOOOOOOOOOOOOOO........      ",
"                                                                                                     .......*************-=======------------------------------------------------------------------------------------------------------------------------------------------------------------------------------------------------------------------===================******************************************************OOOOOOOOOOOOOOOOOOOOOOOOOOOOOOOOOOOOOOOOOOOOOOOOOOOOOOOOOOOOOOOOOOOOOOOOOO........      ",
"                                                                                                     .......*************-=======------------------------------------------------------------------------------------------------------------------------------------------------------------------------------------------------------------------===================******************************************************OOOOOOOOOOOOOOOOOOOOOOOOOOOOOOOOOOOOOOOOOOOOOOOOOOOOOOOOOOOOOOOOOOOOOOOOOO........      ",
"                                                                                                     .......*************-=======------------------------------------------------------------------------------------------------------------------------------------------------------------------------------------------------------------=-----===================******************************************************OOOOOOOOOOOOOOOOOOOOOOOOOOOOOOOOOOOOOOOOOOOOOOOOOOOOOOOOOOOOOOOOOOOOOOOOOO........      ",
"                                                                                                     .......*************======--------------------------------------------------------------------------------------------------------------------------------------------------------------------------------------------------------------------===================******************************************************OOOOOOOOOOOOOOOOOOOOOOOOOOOOOOOOOOOOOOOOOOOOOOOOOOOOOOOOOOOOOOOOOOOOOOOOOO........      ",
"                                                                                                     .......*************-=======------------------------------------------------------------------------------------------------------------------------------------------------------------------------------------------------------------------===================******************************************************OOOOOOOOOOOOOOOOOOOOOOOOOOOOOOOOOOOOOOOOOOOOOOOOOOOOOOOOOOOOOOOOOOOOOOOOOO........      ",
"                                                                                                     .......*************-=======------------------------------------------------------------------------------------------------------------------------------------------------------------------------------------------------------------------===================******************************************************OOOOOOOOOOOOOOOOOOOOOOOOOOOOOOOOOOOOOOOOOOOOOOOOOOOOOOOOOOOOOOOOOOOOOOOOOO........      ",
"                                                                                                     .......*************======--------------------------------------------------------------------------------------------------------------------------------------------------------------------------------------------------------------------===================******************************************************OOOOOOOOOOOOOOOOOOOOOOOOOOOOOOOOOOOOOOOOOOOOOOOOOOOOOOOOOOOOOOOOOOOOOOOOOO........      ",
"                                                                                                     .......*************=======-------------------------------------------------------------------------------------------------------------------------------------------------------------------------------------------------------------------===================******************************************************OOOOOOOOOOOOOOOOOOOOOOOOOOOOOOOOOOOOOOOOOOOOOOOOOOOOOOOOOOOOOOOOOOOOOOOOOO........      ",
"                                                                                                     .......*************-=======------------------------------------------------------------------------------------------------------------------------------------------------------------------------------------------------------------------===================******************************************************OOOOOOOOOOOOOOOOOOOOOOOOOOOOOOOOOOOOOOOOOOOOOOOOOOOOOOOOOOOOOOOOOOOOOOOOOO........      ",
"                                                                                                     .......*************=======--------------------=--------------------=---------------------=----------------------=-----------------------=------------------------=-------------------------=--------------------------=----------------------=======-=======-===******************************************************OOOOOOOOOOOOOOOOOOOOOOOOOOOOOOOOOOOOOOOOOOOOOOOOOOOOOOOOOOOOOOOOOOOOOOOOOO........      ",
"                                                                                                     .......*************=======-=--------------------=----------------------------=-----------------------------=------------------------------=-------------------------------=--------------------------------=---------------------------------========-=========-******************************************************OOOOOOOOOOOOOOOOOOOOOOOOOOOOOOOOOOOOOOOOOOOOOOOOOOOOOOOOOOOOOOOOOOOOOOOOOO........      ",
"                                                                                                     .......*************========---------------------=----------------------------------=-----------------------------------=------------------------------------=-------------------------------------=--------------------------------------=---=======-==========-******************************************************OOOOOOOOOOOOOOOOOOOOOOOOOOOOOOOOOOOOOOOOOOOOOOOOOOOOOOOOOOOOOOOOOOOOOOOOOO........      ",
"                                                                   .......                           .......********************=======-======---------------------=---------------------------------------=----------------------------------------=-----------------------------------------=-------------------------------------========-===========************************************************......**************OOOOOOOOOOOOOOOOOOOOOOOOOOOOOOOOOOOOOOOOOOOOOOOOOOOOOOOOOOOOOOOOOOOOOOOOOO........      ",
"                                                                   .......                           .......********************========-======--------------------=-------------------------------------------=--------------------------------------------=---------------------------------------------=--------------------------=======-======-====************************************************......**************OOOOOOOOOOOOOOOOOOOOOOOOOOOOOOOOOOOOOOOOOOOOOOOOOOOOOOOOOOOOOOOOOOOOOOOOOO........      ",
"                                                                   .......                           .......********************=======-======-=--------------------=--------------------------=--------------------=--------------------------=---------------------=--------------------------=----------------------=-------------=======-======-====************************************************......**************OOOOOOOOOOOOOOOOOOOOOOOOOOOOOOOOOOOOOOOOOOOOOOOOOOOOOOOOOOOOOOOOOOOOOOOOOO........      ",
"                                                                   .......                           .......********************=======-======-=---------------------=--------------------------=-----------------------=--------------------------=------------------------=--------------------------=-------------------------=---========-======-===************************************************......**************OOOOOOOOOOOOOOOOOOOOOOOOOOOOOOOOOOOOOOOOOOOOOOOOOOOOOOOOOOOOOOOOOOOOOOOOOO........      ",
"                                                                   .......                           .......********************=======-======-=----------------------=--------------------------=--------------------------=--------------------------=---------------------------=--------------------------=----------------------=======-======-====************************************************......**************OOOOOOOOOOOOOOOOOOOOOOOOOOOOOOOOOOOOOOOOOOOOOOOOOOOOOOOOOOOOOOOOOOOOOOOOOO........      ",
"                                                                   .......                           .......********************=======-======-=-----------------------=--------------------------=-----------------------------=--------------------------=------------------------------=--------------------------=---------------=======-======-====************************************************......**************OOOOOOOOOOOOOOOOOOOOOOOOOOOOOOOOOOOOOOOOOOOOOOOOOOOOOOOOOOOOOOOOOOOOOOOOOO........      ",
"                                                                   .......                           .......********************=======-======-=------------------------=--------------------------=--------------------------------=--------------------------=---------------------------------=--------------------------=--------=======-======-====************************************************......**************OOOOOOOOOOOOOOOOOOOOOOOOOOOOOOOOOOOOOOOOOOOOOOOOOOOOOOOOOOOOOOOOOOOOOOOOOO........      ",
"                                  .............              ......:::::::.......                    .......**********************************=======-======---------------------=--------------------------=----------------------------------=--------------------------=-----------------------------------=---------=======-======-====******************************************************.......::::::.......*******OOOOOOOOOOOOOOOOOOOOOOOOOOO.......OOOOOOOOOOOOOOOOOOOOOOOOOOOOOOOOOOOOOOOO........      ",
"                                  .............              ......:::::::.......                    .......**********************************=======-======----------------------=--------------------------=------------------------------------=--------------------------=-------------------------------------=---=========-======-===******************************************************.......::::::.......*******OOOOOOOOOOOOOOOOOOOOOOOOOOO.......OOOOOOOOOOOOOOOOOOOOOOOOOOOOOOOOOOOOOOOO........      ",
"                                  .............              ......:::::::.......                    .......**********************************=======-======-----------------------=--------------------------=--------------------------------------=--------------------------=---------------------------------------=========-======-==******************************************************.......::::::.......*******OOOOOOOOOOOOOOOOOOOOOOOOOOO.......OOOOOOOOOOOOOOOOOOOOOOOOOOOOOOOOOOOOOOOO........      ",
"                                  .............              ......:::::::.......                    .......**********************************=======-======------------------------=--------------------------=----------------------------------------=--------------------------=------------------------------------=========-======-==******************************************************.......::::::.......*******OOOOOOOOOOOOOOOOOOOOOOOOOOO.......OOOOOOOOOOOOOOOOOOOOOOOOOOOOOOOOOOOOOOOO........      ",
"                                  .............              ......:::::::.......                    .......**********************************=======-======-------------------------=--------------------------=------------------------------------------=--------------------------=---------------------------------=======-======-====******************************************************.......::::::.......*******OOOOOOOOOOOOOOOOOOOOOOOOOOO.......OOOOOOOOOOOOOOOOOOOOOOOOOOOOOOOOOOOOOOOO........      ",
"                                  .............              ......:::::::.......                    .......**********************************=======-======--------------------------=--------------------------=--------------------------------------------=--------------------------=-----------------------------========-======-====******************************************************.......::::::.......*******OOOOOOOOOOOOOOOOOOOOOOOOOOO.......OOOOOOOOOOOOOOOOOOOOOOOOOOOOOOOOOOOOOOOO........      ",
"                                  .............              ......:::::::.......                    .......**********************************=======-======---------------------------=--------------------------=----------------------------------------------=--------------------------=---------------------------=======-======-====******************************************************.......::::::.......*******OOOOOOOOOOOOOOOOOOOOOOOOOOO.......OOOOOOOOOOOOOOOOOOOOOOOOOOOOOOOOOOOOOOOO........      ",
"                                  ......:::::::....................:::::::;;;;;;;.......             .......****************************************=======-======-======----------------------=--------------------------=---------------------------=--------------------=-----------------=======-======-============-======-====*************************************************************.......::::::.......*******OOOOOOOOOOOOOOOOOOOO.......;;;;;;;.......OOOOOOOOOOOOOOOOOOOOOOOOOOOOOOOOO........      ",
"                                  ......:::::::....................:::::::;;;;;;;.......             .......****************************************========-======-======--------------------=--------------------------=---------------------------=---------------------=-----------------========-======-======-=======-======-=*************************************************************.......::::::.......*******OOOOOOOOOOOOOOOOOOOO.......;;;;;;;.......OOOOOOOOOOOOOOOOOOOOOOOOOOOOOOOOO........      ",
"                                  ......:::::::....................:::::::;;;;;;;.......             .......****************************************=======-======-======-=--------------------=--------------------------=---------------------------=----------------------=---------------=======-======-======-========-======-=*************************************************************.......::::::.......*******OOOOOOOOOOOOOOOOOOOO.......;;;;;;;.......OOOOOOOOOOOOOOOOOOOOOOOOOOOOOOOOO........      ",
"                                  ......:::::::....................:::::::;;;;;;;.......             .......****************************************=======-======-======-=---------------------=--------------------------=---------------------------=-----------------------=-------------========-======-======-=========-======*************************************************************.......::::::.......*******OOOOOOOOOOOOOOOOOOOO.......;;;;;;;.......OOOOOOOOOOOOOOOOOOOOOOOOOOOOOOOOO........      ",
"                                  ......:::::::....................:::::::;;;;;;;.......             .......****************************************========-======-======---------------------=--------------------------=---------------------------=------------------------=-------------=========-======-======-==========-====*************************************************************.......::::::.......*******OOOOOOOOOOOOOOOOOOOO.......;;;;;;;.......OOOOOOOOOOOOOOOOOOOOOOOOOOOOOOOOO........      ",
"                                  ......:::::::....................:::::::;;;;;;;.......             .......****************************************=======-======-======-=----------------------=--------------------------=---------------------------=-------------------------=---------========-======-======-===========-=====*************************************************************.......::::::.......*******OOOOOOOOOOOOOOOOOOOO.......;;;;;;;.......OOOOOOOOOOOOOOOOOOOOOOOOOOOOOOOOO........      ",
"                                  ......::::::::::::::.............:::::::;;;;;;;;;;;;;;....................***********************************************========-======-======-=====--------------------=--------------------------=---------------------------=-----=======-======-======-=====-=======-======-====*******************************************************************.......::::::::::::::::::::.......OOOOOOOOOOOOO.......:::::::;;;;;;;.......OOOOOOOOOOOOOOOOOOOOOOOOOOOOOOOOO........      ",
"                                  ......::::::::::::::.............:::::::;;;;;;;;;;;;;;....................***********************************************=======-======-======-=====-=--------------------=--------------------------=---------------------------=----=======-======-======-=====-========-======-===*******************************************************************.......::::::::::::::::::::.......OOOOOOOOOOOOO.......:::::::;;;;;;;.......OOOOOOOOOOOOOOOOOOOOOOOOOOOOOOOOO........      ",
"                                  ......::::::::::::::.............:::::::;;;;;;;;;;;;;;....................***********************************************=======-======-======-=====-=---------------------=--------------------------=---------------------------=---=======-======-======-=====-=========-======-==*******************************************************************.......::::::::::::::::::::.......OOOOOOOOOOOOO.......:::::::;;;;;;;.......OOOOOOOOOOOOOOOOOOOOOOOOOOOOOOOOO........      ",
"                                  ......::::::::::::::.............:::::::;;;;;;;;;;;;;;....................***********************************************=======-======-======-=====-=----------------------=--------------------------=---------------------------=--=======-======-======-=====-==========-======-=*******************************************************************.......::::::::::::::::::::.......OOOOOOOOOOOOO.......:::::::;;;;;;;.......OOOOOOOOOOOOOOOOOOOOOOOOOOOOOOOOO........      ",
"                                  ......::::::::::::::.............:::::::;;;;;;;;;;;;;;....................***********************************************=======-======-======-=====-=-----------------------=--------------------------=---------------------------=-=======-======-======-=====-===========-======-*******************************************************************.......::::::::::::::::::::.......OOOOOOOOOOOOO.......:::::::;;;;;;;.......OOOOOOOOOOOOOOOOOOOOOOOOOOOOOOOOO........      ",
"                                  ......::::::::::::::.............:::::::;;;;;;;;;;;;;;....................***********************************************========-======-======-=====---------------------=--------------------------=---------------------------=----========-======-======-=====-============-=====*******************************************************************.......::::::::::::::::::::.......OOOOOOOOOOOOO.......:::::::;;;;;;;.......OOOOOOOOOOOOOOOOOOOOOOOOOOOOOOOOO........      ",
"                                  ......::::::::::::::.............:::::::;;;;;;;;;;;;;;....................***********************************************========-======-======-=====----------------------=--------------------------=---------------------------=---========-======-======-=====-=============-====*******************************************************************.......::::::::::::::::::::.......OOOOOOOOOOOOO.......:::::::;;;;;;;.......OOOOOOOOOOOOOOOOOOOOOOOOOOOOOOOOO........      ",
"                           .............::::::::::::::ooooooo......;;;;;;;;;;;;;;ooooooo......*******.......*************************************************************=======-======-======-=====-==============-======-======-=====-===============-======-======-=====-================*********************************************************************************......*******;;;;;;;:::::::;;;;;;.......*******.......:::::::::::::;;;;;;;.......OOOOOOOOOOOOOOOOOOOOOOOOOOOOOOOOOOOOOOOO........      ",
"                           .............::::::::::::::ooooooo......;;;;;;;;;;;;;;ooooooo......*******.......*************************************************************=======-======-======-=====-=================-======-======-=====-==================-======-======-=====-==========*********************************************************************************......*******;;;;;;;:::::::;;;;;;.......*******.......:::::::::::::;;;;;;;.......OOOOOOOOOOOOOOOOOOOOOOOOOOOOOOOOOOOOOOOO........      ",
"                           .............::::::::::::::ooooooo......;;;;;;;;;;;;;;ooooooo......*******.......*************************************************************=========-======-======-=====-===================-======-======-=====-====================-======-======-=====-====*********************************************************************************......*******;;;;;;;:::::::;;;;;;.......*******.......:::::::::::::;;;;;;;.......OOOOOOOOOOOOOOOOOOOOOOOOOOOOOOOOOOOOOOOO........      ",
"                           .............::::::::::::::ooooooo......;;;;;;;;;;;;;;ooooooo......*******.......*************************************************************========-======-======-=====-=====================-======-======-=====-======================-======-======-=====-=*********************************************************************************......*******;;;;;;;:::::::;;;;;;.......*******.......:::::::::::::;;;;;;;.......OOOOOOOOOOOOOOOOOOOOOOOOOOOOOOOOOOOOOOOO........      ",
"                           .............::::::::::::::ooooooo......;;;;;;;;;;;;;;ooooooo......*******.......*************************************************************=======-======-======-=====-=======================-======-======-=====-========================-======-======-====*********************************************************************************......*******;;;;;;;:::::::;;;;;;.......*******.......:::::::::::::;;;;;;;.......OOOOOOOOOOOOOOOOOOOOOOOOOOOOOOOOOOOOOOOO........      ",
"                           .............::::::::::::::ooooooo......;;;;;;;;;;;;;;ooooooo......*******.......*************************************************************=======-======-======-=====-=========================-======-======-=====-==========================-======-======-*********************************************************************************......*******;;;;;;;:::::::;;;;;;.......*******.......:::::::::::::;;;;;;;.......OOOOOOOOOOOOOOOOOOOOOOOOOOOOOOOOOOOOOOOO........      ",
"                           .............::::::::::::::ooooooo......;;;;;;;;;;;;;;ooooooo......*******.......*************************************************************=======-======-======-=====-===========================-======-======-=====-============================-======-===*********************************************************************************......*******;;;;;;;:::::::;;;;;;.......*******.......:::::::::::::;;;;;;;.......OOOOOOOOOOOOOOOOOOOOOOOOOOOOOOOOOOOOOOOO........      ",
"                    .......:::::::::::::;;;;;;;oooooooooooooo-------------oooooooooooooo......--------------*******......***************************************************************************=======-======-======-=====-=============================-======-==***********************************************************************************************.......-------------XXXXXXXXXXXXXXXXXXXX--------------.......;;;;;;;;;;;;;;;;;;;;.......OOOOOOOOOOOOO..............OOOOOOOOOOOOO........      ",
"                    .......:::::::::::::;;;;;;;oooooooooooooo-------------oooooooooooooo......--------------*******......***************************************************************************=======-======-======-=====-==============================-======-=***********************************************************************************************.......-------------XXXXXXXXXXXXXXXXXXXX--------------.......;;;;;;;;;;;;;;;;;;;;.......OOOOOOOOOOOOO..............OOOOOOOOOOOOO........      ",
"                    .......:::::::::::::;;;;;;;oooooooooooooo-------------oooooooooooooo......--------------*******......***************************************************************************=======-======-======-=====-===============================-======-***********************************************************************************************.......-------------XXXXXXXXXXXXXXXXXXXX--------------.......;;;;;;;;;;;;;;;;;;;;.......OOOOOOOOOOOOO..............OOOOOOOOOOOOO........      ",
"                    .......:::::::::::::;;;;;;;oooooooooooooo-------------oooooooooooooo......--------------*******......***************************************************************************=======-======-======-=====-================================-======***********************************************************************************************.......-------------XXXXXXXXXXXXXXXXXXXX--------------.......;;;;;;;;;;;;;;;;;;;;.......OOOOOOOOOOOOO..............OOOOOOOOOOOOO........      ",
"                    .......:::::::::::::;;;;;;;oooooooooooooo-------------oooooooooooooo......--------------*******......***************************************************************************=======-======-======-=====-=================================-=====***********************************************************************************************.......-------------XXXXXXXXXXXXXXXXXXXX--------------.......;;;;;;;;;;;;;;;;;;;;.......OOOOOOOOOOOOO..............OOOOOOOOOOOOO........      ",
"                    .......:::::::::::::;;;;;;;oooooooooooooo-------------oooooooooooooo......--------------*******......***************************************************************************=========-======-======-=====-==================================-==***********************************************************************************************.......-------------XXXXXXXXXXXXXXXXXXXX--------------.......;;;;;;;;;;;;;;;;;;;;.......OOOOOOOOOOOOO..............OOOOOOOOOOOOO........      ",
"                    .......:::::::::::::;;;;;;;oooooooooooooo-------------oooooooooooooo......--------------*******......***************************************************************************=======-======-======-=====-===================================-===***********************************************************************************************.......-------------XXXXXXXXXXXXXXXXXXXX--------------.......;;;;;;;;;;;;;;;;;;;;.......OOOOOOOOOOOOO..............OOOOOOOOOOOOO........      ",
"                    ..............::::::.......--------------------=--------------------------=--------------------******.......*******************************************************************************************************************************************************************************************************************************.......----------------------=--------------------------=----*******....................*******.............:::::::.......OOOOOOOOOOOOO........      ",
"                    ..............::::::.......----------------------=--------------------------=------------------******.......*******************************************************************************************************************************************************************************************************************************.......-----------------------=--------------------------=---*******....................*******.............:::::::.......OOOOOOOOOOOOO........      ",
"                    ..............::::::.......---------------------=--------------------------=-------------------******.......*******************************************************************************************************************************************************************************************************************************.......------------------------=--------------------------=--*******....................*******.............:::::::.......OOOOOOOOOOOOO........      ",
"                    ..............::::::.......--------------------=--------------------------=--------------------******.......*******************************************************************************************************************************************************************************************************************************.......----------------------------=-------------------------*******....................*******.............:::::::.......OOOOOOOOOOOOO........      ",
"                    ..............::::::.......----------------------=--------------------------=------------------******.......*******************************************************************************************************************************************************************************************************************************.......-------------------------=--------------------------=-*******....................*******.............:::::::.......OOOOOOOOOOOOO........      ",
"                    ..............::::::.......----------------------=--------------------------=------------------******.......*******************************************************************************************************************************************************************************************************************************.......--------------------------=--------------------------=*******....................*******.............:::::::.......OOOOOOOOOOOOO........      ",
"                           .......;;;;;;.......---------------=======-======-=====--------------------=-------------=====..............*****************************************************************************************************************************************************************************************************************.......----------------------------=-----------------=========-======-------=======-====**************.......:::::::::::::.......OOOOOOO......              ",
"                           .......;;;;;;.......---------------=======-======-=====---------------------=------------=====..............*****************************************************************************************************************************************************************************************************************.......-----------------------------=-----------------==========-====-------=======-====**************.......:::::::::::::.......OOOOOOO......              ",
"                           .......;;;;;;.......--------------========-======-=====----------------------=---------=======..............*****************************************************************************************************************************************************************************************************************.......-----------------------------=-----------------===========-===-------========-===**************.......:::::::::::::.......OOOOOOO......              ",
"                           .......;;;;;;.......---------------========-======-====--------------------=-------------=====..............*****************************************************************************************************************************************************************************************************************.......------------------------------=-----------------============-=-----=========-====**************.......:::::::::::::.......OOOOOOO......              ",
"                           .......;;;;;;.......---------------=========-======-===--------------------=-------------=====..............*****************************************************************************************************************************************************************************************************************.......---------------------=--------------------------========-====--------=========-==**************.......:::::::::::::.......OOOOOOO......              ",
"                           .......;;;;;;.......---------------==========-======-=-------------------------=---------=====..............*****************************************************************************************************************************************************************************************************************.......----------------------=-------------------------=======-======-------========-===**************.......:::::::::::::.......OOOOOOO......              ",
"                           .......;;;;;;.......---------------==========-======-=--------------------------=--------=====..............*****************************************************************************************************************************************************************************************************************.......--------------------------------=-------------============-===-----===========-==**************.......:::::::::::::.......OOOOOOO......              ",
"                           .............-------==========-======-==**************=======-=-----------------==========-===*******.......*****************************************************************************************************************************************************************************************************************.......------------------------=---------===========-=**************=======***************************.......;;;;;;:::::::.......OOOOOOO......              ",
"                           .............-------===========-======-=**************========--------------------=======-====*******.......*****************************************************************************************************************************************************************************************************************.......------------------------------=---==========-==**************=======***************************.......;;;;;;:::::::.......OOOOOOO......              ",
"                           .............-------============-======-**************=======-=------------------===========-=*******.......*****************************************************************************************************************************************************************************************************************.......-------------------------------=---===========-**************=======***************************.......;;;;;;:::::::.......OOOOOOO......              ",
"                           .............-------=============-======**************========--------------------==========-=*******.......*****************************************************************************************************************************************************************************************************************.......-------------------------=---------============**************=======***************************.......;;;;;;:::::::.......OOOOOOO......              ",
"                           .............--------==============-====**************========------------------============-=*******.......*****************************************************************************************************************************************************************************************************************.......--------------------------------=--=======-====**************=======***************************.......;;;;;;:::::::.......OOOOOOO......              ",
"                           .............------============-======-=**************=======-=-------------------============*******.......*****************************************************************************************************************************************************************************************************************.......---------------------------------===========-==**************=======***************************.......;;;;;;:::::::.......OOOOOOO......              ",
"                           .............--------===============-===**************========--------------------============*******.......*****************************************************************************************************************************************************************************************************************.......----------------------------------=============**************=======***************************.......;;;;;;:::::::.......OOOOOOO......              ",
"                                  ......-=======-=====**********************************=======-----=============-=*************..............*********************************************************************************************************************************************************************************************.......******--------------------==============********************************************************************....................OOOOOOOOOOOOOO......              ",
"                                  ......=======-======**********************************=======-----==============-*************..............*********************************************************************************************************************************************************************************************.......******---------------------=============********************************************************************....................OOOOOOOOOOOOOO......              ",
"                                  ......-=======-=====**********************************=======-------=======-=====*************..............*********************************************************************************************************************************************************************************************.......******----------------------============********************************************************************....................OOOOOOOOOOOOOO......              ",
"                                  ......=======-======**********************************=======------==============*************..............*********************************************************************************************************************************************************************************************.......******--------------------==============********************************************************************....................OOOOOOOOOOOOOO......              ",
"                                  ......=======-======**********************************=======-------=======-=====*************..............*********************************************************************************************************************************************************************************************.......******---------------------=============********************************************************************....................OOOOOOOOOOOOOO......              ",
"                                  ......-=======-=====**********************************=======------==============*************..............*********************************************************************************************************************************************************************************************.......******----------------------============********************************************************************....................OOOOOOOOOOOOOO......              ",
"                                  ......-=======-=====**********************************=======-------=============*************..............*********************************************************************************************************************************************************************************************.......******---------------------========-====********************************************************************....................OOOOOOOOOOOOOO......              ",
"                                        .......-======****************************************************************************************......***************************************************************************************************************************************************************************************.......-------------------========*********************************XXXXXXX******************************************************.......OOOOOOO.......                    ",
"                                        .......-======****************************************************************************************......***************************************************************************************************************************************************************************************.......--------------------=======*********************************XXXXXXX******************************************************.......OOOOOOO.......                    ",
"                                        .......-======****************************************************************************************......***************************************************************************************************************************************************************************************.......---------------------======*********************************XXXXXXX******************************************************.......OOOOOOO.......                    ",
"                                        .......-======****************************************************************************************......***************************************************************************************************************************************************************************************.......---------------------======*********************************XXXXXXX******************************************************.......OOOOOOO.......                    ",
"                                        .......-======****************************************************************************************......***************************************************************************************************************************************************************************************.......--------------------=======*********************************XXXXXXX******************************************************.......OOOOOOO.......                    ",
"                                        .......-======****************************************************************************************......***************************************************************************************************************************************************************************************.......--------------------=======*********************************XXXXXXX******************************************************.......OOOOOOO.......                    ",
"                                        .......********************XXXXXXXXXXXXXX*************************************************************......OOOOOOO********************************************************************************************************************************************************************************.......---------------------======********************XXXXXXXXXXXXX#######XXXXXXXXXXXXXX****************************************.......OOOOOOO.......                    ",
"                                        .......********************XXXXXXXXXXXXXX*************************************************************......OOOOOOO********************************************************************************************************************************************************************************.......---------------------======********************XXXXXXXXXXXXX#######XXXXXXXXXXXXXX****************************************.......OOOOOOO.......                    ",
"                                        .......********************XXXXXXXXXXXXXX*************************************************************......OOOOOOO********************************************************************************************************************************************************************************.......=--------------------======********************XXXXXXXXXXXXX#######XXXXXXXXXXXXXX****************************************.......OOOOOOO.......                    ",
"                                        .......********************XXXXXXXXXXXXXX*************************************************************......OOOOOOO********************************************************************************************************************************************************************************.......--------------------=======********************XXXXXXXXXXXXX#######XXXXXXXXXXXXXX****************************************.......OOOOOOO.......                    ",
"                                        .......********************XXXXXXXXXXXXXX*************************************************************......OOOOOOO********************************************************************************************************************************************************************************.......---------------------======********************XXXXXXXXXXXXX#######XXXXXXXXXXXXXX****************************************.......OOOOOOO.......                    ",
"                                        .......********************XXXXXXXXXXXXXX*************************************************************......OOOOOOO********************************************************************************************************************************************************************************.......-------------------========********************XXXXXXXXXXXXX#######XXXXXXXXXXXXXX****************************************.......OOOOOOO.......                    ",
"                                        .......********************XXXXXXXXXXXXXX*************************************************************......OOOOOOO********************************************************************************************************************************************************************************.......--------------------=======********************XXXXXXXXXXXXX#######XXXXXXXXXXXXXX****************************************.......OOOOOOO.......                    ",
"                                               .......*******XXXXXX##############XXXXXXX******************************************************......OOOOOOOOOOOOOO*************************************************************************************************************************************************************************.......--------------------=======*************XXXXXXX##################################XXXXXX**********************************..............                           ",
"                                               .......*******XXXXXX##############XXXXXXX******************************************************......OOOOOOOOOOOOOO*************************************************************************************************************************************************************************.......--------------------=======*************XXXXXXX##################################XXXXXX**********************************..............                           ",
"                                               .......*******XXXXXX##############XXXXXXX******************************************************......OOOOOOOOOOOOOO*************************************************************************************************************************************************************************.......-------------------========*************XXXXXXX##################################XXXXXX**********************************..............                           ",
"                                               .......*******XXXXXX##############XXXXXXX******************************************************......OOOOOOOOOOOOOO*************************************************************************************************************************************************************************.......-------------------========*************XXXXXXX##################################XXXXXX**********************************..............                           ",
"                                               .......*******XXXXXX##############XXXXXXX******************************************************......OOOOOOOOOOOOOO*************************************************************************************************************************************************************************.......--------------------=======*************XXXXXXX##################################XXXXXX**********************************..............                           ",
"                                               .......*******XXXXXX##############XXXXXXX******************************************************......OOOOOOOOOOOOOO*************************************************************************************************************************************************************************.......---------------------======*************XXXXXXX##################################XXXXXX**********************************..............                           ",
"                                               .......*******XXXXXX##############XXXXXXX******************************************************......OOOOOOOOOOOOOO*************************************************************************************************************************************************************************.......---------------------======*************XXXXXXX##################################XXXXXX**********************************..............                           ",
"                                               .......XXXXXXX###########################XXXXXX************************************************......OOOOOOOOOOOOOOOOOOOOO*************************************************************************************************************************************************************************------------========********************XXXXXXX########################################XXXXXXX*********************.............                                  ",
"                                               .......XXXXXXX###########################XXXXXX************************************************......OOOOOOOOOOOOOOOOOOOOO*************************************************************************************************************************************************************************------------========********************XXXXXXX########################################XXXXXXX*********************.............                                  ",
"                                               .......XXXXXXX###########################XXXXXX************************************************......OOOOOOOOOOOOOOOOOOOOO*************************************************************************************************************************************************************************=------------=======********************XXXXXXX########################################XXXXXXX*********************.............                                  ",
"                                               .......XXXXXXX###########################XXXXXX************************************************......OOOOOOOOOOOOOOOOOOOOO*************************************************************************************************************************************************************************=------------=======********************XXXXXXX########################################XXXXXXX*********************.............                                  ",
"                                               .......XXXXXXX###########################XXXXXX************************************************......OOOOOOOOOOOOOOOOOOOOO*************************************************************************************************************************************************************************=-------------======********************XXXXXXX########################################XXXXXXX*********************.............                                  ",
"                                               .......XXXXXXX###########################XXXXXX************************************************......OOOOOOOOOOOOOOOOOOOOO*************************************************************************************************************************************************************************=------------=======********************XXXXXXX########################################XXXXXXX*********************.............                                  ",
"                                               .......XXXXXXX###########################XXXXXX************************************************......OOOOOOOOOOOOOOOOOOOOO*************************************************************************************************************************************************************************=------------=======********************XXXXXXX########################################XXXXXXX*********************.............                                  ",
"                                                      .......###########################XXXXXX*****************************************.......OOOOOOOOOOOOOOOOOOOOOOOOOOOOOOOOO************************************************************************************************************************************************************.......-------======**************XXXXXX################################################XXXXXX*********************.......                                               ",
"                                                      .......###########################XXXXXX*****************************************.......OOOOOOOOOOOOOOOOOOOOOOOOOOOOOOOOO************************************************************************************************************************************************************.......-------======**************XXXXXX################################################XXXXXX*********************.......                                               ",
"                                                      .......###########################XXXXXX*****************************************.......OOOOOOOOOOOOOOOOOOOOOOOOOOOOOOOOO************************************************************************************************************************************************************.......-------======**************XXXXXX################################################XXXXXX*********************.......                                               ",
"                                                      .......###########################XXXXXX*****************************************.......OOOOOOOOOOOOOOOOOOOOOOOOOOOOOOOOO************************************************************************************************************************************************************.......-------======**************XXXXXX################################################XXXXXX*********************.......                                               ",
"                                                      .......###########################XXXXXX*****************************************.......OOOOOOOOOOOOOOOOOOOOOOOOOOOOOOOOO************************************************************************************************************************************************************.......-------======**************XXXXXX################################################XXXXXX*********************.......                                               ",
"                                                      .......###########################XXXXXX*****************************************.......OOOOOOOOOOOOOOOOOOOOOOOOOOOOOOOOO************************************************************************************************************************************************************.......-------======**************XXXXXX################################################XXXXXX*********************.......                                               ",
"                                                             ......##################################XXXXXXX**********************************......OOOOOOOOOOOOOO..................................$$$$$$$***************************=-----**************=------******=------*******=------******=-------------**********************************-----========********************################################################XXXXXX*********************.......                                               ",
"                                                             ......##################################XXXXXXX**********************************......OOOOOOOOOOOOOO..................................$$$$$$$***************************=-----**************=------******-------*******=------******=-------------**********************************=-----=======********************################################################XXXXXX*********************.......                                               ",
"                                                             ......##################################XXXXXXX**********************************......OOOOOOOOOOOOOO..................................$$$$$$$***************************=-----**************=------******-------*******=------******=-------------**********************************=------======********************################################################XXXXXX*********************.......                                               ",
"                                                             ......##################################XXXXXXX**********************************......OOOOOOOOOOOOOO..................................$$$$$$$***************************=-----**************=------******=------*******=------******=-------------**********************************-------======********************################################################XXXXXX*********************.......                                               ",
"                                                             ......##################################XXXXXXX**********************************......OOOOOOOOOOOOOO..................................$$$$$$$***************************=-----**************=------******=------*******=------******=-------------**********************************=------======********************################################################XXXXXX*********************.......                                               ",
"                                                             ......##################################XXXXXXX**********************************......OOOOOOOOOOOOOO..................................$$$$$$$***************************=-----**************=------******-------*******=------******--------------**********************************=------======********************################################################XXXXXX*********************.......                                               ",
"                                                             ......##################################XXXXXXX**********************************......OOOOOOOOOOOOOO..................................$$$$$$$***************************=-----**************=------******=------*******=------******=-------------**********************************------=======********************################################################XXXXXX*********************.......                                               ",
"                                                                   ..............####################XXXXXXX**********************************....................                                  ..................................$$$$$$--------------*******=-----*******-------*******=-----**************........................................***************************XXXXXXX##################################XXXXXXX********************.......                                                      ",
"                                                                   ..............####################XXXXXXX**********************************....................                                  ..................................$$$$$$--------------*******=-----*******=------*******=-----**************........................................***************************XXXXXXX##################################XXXXXXX********************.......                                                      ",
"                                                                   ..............####################XXXXXXX**********************************....................                                  ..................................$$$$$$--------------*******------*******=------*******=-----**************........................................***************************XXXXXXX##################################XXXXXXX********************.......                                                      ",
"                                                                   ..............####################XXXXXXX**********************************....................                                  ..................................$$$$$$--------------*******=-----*******=------*******=-----**************........................................***************************XXXXXXX##################################XXXXXXX********************.......                                                      ",
"                                                                   ..............####################XXXXXXX**********************************....................                                  ..................................$$$$$$--------------*******=-----*******-------*******------**************........................................***************************XXXXXXX##################################XXXXXXX********************.......                                                      ",
"                                                                   ..............####################XXXXXXX**********************************....................                                  ..................................$$$$$$--------------*******=-----*******=------*******------**************........................................***************************XXXXXXX##################################XXXXXXX********************.......                                                      ",
"                                                                   ..............####################XXXXXXX**********************************....................                                  ..................................$$$$$$--------------*******=-----*******=------*******=-----**************........................................***************************XXXXXXX##################################XXXXXXX********************.......                                                      ",
"                                                                                 .......#############XXXXXXX********************..................................                                  ..................................$$$$$$--------------*******=-----*******-------*******------**************...............................................***************************XXXXXXXXXXXXXXXXXXXX#######XXXXXXX***************************.......                                                      ",
"                                                                                 .......#############XXXXXXX********************..................................                                  ..................................$$$$$$--------------*******=-----*******=------*******=-----**************...............................................***************************XXXXXXXXXXXXXXXXXXXX#######XXXXXXX***************************.......                                                      ",
"                                                                                 .......#############XXXXXXX********************..................................                                  ..................................$$$$$$--------------*******=-----*******=------*******=-----**************...............................................***************************XXXXXXXXXXXXXXXXXXXX#######XXXXXXX***************************.......                                                      ",
"                                                                                 .......#############XXXXXXX********************..................................                                  ..................................$$$$$$--------------*******------*******-------*******------**************...............................................***************************XXXXXXXXXXXXXXXXXXXX#######XXXXXXX***************************.......                                                      ",
"                                                                                 .......#############XXXXXXX********************..................................                                  ..................................$$$$$$--------------*******------*******-------*******------**************...............................................***************************XXXXXXXXXXXXXXXXXXXX#######XXXXXXX***************************.......                                                      ",
"                                                                                 .......#############XXXXXXX********************..................................                                  ..................................$$$$$$--------------*******------*******=------*******=-----**************...............................................***************************XXXXXXXXXXXXXXXXXXXX#######XXXXXXX***************************.......                                                      ",
"                                                                                 .......#############XXXXXXX********************..................................                                  ..................................$$$$$$--------------*******------*******-------*******=-----**************...............................................***************************XXXXXXXXXXXXXXXXXXXX#######XXXXXXX***************************.......                                                      ",
"                                                                                        .............*******....................                                                                                                      ..........................................................................                                               ..............*********************************XXXXXXX********************..............                                                             ",
"                                                                                        .............*******....................                                                                                                      ..........................................................................                                               ..............*********************************XXXXXXX********************..............                                                             ",
"                                                                                        .............*******....................                                                                                                      ..........................................................................                                               ..............*********************************XXXXXXX********************..............                                                             ",
"                                                                                        .............*******....................                                                                                                      ..........................................................................                                               ..............*********************************XXXXXXX********************..............                                                             ",
"                                                                                        .............*******....................                                                                                                      ..........................................................................                                               ..............*********************************XXXXXXX********************..............                                                             ",
"                                                                                        .............*******....................                                                                                                      ..........................................................................                                               ..............*********************************XXXXXXX********************..............                                                             ",
"                                                                                        .............*******....................                                                                                                      ..........................................................................                                               ..............*********************************XXXXXXX********************..............                                                             ",
"                                                                                                                                                                                                                                                                                                                                                                      .......***************************......*******..............                                                                                 ",
"                                                                                                                                                                                                                                                                                                                                                                      .......***************************......*******..............                                                                                 ",
"                                                                                                                                                                                                                                                                                                                                                                      .......***************************......*******..............                                                                                 ",
"                                                                                                                                                                                                                                                                                                                                                                      .......***************************......*******..............                                                                                 ",
"                                                                                                                                                                                                                                                                                                                                                                      .......***************************......*******..............                                                                                 ",
"                                                                                                                                                                                                                                                                                                                                                                      .......***************************......*******..............                                                                                 ",
"                                                                                                                                                                                                                                                                                                                                                                             ...........................      .......                                                                                               ",
"                                                                                                                                                                                                                                                                                                                                                                             ...........................      .......                                                                                               ",
"                                                                                                                                                                                                                                                                                                                                                                             ...........................      .......                                                                                               ",
"                                                                                                                                                                                                                                                                                                                                                                             ...........................      .......                                                                                               ",
"                                                                                                                                                                                                                                                                                                                                                                             ...........................      .......                                                                                               ",
"                                                                                                                                                                                                                                                                                                                                                                             ...........................      .......                                                                                               ",
"                                                                                                                                                                                                                                                                                                                                                                             ...........................      .......                                                                                               ",
"                                                                                                                                                                                                                                                                                                                                                                             ...........................      .......                                                                                               ",
"                                                                                                                                                                                                                                                                                                                                                                                                                                                                                                                    ",
"                                                                                                                                                                                                                                                                                                                                                                                                                                                                                                                    "
};
