/* XPM */
static char *out[] = {
/* columns rows colors chars-per-pixel */
"500 503 16 1 ",
"  c #FF00FF",
". c black",
"X c #634221",
"o c #735A21",
"O c #103942",
"+ c #315A7B",
"@ c gray45",
"# c #A57352",
"$ c #C69C5A",
"% c #528CAD",
"& c #73A5BD",
"* c #E7C6AD",
"= c #F7D6BD",
"- c #F7E7BD",
"; c #CECECE",
": c white",
/* pixels */
"                                                                                                                                                                                                                                                                                                                                                                                                                                                                                                                    ",
"                                                                                                                                                                                                                                                                                                                                                                                                                                                                                                                    ",
"                                                                                                                                                                                                                                                                                                                                                                                                                                                                                                                    ",
"                                                                                                                                                                                                                                                                                                                                                                                                                                                                                                                    ",
"                                                                                                                                                                                                                                                                                                                                                                                                                                                                                                                    ",
"                                                                                                                                                                                                                                                                                                                                                                                                                                                                                                                    ",
"                                                                                                                                                                                                                                                                                                                                                                                                                                                                                                                    ",
"                                                                                                                                                                                                                                                                                                                                                                                                                                                                                                                    ",
"                                                                                                                                                                                                                                                                                                                                                                                                                                                                                                                    ",
"                                                                                                                                                                                                                                                                                                                                                                                                                                                                                                                    ",
"                                                                                                                                                                                                                                                                                                                                                                                                                                                                                                                    ",
"                                                                                                                                                                                                                                                                                                                                                                                                                                                                                                                    ",
"                                                                                                                                                                                                                                                                                                                                                                                                                                                                                                                    ",
"                                                                                                                                                                                                                                                                                                                                                                                                                                                                                                                    ",
"                                                                                                                                                                                                                                                                                                                                                                                                                                                                                                                    ",
"                                                                                                                                                                                                                                                                                                                                                                                                                                                                                                                    ",
"                                                                                                                                                                                                                                                                                                                                                                                                                                                                                                                    ",
"                                                                                                                                                                                                                                                                                                                                                                                                                                                                                                                    ",
"                                                                                                                                                                                                                                                                                                                                                                                                                                                                                                                    ",
"                                                                                                                                                                                                                                                                                                                                                                                                                                                                                                                    ",
"                                                                                                                                                                                                                                                                                                                                                                                                                                                                                                                    ",
"                                                                                                                                                                                                                                                                                                                                                                                                                                                                                                                    ",
"                                                                                                                                                                                                                                                                                                                                                                                                                                                                                                                    ",
"                                                                                                                                                                                                                                                                                                                                                                                                                                                                                                                    ",
"                                                                                                                                                                                                                                                                                                                                                                                                                                                                                                                    ",
"                                                                                                                                                                                                                                                                                                                                                                                                                                                                                                                    ",
"                                                                                                                                                                                                                                                                                                                                                                                                                                                                                                                    ",
"                                                                                                                                                                                                                                                                                                                                                                                                                                                                                                                    ",
"                                                                                                                                                                                                                                                                                                                                                                                                                                                                                                                    ",
"                                                                                                                                                                                                                                                                                                                                                                                                                                                                                                                    ",
"                                                                                                                                                                                                                                                                                                                                                                                                                                                                                                                    ",
"                                                                                                                                                                                                                                                                                                                                                                                                                                                                                                                    ",
"                                                                                                                                                                                                                                                                                                                                                                                                                                                                                                                    ",
"                                                                                                                                                                                                                                                                                                                                                                                                                                                                                                                    ",
"                                                                                                                                                                                                                                                                                                                                                                                                                                                                                                                    ",
"                                                                                                                                                                                                                                                                                                                                                                                                                                                                                                                    ",
"                                                                                                                                                                                                                                                                                                                                                                                                                                                                                                                    ",
"                                                                                                                                                                                                                                                                                                                                                                                                                                                                                                                    ",
"                                                                                                                                                                                                                                                                                                                                                                                                                                                                                                                    ",
"                                                                                                                                                                                                                                                                                                                                                                                                                                                                                                                    ",
"                                                                                                                                                                                                                                                                                                                                                                                                                                                                                                                    ",
"                                                                                                                                                                                                                                                                                                                                                                                                                                                                                                                    ",
"                                                                                                                                                                                                                                                                                                                                                                                                                                                                                                                    ",
"                                                                                                                                                                                                                                                                                                                                                                                                                                                                                                                    ",
"                                                                                                                                                                                                                                                                                                                                                                                                                                                                                                                    ",
"                                                                                                                                                                                                                                                                                                                                                                                                                                                                                                                    ",
"                                                                                                                                                                                                                                                                                                                                                                                                                                                                                                                    ",
"                                                                                                                                                                                                                                                                                                         ....................                                                                                                                                                                                       ",
"                                                                                                                                                                                                                                                                                                         ....................                                                                                                                                                                                       ",
"                                                                                                                                                                                                                                                                                                         ....................                                                                                                                                                                                       ",
"                                                                                                                                                                                                                                                                                                         ....................                                                                                                                                                                                       ",
"                                                                                                                                                                                                                                                                                                         ....................                                                                                                                                                                                       ",
"                                                                                                                                                                                                                                                                                                         ....................                                                                                                                                                                                       ",
"                                                                                                                                                                                                                                                                                                         ....................                                                                                                                                                                                       ",
"                                                                                                                                                                                                                                                                                                  OOOOOOO%%%%%%%+++++++++++++.......                                                                                                                                                                                ",
"                                                                                                                                                                                                                                                                                                  OOOOOOO%%%%%%%+++++++++++++.......                                                                                                                                                                                ",
"                                                                                                                                                                                                                                                                                                  OOOOOOO%%%%%%%+++++++++++++.......                                                                                                                                                                                ",
"                                                                                                                                                                                                                                                                                                  OOOOOOO%%%%%%%+++++++++++++.......                                                                                                                                                                                ",
"                                                                                                                                                                                                                                                                                                  OOOOOOO%%%%%%%+++++++++++++.......                                                                                                                                                                                ",
"                                                                                                                                                                                                                                                                                                  OOOOOOO%%%%%%%+++++++++++++.......                                                                                                                                                                                ",
"                                                                                                                                                                                                                                                                                                  OOOOOOO%%%%%%%+++++++++++++.......                                                                                                                                                                                ",
"                                                                                                                                                                                             ..............                                                                                 OOOOOO%%%%%%%%%%%%%%%%%%%%%++++++.......                                                                                                                                                                                ",
"                                                                                                                                                                                             ..............                                                                                 OOOOOO%%%%%%%%%%%%%%%%%%%%%++++++.......                                                                                                                                                                                ",
"                                                                                                                                                                                             ..............                                                                                 OOOOOO%%%%%%%%%%%%%%%%%%%%%++++++.......                                                                                                                                                                                ",
"                                                                                                                                                                                             ..............                                                                                 OOOOOO%%%%%%%%%%%%%%%%%%%%%++++++.......                                                                                                                                                                                ",
"                                                                                                                                                                                             ..............                                                                                 OOOOOO%%%%%%%%%%%%%%%%%%%%%++++++.......                                                                                                                                                                                ",
"                                                                                                                                                                                             ..............                                                                                 OOOOOO%%%%%%%%%%%%%%%%%%%%%++++++.......                                                                                                                                                                                ",
"                                                                                                                                                                                      OOOOOOO%%%%%%%+++++++.............                                                             OOOOOOO%%%%%%%%%%%%%%%%%%%%%%%%%%%+++++++++++++.......                                                                                                                                                                         ",
"                                                                                                                                                                                      OOOOOOO%%%%%%%+++++++.............                                                             OOOOOOO%%%%%%%%%%%%%%%%%%%%%%%%%%%+++++++++++++.......                                                                                                                                                                         ",
"                                                                                                                                                                                      OOOOOOO%%%%%%%+++++++.............                                                             OOOOOOO%%%%%%%%%%%%%%%%%%%%%%%%%%%+++++++++++++.......                                                                                                                                                                         ",
"                                                                                                                                                                                      OOOOOOO%%%%%%%+++++++.............                                                             OOOOOOO%%%%%%%%%%%%%%%%%%%%%%%%%%%+++++++++++++.......                                                                                                                                                                         ",
"                                                                                                                                                                                      OOOOOOO%%%%%%%+++++++.............                                                             OOOOOOO%%%%%%%%%%%%%%%%%%%%%%%%%%%+++++++++++++.......                                                                                                                                                                         ",
"                                                                                                                                                                                      OOOOOOO%%%%%%%+++++++.............                                                             OOOOOOO%%%%%%%%%%%%%%%%%%%%%%%%%%%+++++++++++++.......                                                                                                                                                                         ",
"                                                                                                                                                                                      OOOOOOO%%%%%%%+++++++.............                                                             OOOOOOO%%%%%%%%%%%%%%%%%%%%%%%%%%%+++++++++++++.......                                                                                                                                                                         ",
"                                                                                                                                                                                      OOOOOOO%%%%%%%++++++++++++++++++++.......                                               OOOOOOO%%%%%%%%%%%%%%%%%%%%%%%%%%%%%%%%%%+++++++++++++.......                                                                                                                                                                         ",
"                                                                                                                                                                                      OOOOOOO%%%%%%%++++++++++++++++++++.......                                               OOOOOOO%%%%%%%%%%%%%%%%%%%%%%%%%%%%%%%%%%+++++++++++++.......                                                                                                                                                                         ",
"                                                                                                                                                                                      OOOOOOO%%%%%%%++++++++++++++++++++.......                                               OOOOOOO%%%%%%%%%%%%%%%%%%%%%%%%%%%%%%%%%%+++++++++++++.......                                                                                                                                                                         ",
"                                                                                                                                                                                      OOOOOOO%%%%%%%++++++++++++++++++++.......                                               OOOOOOO%%%%%%%%%%%%%%%%%%%%%%%%%%%%%%%%%%+++++++++++++.......                                                                                                                                                                         ",
"                                                                                                                                                                                      OOOOOOO%%%%%%%++++++++++++++++++++.......                                               OOOOOOO%%%%%%%%%%%%%%%%%%%%%%%%%%%%%%%%%%+++++++++++++.......                                                                                                                                                                         ",
"                                                                                                                                                                                      OOOOOOO%%%%%%%++++++++++++++++++++.......                                               OOOOOOO%%%%%%%%%%%%%%%%%%%%%%%%%%%%%%%%%%+++++++++++++.......                                                                                                                                                                         ",
"                                                                                                                                                                                      OOOOOOO%%%%%%%++++++++++++++++++++.......                                               OOOOOOO%%%%%%%%%%%%%%%%%%%%%%%%%%%%%%%%%%+++++++++++++.......                                                                                                                                                                         ",
"                                                                                                                                                                               OOOOOOO%%%%%%%%%%%%%%%%%%%%%++++++++++++++++++++...............................................%%%%%%%%%%%%%%%%%%%%%%%%%%%%%%%%%%+++++++++++++++++++++++++++.......                                                                                                                                                                  ",
"                                                                                                                                                                               OOOOOOO%%%%%%%%%%%%%%%%%%%%%++++++++++++++++++++...............................................%%%%%%%%%%%%%%%%%%%%%%%%%%%%%%%%%%+++++++++++++++++++++++++++.......                                                                                                                                                                  ",
"                                                                                                                                                                               OOOOOOO%%%%%%%%%%%%%%%%%%%%%++++++++++++++++++++...............................................%%%%%%%%%%%%%%%%%%%%%%%%%%%%%%%%%%+++++++++++++++++++++++++++.......                                                                                                                                                                  ",
"                                                                                                                                                                               OOOOOOO%%%%%%%%%%%%%%%%%%%%%++++++++++++++++++++...............................................%%%%%%%%%%%%%%%%%%%%%%%%%%%%%%%%%%+++++++++++++++++++++++++++.......                                                                                                                                                                  ",
"                                                                                                                                                                               OOOOOOO%%%%%%%%%%%%%%%%%%%%%++++++++++++++++++++...............................................%%%%%%%%%%%%%%%%%%%%%%%%%%%%%%%%%%+++++++++++++++++++++++++++.......                                                                                                                                                                  ",
"                                                                                                                                                                               OOOOOOO%%%%%%%%%%%%%%%%%%%%%++++++++++++++++++++...............................................%%%%%%%%%%%%%%%%%%%%%%%%%%%%%%%%%%+++++++++++++++++++++++++++.......                                                                                                                                                                  ",
"                                                                                                                                                                               OOOOOOO%%%%%%%%%%%%%%%%%%%%%++++++++++++++++++++...............................................%%%%%%%%%%%%%%%%%%%%%%%%%%%%%%%%%%+++++++++++++++++++++++++++.......                                                                                                                                                                  ",
"                                                                                                                                                                               OOOOOOO%%%%%%%%%%%%%%%%%%%%%++++++OOOOOOOOOOOOOO+++++++&&&&&&&&&&&&&%%%%%%%%%%%%%%%%%%%%%%%%%%%%%%%%%%%%%%%%%%%%%%%%%%%%%%%%%%%%%++++++++++++++++++++++++++++++++++......                                                                                                                                                            ",
"                                                                                                                                                                               OOOOOOO%%%%%%%%%%%%%%%%%%%%%++++++OOOOOOOOOOOOOO+++++++&&&&&&&&&&&&&%%%%%%%%%%%%%%%%%%%%%%%%%%%%%%%%%%%%%%%%%%%%%%%%%%%%%%%%%%%%%++++++++++++++++++++++++++++++++++......                                                                                                                                                            ",
"                                                                                                                                                                               OOOOOOO%%%%%%%%%%%%%%%%%%%%%++++++OOOOOOOOOOOOOO+++++++&&&&&&&&&&&&&%%%%%%%%%%%%%%%%%%%%%%%%%%%%%%%%%%%%%%%%%%%%%%%%%%%%%%%%%%%%%++++++++++++++++++++++++++++++++++......                                                                                                                                                            ",
"                                                                                                                                                                               OOOOOOO%%%%%%%%%%%%%%%%%%%%%++++++OOOOOOOOOOOOOO+++++++&&&&&&&&&&&&&%%%%%%%%%%%%%%%%%%%%%%%%%%%%%%%%%%%%%%%%%%%%%%%%%%%%%%%%%%%%%++++++++++++++++++++++++++++++++++......                                                                                                                                                            ",
"                                                                                                                                                                               OOOOOOO%%%%%%%%%%%%%%%%%%%%%++++++OOOOOOOOOOOOOO+++++++&&&&&&&&&&&&&%%%%%%%%%%%%%%%%%%%%%%%%%%%%%%%%%%%%%%%%%%%%%%%%%%%%%%%%%%%%%++++++++++++++++++++++++++++++++++......                                                                                                                                                            ",
"                                                                                                                                                                               OOOOOOO%%%%%%%%%%%%%%%%%%%%%++++++OOOOOOOOOOOOOO+++++++&&&&&&&&&&&&&%%%%%%%%%%%%%%%%%%%%%%%%%%%%%%%%%%%%%%%%%%%%%%%%%%%%%%%%%%%%%++++++++++++++++++++++++++++++++++......                                                                                                                                                            ",
"                                                                                                                                                                               OOOOOOO%%%%%%%%%%%%%%+++++++++++++%%%%%%%&&&&&&&&&&&&&&&&&&&&&&&&&&&&&&&&&&%%%%%%%%%%%%%%%%%%%%%%%%%%%%%%%%%%%%%%%%%%%%%%%+++++++++++++++++++++++++++++++++++++++++++++++.......                                                                                                                                                     ",
"                                                                                                                                                                               OOOOOOO%%%%%%%%%%%%%%+++++++++++++%%%%%%%&&&&&&&&&&&&&&&&&&&&&&&&&&&&&&&&&&%%%%%%%%%%%%%%%%%%%%%%%%%%%%%%%%%%%%%%%%%%%%%%%+++++++++++++++++++++++++++++++++++++++++++++++.......                                                                                                                                                     ",
"                                                                                                                                                                               OOOOOOO%%%%%%%%%%%%%%+++++++++++++%%%%%%%&&&&&&&&&&&&&&&&&&&&&&&&&&&&&&&&&&%%%%%%%%%%%%%%%%%%%%%%%%%%%%%%%%%%%%%%%%%%%%%%%+++++++++++++++++++++++++++++++++++++++++++++++.......                                                                                                                                                     ",
"                                                                                                                                                                               OOOOOOO%%%%%%%%%%%%%%+++++++++++++%%%%%%%&&&&&&&&&&&&&&&&&&&&&&&&&&&&&&&&&&%%%%%%%%%%%%%%%%%%%%%%%%%%%%%%%%%%%%%%%%%%%%%%%+++++++++++++++++++++++++++++++++++++++++++++++.......                                                                                                                                                     ",
"                                                                                                                                                                               OOOOOOO%%%%%%%%%%%%%%+++++++++++++%%%%%%%&&&&&&&&&&&&&&&&&&&&&&&&&&&&&&&&&&%%%%%%%%%%%%%%%%%%%%%%%%%%%%%%%%%%%%%%%%%%%%%%%+++++++++++++++++++++++++++++++++++++++++++++++.......                                                                                                                                                     ",
"                                                                                                                                                                               OOOOOOO%%%%%%%%%%%%%%+++++++++++++%%%%%%%&&&&&&&&&&&&&&&&&&&&&&&&&&&&&&&&&&%%%%%%%%%%%%%%%%%%%%%%%%%%%%%%%%%%%%%%%%%%%%%%%+++++++++++++++++++++++++++++++++++++++++++++++.......                                                                                                                                                     ",
"                                                                                                                                                                               OOOOOOO%%%%%%%%%%%%%%+++++++++++++%%%%%%%&&&&&&&&&&&&&&&&&&&&&&&&&&&&&&&&&&%%%%%%%%%%%%%%%%%%%%%%%%%%%%%%%%%%%%%%%%%%%%%%%+++++++++++++++++++++++++++++++++++++++++++++++.......                                                                                                                                                     ",
"                                                                                                                                                                               OOOOOOO%%%%%%%+++++++%%%%%%%%%%%%%%%%%%%%%%%%%%%&&&&&&&&&&&&&&&&&&&&%%%%%%%%%%%%%%%%%%%%%%%%%%%++++++++++++++++++++++++++++++++++++++++++++++++++++++++++++++++++++++++++.......                                                                                                                                                     ",
"                                                                                                                                                                               OOOOOOO%%%%%%%+++++++%%%%%%%%%%%%%%%%%%%%%%%%%%%&&&&&&&&&&&&&&&&&&&&%%%%%%%%%%%%%%%%%%%%%%%%%%%++++++++++++++++++++++++++++++++++++++++++++++++++++++++++++++++++++++++++.......                                                                                                                                                     ",
"                                                                                                                                                                               OOOOOOO%%%%%%%+++++++%%%%%%%%%%%%%%%%%%%%%%%%%%%&&&&&&&&&&&&&&&&&&&&%%%%%%%%%%%%%%%%%%%%%%%%%%%++++++++++++++++++++++++++++++++++++++++++++++++++++++++++++++++++++++++++.......                                                                                                                                                     ",
"                                                                                                                                                                               OOOOOOO%%%%%%%+++++++%%%%%%%%%%%%%%%%%%%%%%%%%%%&&&&&&&&&&&&&&&&&&&&%%%%%%%%%%%%%%%%%%%%%%%%%%%++++++++++++++++++++++++++++++++++++++++++++++++++++++++++++++++++++++++++.......                                                                                                                                                     ",
"                                                                                                                                                                               OOOOOOO%%%%%%%+++++++%%%%%%%%%%%%%%%%%%%%%%%%%%%&&&&&&&&&&&&&&&&&&&&%%%%%%%%%%%%%%%%%%%%%%%%%%%++++++++++++++++++++++++++++++++++++++++++++++++++++++++++++++++++++++++++.......                                                                                                                                                     ",
"                                                                                                                                                                               OOOOOOO%%%%%%%+++++++%%%%%%%%%%%%%%%%%%%%%%%%%%%&&&&&&&&&&&&&&&&&&&&%%%%%%%%%%%%%%%%%%%%%%%%%%%++++++++++++++++++++++++++++++++++++++++++++++++++++++++++++++++++++++++++.......                                                                                                                                                     ",
"                                                                                                                                                                               OOOOOOO%%%%%%%+++++++%%%%%%%%%%%%%%%%%%%%%%%%%%%&&&&&&&&&&&&&&&&&&&&%%%%%%%%%%%%%%%%%%%%%%%%%%%++++++++++++++++++++++++++++++++++++++++++++++++++++++++++++++++++++++++++.......                                                                                                                                                     ",
"                                                                                                                                                                               .......+++++++%%%%%%%+++++++++++++%%%%%%%%%%%%%%%%%%%%%%%%%%%%%%%%%%%%%%%%%%%%%%%%+++++++++++++-------*******OOOOOOOOOOOOO++++++++++++++++++++++++++++++++++++++++++++++++++++++.......                                                                                                                                              ",
"                                                                                                                                                                               .......+++++++%%%%%%%+++++++++++++%%%%%%%%%%%%%%%%%%%%%%%%%%%%%%%%%%%%%%%%%%%%%%%%+++++++++++++-------*******OOOOOOOOOOOOO++++++++++++++++++++++++++++++++++++++++++++++++++++++.......                                                                                                                                              ",
"                                                                                                                                                                               .......+++++++%%%%%%%+++++++++++++%%%%%%%%%%%%%%%%%%%%%%%%%%%%%%%%%%%%%%%%%%%%%%%%+++++++++++++-------*******OOOOOOOOOOOOO++++++++++++++++++++++++++++++++++++++++++++++++++++++.......                                                                                                                                              ",
"                                                                                                                                                                               .......+++++++%%%%%%%+++++++++++++%%%%%%%%%%%%%%%%%%%%%%%%%%%%%%%%%%%%%%%%%%%%%%%%+++++++++++++-------*******OOOOOOOOOOOOO++++++++++++++++++++++++++++++++++++++++++++++++++++++.......                                                                                                                                              ",
"                                                                                                                                                                               .......+++++++%%%%%%%+++++++++++++%%%%%%%%%%%%%%%%%%%%%%%%%%%%%%%%%%%%%%%%%%%%%%%%+++++++++++++-------*******OOOOOOOOOOOOO++++++++++++++++++++++++++++++++++++++++++++++++++++++.......                                                                                                                                              ",
"                                                                                                                                                                               .......+++++++%%%%%%%+++++++++++++%%%%%%%%%%%%%%%%%%%%%%%%%%%%%%%%%%%%%%%%%%%%%%%%+++++++++++++-------*******OOOOOOOOOOOOO++++++++++++++++++++++++++++++++++++++++++++++++++++++.......                                                                                                                                              ",
"                                                                                                                                                                               .......+++++++%%%%%%%+++++++++++++%%%%%%%%%%%%%%%%%%%%%%%%%%%%%%%%%%%%%%%%%%%%%%%%+++++++++++++-------*******OOOOOOOOOOOOO++++++++++++++++++++++++++++++++++++++++++++++++++++++.......                                                                                                                                              ",
"                                                                                                                                                                               .......++++++++++++++-------******+++++++%%%%%%%%%%%%%%%%%%%%%%%%%%%%%%%%%%+++++++---------------------------------*******OOOOOOO+++++++++++++++++++++++++++++++++++++++++++++++.......                                                                                                                                              ",
"                                                                                                                                                                               .......++++++++++++++-------******+++++++%%%%%%%%%%%%%%%%%%%%%%%%%%%%%%%%%%+++++++---------------------------------*******OOOOOOO+++++++++++++++++++++++++++++++++++++++++++++++.......                                                                                                                                              ",
"                                                                                                                                                                               .......++++++++++++++-------******+++++++%%%%%%%%%%%%%%%%%%%%%%%%%%%%%%%%%%+++++++---------------------------------*******OOOOOOO+++++++++++++++++++++++++++++++++++++++++++++++.......                                                                                                                                              ",
"                                                                                                                                                                               .......++++++++++++++-------******+++++++%%%%%%%%%%%%%%%%%%%%%%%%%%%%%%%%%%+++++++---------------------------------*******OOOOOOO+++++++++++++++++++++++++++++++++++++++++++++++.......                                                                                                                                              ",
"                                                                                                                                                                               .......++++++++++++++-------******+++++++%%%%%%%%%%%%%%%%%%%%%%%%%%%%%%%%%%+++++++---------------------------------*******OOOOOOO+++++++++++++++++++++++++++++++++++++++++++++++.......                                                                                                                                              ",
"                                                                                                                                                                               .......++++++++++++++-------******+++++++%%%%%%%%%%%%%%%%%%%%%%%%%%%%%%%%%%+++++++---------------------------------*******OOOOOOO+++++++++++++++++++++++++++++++++++++++++++++++.......                                                                                                                                              ",
"                                                                                                                                                                         ......++++++++++++++---------------------------+++++++%%%%%%%%%%%%%%%%%%%%+++++++------------------------------------------------------OOOOOOO+++++++++++++++++++++++++++++++++++++++++++++++.......                                                                   .......                                                             ",
"                                                                                                                                                                         ......++++++++++++++---------------------------+++++++%%%%%%%%%%%%%%%%%%%%+++++++------------------------------------------------------OOOOOOO+++++++++++++++++++++++++++++++++++++++++++++++.......                                                                   .......                                                             ",
"                                                                                                                                                                         ......++++++++++++++---------------------------+++++++%%%%%%%%%%%%%%%%%%%%+++++++------------------------------------------------------OOOOOOO+++++++++++++++++++++++++++++++++++++++++++++++.......                                                                   .......                                                             ",
"                                                                                                                                                                         ......++++++++++++++---------------------------+++++++%%%%%%%%%%%%%%%%%%%%+++++++------------------------------------------------------OOOOOOO+++++++++++++++++++++++++++++++++++++++++++++++.......                                                                   .......                                                             ",
"                                                                                                                                                                         ......++++++++++++++---------------------------+++++++%%%%%%%%%%%%%%%%%%%%+++++++------------------------------------------------------OOOOOOO+++++++++++++++++++++++++++++++++++++++++++++++.......                                                                   .......                                                             ",
"                                                                                                                                                                         ......++++++++++++++---------------------------+++++++%%%%%%%%%%%%%%%%%%%%+++++++------------------------------------------------------OOOOOOO+++++++++++++++++++++++++++++++++++++++++++++++.......                                                                   .......                                                             ",
"                                                                                                                                                                         ......++++++++++++++---------------------------+++++++%%%%%%%%%%%%%%%%%%%%+++++++------------------------------------------------------OOOOOOO+++++++++++++++++++++++++++++++++++++++++++++++.......                                                                   .......                                                             ",
"                                                                                                                                                                         ......+++++++*******----------------------------------+++++++++++++*******--------------------------------------------------------------------OOOOOO+++++++++++++++++++++++++++++++++++++++++.......                                                            ..............                                                             ",
"                                                                                                                                                                         ......+++++++*******----------------------------------+++++++++++++*******--------------------------------------------------------------------OOOOOO+++++++++++++++++++++++++++++++++++++++++.......                                                            ..............                                                             ",
"                                                                                                                                                                         ......+++++++*******----------------------------------+++++++++++++*******--------------------------------------------------------------------OOOOOO+++++++++++++++++++++++++++++++++++++++++.......                                                            ..............                                                             ",
"                                                                                                                                                                         ......+++++++*******----------------------------------+++++++++++++*******--------------------------------------------------------------------OOOOOO+++++++++++++++++++++++++++++++++++++++++.......                                                            ..............                                                             ",
"                                                                                                                                                                         ......+++++++*******----------------------------------+++++++++++++*******--------------------------------------------------------------------OOOOOO+++++++++++++++++++++++++++++++++++++++++.......                                                            ..............                                                             ",
"                                                                                                                                                                         ......+++++++*******----------------------------------+++++++++++++*******--------------------------------------------------------------------OOOOOO+++++++++++++++++++++++++++++++++++++++++.......                                                            ..............                                                             ",
"                                                                                                                                                                         ......+++++++*******----------------------------------+++++++++++++*******--------------------------------------------------------------------OOOOOO+++++++++++++++++++++++++++++++++++++++++.......                                                            ..............                                                             ",
"                                                                                                                                                                         ......+++++++---------------------------------------------------------------------------------------------------------------------------------******OOOOOOO++++++++++++++++++++++++++++++++++.......                                 ..............       ......:::::::.......       .............                                         ",
"                                                                                                                                                                         ......+++++++---------------------------------------------------------------------------------------------------------------------------------******OOOOOOO++++++++++++++++++++++++++++++++++.......                                 ..............       ......:::::::.......       .............                                         ",
"                                                                                                                                                                         ......+++++++---------------------------------------------------------------------------------------------------------------------------------******OOOOOOO++++++++++++++++++++++++++++++++++.......                                 ..............       ......:::::::.......       .............                                         ",
"                                                                                                                                                                         ......+++++++---------------------------------------------------------------------------------------------------------------------------------******OOOOOOO++++++++++++++++++++++++++++++++++.......                                 ..............       ......:::::::.......       .............                                         ",
"                                                                                                                                                                         ......+++++++---------------------------------------------------------------------------------------------------------------------------------******OOOOOOO++++++++++++++++++++++++++++++++++.......                                 ..............       ......:::::::.......       .............                                         ",
"                                                                                                                                                                         ......+++++++---------------------------------------------------------------------------------------------------------------------------------******OOOOOOO++++++++++++++++++++++++++++++++++.......                                 ..............       ......:::::::.......       .............                                         ",
"                                                                                                                                                                         ......+++++++---------------------------------------------------------------------------------------------------------------------------------******OOOOOOO++++++++++++++++++++++++++++++++++.......                                 ..............       ......:::::::.......       .............                                         ",
"                                                                                                                                                                         ......*******---------------------------------------------------------------------------------------------------------------------------------------OOOOOOO+++++++++++++++++++++++++++++++++++++++++......                           .......:::::::....................OOOOOOO.......:::::::......                                         ",
"                                                                                                                                                                         ......*******---------------------------------------------------------------------------------------------------------------------------------------OOOOOOO+++++++++++++++++++++++++++++++++++++++++......                           .......:::::::....................OOOOOOO.......:::::::......                                         ",
"                                                                                                                                                                         ......*******---------------------------------------------------------------------------------------------------------------------------------------OOOOOOO+++++++++++++++++++++++++++++++++++++++++......                           .......:::::::....................OOOOOOO.......:::::::......                                         ",
"                                                                                                                                                                         ......*******---------------------------------------------------------------------------------------------------------------------------------------OOOOOOO+++++++++++++++++++++++++++++++++++++++++......                           .......:::::::....................OOOOOOO.......:::::::......                                         ",
"                                                                                                                                                                         ......*******---------------------------------------------------------------------------------------------------------------------------------------OOOOOOO+++++++++++++++++++++++++++++++++++++++++......                           .......:::::::....................OOOOOOO.......:::::::......                                         ",
"                                                                                                                                                                         ......*******---------------------------------------------------------------------------------------------------------------------------------------OOOOOOO+++++++++++++++++++++++++++++++++++++++++......                           .......:::::::....................OOOOOOO.......:::::::......                                         ",
"                                                                                                                                                                         ......*******---------------------------------------------------------------------------------------------------------------------------------------OOOOOOO+++++++++++++++++++++++++++++++++++++++++......                           .......:::::::....................OOOOOOO.......:::::::......                                         ",
"                                                                                                                                                                  .......++++++----------------------------------------------------------------------------------------..................................--------------------*******OOOOOOO++++++++++++++++++++++++++++++++++......                           .......%%%%%%%%%%%%%%%%%%%%%%%%%%%%%%%%%%OOOOOOO.............                                         ",
"                                                                                                                                                                  .......++++++----------------------------------------------------------------------------------------..................................--------------------*******OOOOOOO++++++++++++++++++++++++++++++++++......                           .......%%%%%%%%%%%%%%%%%%%%%%%%%%%%%%%%%%OOOOOOO.............                                         ",
"                                                                                                                                                                  .......++++++----------------------------------------------------------------------------------------..................................--------------------*******OOOOOOO++++++++++++++++++++++++++++++++++......                           .......%%%%%%%%%%%%%%%%%%%%%%%%%%%%%%%%%%OOOOOOO.............                                         ",
"                                                                                                                                                                  .......++++++----------------------------------------------------------------------------------------..................................--------------------*******OOOOOOO++++++++++++++++++++++++++++++++++......                           .......%%%%%%%%%%%%%%%%%%%%%%%%%%%%%%%%%%OOOOOOO.............                                         ",
"                                                                                                                                                                  .......++++++----------------------------------------------------------------------------------------..................................--------------------*******OOOOOOO++++++++++++++++++++++++++++++++++......                           .......%%%%%%%%%%%%%%%%%%%%%%%%%%%%%%%%%%OOOOOOO.............                                         ",
"                                                                                                                                                                  .......++++++----------------------------------------------------------------------------------------..................................--------------------*******OOOOOOO++++++++++++++++++++++++++++++++++......                           .......%%%%%%%%%%%%%%%%%%%%%%%%%%%%%%%%%%OOOOOOO.............                                         ",
"                                                                                                                                                                  .......++++++.....................------------------------------------------------------.............@@@@@@@------------------------------------------------------OOOOOOO++++++++++++++++++++++++++++++++++......                     ......%%%%%%%%%%%%%%%%%%%%%%%%%%%%%%%%%%%%%%%%%.......:::::::......                                         ",
"                                                                                                                                                                  .......++++++.....................------------------------------------------------------.............@@@@@@@------------------------------------------------------OOOOOOO++++++++++++++++++++++++++++++++++......                     ......%%%%%%%%%%%%%%%%%%%%%%%%%%%%%%%%%%%%%%%%%.......:::::::......                                         ",
"                                                                                                                                                                  .......++++++.....................------------------------------------------------------.............@@@@@@@------------------------------------------------------OOOOOOO++++++++++++++++++++++++++++++++++......                     ......%%%%%%%%%%%%%%%%%%%%%%%%%%%%%%%%%%%%%%%%%.......:::::::......                                         ",
"                                                                                                                                                                  .......++++++.....................------------------------------------------------------.............@@@@@@@------------------------------------------------------OOOOOOO++++++++++++++++++++++++++++++++++......                     ......%%%%%%%%%%%%%%%%%%%%%%%%%%%%%%%%%%%%%%%%%.......:::::::......                                         ",
"                                                                                                                                                                  .......++++++.....................------------------------------------------------------.............@@@@@@@------------------------------------------------------OOOOOOO++++++++++++++++++++++++++++++++++......                     ......%%%%%%%%%%%%%%%%%%%%%%%%%%%%%%%%%%%%%%%%%.......:::::::......                                         ",
"                                                                                                                                                                  .......++++++.....................------------------------------------------------------.............@@@@@@@------------------------------------------------------OOOOOOO++++++++++++++++++++++++++++++++++......                     ......%%%%%%%%%%%%%%%%%%%%%%%%%%%%%%%%%%%%%%%%%.......:::::::......                                         ",
"                                                                                                                                                                  .......++++++.....................------------------------------------------------------.............@@@@@@@------------------------------------------------------OOOOOOO++++++++++++++++++++++++++++++++++......                     ......%%%%%%%%%%%%%%%%%%%%%%%%%%%%%%%%%%%%%%%%%.......:::::::......                                         ",
"                                                                                                     ..............                                               .......++++++--------------@@@@@@@.............-------------------------------------------------------------------------------------------------------------------OOOOOOO++++++++++++++++++++++++++++++++++......              .......%%%%%%%%%%%%%%%%%%%%%%%%%%%%%%%%%%%%%%%%+++++++OOOOOOO.............                                         ",
"                                                                                                     ..............                                               .......++++++--------------@@@@@@@.............-------------------------------------------------------------------------------------------------------------------OOOOOOO++++++++++++++++++++++++++++++++++......              .......%%%%%%%%%%%%%%%%%%%%%%%%%%%%%%%%%%%%%%%%+++++++OOOOOOO.............                                         ",
"                                                                                                     ..............                                               .......++++++--------------@@@@@@@.............-------------------------------------------------------------------------------------------------------------------OOOOOOO++++++++++++++++++++++++++++++++++......              .......%%%%%%%%%%%%%%%%%%%%%%%%%%%%%%%%%%%%%%%%+++++++OOOOOOO.............                                         ",
"                                                                                                     ..............                                               .......++++++--------------@@@@@@@.............-------------------------------------------------------------------------------------------------------------------OOOOOOO++++++++++++++++++++++++++++++++++......              .......%%%%%%%%%%%%%%%%%%%%%%%%%%%%%%%%%%%%%%%%+++++++OOOOOOO.............                                         ",
"                                                                                                     ..............                                               .......++++++--------------@@@@@@@.............-------------------------------------------------------------------------------------------------------------------OOOOOOO++++++++++++++++++++++++++++++++++......              .......%%%%%%%%%%%%%%%%%%%%%%%%%%%%%%%%%%%%%%%%+++++++OOOOOOO.............                                         ",
"                                                                                                     ..............                                               .......++++++--------------@@@@@@@.............-------------------------------------------------------------------------------------------------------------------OOOOOOO++++++++++++++++++++++++++++++++++......              .......%%%%%%%%%%%%%%%%%%%%%%%%%%%%%%%%%%%%%%%%+++++++OOOOOOO.............                                         ",
"                                                                                                     ..............                                               .......++++++--------------@@@@@@@.............-------------------------------------------------------------------------------------------------------------------OOOOOOO++++++++++++++++++++++++++++++++++......              .......%%%%%%%%%%%%%%%%%%%%%%%%%%%%%%%%%%%%%%%%+++++++OOOOOOO.............                                         ",
"                                                                                 .............       .......:::::::                                               .......++++++-----------------------------------------------------------------------------------------------------------------------------------------------------OOOOOOO+++++++++++++++++++++++++++OOOOOOOOOOOOO..............%%%%%%%%%%%%%%%%%%%%%%%%%%%%%%%%%%%%%%%%%%%%%%%+++++++.......OOOOOOO......                                         ",
"                                                                                 .............       .......:::::::                                               .......++++++-----------------------------------------------------------------------------------------------------------------------------------------------------OOOOOOO+++++++++++++++++++++++++++OOOOOOOOOOOOO..............%%%%%%%%%%%%%%%%%%%%%%%%%%%%%%%%%%%%%%%%%%%%%%%+++++++.......OOOOOOO......                                         ",
"                                                                                 .............       .......:::::::                                               .......++++++-----------------------------------------------------------------------------------------------------------------------------------------------------OOOOOOO+++++++++++++++++++++++++++OOOOOOOOOOOOO..............%%%%%%%%%%%%%%%%%%%%%%%%%%%%%%%%%%%%%%%%%%%%%%%+++++++.......OOOOOOO......                                         ",
"                                                                                 .............       .......:::::::                                               .......++++++-----------------------------------------------------------------------------------------------------------------------------------------------------OOOOOOO+++++++++++++++++++++++++++OOOOOOOOOOOOO..............%%%%%%%%%%%%%%%%%%%%%%%%%%%%%%%%%%%%%%%%%%%%%%%+++++++.......OOOOOOO......                                         ",
"                                                                                 .............       .......:::::::                                               .......++++++-----------------------------------------------------------------------------------------------------------------------------------------------------OOOOOOO+++++++++++++++++++++++++++OOOOOOOOOOOOO..............%%%%%%%%%%%%%%%%%%%%%%%%%%%%%%%%%%%%%%%%%%%%%%%+++++++.......OOOOOOO......                                         ",
"                                                                                 .............       .......:::::::                                               .......++++++-----------------------------------------------------------------------------------------------------------------------------------------------------OOOOOOO+++++++++++++++++++++++++++OOOOOOOOOOOOO..............%%%%%%%%%%%%%%%%%%%%%%%%%%%%%%%%%%%%%%%%%%%%%%%+++++++.......OOOOOOO......                                         ",
"                                                                                 .............       .......:::::::                                               .......++++++-----------------------------------------------------------------------------------------------------------------------------------------------------OOOOOOO+++++++++++++++++++++++++++OOOOOOOOOOOOO..............%%%%%%%%%%%%%%%%%%%%%%%%%%%%%%%%%%%%%%%%%%%%%%%+++++++.......OOOOOOO......                                         ",
"                                                                                 .......::::::.......%%%%%%%%%%%%%%....................                           .......++++++----------------------------------------------------------------------------------@@@@@@*******-----------------------------------------------*******OOOOOOO+++++++++++++++++++++++++++OOOOOOO.............%%%%%%%%%%%%%%%%%%%%%%%%%%%%%%%%%%%%%%%%%%%%%%%+++++++.......:::::::.............                                         ",
"                                                                                 .......::::::.......%%%%%%%%%%%%%%....................                           .......++++++----------------------------------------------------------------------------------@@@@@@*******-----------------------------------------------*******OOOOOOO+++++++++++++++++++++++++++OOOOOOO.............%%%%%%%%%%%%%%%%%%%%%%%%%%%%%%%%%%%%%%%%%%%%%%%+++++++.......:::::::.............                                         ",
"                                                                                 .......::::::.......%%%%%%%%%%%%%%....................                           .......++++++----------------------------------------------------------------------------------@@@@@@*******-----------------------------------------------*******OOOOOOO+++++++++++++++++++++++++++OOOOOOO.............%%%%%%%%%%%%%%%%%%%%%%%%%%%%%%%%%%%%%%%%%%%%%%%+++++++.......:::::::.............                                         ",
"                                                                                 .......::::::.......%%%%%%%%%%%%%%....................                           .......++++++----------------------------------------------------------------------------------@@@@@@*******-----------------------------------------------*******OOOOOOO+++++++++++++++++++++++++++OOOOOOO.............%%%%%%%%%%%%%%%%%%%%%%%%%%%%%%%%%%%%%%%%%%%%%%%+++++++.......:::::::.............                                         ",
"                                                                                 .......::::::.......%%%%%%%%%%%%%%....................                           .......++++++----------------------------------------------------------------------------------@@@@@@*******-----------------------------------------------*******OOOOOOO+++++++++++++++++++++++++++OOOOOOO.............%%%%%%%%%%%%%%%%%%%%%%%%%%%%%%%%%%%%%%%%%%%%%%%+++++++.......:::::::.............                                         ",
"                                                                                 .......::::::.......%%%%%%%%%%%%%%....................                           .......++++++----------------------------------------------------------------------------------@@@@@@*******-----------------------------------------------*******OOOOOOO+++++++++++++++++++++++++++OOOOOOO.............%%%%%%%%%%%%%%%%%%%%%%%%%%%%%%%%%%%%%%%%%%%%%%%+++++++.......:::::::.............                                         ",
"                                                                                 .......OOOOOO%%%%%%%%%%%%%%%%%%%%%......:::::::.......                                  ......*******---------------------------@@@@@@@----------------------------------@@@@@@@::::::.......-----------------------------------------------OOOOOOO+++++++++++++++++++++++++++OOOOOOO.......++++++%%%%%%%%%%%%%%%%%%%%%%%%%%%%%%%%%%%%%%%%%%%%%%%%++++++++++++++++++++.......OOOOOOO......                                         ",
"                                                                                 .......OOOOOO%%%%%%%%%%%%%%%%%%%%%......:::::::.......                                  ......*******---------------------------@@@@@@@----------------------------------@@@@@@@::::::.......-----------------------------------------------OOOOOOO+++++++++++++++++++++++++++OOOOOOO.......++++++%%%%%%%%%%%%%%%%%%%%%%%%%%%%%%%%%%%%%%%%%%%%%%%%++++++++++++++++++++.......OOOOOOO......                                         ",
"                                                                                 .......OOOOOO%%%%%%%%%%%%%%%%%%%%%......:::::::.......                                  ......*******---------------------------@@@@@@@----------------------------------@@@@@@@::::::.......-----------------------------------------------OOOOOOO+++++++++++++++++++++++++++OOOOOOO.......++++++%%%%%%%%%%%%%%%%%%%%%%%%%%%%%%%%%%%%%%%%%%%%%%%%++++++++++++++++++++.......OOOOOOO......                                         ",
"                                                                                 .......OOOOOO%%%%%%%%%%%%%%%%%%%%%......:::::::.......                                  ......*******---------------------------@@@@@@@----------------------------------@@@@@@@::::::.......-----------------------------------------------OOOOOOO+++++++++++++++++++++++++++OOOOOOO.......++++++%%%%%%%%%%%%%%%%%%%%%%%%%%%%%%%%%%%%%%%%%%%%%%%%++++++++++++++++++++.......OOOOOOO......                                         ",
"                                                                                 .......OOOOOO%%%%%%%%%%%%%%%%%%%%%......:::::::.......                                  ......*******---------------------------@@@@@@@----------------------------------@@@@@@@::::::.......-----------------------------------------------OOOOOOO+++++++++++++++++++++++++++OOOOOOO.......++++++%%%%%%%%%%%%%%%%%%%%%%%%%%%%%%%%%%%%%%%%%%%%%%%%++++++++++++++++++++.......OOOOOOO......                                         ",
"                                                                                 .......OOOOOO%%%%%%%%%%%%%%%%%%%%%......:::::::.......                                  ......*******---------------------------@@@@@@@----------------------------------@@@@@@@::::::.......-----------------------------------------------OOOOOOO+++++++++++++++++++++++++++OOOOOOO.......++++++%%%%%%%%%%%%%%%%%%%%%%%%%%%%%%%%%%%%%%%%%%%%%%%%++++++++++++++++++++.......OOOOOOO......                                         ",
"                                                                                 .......OOOOOO%%%%%%%%%%%%%%%%%%%%%......:::::::.......                                  ......*******---------------------------@@@@@@@----------------------------------@@@@@@@::::::.......-----------------------------------------------OOOOOOO+++++++++++++++++++++++++++OOOOOOO.......++++++%%%%%%%%%%%%%%%%%%%%%%%%%%%%%%%%%%%%%%%%%%%%%%%%++++++++++++++++++++.......OOOOOOO......                                         ",
"                                                                          ..............OOOOOO%%%%%%%%%%%%%%%%%%%%%%%%%%%..............                                  ......+++++++---------------------@@@@@@:::::::@@@@@@@-------******.....................@@@@@@*******-----------------------------------------******OOOOOOO+++++++++++++++++++++++++++.......+++++++++++++%%%%%%%%%%%%%%%%%%%%%%%%%%%%%%%%%%%%%%%%%++++++++++++++++++++++++++++++++++.......                                               ",
"                                                                          ..............OOOOOO%%%%%%%%%%%%%%%%%%%%%%%%%%%..............                                  ......+++++++---------------------@@@@@@:::::::@@@@@@@-------******.....................@@@@@@*******-----------------------------------------******OOOOOOO+++++++++++++++++++++++++++.......+++++++++++++%%%%%%%%%%%%%%%%%%%%%%%%%%%%%%%%%%%%%%%%%++++++++++++++++++++++++++++++++++.......                                               ",
"                                                                          ..............OOOOOO%%%%%%%%%%%%%%%%%%%%%%%%%%%..............                                  ......+++++++---------------------@@@@@@:::::::@@@@@@@-------******.....................@@@@@@*******-----------------------------------------******OOOOOOO+++++++++++++++++++++++++++.......+++++++++++++%%%%%%%%%%%%%%%%%%%%%%%%%%%%%%%%%%%%%%%%%++++++++++++++++++++++++++++++++++.......                                               ",
"                                                                          ..............OOOOOO%%%%%%%%%%%%%%%%%%%%%%%%%%%..............                                  ......+++++++---------------------@@@@@@:::::::@@@@@@@-------******.....................@@@@@@*******-----------------------------------------******OOOOOOO+++++++++++++++++++++++++++.......+++++++++++++%%%%%%%%%%%%%%%%%%%%%%%%%%%%%%%%%%%%%%%%%++++++++++++++++++++++++++++++++++.......                                               ",
"                                                                          ..............OOOOOO%%%%%%%%%%%%%%%%%%%%%%%%%%%..............                                  ......+++++++---------------------@@@@@@:::::::@@@@@@@-------******.....................@@@@@@*******-----------------------------------------******OOOOOOO+++++++++++++++++++++++++++.......+++++++++++++%%%%%%%%%%%%%%%%%%%%%%%%%%%%%%%%%%%%%%%%%++++++++++++++++++++++++++++++++++.......                                               ",
"                                                                          ..............OOOOOO%%%%%%%%%%%%%%%%%%%%%%%%%%%..............                                  ......+++++++---------------------@@@@@@:::::::@@@@@@@-------******.....................@@@@@@*******-----------------------------------------******OOOOOOO+++++++++++++++++++++++++++.......+++++++++++++%%%%%%%%%%%%%%%%%%%%%%%%%%%%%%%%%%%%%%%%%++++++++++++++++++++++++++++++++++.......                                               ",
"                                                                          ..............OOOOOO%%%%%%%%%%%%%%%%%%%%%%%%%%%..............                                  ......+++++++---------------------@@@@@@:::::::@@@@@@@-------******.....................@@@@@@*******-----------------------------------------******OOOOOOO+++++++++++++++++++++++++++.......+++++++++++++%%%%%%%%%%%%%%%%%%%%%%%%%%%%%%%%%%%%%%%%%++++++++++++++++++++++++++++++++++.......                                               ",
"                                                                          .......:::::::OOOOOO%%%%%%%%%%%%%%%%%%%%%%%%%%%%%%%%%%%%%%%%%OOOOOOO                                 .......*******--------------@@@@@@...........................*******--------------------------------------------------------------------OOOOOO+++++++++++++++++++++OOOOOO.......+++++++++++++++++++++++++++%%%%%%%%%%%%%%%%%%%%%%%%%%%+++++++++++++++++++++++++++++++++++++++++.......                                               ",
"                                                                          .......:::::::OOOOOO%%%%%%%%%%%%%%%%%%%%%%%%%%%%%%%%%%%%%%%%%OOOOOOO                                 .......*******--------------@@@@@@...........................*******--------------------------------------------------------------------OOOOOO+++++++++++++++++++++OOOOOO.......+++++++++++++++++++++++++++%%%%%%%%%%%%%%%%%%%%%%%%%%%+++++++++++++++++++++++++++++++++++++++++.......                                               ",
"                                                                          .......:::::::OOOOOO%%%%%%%%%%%%%%%%%%%%%%%%%%%%%%%%%%%%%%%%%OOOOOOO                                 .......*******--------------@@@@@@...........................*******--------------------------------------------------------------------OOOOOO+++++++++++++++++++++OOOOOO.......+++++++++++++++++++++++++++%%%%%%%%%%%%%%%%%%%%%%%%%%%+++++++++++++++++++++++++++++++++++++++++.......                                               ",
"                                                                          .......:::::::OOOOOO%%%%%%%%%%%%%%%%%%%%%%%%%%%%%%%%%%%%%%%%%OOOOOOO                                 .......*******--------------@@@@@@...........................*******--------------------------------------------------------------------OOOOOO+++++++++++++++++++++OOOOOO.......+++++++++++++++++++++++++++%%%%%%%%%%%%%%%%%%%%%%%%%%%+++++++++++++++++++++++++++++++++++++++++.......                                               ",
"                                                                          .......:::::::OOOOOO%%%%%%%%%%%%%%%%%%%%%%%%%%%%%%%%%%%%%%%%%OOOOOOO                                 .......*******--------------@@@@@@...........................*******--------------------------------------------------------------------OOOOOO+++++++++++++++++++++OOOOOO.......+++++++++++++++++++++++++++%%%%%%%%%%%%%%%%%%%%%%%%%%%+++++++++++++++++++++++++++++++++++++++++.......                                               ",
"                                                                          .......:::::::OOOOOO%%%%%%%%%%%%%%%%%%%%%%%%%%%%%%%%%%%%%%%%%OOOOOOO                                 .......*******--------------@@@@@@...........................*******--------------------------------------------------------------------OOOOOO+++++++++++++++++++++OOOOOO.......+++++++++++++++++++++++++++%%%%%%%%%%%%%%%%%%%%%%%%%%%+++++++++++++++++++++++++++++++++++++++++.......                                               ",
"                                                                          .......:::::::OOOOOO%%%%%%%%%%%%%%%%%%%%%%%%%%%%%%%%%%%%%%%%%OOOOOOO                                 .......*******--------------@@@@@@...........................*******--------------------------------------------------------------------OOOOOO+++++++++++++++++++++OOOOOO.......+++++++++++++++++++++++++++%%%%%%%%%%%%%%%%%%%%%%%%%%%+++++++++++++++++++++++++++++++++++++++++.......                                               ",
"                                                                          .......OOOOOOOOOOOOO+++++++%%%%%%%%%%%%%%%%%%%%%%%%%%%%%%%%%%%%%%%%%OOOOOOOOOOOOO                    .......+++++++-------------------------------------------------------------------------------------------------------------------OOOOOOO++++++++++++++++++++++++++++++++++++++++++++++++++++++++++++++++++++++++++%%%%%%%+++++++++++++++++++++++++++++++++++++++++++++++.......                                                      ",
"                                                                          .......OOOOOOOOOOOOO+++++++%%%%%%%%%%%%%%%%%%%%%%%%%%%%%%%%%%%%%%%%%OOOOOOOOOOOOO                    .......+++++++-------------------------------------------------------------------------------------------------------------------OOOOOOO++++++++++++++++++++++++++++++++++++++++++++++++++++++++++++++++++++++++++%%%%%%%+++++++++++++++++++++++++++++++++++++++++++++++.......                                                      ",
"                                                                          .......OOOOOOOOOOOOO+++++++%%%%%%%%%%%%%%%%%%%%%%%%%%%%%%%%%%%%%%%%%OOOOOOOOOOOOO                    .......+++++++-------------------------------------------------------------------------------------------------------------------OOOOOOO++++++++++++++++++++++++++++++++++++++++++++++++++++++++++++++++++++++++++%%%%%%%+++++++++++++++++++++++++++++++++++++++++++++++.......                                                      ",
"                                                                          .......OOOOOOOOOOOOO+++++++%%%%%%%%%%%%%%%%%%%%%%%%%%%%%%%%%%%%%%%%%OOOOOOOOOOOOO                    .......+++++++-------------------------------------------------------------------------------------------------------------------OOOOOOO++++++++++++++++++++++++++++++++++++++++++++++++++++++++++++++++++++++++++%%%%%%%+++++++++++++++++++++++++++++++++++++++++++++++.......                                                      ",
"                                                                          .......OOOOOOOOOOOOO+++++++%%%%%%%%%%%%%%%%%%%%%%%%%%%%%%%%%%%%%%%%%OOOOOOOOOOOOO                    .......+++++++-------------------------------------------------------------------------------------------------------------------OOOOOOO++++++++++++++++++++++++++++++++++++++++++++++++++++++++++++++++++++++++++%%%%%%%+++++++++++++++++++++++++++++++++++++++++++++++.......                                                      ",
"                                                                          .......OOOOOOOOOOOOO+++++++%%%%%%%%%%%%%%%%%%%%%%%%%%%%%%%%%%%%%%%%%OOOOOOOOOOOOO                    .......+++++++-------------------------------------------------------------------------------------------------------------------OOOOOOO++++++++++++++++++++++++++++++++++++++++++++++++++++++++++++++++++++++++++%%%%%%%+++++++++++++++++++++++++++++++++++++++++++++++.......                                                      ",
"                                                                          .......OOOOOOO::::::++++++++++++++%%%%%%%%%%%%%%%%%%%%%%%%%%%%%%%%%%%%%%%%%%%%%%%OOOOOOOOOOOOOO             .......OOOOOOO-----------------------------------------------------------------------------------------------------OOOOOOO+++++++++++++++++++++++++++++++++++++++++++++++++++++++++++++++++++++++++++++++++++++++++++++++++++++++++++++++++++++++++++++++++++++++.......                                                      ",
"                                                                          .......OOOOOOO::::::++++++++++++++%%%%%%%%%%%%%%%%%%%%%%%%%%%%%%%%%%%%%%%%%%%%%%%OOOOOOOOOOOOOO             .......OOOOOOO-----------------------------------------------------------------------------------------------------OOOOOOO+++++++++++++++++++++++++++++++++++++++++++++++++++++++++++++++++++++++++++++++++++++++++++++++++++++++++++++++++++++++++++++++++++++++.......                                                      ",
"                                                                          .......OOOOOOO::::::++++++++++++++%%%%%%%%%%%%%%%%%%%%%%%%%%%%%%%%%%%%%%%%%%%%%%%OOOOOOOOOOOOOO             .......OOOOOOO-----------------------------------------------------------------------------------------------------OOOOOOO+++++++++++++++++++++++++++++++++++++++++++++++++++++++++++++++++++++++++++++++++++++++++++++++++++++++++++++++++++++++++++++++++++++++.......                                                      ",
"                                                                          .......OOOOOOO::::::++++++++++++++%%%%%%%%%%%%%%%%%%%%%%%%%%%%%%%%%%%%%%%%%%%%%%%OOOOOOOOOOOOOO             .......OOOOOOO-----------------------------------------------------------------------------------------------------OOOOOOO+++++++++++++++++++++++++++++++++++++++++++++++++++++++++++++++++++++++++++++++++++++++++++++++++++++++++++++++++++++++++++++++++++++++.......                                                      ",
"                                                                          .......OOOOOOO::::::++++++++++++++%%%%%%%%%%%%%%%%%%%%%%%%%%%%%%%%%%%%%%%%%%%%%%%OOOOOOOOOOOOOO             .......OOOOOOO-----------------------------------------------------------------------------------------------------OOOOOOO+++++++++++++++++++++++++++++++++++++++++++++++++++++++++++++++++++++++++++++++++++++++++++++++++++++++++++++++++++++++++++++++++++++++.......                                                      ",
"                                                                          .......OOOOOOO::::::++++++++++++++%%%%%%%%%%%%%%%%%%%%%%%%%%%%%%%%%%%%%%%%%%%%%%%OOOOOOOOOOOOOO             .......OOOOOOO-----------------------------------------------------------------------------------------------------OOOOOOO+++++++++++++++++++++++++++++++++++++++++++++++++++++++++++++++++++++++++++++++++++++++++++++++++++++++++++++++++++++++++++++++++++++++.......                                                      ",
"                                                                          .......OOOOOOO::::::++++++++++++++%%%%%%%%%%%%%%%%%%%%%%%%%%%%%%%%%%%%%%%%%%%%%%%OOOOOOOOOOOOOO             .......OOOOOOO-----------------------------------------------------------------------------------------------------OOOOOOO+++++++++++++++++++++++++++++++++++++++++++++++++++++++++++++++++++++++++++++++++++++++++++++++++++++++++++++++++++++++++++++++++++++++.......                                                      ",
"                                                                                 .......++++++++++++++++++++%%%%%%%%%%%%%%%%%%%%%%%%%%%%%%%%%%%%%%%%%%%%%%%%%%%%%%%%%%%%%....................OOOOOOOOOOOOOO---------------------------------------------------------------------------------######OOOOOOO+++++++++++++++++++++++++++++++++++++++++++++++++++++++++++++++++++++++++++++++++++++++++++++++++++++++++++++++++++++++++++++++++++++++.......                                                             ",
"                                                                                 .......++++++++++++++++++++%%%%%%%%%%%%%%%%%%%%%%%%%%%%%%%%%%%%%%%%%%%%%%%%%%%%%%%%%%%%%....................OOOOOOOOOOOOOO---------------------------------------------------------------------------------######OOOOOOO+++++++++++++++++++++++++++++++++++++++++++++++++++++++++++++++++++++++++++++++++++++++++++++++++++++++++++++++++++++++++++++++++++++++.......                                                             ",
"                                                                                 .......++++++++++++++++++++%%%%%%%%%%%%%%%%%%%%%%%%%%%%%%%%%%%%%%%%%%%%%%%%%%%%%%%%%%%%%....................OOOOOOOOOOOOOO---------------------------------------------------------------------------------######OOOOOOO+++++++++++++++++++++++++++++++++++++++++++++++++++++++++++++++++++++++++++++++++++++++++++++++++++++++++++++++++++++++++++++++++++++++.......                                                             ",
"                                                                                 .......++++++++++++++++++++%%%%%%%%%%%%%%%%%%%%%%%%%%%%%%%%%%%%%%%%%%%%%%%%%%%%%%%%%%%%%....................OOOOOOOOOOOOOO---------------------------------------------------------------------------------######OOOOOOO+++++++++++++++++++++++++++++++++++++++++++++++++++++++++++++++++++++++++++++++++++++++++++++++++++++++++++++++++++++++++++++++++++++++.......                                                             ",
"                                                                                 .......++++++++++++++++++++%%%%%%%%%%%%%%%%%%%%%%%%%%%%%%%%%%%%%%%%%%%%%%%%%%%%%%%%%%%%%....................OOOOOOOOOOOOOO---------------------------------------------------------------------------------######OOOOOOO+++++++++++++++++++++++++++++++++++++++++++++++++++++++++++++++++++++++++++++++++++++++++++++++++++++++++++++++++++++++++++++++++++++++.......                                                             ",
"                                                                                 .......++++++++++++++++++++%%%%%%%%%%%%%%%%%%%%%%%%%%%%%%%%%%%%%%%%%%%%%%%%%%%%%%%%%%%%%....................OOOOOOOOOOOOOO---------------------------------------------------------------------------------######OOOOOOO+++++++++++++++++++++++++++++++++++++++++++++++++++++++++++++++++++++++++++++++++++++++++++++++++++++++++++++++++++++++++++++++++++++++.......                                                             ",
"                                                                                 .......++++++++++++++++++++%%%%%%%%%%%%%%%%%%%%%%%%%%%%%%%%%%%%%%%%%%%%%%%%%%%%%%%%%%%%%....................OOOOOOOOOOOOOO---------------------------------------------------------------------------------######OOOOOOO+++++++++++++++++++++++++++++++++++++++++++++++++++++++++++++++++++++++++++++++++++++++++++++++++++++++++++++++++++++++++++++++++++++++.......                                                             ",
"                                                                                 .......+++++++++++++++++++++++++++%%%%%%%%%%%%%%%%%%%%%%%%%%%%%%%%%%%%%%%%%%%%%%%%%%%%%%+++++++++++++++++++++++++++OOOOOOOOOOOOOOOOOOOO#######========---------------------------=====*********************--------------------OOOOOOOOOOOOO+++++++++++++++++++++++++++++++++++++++++++++++++++++++++++++++++++++++++++++++++++++++++++++++++++++++++++++++++++.......                                                             ",
"                                                                                 .......+++++++++++++++++++++++++++%%%%%%%%%%%%%%%%%%%%%%%%%%%%%%%%%%%%%%%%%%%%%%%%%%%%%%+++++++++++++++++++++++++++OOOOOOOOOOOOOOOOOOOO#######=======----------------------------=====*********************--------------------OOOOOOOOOOOOO+++++++++++++++++++++++++++++++++++++++++++++++++++++++++++++++++++++++++++++++++++++++++++++++++++++++++++++++++++.......                                                             ",
"                                                                                 .......+++++++++++++++++++++++++++%%%%%%%%%%%%%%%%%%%%%%%%%%%%%%%%%%%%%%%%%%%%%%%%%%%%%%+++++++++++++++++++++++++++OOOOOOOOOOOOOOOOOOOO#######=======---------------------------======*********************--------------------OOOOOOOOOOOOO+++++++++++++++++++++++++++++++++++++++++++++++++++++++++++++++++++++++++++++++++++++++++++++++++++++++++++++++++++.......                                                             ",
"                                                                                 .......+++++++++++++++++++++++++++%%%%%%%%%%%%%%%%%%%%%%%%%%%%%%%%%%%%%%%%%%%%%%%%%%%%%%+++++++++++++++++++++++++++OOOOOOOOOOOOOOOOOOOO#######========---------------------------=====*********************--------------------OOOOOOOOOOOOO+++++++++++++++++++++++++++++++++++++++++++++++++++++++++++++++++++++++++++++++++++++++++++++++++++++++++++++++++++.......                                                             ",
"                                                                                 .......+++++++++++++++++++++++++++%%%%%%%%%%%%%%%%%%%%%%%%%%%%%%%%%%%%%%%%%%%%%%%%%%%%%%+++++++++++++++++++++++++++OOOOOOOOOOOOOOOOOOOO#######========---------------------------=====*********************--------------------OOOOOOOOOOOOO+++++++++++++++++++++++++++++++++++++++++++++++++++++++++++++++++++++++++++++++++++++++++++++++++++++++++++++++++++.......                                                             ",
"                                                                                 .......+++++++++++++++++++++++++++%%%%%%%%%%%%%%%%%%%%%%%%%%%%%%%%%%%%%%%%%%%%%%%%%%%%%%+++++++++++++++++++++++++++OOOOOOOOOOOOOOOOOOOO#######======-----------------------------=====*********************--------------------OOOOOOOOOOOOO+++++++++++++++++++++++++++++++++++++++++++++++++++++++++++++++++++++++++++++++++++++++++++++++++++++++++++++++++++.......                                                             ",
"                                                                                 .......+++++++++++++++++++++++++++%%%%%%%%%%%%%%%%%%%%%%%%%%%%%%%%%%%%%%%%%%%%%%%%%%%%%%+++++++++++++++++++++++++++OOOOOOOOOOOOOOOOOOOO#######=======----------------------------=====*********************--------------------OOOOOOOOOOOOO+++++++++++++++++++++++++++++++++++++++++++++++++++++++++++++++++++++++++++++++++++++++++++++++++++++++++++++++++++.......                                                             ",
"                                                                                        ......+++++++++++++++++++++++++++%%%%%%%%%%%%%%%%%%%%%%%%%%%%%%%%%%%%%%%%%++++++++++++++++++++++++++++++++++.............--------======***********************************************======-----------------------------------------OOOOOOOOOOOOOO+++++++++++++++++++++++++++++++++++++++++++++++++++++++++++++++++++++++++++++++++++++++++++++++++++++.......                                                             ",
"                                                                                        ......+++++++++++++++++++++++++++%%%%%%%%%%%%%%%%%%%%%%%%%%%%%%%%%%%%%%%%%++++++++++++++++++++++++++++++++++.............--------======***********************************************-======----------------------------------------OOOOOOOOOOOOOO+++++++++++++++++++++++++++++++++++++++++++++++++++++++++++++++++++++++++++++++++++++++++++++++++++++.......                                                             ",
"                                                                                        ......+++++++++++++++++++++++++++%%%%%%%%%%%%%%%%%%%%%%%%%%%%%%%%%%%%%%%%%++++++++++++++++++++++++++++++++++.............--------======***********************************************-======----------------------------------------OOOOOOOOOOOOOO+++++++++++++++++++++++++++++++++++++++++++++++++++++++++++++++++++++++++++++++++++++++++++++++++++++.......                                                             ",
"                                                                                        ......+++++++++++++++++++++++++++%%%%%%%%%%%%%%%%%%%%%%%%%%%%%%%%%%%%%%%%%++++++++++++++++++++++++++++++++++.............--------======***********************************************======-----------------------------------------OOOOOOOOOOOOOO+++++++++++++++++++++++++++++++++++++++++++++++++++++++++++++++++++++++++++++++++++++++++++++++++++++.......                                                             ",
"                                                                                        ......+++++++++++++++++++++++++++%%%%%%%%%%%%%%%%%%%%%%%%%%%%%%%%%%%%%%%%%++++++++++++++++++++++++++++++++++.............--------======***********************************************======-----------------------------------------OOOOOOOOOOOOOO+++++++++++++++++++++++++++++++++++++++++++++++++++++++++++++++++++++++++++++++++++++++++++++++++++++.......                                                             ",
"                                                                                        ......+++++++++++++++++++++++++++%%%%%%%%%%%%%%%%%%%%%%%%%%%%%%%%%%%%%%%%%++++++++++++++++++++++++++++++++++.............-------=======***********************************************======-----------------------------------------OOOOOOOOOOOOOO+++++++++++++++++++++++++++++++++++++++++++++++++++++++++++++++++++++++++++++++++++++++++++++++++++++.......                                                             ",
"                                                                                        ......+++++++++++++++++++++++++++++++++++++++++%%%%%%%%%%%%%++++++++++++++++++++++++++++++++++..............----------------------------======***************************======--------------------------------------------------------------------OOOOOOO++++++++++++++++++++++++++++++++++++++++++++++++++++++++++++++++++++++++++++++++++++++++++++++                                                                    ",
"                                                                                        ......+++++++++++++++++++++++++++++++++++++++++%%%%%%%%%%%%%++++++++++++++++++++++++++++++++++..............----------------------------======***************************======--------------------------------------------------------------------OOOOOOO++++++++++++++++++++++++++++++++++++++++++++++++++++++++++++++++++++++++++++++++++++++++++++++                                                                    ",
"                                                                                        ......+++++++++++++++++++++++++++++++++++++++++%%%%%%%%%%%%%++++++++++++++++++++++++++++++++++..............----------------------------======***************************-======-------------------------------------------------------------------OOOOOOO++++++++++++++++++++++++++++++++++++++++++++++++++++++++++++++++++++++++++++++++++++++++++++++                                                                    ",
"                                                                                        ......+++++++++++++++++++++++++++++++++++++++++%%%%%%%%%%%%%++++++++++++++++++++++++++++++++++..............----------------------------======***************************=======-------------------------------------------------------------------OOOOOOO++++++++++++++++++++++++++++++++++++++++++++++++++++++++++++++++++++++++++++++++++++++++++++++                                                                    ",
"                                                                                        ......+++++++++++++++++++++++++++++++++++++++++%%%%%%%%%%%%%++++++++++++++++++++++++++++++++++..............----------------------------======***************************======--------------------------------------------------------------------OOOOOOO++++++++++++++++++++++++++++++++++++++++++++++++++++++++++++++++++++++++++++++++++++++++++++++                                                                    ",
"                                                                                        ......+++++++++++++++++++++++++++++++++++++++++%%%%%%%%%%%%%++++++++++++++++++++++++++++++++++..............---------------------------=======***************************=======-------------------------------------------------------------------OOOOOOO++++++++++++++++++++++++++++++++++++++++++++++++++++++++++++++++++++++++++++++++++++++++++++++                                                                    ",
"                                                                                        ......+++++++++++++++++++++++++++++++++++++++++%%%%%%%%%%%%%++++++++++++++++++++++++++++++++++..............----------------------------======***************************======--------------------------------------------------------------------OOOOOOO++++++++++++++++++++++++++++++++++++++++++++++++++++++++++++++++++++++++++++++++++++++++++++++                                                                    ",
"                                                                                              .......++++++++++++++++++++++++++++++++++++++++++++++++++++++++++++++++++++++++++.......-----------------------------------------------------------------------------------------------------------------------------------------------------*******OOOOOO+++++++++++++++++++++++++++++++++++++++++++++++++++++++++++++++++++++++++++++++++.......                                                                    ",
"                                                                                              .......++++++++++++++++++++++++++++++++++++++++++++++++++++++++++++++++++++++++++.......-----------------------------------------------------------------------------------------------------------------------------------------------------*******OOOOOO+++++++++++++++++++++++++++++++++++++++++++++++++++++++++++++++++++++++++++++++++.......                                                                    ",
"                                                                                              .......++++++++++++++++++++++++++++++++++++++++++++++++++++++++++++++++++++++++++.......-----------------------------------------------------------------------------------------------------------------------------------------------------*******OOOOOO+++++++++++++++++++++++++++++++++++++++++++++++++++++++++++++++++++++++++++++++++.......                                                                    ",
"                                                                                              .......++++++++++++++++++++++++++++++++++++++++++++++++++++++++++++++++++++++++++.......-----------------------------------------------------------------------------------------------------------------------------------------------------*******OOOOOO+++++++++++++++++++++++++++++++++++++++++++++++++++++++++++++++++++++++++++++++++.......                                                                    ",
"                                                                                              .......++++++++++++++++++++++++++++++++++++++++++++++++++++++++++++++++++++++++++.......-----------------------------------------------------------------------------------------------------------------------------------------------------*******OOOOOO+++++++++++++++++++++++++++++++++++++++++++++++++++++++++++++++++++++++++++++++++.......                                                                    ",
"                                                                                              .......++++++++++++++++++++++++++++++++++++++++++++++++++++++++++++++++++++++++++.......-----------------------------------------------------------------------------------------------------------------------------------------------------*******OOOOOO+++++++++++++++++++++++++++++++++++++++++++++++++++++++++++++++++++++++++++++++++.......                                                                    ",
"                                                                                              .......++++++++++++++++++++++++++++++++++++++++++++++++++++++++++++++++++++++++++.......-----------------------------------------------------------------------------------------------------------------------------------------------------*******OOOOOO+++++++++++++++++++++++++++++++++++++++++++++++++++++++++++++++++++++++++++++++++.......                                                                    ",
"                                                                                                     .......+++++++++++++++++++++++++++++++++++++++++++++++++++++++++++++......-------------------------------------------------------------------------------------------------------------------------------------------------------------------------OOOOOOO++++++++++++++++++++++++++++++++++++++++++++++++++++++++++++++++++++......                                                                           ",
"                                                                                                     .......+++++++++++++++++++++++++++++++++++++++++++++++++++++++++++++......-------------------------------------------------------------------------------------------------------------------------------------------------------------------------OOOOOOO++++++++++++++++++++++++++++++++++++++++++++++++++++++++++++++++++++......                                                                           ",
"                                                                                                     .......+++++++++++++++++++++++++++++++++++++++++++++++++++++++++++++......-------------------------------------------------------------------------------------------------------------------------------------------------------------------------OOOOOOO++++++++++++++++++++++++++++++++++++++++++++++++++++++++++++++++++++......                                                                           ",
"                                                                                                     .......+++++++++++++++++++++++++++++++++++++++++++++++++++++++++++++......-------------------------------------------------------------------------------------------------------------------------------------------------------------------------OOOOOOO++++++++++++++++++++++++++++++++++++++++++++++++++++++++++++++++++++......                                                                           ",
"                                                                                                     .......+++++++++++++++++++++++++++++++++++++++++++++++++++++++++++++......-------------------------------------------------------------------------------------------------------------------------------------------------------------------------OOOOOOO++++++++++++++++++++++++++++++++++++++++++++++++++++++++++++++++++++......                                                                           ",
"                                                                                                     .......+++++++++++++++++++++++++++++++++++++++++++++++++++++++++++++......-------------------------------------------------------------------------------------------------------------------------------------------------------------------------OOOOOOO++++++++++++++++++++++++++++++++++++++++++++++++++++++++++++++++++++......                                                                           ",
"                                                                                                     .......+++++++++++++++++++++++++++++++++++++++++++++++++++++++++++++......-------------------------------------------------------------------------------------------------------------------------------------------------------------------------OOOOOOO++++++++++++++++++++++++++++++++++++++++++++++++++++++++++++++++++++......                                                                           ",
"                                                                                                            ++++++++++++++++++++++++++++++++++++++++++++++++++++++.......--------------------------------------------------------------------------------------------------------------------------------------------------------------------------------------OOOOOOO++++++++++++++++++++++++++++++++++++++++++++++++++++++OOOOOOO......                                                                           ",
"                                                                                                            ++++++++++++++++++++++++++++++++++++++++++++++++++++++.......--------------------------------------------------------------------------------------------------------------------------------------------------------------------------------------OOOOOOO++++++++++++++++++++++++++++++++++++++++++++++++++++++OOOOOOO......                                                                           ",
"                                                                                                            ++++++++++++++++++++++++++++++++++++++++++++++++++++++.......--------------------------------------------------------------------------------------------------------------------------------------------------------------------------------------OOOOOOO++++++++++++++++++++++++++++++++++++++++++++++++++++++OOOOOOO......                                                                           ",
"                                                                                                            ++++++++++++++++++++++++++++++++++++++++++++++++++++++.......--------------------------------------------------------------------------------------------------------------------------------------------------------------------------------------OOOOOOO++++++++++++++++++++++++++++++++++++++++++++++++++++++OOOOOOO......                                                                           ",
"                                                                                                            ++++++++++++++++++++++++++++++++++++++++++++++++++++++.......--------------------------------------------------------------------------------------------------------------------------------------------------------------------------------------OOOOOOO++++++++++++++++++++++++++++++++++++++++++++++++++++++OOOOOOO......                                                                           ",
"                                                                                                            ++++++++++++++++++++++++++++++++++++++++++++++++++++++.......--------------------------------------------------------------------------------------------------------------------------------------------------------------------------------------OOOOOOO++++++++++++++++++++++++++++++++++++++++++++++++++++++OOOOOOO......                                                                           ",
"                                                                                                            .......++++++++++++++++++++++++++++++++++++++++.......----------------------------------------------------------------------------------------------------------------------------------------------------------------------------------------------------OOOOOOO++++++++++++++++++++++++++++++++++++++++OOOOOOO+++++++++++++.......                                                                    ",
"                                                                                                            .......++++++++++++++++++++++++++++++++++++++++.......----------------------------------------------------------------------------------------------------------------------------------------------------------------------------------------------------OOOOOOO++++++++++++++++++++++++++++++++++++++++OOOOOOO+++++++++++++.......                                                                    ",
"                                                                                                            .......++++++++++++++++++++++++++++++++++++++++.......----------------------------------------------------------------------------------------------------------------------------------------------------------------------------------------------------OOOOOOO++++++++++++++++++++++++++++++++++++++++OOOOOOO+++++++++++++.......                                                                    ",
"                                                                                                            .......++++++++++++++++++++++++++++++++++++++++.......----------------------------------------------------------------------------------------------------------------------------------------------------------------------------------------------------OOOOOOO++++++++++++++++++++++++++++++++++++++++OOOOOOO+++++++++++++.......                                                                    ",
"                                                                                                            .......++++++++++++++++++++++++++++++++++++++++.......----------------------------------------------------------------------------------------------------------------------------------------------------------------------------------------------------OOOOOOO++++++++++++++++++++++++++++++++++++++++OOOOOOO+++++++++++++.......                                                                    ",
"                                                                                                            .......++++++++++++++++++++++++++++++++++++++++.......----------------------------------------------------------------------------------------------------------------------------------------------------------------------------------------------------OOOOOOO++++++++++++++++++++++++++++++++++++++++OOOOOOO+++++++++++++.......                                                                    ",
"                                                                                                            .......++++++++++++++++++++++++++++++++++++++++.......----------------------------------------------------------------------------------------------------------------------------------------------------------------------------------------------------OOOOOOO++++++++++++++++++++++++++++++++++++++++OOOOOOO+++++++++++++.......                                                                    ",
"                                                                                                            .......+++++++++++++++++++++++++++++++++.......-----------------------------------------------------------------------------------------------------------------------------------------------------------------------------------------------------------OOOOOOO++++++++++++++++++++++++++++++++++++++++++++++++++++++++++++OOOOOOO.......                                                             ",
"                                                                                                            .......+++++++++++++++++++++++++++++++++.......-----------------------------------------------------------------------------------------------------------------------------------------------------------------------------------------------------------OOOOOOO++++++++++++++++++++++++++++++++++++++++++++++++++++++++++++OOOOOOO.......                                                             ",
"                                                                                                            .......+++++++++++++++++++++++++++++++++.......-----------------------------------------------------------------------------------------------------------------------------------------------------------------------------------------------------------OOOOOOO++++++++++++++++++++++++++++++++++++++++++++++++++++++++++++OOOOOOO.......                                                             ",
"                                                                                                            .......+++++++++++++++++++++++++++++++++.......-----------------------------------------------------------------------------------------------------------------------------------------------------------------------------------------------------------OOOOOOO++++++++++++++++++++++++++++++++++++++++++++++++++++++++++++OOOOOOO.......                                                             ",
"                                                                                                            .......+++++++++++++++++++++++++++++++++.......-----------------------------------------------------------------------------------------------------------------------------------------------------------------------------------------------------------OOOOOOO++++++++++++++++++++++++++++++++++++++++++++++++++++++++++++OOOOOOO.......                                                             ",
"                                                                                                            .......+++++++++++++++++++++++++++++++++.......-----------------------------------------------------------------------------------------------------------------------------------------------------------------------------------------------------------OOOOOOO++++++++++++++++++++++++++++++++++++++++++++++++++++++++++++OOOOOOO.......                                                             ",
"                                                                                                            .......+++++++++++++++++++++++++++++++++.......-----------------------------------------------------------------------------------------------------------------------------------------------------------------------------------------------------------OOOOOOO++++++++++++++++++++++++++++++++++++++++++++++++++++++++++++OOOOOOO.......                                                             ",
"                                                                                                                   .............++++++++++++++++++++.......------------------------------------------------------------------------------------------------------------------------------------------------------------------------------------------------------------------OOOOOO++++++++++++++++++++++++++++++++++++++++++++++++OOOOOO+++++++..............                                                      ",
"                                                                                                                   .............++++++++++++++++++++.......------------------------------------------------------------------------------------------------------------------------------------------------------------------------------------------------------------------OOOOOO++++++++++++++++++++++++++++++++++++++++++++++++OOOOOO+++++++..............                                                      ",
"                                                                                                                   .............++++++++++++++++++++.......------------------------------------------------------------------------------------------------------------------------------------------------------------------------------------------------------------------OOOOOO++++++++++++++++++++++++++++++++++++++++++++++++OOOOOO+++++++..............                                                      ",
"                                                                                                                   .............++++++++++++++++++++.......------------------------------------------------------------------------------------------------------------------------------------------------------------------------------------------------------------------OOOOOO++++++++++++++++++++++++++++++++++++++++++++++++OOOOOO+++++++..............                                                      ",
"                                                                                                                   .............++++++++++++++++++++.......------------------------------------------------------------------------------------------------------------------------------------------------------------------------------------------------------------------OOOOOO++++++++++++++++++++++++++++++++++++++++++++++++OOOOOO+++++++..............                                                      ",
"                                                                                                                   .............++++++++++++++++++++.......------------------------------------------------------------------------------------------------------------------------------------------------------------------------------------------------------------------OOOOOO++++++++++++++++++++++++++++++++++++++++++++++++OOOOOO+++++++..............                                                      ",
"                                                                                                                   .............++++++++++++++++++++.......------------------------------------------------------------------------------------------------------------------------------------------------------------------------------------------------------------------OOOOOO++++++++++++++++++++++++++++++++++++++++++++++++OOOOOO+++++++..............                                                      ",
"                                                                                                                                .......+++++++......-------------------------------------------------------------------------------------------------------------------------------------------------------------------------------------------------------------------------OOOOOO+++++++++++++++++++++++++++++++++++++++++OOOOOOOOOOOOO+++++++OOOOOOO.......                                                      ",
"                                                                                                                                .......+++++++......-------------------------------------------------------------------------------------------------------------------------------------------------------------------------------------------------------------------------OOOOOO+++++++++++++++++++++++++++++++++++++++++OOOOOOOOOOOOO+++++++OOOOOOO.......                                                      ",
"                                                                                                                                .......+++++++......-------------------------------------------------------------------------------------------------------------------------------------------------------------------------------------------------------------------------OOOOOO+++++++++++++++++++++++++++++++++++++++++OOOOOOOOOOOOO+++++++OOOOOOO.......                                                      ",
"                                                                                                                                .......+++++++......-------------------------------------------------------------------------------------------------------------------------------------------------------------------------------------------------------------------------OOOOOO+++++++++++++++++++++++++++++++++++++++++OOOOOOOOOOOOO+++++++OOOOOOO.......                                                      ",
"                                                                                                                                .......+++++++......-------------------------------------------------------------------------------------------------------------------------------------------------------------------------------------------------------------------------OOOOOO+++++++++++++++++++++++++++++++++++++++++OOOOOOOOOOOOO+++++++OOOOOOO.......                                                      ",
"                                                                                                                                .......+++++++......-------------------------------------------------------------------------------------------------------------------------------------------------------------------------------------------------------------------------OOOOOO+++++++++++++++++++++++++++++++++++++++++OOOOOOOOOOOOO+++++++OOOOOOO.......                                                      ",
"                                                                                                                                       .............--------------------------------------------------------------------------------------------------------------------------------------------------------------------------------------------------------------------------=====OOOOOOO+++++++++++++++++++++++++++OOOOOOOOOOOOOOOOOOOOOOOOOOOOOOOOOOOOOOOOO.......                                               ",
"                                                                                                                                       .............--------------------------------------------------------------------------------------------------------------------------------------------------------------------------------------------------------------------------=====OOOOOOO+++++++++++++++++++++++++++OOOOOOOOOOOOOOOOOOOOOOOOOOOOOOOOOOOOOOOOO.......                                               ",
"                                                                                                                                       .............--------------------------------------------------------------------------------------------------------------------------------------------------------------------------------------------------------------------------=====OOOOOOO+++++++++++++++++++++++++++OOOOOOOOOOOOOOOOOOOOOOOOOOOOOOOOOOOOOOOOO.......                                               ",
"                                                                                                                                       .............-------------------------------------------------------------------------------------------------------------------------------------------------------------------------------------------------------------------------======OOOOOOO+++++++++++++++++++++++++++OOOOOOOOOOOOOOOOOOOOOOOOOOOOOOOOOOOOOOOOO.......                                               ",
"                                                                                                                                       .............-------------------------------------------------------------------------------------------------------------------------------------------------------------------------------------------------------------------------======OOOOOOO+++++++++++++++++++++++++++OOOOOOOOOOOOOOOOOOOOOOOOOOOOOOOOOOOOOOOOO.......                                               ",
"                                                                                                                                       .............--------------------------------------------------------------------------------------------------------------------------------------------------------------------------------------------------------------------------=====OOOOOOO+++++++++++++++++++++++++++OOOOOOOOOOOOOOOOOOOOOOOOOOOOOOOOOOOOOOOOO.......                                               ",
"                                                                                                                                       .............--------------------------------------------------------------------------------------------------------------------------------------------------------------------------------------------------------------------------=====OOOOOOO+++++++++++++++++++++++++++OOOOOOOOOOOOOOOOOOOOOOOOOOOOOOOOOOOOOOOOO.......                                               ",
"                                                                                                                                       .......-------------------------------------------------------------------------------------------------------------------------------------------------------------------------------------------------------------------------------------OOOOOOO++++++++++++++++++++OOOOOOOOOOOOOOOOOOOOOOOOOOOOOOOOOOOOOOOOOOOOOOOO.......                                               ",
"                                                                                                                                       .......-------------------------------------------------------------------------------------------------------------------------------------------------------------------------------------------------------------------------------------OOOOOOO++++++++++++++++++++OOOOOOOOOOOOOOOOOOOOOOOOOOOOOOOOOOOOOOOOOOOOOOOO.......                                               ",
"                                                                                                                                       .......-------------------------------------------------------------------------------------------------------------------------------------------------------------------------------------------------------------------------------------OOOOOOO++++++++++++++++++++OOOOOOOOOOOOOOOOOOOOOOOOOOOOOOOOOOOOOOOOOOOOOOOO.......                                               ",
"                                                                                                                                       .......-------------------------------------------------------------------------------------------------------------------------------------------------------------------------------------------------------------------------------------OOOOOOO++++++++++++++++++++OOOOOOOOOOOOOOOOOOOOOOOOOOOOOOOOOOOOOOOOOOOOOOOO.......                                               ",
"                                                                                                                                       .......-------------------------------------------------------------------------------------------------------------------------------------------------------------------------------------------------------------------------------------OOOOOOO++++++++++++++++++++OOOOOOOOOOOOOOOOOOOOOOOOOOOOOOOOOOOOOOOOOOOOOOOO.......                                               ",
"                                                                                                                                       .......-------------------------------------------------------------------------------------------------------------------------------------------------------------------------------------------------------------------------------------OOOOOOO++++++++++++++++++++OOOOOOOOOOOOOOOOOOOOOOOOOOOOOOOOOOOOOOOOOOOOOOOO.......                                               ",
"                                                                                                                                       .......-------------------------------------------------------------------------------------------------------------------------------------------------------------------------------------------------------------------------------------OOOOOOO++++++++++++++++++++OOOOOOOOOOOOOOOOOOOOOOOOOOOOOOOOOOOOOOOOOOOOOOOO.......                                               ",
"                                                                                                                                       .......-------------------------------------------------------------------------------------------------------------------------------------------------------------------------------------------------------------------------------------OOOOOOO+++++++OOOOOOOOOOOOOOOOOOOOOOOOOOOOOOOOOOOOOOOOOOOOOOOOOOOOOOOOOOOOO.......                                               ",
"                                                                                                                                       .......-------------------------------------------------------------------------------------------------------------------------------------------------------------------------------------------------------------------------------------OOOOOOO+++++++OOOOOOOOOOOOOOOOOOOOOOOOOOOOOOOOOOOOOOOOOOOOOOOOOOOOOOOOOOOOO.......                                               ",
"                                                                                                                                       .......-------------------------------------------------------------------------------------------------------------------------------------------------------------------------------------------------------------------------------------OOOOOOO+++++++OOOOOOOOOOOOOOOOOOOOOOOOOOOOOOOOOOOOOOOOOOOOOOOOOOOOOOOOOOOOO.......                                               ",
"                                                                                                                                       .......-------------------------------------------------------------------------------------------------------------------------------------------------------------------------------------------------------------------------------------OOOOOOO+++++++OOOOOOOOOOOOOOOOOOOOOOOOOOOOOOOOOOOOOOOOOOOOOOOOOOOOOOOOOOOOO.......                                               ",
"                                                                                                                                       .......-------------------------------------------------------------------------------------------------------------------------------------------------------------------------------------------------------------------------------------OOOOOOO+++++++OOOOOOOOOOOOOOOOOOOOOOOOOOOOOOOOOOOOOOOOOOOOOOOOOOOOOOOOOOOOO.......                                               ",
"                                                                                                                                       .......-------------------------------------------------------------------------------------------------------------------------------------------------------------------------------------------------------------------------------------OOOOOOO+++++++OOOOOOOOOOOOOOOOOOOOOOOOOOOOOOOOOOOOOOOOOOOOOOOOOOOOOOOOOOOOO.......                                               ",
"                                                                                                                                       .......-------------------------------------------------------------------------------------------------------------------------------------------------------------------------------------------------------------------------------------OOOOOOO+++++++OOOOOOOOOOOOOOOOOOOOOOOOOOOOOOOOOOOOOOOOOOOOOOOOOOOOOOOOOOOOO.......                                               ",
"                                                                                                                                       .......--------------------------------------------------------------------------------------------------------------------------------------------------------------------------------------------------------------------------------------------OOOOOOOOOOOOOOOOOOOOOOOOOOOOOOOOOOOOOOOOOOOOOOOOOOOOOOOOOOOOOOOOOOOOOOOOOOO......                                         ",
"                                                                                                                                       .......--------------------------------------------------------------------------------------------------------------------------------------------------------------------------------------------------------------------------------------------OOOOOOOOOOOOOOOOOOOOOOOOOOOOOOOOOOOOOOOOOOOOOOOOOOOOOOOOOOOOOOOOOOOOOOOOOOO......                                         ",
"                                                                                                                                       .......--------------------------------------------------------------------------------------------------------------------------------------------------------------------------------------------------------------------------------------------OOOOOOOOOOOOOOOOOOOOOOOOOOOOOOOOOOOOOOOOOOOOOOOOOOOOOOOOOOOOOOOOOOOOOOOOOOO......                                         ",
"                                                                                                                                       .......--------------------------------------------------------------------------------------------------------------------------------------------------------------------------------------------------------------------------------------------OOOOOOOOOOOOOOOOOOOOOOOOOOOOOOOOOOOOOOOOOOOOOOOOOOOOOOOOOOOOOOOOOOOOOOOOOOO......                                         ",
"                                                                                                                                       .......--------------------------------------------------------------------------------------------------------------------------------------------------------------------------------------------------------------------------------------------OOOOOOOOOOOOOOOOOOOOOOOOOOOOOOOOOOOOOOOOOOOOOOOOOOOOOOOOOOOOOOOOOOOOOOOOOOO......                                         ",
"                                                                                                                                       .......--------------------------------------------------------------------------------------------------------------------------------------------------------------------------------------------------------------------------------------------OOOOOOOOOOOOOOOOOOOOOOOOOOOOOOOOOOOOOOOOOOOOOOOOOOOOOOOOOOOOOOOOOOOOOOOOOOO......                                         ",
"                                                                                                                                       .......--------------------------------------------------------------------------------------------------------------------------------------------------------------------------------------------------------------------------------------------OOOOOOOOOOOOOOOOOOOOOOOOOOOOOOOOOOOOOOOOOOOOOOOOOOOOOOOOOOOOOOOOOOOOOOOOOOO......                                         ",
"                                                                                                                                .......--------------------------------------------------------------------------------------------------------------------------------------------------------------------------------------------------------------------------------------------*******OOOOOOOOOOOOOOOOOOOOOOOOOOOOOOOOOOOOOOOOOOOOOOOOOOOOOOOOOOOOOOOOOOOOOOOOOOO......                                         ",
"                                                                                                                                .......--------------------------------------------------------------------------------------------------------------------------------------------------------------------------------------------------------------------------------------------*******OOOOOOOOOOOOOOOOOOOOOOOOOOOOOOOOOOOOOOOOOOOOOOOOOOOOOOOOOOOOOOOOOOOOOOOOOOO......                                         ",
"                                                                                                                                .......--------------------------------------------------------------------------------------------------------------------------------------------------------------------------------------------------------------------------------------------*******OOOOOOOOOOOOOOOOOOOOOOOOOOOOOOOOOOOOOOOOOOOOOOOOOOOOOOOOOOOOOOOOOOOOOOOOOOO......                                         ",
"                                                                                                                                .......--------------------------------------------------------------------------------------------------------------------------------------------------------------------------------------------------------------------------------------------*******OOOOOOOOOOOOOOOOOOOOOOOOOOOOOOOOOOOOOOOOOOOOOOOOOOOOOOOOOOOOOOOOOOOOOOOOOOO......                                         ",
"                                                                                                                                .......--------------------------------------------------------------------------------------------------------------------------------------------------------------------------------------------------------------------------------------------*******OOOOOOOOOOOOOOOOOOOOOOOOOOOOOOOOOOOOOOOOOOOOOOOOOOOOOOOOOOOOOOOOOOOOOOOOOOO......                                         ",
"                                                                                                                                .......--------------------------------------------------------------------------------------------------------------------------------------------------------------------------------------------------------------------------------------------*******OOOOOOOOOOOOOOOOOOOOOOOOOOOOOOOOOOOOOOOOOOOOOOOOOOOOOOOOOOOOOOOOOOOOOOOOOOO......                                         ",
"                                                                                                                                .......--------------------------------------------------------------------------------------------------------------------------------------------------------------------------------------------------------------------------------------********************OOOOOOOOOOOOOOOOOOOOOOOOOOOOOOOOOOOOOOOOOOOOOOOOOOOOOOOOOOOOOOOOOOOO......                                         ",
"                                                                                                                                .......--------------------------------------------------------------------------------------------------------------------------------------------------------------------------------------------------------------------------------------********************OOOOOOOOOOOOOOOOOOOOOOOOOOOOOOOOOOOOOOOOOOOOOOOOOOOOOOOOOOOOOOOOOOOO......                                         ",
"                                                                                                                                .......--------------------------------------------------------------------------------------------------------------------------------------------------------------------------------------------------------------------------------------********************OOOOOOOOOOOOOOOOOOOOOOOOOOOOOOOOOOOOOOOOOOOOOOOOOOOOOOOOOOOOOOOOOOOO......                                         ",
"                                                                                                                                .......--------------------------------------------------------------------------------------------------------------------------------------------------------------------------------------------------------------------------------------********************OOOOOOOOOOOOOOOOOOOOOOOOOOOOOOOOOOOOOOOOOOOOOOOOOOOOOOOOOOOOOOOOOOOO......                                         ",
"                                                                                                                                .......--------------------------------------------------------------------------------------------------------------------------------------------------------------------------------------------------------------------------------------********************OOOOOOOOOOOOOOOOOOOOOOOOOOOOOOOOOOOOOOOOOOOOOOOOOOOOOOOOOOOOOOOOOOOO......                                         ",
"                                                                                                                                .......--------------------------------------------------------------------------------------------------------------------------------------------------------------------------------------------------------------------------------------********************OOOOOOOOOOOOOOOOOOOOOOOOOOOOOOOOOOOOOOOOOOOOOOOOOOOOOOOOOOOOOOOOOOOO......                                         ",
"                                                                                                                                .......--------------------------------------------------------------------------------------------------------------------------------------------------------------------------------------------------------------------------------------********************OOOOOOOOOOOOOOOOOOOOOOOOOOOOOOOOOOOOOOOOOOOOOOOOOOOOOOOOOOOOOOOOOOOO......                                         ",
"                                                                                                                                .......-======-------------------------------------------------------------------------------------------------------------------------------------------------------------------------------------------------------------------------------********************OOOOOOOOOOOOOOOOOOOOOOOOOOOOOOOOOOOOOOOOOOOOOOOOOOOOOOOOOOOOOOOOOOOO......                                         ",
"                                                                                                                                .......-======-------------------------------------------------------------------------------------------------------------------------------------------------------------------------------------------------------------------------------********************OOOOOOOOOOOOOOOOOOOOOOOOOOOOOOOOOOOOOOOOOOOOOOOOOOOOOOOOOOOOOOOOOOOO......                                         ",
"                                                                                                                                .......-=======------------------------------------------------------------------------------------------------------------------------------------------------------------------------------------------------------------------------------********************OOOOOOOOOOOOOOOOOOOOOOOOOOOOOOOOOOOOOOOOOOOOOOOOOOOOOOOOOOOOOOOOOOOO......                                         ",
"                                                                                                                                .......-======-------------------------------------------------------------------------------------------------------------------------------------------------------------------------------------------------------------------------------********************OOOOOOOOOOOOOOOOOOOOOOOOOOOOOOOOOOOOOOOOOOOOOOOOOOOOOOOOOOOOOOOOOOOO......                                         ",
"                                                                                                                                .......-=======------------------------------------------------------------------------------------------------------------------------------------------------------------------------------------------------------------------------------********************OOOOOOOOOOOOOOOOOOOOOOOOOOOOOOOOOOOOOOOOOOOOOOOOOOOOOOOOOOOOOOOOOOOO......                                         ",
"                                                                                                                                .......======--------------------------------------------------------------------------------------------------------------------------------------------------------------------------------------------------------------------------------********************OOOOOOOOOOOOOOOOOOOOOOOOOOOOOOOOOOOOOOOOOOOOOOOOOOOOOOOOOOOOOOOOOOOO......                                         ",
"                                                                                                                                .......-=======------------------------------------------------------------------------------------------------------------------------------------------------------------------------------------------------------------------------------********************OOOOOOOOOOOOOOOOOOOOOOOOOOOOOOOOOOOOOOOOOOOOOOOOOOOOOOOOOOOOOOOOOOOO......                                         ",
"                                                                                                                                .......-=======----------------------------------------------------------------------------------------------------------------------------------------------------------------------------------------------------------========-====***************************OOOOOOOOOOOOOOOOOOOOOOOOOOOOOOOOOOOOOOOOOOOOOOOOOOOOOOOOOOOOOOOOOOOOOOOOOO........                                 ",
"                                                                                                                                .......-======-----------------------------------------------------------------------------------------------------------------------------------------------------------------------------------------------------------======-======***************************OOOOOOOOOOOOOOOOOOOOOOOOOOOOOOOOOOOOOOOOOOOOOOOOOOOOOOOOOOOOOOOOOOOOOOOOOO........                                 ",
"                                                                                                                                .......-=======---------------------------------------------------------------------------------------------------------------------------------------------------------------------------------------------------------=======-======***************************OOOOOOOOOOOOOOOOOOOOOOOOOOOOOOOOOOOOOOOOOOOOOOOOOOOOOOOOOOOOOOOOOOOOOOOOOO........                                 ",
"                                                                                                                                .......-=====------------------------------------------------------------------------------------------------------------------------------------------------------------------------------------------------------------========-====***************************OOOOOOOOOOOOOOOOOOOOOOOOOOOOOOOOOOOOOOOOOOOOOOOOOOOOOOOOOOOOOOOOOOOOOOOOOO........                                 ",
"                                                                                                                                .......-=====------------------------------------------------------------------------------------------------------------------------------------------------------------------------------------------------------------========-====***************************OOOOOOOOOOOOOOOOOOOOOOOOOOOOOOOOOOOOOOOOOOOOOOOOOOOOOOOOOOOOOOOOOOOOOOOOOO........                                 ",
"                                                                                                                                .......-======-----------------------------------------------------------------------------------------------------------------------------------------------------------------------------------------------------------======-======***************************OOOOOOOOOOOOOOOOOOOOOOOOOOOOOOOOOOOOOOOOOOOOOOOOOOOOOOOOOOOOOOOOOOOOOOOOOO........                                 ",
"                                                                                                                                .......-=======--------------------------------------------------------------------------------------------------------------------------------------------------------------------------------------------------------=======-=======***************************OOOOOOOOOOOOOOOOOOOOOOOOOOOOOOOOOOOOOOOOOOOOOOOOOOOOOOOOOOOOOOOOOOOOOOOOOO........                                 ",
"                                                                                                                         .......*******-======-----------------------------------------------------------------------------------------------------------------------------------------------------------------------------------------------------======-=====**********************************OOOOOOOOOOOOOOOOOOOOOOOOOOOOOOOOOOOOOOOOOOOOOOOOOOOOOOOOOOOOOOOOOOOOOOOOOO........                                 ",
"                                                                                                                         .......*******-======-----------------------------------------------------------------------------------------------------------------------------------------------------------------------------------------------------======-=====**********************************OOOOOOOOOOOOOOOOOOOOOOOOOOOOOOOOOOOOOOOOOOOOOOOOOOOOOOOOOOOOOOOOOOOOOOOOOO........                                 ",
"                                                                                                                         .......*******-======-----------------------------------------------------------------------------------------------------------------------------------------------------------------------------------------------------======-=====**********************************OOOOOOOOOOOOOOOOOOOOOOOOOOOOOOOOOOOOOOOOOOOOOOOOOOOOOOOOOOOOOOOOOOOOOOOOOO........                                 ",
"                                                                                                                         .......*******-=======----------------------------------------------------------------------------------------------------------------------------------------------------------------------------------------------------======-=====**********************************OOOOOOOOOOOOOOOOOOOOOOOOOOOOOOOOOOOOOOOOOOOOOOOOOOOOOOOOOOOOOOOOOOOOOOOOOO........                                 ",
"                                                                                                                         .......*******-=======----------------------------------------------------------------------------------------------------------------------------------------------------------------------------------------------------======-=====**********************************OOOOOOOOOOOOOOOOOOOOOOOOOOOOOOOOOOOOOOOOOOOOOOOOOOOOOOOOOOOOOOOOOOOOOOOOOO........                                 ",
"                                                                                                                         .......*******-======-----------------------------------------------------------------------------------------------------------------------------------------------------------------------------------------------------=======-====**********************************OOOOOOOOOOOOOOOOOOOOOOOOOOOOOOOOOOOOOOOOOOOOOOOOOOOOOOOOOOOOOOOOOOOOOOOOOO........                                 ",
"                                                                                              .......                    .......**************=======---------------------------------------------------------------------------------------------------------------------------------------------------------------------------------------======-=====************************************************OOOOOOOOOOOOOOOOOOOOOOOOOOOOOOOOOOOOOOOOOOOOOOOOOOOOOOOOOOOOOOOOOOO........                                 ",
"                                                                                              .......                    .......**************-======---------------------------------------------------------------------------------------------------------------------------------------------------------------------------------------======-=====************************************************OOOOOOOOOOOOOOOOOOOOOOOOOOOOOOOOOOOOOOOOOOOOOOOOOOOOOOOOOOOOOOOOOOO........                                 ",
"                                                                                              .......                    .......**************======----------------------------------------------------------------------------------------------------------------------------------------------------------------------------------------=======-====************************************************OOOOOOOOOOOOOOOOOOOOOOOOOOOOOOOOOOOOOOOOOOOOOOOOOOOOOOOOOOOOOOOOOOO........                                 ",
"                                                                                              .......                    .......**************======----------------------------------------------------------------------------------------------------------------------------------------------------------------------------------------======-=====************************************************OOOOOOOOOOOOOOOOOOOOOOOOOOOOOOOOOOOOOOOOOOOOOOOOOOOOOOOOOOOOOOOOOOO........                                 ",
"                                                                                              .......                    .......**************-======---------------------------------------------------------------------------------------------------------------------------------------------------------------------------------------======-=====************************************************OOOOOOOOOOOOOOOOOOOOOOOOOOOOOOOOOOOOOOOOOOOOOOOOOOOOOOOOOOOOOOOOOOO........                                 ",
"                                                                                              .......                    .......**************=======---------------------------------------------------------------------------------------------------------------------------------------------------------------------------------------======-=====************************************************OOOOOOOOOOOOOOOOOOOOOOOOOOOOOOOOOOOOOOOOOOOOOOOOOOOOOOOOOOOOOOOOOOO........                                 ",
"                                                                                              .......                    .......**************-====-----------------------------------------------------------------------------------------------------------------------------------------------------------------------------------------======-=====************************************************OOOOOOOOOOOOOOOOOOOOOOOOOOOOOOOOOOOOOOOOOOOOOOOOOOOOOOOOOOOOOOOOOOO........                                 ",
"                                                             .............              ......:::::::.......             .......********************======--------------------------------------------------------------------------------------------------------------------------------------------------------------------======-============-********************.......***************************OOOOOOOOOOOOO..............OOOOOOOOOOOOOOOOOOOOOOOOOOOOOOOOOOOOOOOO........                                 ",
"                                                             .............              ......:::::::.......             .......********************======--------------------------------------------------------------------------------------------------------------------------------------------------------------------======-=============********************.......***************************OOOOOOOOOOOOO..............OOOOOOOOOOOOOOOOOOOOOOOOOOOOOOOOOOOOOOOO........                                 ",
"                                                             .............              ......:::::::.......             .......********************======--------------------------------------------------------------------------------------------------------------------------------------------------------------------======-=============********************.......***************************OOOOOOOOOOOOO..............OOOOOOOOOOOOOOOOOOOOOOOOOOOOOOOOOOOOOOOO........                                 ",
"                                                             .............              ......:::::::.......             .......********************========------------------------------------------------------------------------------------------------------------------------------------------------------------------======-=============********************.......***************************OOOOOOOOOOOOO..............OOOOOOOOOOOOOOOOOOOOOOOOOOOOOOOOOOOOOOOO........                                 ",
"                                                             .............              ......:::::::.......             .......********************======-------------------------------------------------------------------------------------------------------------------------------------------------------------------=======-=============********************.......***************************OOOOOOOOOOOOO..............OOOOOOOOOOOOOOOOOOOOOOOOOOOOOOOOOOOOOOOO........                                 ",
"                                                             .............              ......:::::::.......             .......********************=======-------------------------------------------------------------------------------------------------------------------------------------------------------------------======-=============********************.......***************************OOOOOOOOOOOOO..............OOOOOOOOOOOOOOOOOOOOOOOOOOOOOOOOOOOOOOOO........                                 ",
"                                                             .............              ......:::::::.......             .......********************-=======------------------------------------------------------------------------------------------------------------------------------------------------------------------======-=============********************.......***************************OOOOOOOOOOOOO..............OOOOOOOOOOOOOOOOOOOOOOOOOOOOOOOOOOOOOOOO........                                 ",
"                                                             ......:::::::....................:::::::;;;;;;;.......      .......***************************======-========---------------------------------------------------------------------------------------------------------------------------------------======-============***************************.......:::::::......*********************OOOOOO.......;;;;;;;.......OOOOOOOOOOOOOOOOOOOOOOOOOOOOOOOOOOOOOOOO........                                 ",
"                                                             ......:::::::....................:::::::;;;;;;;.......      .......***************************========-======---------------------------------------------------------------------------------------------------------------------------------------=======-===========***************************.......:::::::......*********************OOOOOO.......;;;;;;;.......OOOOOOOOOOOOOOOOOOOOOOOOOOOOOOOOOOOOOOOO........                                 ",
"                                                             ......:::::::....................:::::::;;;;;;;.......      .......***************************=======-======----------------------------------------------------------------------------------------------------------------------------------------========-==========***************************.......:::::::......*********************OOOOOO.......;;;;;;;.......OOOOOOOOOOOOOOOOOOOOOOOOOOOOOOOOOOOOOOOO........                                 ",
"                                                             ......:::::::....................:::::::;;;;;;;.......      .......***************************=======-======----------------------------------------------------------------------------------------------------------------------------------------======-============***************************.......:::::::......*********************OOOOOO.......;;;;;;;.......OOOOOOOOOOOOOOOOOOOOOOOOOOOOOOOOOOOOOOOO........                                 ",
"                                                             ......:::::::....................:::::::;;;;;;;.......      .......***************************=======-======----------------------------------------------------------------------------------------------------------------------------------------======-============***************************.......:::::::......*********************OOOOOO.......;;;;;;;.......OOOOOOOOOOOOOOOOOOOOOOOOOOOOOOOOOOOOOOOO........                                 ",
"                                                             ......:::::::....................:::::::;;;;;;;.......      .......***************************=======-======----------------------------------------------------------------------------------------------------------------------------------------======-============***************************.......:::::::......*********************OOOOOO.......;;;;;;;.......OOOOOOOOOOOOOOOOOOOOOOOOOOOOOOOOOOOOOOOO........                                 ",
"                                                             ......:::::::....................:::::::;;;;;;;.......      .......***************************=======-======---------------------------------------------------------------------------------------------------------------------------------------=======-============***************************.......:::::::......*********************OOOOOO.......;;;;;;;.......OOOOOOOOOOOOOOOOOOOOOOOOOOOOOOOOOOOOOOOO........                                 ",
"                                                             ......::::::::::::::.............:::::::;;;;;;;;;;;;;;.............**********************************======-=============-------------------------------------------------------------------------------------------------------======-=============-======-====**********************************.......:::::::......*********************......:::::::;;;;;;;.......OOOOOOOOOOOOOOOOOOOOOOOOOOOOOOOOOOOOOOOO........                                 ",
"                                                             ......::::::::::::::.............:::::::;;;;;;;;;;;;;;.............**********************************=======-=============------------------------------------------------------------------------------------------------------======-=============-=======-===**********************************.......:::::::......*********************......:::::::;;;;;;;.......OOOOOOOOOOOOOOOOOOOOOOOOOOOOOOOOOOOOOOOO........                                 ",
"                                                             ......::::::::::::::.............:::::::;;;;;;;;;;;;;;.............**********************************========-============-----------------------------------------------------------------------------------------------------=======-=============-========-==**********************************.......:::::::......*********************......:::::::;;;;;;;.......OOOOOOOOOOOOOOOOOOOOOOOOOOOOOOOOOOOOOOOO........                                 ",
"                                                             ......::::::::::::::.............:::::::;;;;;;;;;;;;;;.............**********************************=========-===========-----------------------------------------------------------------------------------------------------========-=============-=========-**********************************.......:::::::......*********************......:::::::;;;;;;;.......OOOOOOOOOOOOOOOOOOOOOOOOOOOOOOOOOOOOOOOO........                                 ",
"                                                             ......::::::::::::::.............:::::::;;;;;;;;;;;;;;.............**********************************======-=============-------------------------------------------------------------------------------------------------------=========-=============-========**********************************.......:::::::......*********************......:::::::;;;;;;;.......OOOOOOOOOOOOOOOOOOOOOOOOOOOOOOOOOOOOOOOO........                                 ",
"                                                             ......::::::::::::::.............:::::::;;;;;;;;;;;;;;.............**********************************==========-==========-----------------------------------------------------------------------------------------------------==========-=============-========**********************************.......:::::::......*********************......:::::::;;;;;;;.......OOOOOOOOOOOOOOOOOOOOOOOOOOOOOOOOOOOOOOOO........                                 ",
"                                        ...........................::::::::::::::ooooooo......;;;;;;;;;;;;;;ooooooo.............*****************************************-========-=============-====-------------------------------------------------------------------======-=============-============-======****************************************.......::::::::::::::::::::.....................:::::::::::::;;;;;;;.......OOOOOOOOOOOOOOOOOOOOOOOOOOOOOOOOOOOOOOOO........                                 ",
"                                        ...........................::::::::::::::ooooooo......;;;;;;;;;;;;;;ooooooo.............*****************************************======-=============-=======-------------------------------------------------------------------=======-=============-=======-======-===****************************************.......::::::::::::::::::::.....................:::::::::::::;;;;;;;.......OOOOOOOOOOOOOOOOOOOOOOOOOOOOOOOOOOOOOOOO........                                 ",
"                                        ...........................::::::::::::::ooooooo......;;;;;;;;;;;;;;ooooooo.............*****************************************======-=============-=======-----------------------------------------------------------------========-=============-=======-=======-===****************************************.......::::::::::::::::::::.....................:::::::::::::;;;;;;;.......OOOOOOOOOOOOOOOOOOOOOOOOOOOOOOOOOOOOOOOO........                                 ",
"                                        ...........................::::::::::::::ooooooo......;;;;;;;;;;;;;;ooooooo.............*****************************************=======-=============-======-------------------------------------------------------------------========-=============-=======-========-****************************************.......::::::::::::::::::::.....................:::::::::::::;;;;;;;.......OOOOOOOOOOOOOOOOOOOOOOOOOOOOOOOOOOOOOOOO........                                 ",
"                                        ...........................::::::::::::::ooooooo......;;;;;;;;;;;;;;ooooooo.............*****************************************========-=============-====--------------------------------------------------------------------=========-=============-=======-========****************************************.......::::::::::::::::::::.....................:::::::::::::;;;;;;;.......OOOOOOOOOOOOOOOOOOOOOOOOOOOOOOOOOOOOOOOO........                                 ",
"                                        ...........................::::::::::::::ooooooo......;;;;;;;;;;;;;;ooooooo.............*****************************************======-=============-=======------------------------------------------------------------------=========-=============-=======-=========****************************************.......::::::::::::::::::::.....................:::::::::::::;;;;;;;.......OOOOOOOOOOOOOOOOOOOOOOOOOOOOOOOOOOOOOOOO........                                 ",
"                                        ...........................::::::::::::::ooooooo......;;;;;;;;;;;;;;ooooooo.............*****************************************=======-=============-======-----------------------------------------------------------------==========-=============-=======-=========****************************************.......::::::::::::::::::::.....................:::::::::::::;;;;;;;.......OOOOOOOOOOOOOOOOOOOOOOOOOOOOOOOOOOOOOOOO........                                 ",
"                                        .......::::::::::::::;;;;;;oooooooooooooo-------------oooooooooooooo.......------*******.......***********************************************=======-=============-=======-============-=============-=======-=============-=============-=======-=************************************************************.......;;;;;;;:::::::;;;;;;.......*******.......;;;;;;;;;;;;;;;;;;;;.......OOOOOOOOOOOOO..............OOOOOOOOOOOOO........                                 ",
"                                        .......::::::::::::::;;;;;;oooooooooooooo-------------oooooooooooooo.......------*******.......***********************************************===========-=============-=======-==============-=============-=======-===============-=============-=************************************************************.......;;;;;;;:::::::;;;;;;.......*******.......;;;;;;;;;;;;;;;;;;;;.......OOOOOOOOOOOOO..............OOOOOOOOOOOOO........                                 ",
"                                        .......::::::::::::::;;;;;;oooooooooooooo-------------oooooooooooooo.......------*******.......***********************************************======-=============-=======-================-=============-=======-=================-=============-==************************************************************.......;;;;;;;:::::::;;;;;;.......*******.......;;;;;;;;;;;;;;;;;;;;.......OOOOOOOOOOOOO..............OOOOOOOOOOOOO........                                 ",
"                                        .......::::::::::::::;;;;;;oooooooooooooo-------------oooooooooooooo.......------*******.......***********************************************======-=============-=======-==================-=============-=======-===================-============************************************************************.......;;;;;;;:::::::;;;;;;.......*******.......;;;;;;;;;;;;;;;;;;;;.......OOOOOOOOOOOOO..............OOOOOOOOOOOOO........                                 ",
"                                        .......::::::::::::::;;;;;;oooooooooooooo-------------oooooooooooooo.......------*******.......***********************************************======-=============-=======-====================-=============-=======-=====================-========************************************************************.......;;;;;;;:::::::;;;;;;.......*******.......;;;;;;;;;;;;;;;;;;;;.......OOOOOOOOOOOOO..............OOOOOOOOOOOOO........                                 ",
"                                        .......::::::::::::::;;;;;;oooooooooooooo-------------oooooooooooooo.......------*******.......***********************************************========-=============-=======-======================-=============-=======-=======================-==************************************************************.......;;;;;;;:::::::;;;;;;.......*******.......;;;;;;;;;;;;;;;;;;;;.......OOOOOOOOOOOOO..............OOOOOOOOOOOOO........                                 ",
"                                        .......::::::::::::::;;;;;;oooooooooooooo-------------oooooooooooooo.......------*******.......***********************************************======-=============-=======-========================-=============-=======-=========================-************************************************************.......;;;;;;;:::::::;;;;;;.......*******.......;;;;;;;;;;;;;;;;;;;;.......OOOOOOOOOOOOO..............OOOOOOOOOOOOO........                                 ",
"                                               .......:::::::......-------------------------------------------------------------*******.......*************************************************************============================================================***************************************************************************......*******XXXXXXXXXXXXXXXXXXXX--------------*******....................*******.............:::::::.......OOOOOOOOOOOOO........                                 ",
"                                               .......:::::::......-------------------------------------------------------------*******.......*************************************************************============================================================***************************************************************************......*******XXXXXXXXXXXXXXXXXXXX--------------*******....................*******.............:::::::.......OOOOOOOOOOOOO........                                 ",
"                                               .......:::::::......-------------------------------------------------------------*******.......*************************************************************============================================================***************************************************************************......*******XXXXXXXXXXXXXXXXXXXX--------------*******....................*******.............:::::::.......OOOOOOOOOOOOO........                                 ",
"                                               .......:::::::......-------------------------------------------------------------*******.......*************************************************************============================================================***************************************************************************......*******XXXXXXXXXXXXXXXXXXXX--------------*******....................*******.............:::::::.......OOOOOOOOOOOOO........                                 ",
"                                               .......:::::::......-------------------------------------------------------------*******.......*************************************************************============================================================***************************************************************************......*******XXXXXXXXXXXXXXXXXXXX--------------*******....................*******.............:::::::.......OOOOOOOOOOOOO........                                 ",
"                                               .......:::::::......-------------------------------------------------------------*******.......*************************************************************============================================================***************************************************************************......*******XXXXXXXXXXXXXXXXXXXX--------------*******....................*******.............:::::::.......OOOOOOOOOOOOO........                                 ",
"                                               .......:::::::......-------------------------------------------------------------*******.......*************************************************************============================================================***************************************************************************......*******XXXXXXXXXXXXXXXXXXXX--------------*******....................*******.............:::::::.......OOOOOOOOOOOOO........                                 ",
"                                               .......;;;;;;;......----------------------=============---------------------------------*******......***************************************************************************************************************************************************************************************.......-------------------------------------------------------============**************......::::::::::::::.......OOOOOOOOOOOOO........                                 ",
"                                               .......;;;;;;;......----------------------=============---------------------------------*******......***************************************************************************************************************************************************************************************.......-------------------------------------------------------============**************......::::::::::::::.......OOOOOOOOOOOOO........                                 ",
"                                               .......;;;;;;;......----------------------=============---------------------------------*******......***************************************************************************************************************************************************************************************.......-------------------------------------------------------============**************......::::::::::::::.......OOOOOOOOOOOOO........                                 ",
"                                               .......;;;;;;;......----------------------=============---------------------------------*******......***************************************************************************************************************************************************************************************.......-------------------------------------------------------============**************......::::::::::::::.......OOOOOOOOOOOOO........                                 ",
"                                               .......;;;;;;;......----------------------=============---------------------------------*******......***************************************************************************************************************************************************************************************.......-------------------------------------------------------============**************......::::::::::::::.......OOOOOOOOOOOOO........                                 ",
"                                               .......;;;;;;;......----------------------=============---------------------------------*******......***************************************************************************************************************************************************************************************.......-------------------------------------------------------============**************......::::::::::::::.......OOOOOOOOOOOOO........                                 ",
"                                                      .......-------====================*************========---------------------------======......********************************************************************************************************************************************************************************.......----------------------------------------=====================***************************......;;;;;;;:::::::.......OOOOOOO......                                         ",
"                                                      .......-------====================*************========---------------------------======......********************************************************************************************************************************************************************************.......-----------------------------------------====================***************************......;;;;;;;:::::::.......OOOOOOO......                                         ",
"                                                      .......-------====================*************========--------------------------=======......********************************************************************************************************************************************************************************.......-------=---------------------------------====================***************************......;;;;;;;:::::::.......OOOOOOO......                                         ",
"                                                      .......-------====================*************========---------------------------======......********************************************************************************************************************************************************************************.......-----------------------------------------====================***************************......;;;;;;;:::::::.......OOOOOOO......                                         ",
"                                                      .......-------====================*************========---------------------------======......********************************************************************************************************************************************************************************.......-----------------------------------------====================***************************......;;;;;;;:::::::.......OOOOOOO......                                         ",
"                                                      .......-------====================*************========-------------------------========......********************************************************************************************************************************************************************************.......-------=--------------------------------=====================***************************......;;;;;;;:::::::.......OOOOOOO......                                         ",
"                                                      .......-------====================*************========---------------------------======......********************************************************************************************************************************************************************************.......-------=---------------------------------====================***************************......;;;;;;;:::::::.......OOOOOOO......                                         ",
"                                                      .......-============**********************************========-------------=============******.......******************************************************************************************************************************************************************.......-----------------------------------============******************************************************.....................OOOOOOO......                                         ",
"                                                      .......-============**********************************========-------------=============******.......******************************************************************************************************************************************************************.......-------=---------------------------============******************************************************.....................OOOOOOO......                                         ",
"                                                      .......-============**********************************========------------==============******.......******************************************************************************************************************************************************************.......-----------------------------------============******************************************************.....................OOOOOOO......                                         ",
"                                                      .......-============**********************************========-------------=============******.......******************************************************************************************************************************************************************.......-------=---------------------------============******************************************************.....................OOOOOOO......                                         ",
"                                                      .......-============**********************************========-------------=============******.......******************************************************************************************************************************************************************.......-------=--------------------------=============******************************************************.....................OOOOOOO......                                         ",
"                                                      .......-============**********************************========-------------=============******.......******************************************************************************************************************************************************************.......-------=---------------------------============******************************************************.....................OOOOOOO......                                         ",
"                                                      .......-============**********************************========------------==============******.......******************************************************************************************************************************************************************.......----------------------------------=============******************************************************.....................OOOOOOO......                                         ",
"                                                      .......======************************************************====================*************.......******************************************************************************************************************************************************************.......-------=--------------------======*********************************************************************************.......OOOOOOO......                                         ",
"                                                      .......-=====************************************************====================*************.......******************************************************************************************************************************************************************.......-------=-------------------=======*********************************************************************************.......OOOOOOO......                                         ",
"                                                      .......-=====************************************************====================*************.......******************************************************************************************************************************************************************.......-------=--------------------======*********************************************************************************.......OOOOOOO......                                         ",
"                                                      .......-=====************************************************====================*************.......******************************************************************************************************************************************************************.......-------=--------------------======*********************************************************************************.......OOOOOOO......                                         ",
"                                                      .......-=====************************************************====================*************.......******************************************************************************************************************************************************************.......-------=-------------------=======*********************************************************************************.......OOOOOOO......                                         ",
"                                                      .......-=====************************************************====================*************.......******************************************************************************************************************************************************************.......-------=--------------------======*********************************************************************************.......OOOOOOO......                                         ",
"                                                      .......-=====************************************************====================*************.......******************************************************************************************************************************************************************.......-------=------------------========*********************************************************************************.......OOOOOOO......                                         ",
"                                                      .......**********************************************************************************************.......*****************************************************************************************************************************************************......*******---------------------======***************************XXXXXXXXXXXXXXXXXXXX*****************************************..............                                               ",
"                                                      .......**********************************************************************************************.......*****************************************************************************************************************************************************......*******---------------------======***************************XXXXXXXXXXXXXXXXXXXX*****************************************..............                                               ",
"                                                      .......**********************************************************************************************.......*****************************************************************************************************************************************************......*******--------------------=======***************************XXXXXXXXXXXXXXXXXXXX*****************************************..............                                               ",
"                                                      .......**********************************************************************************************.......*****************************************************************************************************************************************************......*******--------------------=======***************************XXXXXXXXXXXXXXXXXXXX*****************************************..............                                               ",
"                                                      .......**********************************************************************************************.......*****************************************************************************************************************************************************......*******---------------------======***************************XXXXXXXXXXXXXXXXXXXX*****************************************..............                                               ",
"                                                      .......**********************************************************************************************.......*****************************************************************************************************************************************************......*******---------------------======***************************XXXXXXXXXXXXXXXXXXXX*****************************************..............                                               ",
"                                                                   .......*******XXXXXXXXXXXXXXXXXXXXXXXXXXX******************************************************.......**********************************************************************************************************************************************......----------------------=====*********************XXXXXXXXXXXXX####################XXXXXXX**********************************..............                                               ",
"                                                                   .......*******XXXXXXXXXXXXXXXXXXXXXXXXXXX******************************************************.......**********************************************************************************************************************************************......----------------------=====*********************XXXXXXXXXXXXX####################XXXXXXX**********************************..............                                               ",
"                                                                   .......*******XXXXXXXXXXXXXXXXXXXXXXXXXXX******************************************************.......**********************************************************************************************************************************************......---------------------======*********************XXXXXXXXXXXXX####################XXXXXXX**********************************..............                                               ",
"                                                                   .......*******XXXXXXXXXXXXXXXXXXXXXXXXXXX******************************************************.......**********************************************************************************************************************************************......----------------------=====*********************XXXXXXXXXXXXX####################XXXXXXX**********************************..............                                               ",
"                                                                   .......*******XXXXXXXXXXXXXXXXXXXXXXXXXXX******************************************************.......**********************************************************************************************************************************************......--------------------=======*********************XXXXXXXXXXXXX####################XXXXXXX**********************************..............                                               ",
"                                                                   .......*******XXXXXXXXXXXXXXXXXXXXXXXXXXX******************************************************.......**********************************************************************************************************************************************......---------------------======*********************XXXXXXXXXXXXX####################XXXXXXX**********************************..............                                               ",
"                                                                   .......*******XXXXXXXXXXXXXXXXXXXXXXXXXXX******************************************************.......**********************************************************************************************************************************************......----------------------=====*********************XXXXXXXXXXXXX####################XXXXXXX**********************************..............                                               ",
"                                                                   .......XXXXXXX###########################XXXXXXX***********************************************.......OOOOOO****************************************************************************************************************************************......=---------------------=====**************XXXXXXX########################################XXXXXXX********************..............                                                      ",
"                                                                   .......XXXXXXX###########################XXXXXXX***********************************************.......OOOOOO****************************************************************************************************************************************......----------------------=====**************XXXXXXX########################################XXXXXXX********************..............                                                      ",
"                                                                   .......XXXXXXX###########################XXXXXXX***********************************************.......OOOOOO****************************************************************************************************************************************......---------------------======**************XXXXXXX########################################XXXXXXX********************..............                                                      ",
"                                                                   .......XXXXXXX###########################XXXXXXX***********************************************.......OOOOOO****************************************************************************************************************************************......---------------------======**************XXXXXXX########################################XXXXXXX********************..............                                                      ",
"                                                                   .......XXXXXXX###########################XXXXXXX***********************************************.......OOOOOO****************************************************************************************************************************************......---------------------======**************XXXXXXX########################################XXXXXXX********************..............                                                      ",
"                                                                   .......XXXXXXX###########################XXXXXXX***********************************************.......OOOOOO****************************************************************************************************************************************......----------------------=====**************XXXXXXX########################################XXXXXXX********************..............                                                      ",
"                                                                   .......XXXXXXX###########################XXXXXXX***********************************************.......OOOOOO****************************************************************************************************************************************......----------------------=====**************XXXXXXX########################################XXXXXXX********************..............                                                      ",
"                                                                          .......###########################XXXXXXX***********************************************.......OOOOOOOOOOOOO*********************************************************************************************************************************......--------------------=======**************XXXXXXX########################################XXXXXXX********************.......                                                             ",
"                                                                          .......###########################XXXXXXX***********************************************.......OOOOOOOOOOOOO*********************************************************************************************************************************......----------------------=====**************XXXXXXX########################################XXXXXXX********************.......                                                             ",
"                                                                          .......###########################XXXXXXX***********************************************.......OOOOOOOOOOOOO*********************************************************************************************************************************......----------------------=====**************XXXXXXX########################################XXXXXXX********************.......                                                             ",
"                                                                          .......###########################XXXXXXX***********************************************.......OOOOOOOOOOOOO*********************************************************************************************************************************......---------------------======**************XXXXXXX########################################XXXXXXX********************.......                                                             ",
"                                                                          .......###########################XXXXXXX***********************************************.......OOOOOOOOOOOOO*********************************************************************************************************************************......----------------------=====**************XXXXXXX########################################XXXXXXX********************.......                                                             ",
"                                                                          .......###########################XXXXXXX***********************************************.......OOOOOOOOOOOOO*********************************************************************************************************************************......=--------------------======**************XXXXXXX########################################XXXXXXX********************.......                                                             ",
"                                                                          .......###########################XXXXXXX***********************************************.......OOOOOOOOOOOOO*********************************************************************************************************************************......---------------------======**************XXXXXXX########################################XXXXXXX********************.......                                                             ",
"                                                                          .......##################################XXXXXX*****************************************.......OOOOOOOOOOOOOOOOOOOO*******************************************************************************************************************.......-------=------======*************XXXXXXX###############################################XXXXXXX********************.......                                                                    ",
"                                                                          .......##################################XXXXXX*****************************************.......OOOOOOOOOOOOOOOOOOOO*******************************************************************************************************************.......-------=------======*************XXXXXXX###############################################XXXXXXX********************.......                                                                    ",
"                                                                          .......##################################XXXXXX*****************************************.......OOOOOOOOOOOOOOOOOOOO*******************************************************************************************************************.......-------=------======*************XXXXXXX###############################################XXXXXXX********************.......                                                                    ",
"                                                                          .......##################################XXXXXX*****************************************.......OOOOOOOOOOOOOOOOOOOO*******************************************************************************************************************.......--------------======*************XXXXXXX###############################################XXXXXXX********************.......                                                                    ",
"                                                                          .......##################################XXXXXX*****************************************.......OOOOOOOOOOOOOOOOOOOO*******************************************************************************************************************.......-------------=======*************XXXXXXX###############################################XXXXXXX********************.......                                                                    ",
"                                                                          .......##################################XXXXXX*****************************************.......OOOOOOOOOOOOOOOOOOOO*******************************************************************************************************************.......--------------======*************XXXXXXX###############################################XXXXXXX********************.......                                                                    ",
"                                                                                 .......###########################XXXXXX**********************************.......OOOOOOOOOOOOO............................$$$$$$***************************=------*******-------******=------*******-------******=------**************......=-------======*************XXXXXXX#########################################XXXXXXXXXXXXX**************......                                                                           ",
"                                                                                 .......###########################XXXXXX**********************************.......OOOOOOOOOOOOO............................$$$$$$***************************=------*******=------******-------*******=------******=------**************......--------======*************XXXXXXX#########################################XXXXXXXXXXXXX**************......                                                                           ",
"                                                                                 .......###########################XXXXXX**********************************.......OOOOOOOOOOOOO............................$$$$$$***************************=------*******=------******=------*******=------******-------**************......--------======*************XXXXXXX#########################################XXXXXXXXXXXXX**************......                                                                           ",
"                                                                                 .......###########################XXXXXX**********************************.......OOOOOOOOOOOOO............................$$$$$$***************************=------*******-------******-------*******-------******-------**************......-------=======*************XXXXXXX#########################################XXXXXXXXXXXXX**************......                                                                           ",
"                                                                                 .......###########################XXXXXX**********************************.......OOOOOOOOOOOOO............................$$$$$$***************************=------*******-------******=------*******=------******=------**************......--------======*************XXXXXXX#########################################XXXXXXXXXXXXX**************......                                                                           ",
"                                                                                 .......###########################XXXXXX**********************************.......OOOOOOOOOOOOO............................$$$$$$***************************=------*******-------******-------*******-------******-------**************......--------======*************XXXXXXX#########################################XXXXXXXXXXXXX**************......                                                                           ",
"                                                                                 .......###########################XXXXXX**********************************.......OOOOOOOOOOOOO............................$$$$$$***************************=------*******-------******=------*******=------******=------**************......------========*************XXXXXXX#########################################XXXXXXXXXXXXX**************......                                                                           ",
"                                                                                        ......#####################XXXXXX**********************************....................                            .................................$$$$$$$-------*******------*******=------*******=-----*******....................--------======********************XXXXXXX###########################XXXXXXX***************************......                                                                           ",
"                                                                                        ......#####################XXXXXX**********************************....................                            .................................$$$$$$$-------*******=-----*******-------*******------*******....................--------======********************XXXXXXX###########################XXXXXXX***************************......                                                                           ",
"                                                                                        ......#####################XXXXXX**********************************....................                            .................................$$$$$$$-------*******------*******-------*******------*******....................------========********************XXXXXXX###########################XXXXXXX***************************......                                                                           ",
"                                                                                        ......#####################XXXXXX**********************************....................                            .................................$$$$$$$-------*******------*******=------*******=-----*******....................--------======********************XXXXXXX###########################XXXXXXX***************************......                                                                           ",
"                                                                                        ......#####################XXXXXX**********************************....................                            .................................$$$$$$$-------*******------*******-------*******------*******....................--------======********************XXXXXXX###########################XXXXXXX***************************......                                                                           ",
"                                                                                        ......#####################XXXXXX**********************************....................                            .................................$$$$$$$-------*******------*******-------*******------*******....................------========********************XXXXXXX###########################XXXXXXX***************************......                                                                           ",
"                                                                                        ......#####################XXXXXX**********************************....................                            .................................$$$$$$$-------*******------*******-------*******------*******....................--------======********************XXXXXXX###########################XXXXXXX***************************......                                                                           ",
"                                                                                              .......#######.......***************************.............                                                                                 .............................................................                    .......**********************************XXXXXXXXXXXXXXXXXXXXXXXXXXX***************************.......                                                                                 ",
"                                                                                              .......#######.......***************************.............                                                                                 .............................................................                    .......**********************************XXXXXXXXXXXXXXXXXXXXXXXXXXX***************************.......                                                                                 ",
"                                                                                              .......#######.......***************************.............                                                                                 .............................................................                    .......**********************************XXXXXXXXXXXXXXXXXXXXXXXXXXX***************************.......                                                                                 ",
"                                                                                              .......#######.......***************************.............                                                                                 .............................................................                    .......**********************************XXXXXXXXXXXXXXXXXXXXXXXXXXX***************************.......                                                                                 ",
"                                                                                              .......#######.......***************************.............                                                                                 .............................................................                    .......**********************************XXXXXXXXXXXXXXXXXXXXXXXXXXX***************************.......                                                                                 ",
"                                                                                              .......#######.......***************************.............                                                                                 .............................................................                    .......**********************************XXXXXXXXXXXXXXXXXXXXXXXXXXX***************************.......                                                                                 ",
"                                                                                              .......#######.......***************************.............                                                                                 .............................................................                    .......**********************************XXXXXXXXXXXXXXXXXXXXXXXXXXX***************************.......                                                                                 ",
"                                                                                                     .......       ...........................                                                                                                                                                                                      .......*************************************************************......*******.......                                                                                        ",
"                                                                                                     .......       ...........................                                                                                                                                                                                      .......*************************************************************......*******.......                                                                                        ",
"                                                                                                     .......       ...........................                                                                                                                                                                                      .......*************************************************************......*******.......                                                                                        ",
"                                                                                                     .......       ...........................                                                                                                                                                                                      .......*************************************************************......*******.......                                                                                        ",
"                                                                                                     .......       ...........................                                                                                                                                                                                      .......*************************************************************......*******.......                                                                                        ",
"                                                                                                     .......       ...........................                                                                                                                                                                                      .......*************************************************************......*******.......                                                                                        ",
"                                                                                                     .......       ...........................                                                                                                                                                                                      .......*************************************************************......*******.......                                                                                        ",
"                                                                                                                                                                                                                                                                                                                                           .............**********************************..............      .......                                                                                               ",
"                                                                                                                                                                                                                                                                                                                                           .............**********************************..............      .......                                                                                               ",
"                                                                                                                                                                                                                                                                                                                                           .............**********************************..............      .......                                                                                               ",
"                                                                                                                                                                                                                                                                                                                                           .............**********************************..............      .......                                                                                               ",
"                                                                                                                                                                                                                                                                                                                                           .............**********************************..............      .......                                                                                               ",
"                                                                                                                                                                                                                                                                                                                                           .............**********************************..............      .......                                                                                               ",
"                                                                                                                                                                                                                                                                                                                                                        ..................................                                                                                                                          ",
"                                                                                                                                                                                                                                                                                                                                                        ..................................                                                                                                                          ",
"                                                                                                                                                                                                                                                                                                                                                        ..................................                                                                                                                          ",
"                                                                                                                                                                                                                                                                                                                                                        ..................................                                                                                                                          ",
"                                                                                                                                                                                                                                                                                                                                                        ..................................                                                                                                                          ",
"                                                                                                                                                                                                                                                                                                                                                        ..................................                                                                                                                          ",
"                                                                                                                                                                                                                                                                                                                                                        ..................................                                                                                                                          ",
"                                                                                                                                                                                                                                                                                                                                                        ..................................                                                                                                                          ",
"                                                                                                                                                                                                                                                                                                                                                                                                                                                                                                                    ",
"                                                                                                                                                                                                                                                                                                                                                                                                                                                                                                                    "
};
