/* XPM */
static char *out[] = {
/* columns rows colors chars-per-pixel */
"500 503 16 1 ",
"  c #FF00FF",
". c black",
"X c #634221",
"o c #735A21",
"O c #103942",
"+ c #315A7B",
"@ c gray45",
"# c #A57352",
"$ c #C69C5A",
"% c #528CAD",
"& c #73A5BD",
"* c #E7C6AD",
"= c #F7D6BD",
"- c #F7E7BD",
"; c #CECECE",
": c white",
/* pixels */
"                                                                                                                                                                                                                                                                                                                                                                                                                                                                                                                    ",
"                                                                                                                                                                                                                                                                                                                                                                                                                                                                                                                    ",
"                                                                                                                                                                                                                                                                                                                                                                                                                                                                                                                    ",
"                                                                                                                                                                                                                                                                                                                                                                                                                                                                                                                    ",
"                                                                                                                                                                                                                                                                                                                                                                                                                                                                                                                    ",
"                                                                                                                                                                                                                                                                                                                                                                                                                                                                                                                    ",
"                                                                                                                                                                                                                                                                                                                                                                                                                                                                                                                    ",
"                                                                                                                                                                                                                                                                                                                                                                                                                                                                                                                    ",
"                                                                                                                                                                                                                                                                                                                                                                                                                                                                                                                    ",
"                                                                                                                                                                                                                                                                                                                                                                                                                                                                                                                    ",
"                                                                                                                                                                                                                                                                                                                                                                                                                                                                                                                    ",
"                                                                                                                                                                                                                                                                                                                                                                                                                                                                                                                    ",
"                                                                                                                                                                                                                                                                                                                                                                                                                                                                                                                    ",
"                                                                                                                                                                                                                                                                                                                                                                                                                                                                                                                    ",
"                                                                                                                                                                                                                                                                                                                                                                                                                                                                                                                    ",
"                                                                                                                                                                                                                                                                                                                                                                                                                                                                                                                    ",
"                                                                                                                                                                                                                                                                                                                                                                                                                                                                                                                    ",
"                                                                                                                                                                                                                                                                                                                                                                                                                                                                                                                    ",
"                                                                                                                                                                                                                                                                                                                                                                                                                                                                                                                    ",
"                                                                                                                                                                                                                                                                                                                                                                                                                                                                                                                    ",
"                                                                                                                                                                                                                                                                                                                                                                                                                                                                                                                    ",
"                                                                                                                                                                                                                                                                                                                                                                                                                                                                                                                    ",
"                                                                                                                                                                                                                                                                                                                                                                                                                                                                                                                    ",
"                                                                                                                                                                                                                                                                                                                                                                                                                                                                                                                    ",
"                                                                                                                                                                                                                                                                                                                                                                                                                                                                                                                    ",
"                                                                                                                                                                                                                                                                                                                                                                                                                                                                                                                    ",
"                                                                                                                                                                                                                                                                                                                                                                                                                                                                                                                    ",
"                                                                                                                                                                                                                 .......                                                                                                                                                                                                                                                                                            ",
"                                                                                                                                                                                                                 .......                                                                                                                                                                                                                                                                                            ",
"                                                                                                                                                                                                                 .......                                                                                                                                                                                                                                                                                            ",
"                                                                                                                                                                                                                 .......                                                                                                                                                                                                                                                                                            ",
"                                                                                                                                                                                                                 .......                                                                                                                                                                                                                                                                                            ",
"                                                                                                                                                                                                                 .......                                                                                                                                                                                                                                                                                            ",
"                                                                                                                                                                                                                 .......                                                                                                                                                                                                                                                                                            ",
"                                                                                                                                                                                                           OOOOOO%%%%%%%.......                                                                                              .....................                                                                                                                                                                  ",
"                                                                                                                                                                                                           OOOOOO%%%%%%%.......                                                                                              .....................                                                                                                                                                                  ",
"                                                                                                                                                                                                           OOOOOO%%%%%%%.......                                                                                              .....................                                                                                                                                                                  ",
"                                                                                                                                                                                                           OOOOOO%%%%%%%.......                                                                                              .....................                                                                                                                                                                  ",
"                                                                                                                                                                                                           OOOOOO%%%%%%%.......                                                                                              .....................                                                                                                                                                                  ",
"                                                                                                                                                                                                           OOOOOO%%%%%%%.......                                                                                              .....................                                                                                                                                                                  ",
"                                                                                                                                                                                                           OOOOOO%%%%%%%+++++++.............                                                                           OOOOOO%%%%%%%++++++++++++++......                                                                                                                                                            ",
"                                                                                                                                                                                                           OOOOOO%%%%%%%+++++++.............                                                                           OOOOOO%%%%%%%++++++++++++++......                                                                                                                                                            ",
"                                                                                                                                                                                                           OOOOOO%%%%%%%+++++++.............                                                                           OOOOOO%%%%%%%++++++++++++++......                                                                                                                                                            ",
"                                                                                                                                                                                                           OOOOOO%%%%%%%+++++++.............                                                                           OOOOOO%%%%%%%++++++++++++++......                                                                                                                                                            ",
"                                                                                                                                                                                                           OOOOOO%%%%%%%+++++++.............                                                                           OOOOOO%%%%%%%++++++++++++++......                                                                                                                                                            ",
"                                                                                                                                                                                                           OOOOOO%%%%%%%+++++++.............                                                                           OOOOOO%%%%%%%++++++++++++++......                                                                                                                                                            ",
"                                                                                                                                                                                                           OOOOOO%%%%%%%+++++++.............                                                                           OOOOOO%%%%%%%++++++++++++++......                                                                                                                                                            ",
"                                                                                                                                                                                                    OOOOOOO%%%%%%%%%%%%%++++++++++++++++++++.......                                                      OOOOOOOOOOOOOO%%%%%%%%%%%%%%%%%%%%+++++++......                                                                                                                                                            ",
"                                                                                                                                                                                                    OOOOOOO%%%%%%%%%%%%%++++++++++++++++++++.......                                                      OOOOOOOOOOOOOO%%%%%%%%%%%%%%%%%%%%+++++++......                                                                                                                                                            ",
"                                                                                                                                                                                                    OOOOOOO%%%%%%%%%%%%%++++++++++++++++++++.......                                                      OOOOOOOOOOOOOO%%%%%%%%%%%%%%%%%%%%+++++++......                                                                                                                                                            ",
"                                                                                                                                                                                                    OOOOOOO%%%%%%%%%%%%%++++++++++++++++++++.......                                                      OOOOOOOOOOOOOO%%%%%%%%%%%%%%%%%%%%+++++++......                                                                                                                                                            ",
"                                                                                                                                                                                                    OOOOOOO%%%%%%%%%%%%%++++++++++++++++++++.......                                                      OOOOOOOOOOOOOO%%%%%%%%%%%%%%%%%%%%+++++++......                                                                                                                                                            ",
"                                                                                                                                                                                                    OOOOOOO%%%%%%%%%%%%%++++++++++++++++++++.......                                                      OOOOOOOOOOOOOO%%%%%%%%%%%%%%%%%%%%+++++++......                                                                                                                                                            ",
"                                                                                                                                                                                                    OOOOOOO%%%%%%%%%%%%%++++++++++++++++++++.......                                                      OOOOOOOOOOOOOO%%%%%%%%%%%%%%%%%%%%+++++++......                                                                                                                                                            ",
"                                                                                                                                                                                                    OOOOOOO%%%%%%%%%%%%%%%%%%%%++++++++++++++++++++..............                                 OOOOOOO%%%%%%%%%%%%%%%%%%%%%%%%%%%%%%%%%%+++++++++++++.......                                                                                                                                                     ",
"                                                                                                                                                                                                    OOOOOOO%%%%%%%%%%%%%%%%%%%%++++++++++++++++++++..............                                 OOOOOOO%%%%%%%%%%%%%%%%%%%%%%%%%%%%%%%%%%+++++++++++++.......                                                                                                                                                     ",
"                                                                                                                                                                                                    OOOOOOO%%%%%%%%%%%%%%%%%%%%++++++++++++++++++++..............                                 OOOOOOO%%%%%%%%%%%%%%%%%%%%%%%%%%%%%%%%%%+++++++++++++.......                                                                                                                                                     ",
"                                                                                                                                                                                                    OOOOOOO%%%%%%%%%%%%%%%%%%%%++++++++++++++++++++..............                                 OOOOOOO%%%%%%%%%%%%%%%%%%%%%%%%%%%%%%%%%%+++++++++++++.......                                                                                                                                                     ",
"                                                                                                                                                                                                    OOOOOOO%%%%%%%%%%%%%%%%%%%%++++++++++++++++++++..............                                 OOOOOOO%%%%%%%%%%%%%%%%%%%%%%%%%%%%%%%%%%+++++++++++++.......                                                                                                                                                     ",
"                                                                                                                                                                                                    OOOOOOO%%%%%%%%%%%%%%%%%%%%++++++++++++++++++++..............                                 OOOOOOO%%%%%%%%%%%%%%%%%%%%%%%%%%%%%%%%%%+++++++++++++.......                                                                                                                                                     ",
"                                                                                                                                                                                                    OOOOOOO%%%%%%%%%%%%%%%%%%%%++++++++++++++++++++..............                                 OOOOOOO%%%%%%%%%%%%%%%%%%%%%%%%%%%%%%%%%%+++++++++++++.......                                                                                                                                                     ",
"                                                                                                                                                                                             OOOOOOO%%%%%%%%%%%%%%%%%%%%+++++++OOOOOOOOOOOOO+++++++&&&&&&&&&&&&&&...........................%%%%%%%%%%%%%%%%%%%%%%%%%%%%%%%%%%%%%%%%++++++++++++++......                                                                                                                                                            ",
"                                                                                                                                                                                             OOOOOOO%%%%%%%%%%%%%%%%%%%%+++++++OOOOOOOOOOOOO+++++++&&&&&&&&&&&&&&...........................%%%%%%%%%%%%%%%%%%%%%%%%%%%%%%%%%%%%%%%%++++++++++++++......                                                                                                                                                            ",
"                                                                                                                                                                                             OOOOOOO%%%%%%%%%%%%%%%%%%%%+++++++OOOOOOOOOOOOO+++++++&&&&&&&&&&&&&&...........................%%%%%%%%%%%%%%%%%%%%%%%%%%%%%%%%%%%%%%%%++++++++++++++......                                                                                                                                                            ",
"                                                                                                                                                                                             OOOOOOO%%%%%%%%%%%%%%%%%%%%+++++++OOOOOOOOOOOOO+++++++&&&&&&&&&&&&&&...........................%%%%%%%%%%%%%%%%%%%%%%%%%%%%%%%%%%%%%%%%++++++++++++++......                                                                                                                                                            ",
"                                                                                                                                                                                             OOOOOOO%%%%%%%%%%%%%%%%%%%%+++++++OOOOOOOOOOOOO+++++++&&&&&&&&&&&&&&...........................%%%%%%%%%%%%%%%%%%%%%%%%%%%%%%%%%%%%%%%%++++++++++++++......                                                                                                                                                            ",
"                                                                                                                                                                                             OOOOOOO%%%%%%%%%%%%%%%%%%%%+++++++OOOOOOOOOOOOO+++++++&&&&&&&&&&&&&&...........................%%%%%%%%%%%%%%%%%%%%%%%%%%%%%%%%%%%%%%%%++++++++++++++......                                                                                                                                                            ",
"                                                                                                                                                                                             OOOOOOO%%%%%%%++++++++++++++++++++%%%%%%%&&&&&&&&&&&&&&&&&&&&&&&&&&&%%%%%%%%%%%%%%%%%%%%%%%%%%%%%%%%%%%%%%%%%%%%%%%%%%%%%%%%%%%%+++++++++++++++++++++++++++                                                                                 .......                                                                    ",
"                                                                                                                                                                                             OOOOOOO%%%%%%%++++++++++++++++++++%%%%%%%&&&&&&&&&&&&&&&&&&&&&&&&&&&%%%%%%%%%%%%%%%%%%%%%%%%%%%%%%%%%%%%%%%%%%%%%%%%%%%%%%%%%%%%+++++++++++++++++++++++++++                                                                                 .......                                                                    ",
"                                                                                                                                                                                             OOOOOOO%%%%%%%++++++++++++++++++++%%%%%%%&&&&&&&&&&&&&&&&&&&&&&&&&&&%%%%%%%%%%%%%%%%%%%%%%%%%%%%%%%%%%%%%%%%%%%%%%%%%%%%%%%%%%%%+++++++++++++++++++++++++++                                                                                 .......                                                                    ",
"                                                                                                                                                                                             OOOOOOO%%%%%%%++++++++++++++++++++%%%%%%%&&&&&&&&&&&&&&&&&&&&&&&&&&&%%%%%%%%%%%%%%%%%%%%%%%%%%%%%%%%%%%%%%%%%%%%%%%%%%%%%%%%%%%%+++++++++++++++++++++++++++                                                                                 .......                                                                    ",
"                                                                                                                                                                                             OOOOOOO%%%%%%%++++++++++++++++++++%%%%%%%&&&&&&&&&&&&&&&&&&&&&&&&&&&%%%%%%%%%%%%%%%%%%%%%%%%%%%%%%%%%%%%%%%%%%%%%%%%%%%%%%%%%%%%+++++++++++++++++++++++++++                                                                                 .......                                                                    ",
"                                                                                                                                                                                             OOOOOOO%%%%%%%++++++++++++++++++++%%%%%%%&&&&&&&&&&&&&&&&&&&&&&&&&&&%%%%%%%%%%%%%%%%%%%%%%%%%%%%%%%%%%%%%%%%%%%%%%%%%%%%%%%%%%%%+++++++++++++++++++++++++++                                                                                 .......                                                                    ",
"                                                                                                                                                                                             OOOOOOO%%%%%%%++++++++++++++++++++%%%%%%%&&&&&&&&&&&&&&&&&&&&&&&&&&&%%%%%%%%%%%%%%%%%%%%%%%%%%%%%%%%%%%%%%%%%%%%%%%%%%%%%%%%%%%%+++++++++++++++++++++++++++                                                                                 .......                                                                    ",
"                                                                                                                                                                                             .......+++++++%%%%%%%%%%%%%%%%%%%%%%%%%%%%%%%%%&&&&&&&&&&&&&&&&&&&&&&&&&&&%%%%%%%%%%%%%%%%%%%%%%%%%%%%%%%%%%%%%%%%%%%%%%%%%%%%%%+++++++++++++++++++++++++++.......                                               .......              .............                                                                    ",
"                                                                                                                                                                                             .......+++++++%%%%%%%%%%%%%%%%%%%%%%%%%%%%%%%%%&&&&&&&&&&&&&&&&&&&&&&&&&&&%%%%%%%%%%%%%%%%%%%%%%%%%%%%%%%%%%%%%%%%%%%%%%%%%%%%%%+++++++++++++++++++++++++++.......                                               .......              .............                                                                    ",
"                                                                                                                                                                                             .......+++++++%%%%%%%%%%%%%%%%%%%%%%%%%%%%%%%%%&&&&&&&&&&&&&&&&&&&&&&&&&&&%%%%%%%%%%%%%%%%%%%%%%%%%%%%%%%%%%%%%%%%%%%%%%%%%%%%%%+++++++++++++++++++++++++++.......                                               .......              .............                                                                    ",
"                                                                                                                                                                                             .......+++++++%%%%%%%%%%%%%%%%%%%%%%%%%%%%%%%%%&&&&&&&&&&&&&&&&&&&&&&&&&&&%%%%%%%%%%%%%%%%%%%%%%%%%%%%%%%%%%%%%%%%%%%%%%%%%%%%%%+++++++++++++++++++++++++++.......                                               .......              .............                                                                    ",
"                                                                                                                                                                                             .......+++++++%%%%%%%%%%%%%%%%%%%%%%%%%%%%%%%%%&&&&&&&&&&&&&&&&&&&&&&&&&&&%%%%%%%%%%%%%%%%%%%%%%%%%%%%%%%%%%%%%%%%%%%%%%%%%%%%%%+++++++++++++++++++++++++++.......                                               .......              .............                                                                    ",
"                                                                                                                                                                                             .......+++++++%%%%%%%%%%%%%%%%%%%%%%%%%%%%%%%%%&&&&&&&&&&&&&&&&&&&&&&&&&&&%%%%%%%%%%%%%%%%%%%%%%%%%%%%%%%%%%%%%%%%%%%%%%%%%%%%%%+++++++++++++++++++++++++++.......                                               .......              .............                                                                    ",
"                                                                                                                                                                                             .......+++++++%%%%%%%%%%%%%%%%%%%%%%%%%%%%%%%%%&&&&&&&&&&&&&&&&&&&&&&&&&&&%%%%%%%%%%%%%%%%%%%%%%%%%%%%%%%%%%%%%%%%%%%%%%%%%%%%%%+++++++++++++++++++++++++++.......                                               .......              .............                                                                    ",
"                                                                                                                                                                                             .......+++++++++++++++++++++++++++%%%%%%%%%%%%%%%%%%%%%%%%%%%%%%%%%%%%%%%%%%%%%%%%%%%%%%%%%%%%%+++++++++++++%%%%%%%%%%%%%%++++++++++++++++++++++++++++++++++++++++.......                                  ....................       ::::::..............                                                             ",
"                                                                                                                                                                                             .......+++++++++++++++++++++++++++%%%%%%%%%%%%%%%%%%%%%%%%%%%%%%%%%%%%%%%%%%%%%%%%%%%%%%%%%%%%%+++++++++++++%%%%%%%%%%%%%%++++++++++++++++++++++++++++++++++++++++.......                                  ....................       ::::::..............                                                             ",
"                                                                                                                                                                                             .......+++++++++++++++++++++++++++%%%%%%%%%%%%%%%%%%%%%%%%%%%%%%%%%%%%%%%%%%%%%%%%%%%%%%%%%%%%%+++++++++++++%%%%%%%%%%%%%%++++++++++++++++++++++++++++++++++++++++.......                                  ....................       ::::::..............                                                             ",
"                                                                                                                                                                                             .......+++++++++++++++++++++++++++%%%%%%%%%%%%%%%%%%%%%%%%%%%%%%%%%%%%%%%%%%%%%%%%%%%%%%%%%%%%%+++++++++++++%%%%%%%%%%%%%%++++++++++++++++++++++++++++++++++++++++.......                                  ....................       ::::::..............                                                             ",
"                                                                                                                                                                                             .......+++++++++++++++++++++++++++%%%%%%%%%%%%%%%%%%%%%%%%%%%%%%%%%%%%%%%%%%%%%%%%%%%%%%%%%%%%%+++++++++++++%%%%%%%%%%%%%%++++++++++++++++++++++++++++++++++++++++.......                                  ....................       ::::::..............                                                             ",
"                                                                                                                                                                                             .......+++++++++++++++++++++++++++%%%%%%%%%%%%%%%%%%%%%%%%%%%%%%%%%%%%%%%%%%%%%%%%%%%%%%%%%%%%%+++++++++++++%%%%%%%%%%%%%%++++++++++++++++++++++++++++++++++++++++.......                                  ....................       ::::::..............                                                             ",
"                                                                                                                                                                                             .......+++++++++++++++++++++++++++%%%%%%%%%%%%%%%%%%%%%%%%%%%%%%%%%%%%%%%%%%%%%%%%%%%%%%%%%%%%%+++++++++++++%%%%%%%%%%%%%%++++++++++++++++++++++++++++++++++++++++.......                                  ....................       ::::::..............                                                             ",
"                                                                                                                                                                                      .......++++++++++++++-------------*******+++++++%%%%%%%%%%%%%%%%%%%%%%%%%%%%%%%%%%%%%%%%++++++++++++++------*******+++++++++++++++++++++++++++++++++++++++++++++++++++++++++++++.......                           ....................OOOOOOOOOOOOO.....................                                                      ",
"                                                                                                                                                                                      .......++++++++++++++-------------*******+++++++%%%%%%%%%%%%%%%%%%%%%%%%%%%%%%%%%%%%%%%%++++++++++++++------*******+++++++++++++++++++++++++++++++++++++++++++++++++++++++++++++.......                           ....................OOOOOOOOOOOOO.....................                                                      ",
"                                                                                                                                                                                      .......++++++++++++++-------------*******+++++++%%%%%%%%%%%%%%%%%%%%%%%%%%%%%%%%%%%%%%%%++++++++++++++------*******+++++++++++++++++++++++++++++++++++++++++++++++++++++++++++++.......                           ....................OOOOOOOOOOOOO.....................                                                      ",
"                                                                                                                                                                                      .......++++++++++++++-------------*******+++++++%%%%%%%%%%%%%%%%%%%%%%%%%%%%%%%%%%%%%%%%++++++++++++++------*******+++++++++++++++++++++++++++++++++++++++++++++++++++++++++++++.......                           ....................OOOOOOOOOOOOO.....................                                                      ",
"                                                                                                                                                                                      .......++++++++++++++-------------*******+++++++%%%%%%%%%%%%%%%%%%%%%%%%%%%%%%%%%%%%%%%%++++++++++++++------*******+++++++++++++++++++++++++++++++++++++++++++++++++++++++++++++.......                           ....................OOOOOOOOOOOOO.....................                                                      ",
"                                                                                                                                                                                      .......++++++++++++++-------------*******+++++++%%%%%%%%%%%%%%%%%%%%%%%%%%%%%%%%%%%%%%%%++++++++++++++------*******+++++++++++++++++++++++++++++++++++++++++++++++++++++++++++++.......                           ....................OOOOOOOOOOOOO.....................                                                      ",
"                                                                                                                                                                                      .......+++++++*******---------------------------++++++%%%%%%%%%%%%%%%%%%%%%%%%%%%+++++++---------------------------OOOOOOOOOOOOOO+++++++++++++++++++++++++++++++++++++++++++++++.......                           .............%%%%%%%%%%%%%%%%%%%%............................                                               ",
"                                                                                                                                                                                      .......+++++++*******---------------------------++++++%%%%%%%%%%%%%%%%%%%%%%%%%%%+++++++---------------------------OOOOOOOOOOOOOO+++++++++++++++++++++++++++++++++++++++++++++++.......                           .............%%%%%%%%%%%%%%%%%%%%............................                                               ",
"                                                                                                                                                                                      .......+++++++*******---------------------------++++++%%%%%%%%%%%%%%%%%%%%%%%%%%%+++++++---------------------------OOOOOOOOOOOOOO+++++++++++++++++++++++++++++++++++++++++++++++.......                           .............%%%%%%%%%%%%%%%%%%%%............................                                               ",
"                                                                                                                                                                                      .......+++++++*******---------------------------++++++%%%%%%%%%%%%%%%%%%%%%%%%%%%+++++++---------------------------OOOOOOOOOOOOOO+++++++++++++++++++++++++++++++++++++++++++++++.......                           .............%%%%%%%%%%%%%%%%%%%%............................                                               ",
"                                                                                                                                                                                      .......+++++++*******---------------------------++++++%%%%%%%%%%%%%%%%%%%%%%%%%%%+++++++---------------------------OOOOOOOOOOOOOO+++++++++++++++++++++++++++++++++++++++++++++++.......                           .............%%%%%%%%%%%%%%%%%%%%............................                                               ",
"                                                                                                                                                                                      .......+++++++*******---------------------------++++++%%%%%%%%%%%%%%%%%%%%%%%%%%%+++++++---------------------------OOOOOOOOOOOOOO+++++++++++++++++++++++++++++++++++++++++++++++.......                           .............%%%%%%%%%%%%%%%%%%%%............................                                               ",
"                                                                                                                                                                                      .......+++++++*******---------------------------++++++%%%%%%%%%%%%%%%%%%%%%%%%%%%+++++++---------------------------OOOOOOOOOOOOOO+++++++++++++++++++++++++++++++++++++++++++++++.......                           .............%%%%%%%%%%%%%%%%%%%%............................                                               ",
"                                                                                                                                .......                                               .......+++++++----------------------------------------++++++++++++++%%%%%%%++++++-----------------------------------------*******OOOOOO++++++++++++++++++++++++++++++++++++++++++++++++.............:::::::.......%%%%%%%%%%%%%%%%%%%%%%%%%%%++++++OOOOOOOOOOOOOO..............                                               ",
"                                                                                                                                .......                                               .......+++++++----------------------------------------++++++++++++++%%%%%%%++++++-----------------------------------------*******OOOOOO++++++++++++++++++++++++++++++++++++++++++++++++.............:::::::.......%%%%%%%%%%%%%%%%%%%%%%%%%%%++++++OOOOOOOOOOOOOO..............                                               ",
"                                                                                                                                .......                                               .......+++++++----------------------------------------++++++++++++++%%%%%%%++++++-----------------------------------------*******OOOOOO++++++++++++++++++++++++++++++++++++++++++++++++.............:::::::.......%%%%%%%%%%%%%%%%%%%%%%%%%%%++++++OOOOOOOOOOOOOO..............                                               ",
"                                                                                                                                .......                                               .......+++++++----------------------------------------++++++++++++++%%%%%%%++++++-----------------------------------------*******OOOOOO++++++++++++++++++++++++++++++++++++++++++++++++.............:::::::.......%%%%%%%%%%%%%%%%%%%%%%%%%%%++++++OOOOOOOOOOOOOO..............                                               ",
"                                                                                                                                .......                                               .......+++++++----------------------------------------++++++++++++++%%%%%%%++++++-----------------------------------------*******OOOOOO++++++++++++++++++++++++++++++++++++++++++++++++.............:::::::.......%%%%%%%%%%%%%%%%%%%%%%%%%%%++++++OOOOOOOOOOOOOO..............                                               ",
"                                                                                                                                .......                                               .......+++++++----------------------------------------++++++++++++++%%%%%%%++++++-----------------------------------------*******OOOOOO++++++++++++++++++++++++++++++++++++++++++++++++.............:::::::.......%%%%%%%%%%%%%%%%%%%%%%%%%%%++++++OOOOOOOOOOOOOO..............                                               ",
"                                                                                                                                .......                                               .......+++++++----------------------------------------++++++++++++++%%%%%%%++++++-----------------------------------------*******OOOOOO++++++++++++++++++++++++++++++++++++++++++++++++.............:::::::.......%%%%%%%%%%%%%%%%%%%%%%%%%%%++++++OOOOOOOOOOOOOO..............                                               ",
"                                                                                                                         ..............             .......                    .......*******--------------------------------------------------------------------------------------------------------------------------OOOOOO+++++++++++++++++++++++++++++++++++++++++.......             .......%%%%%%%%%%%%%%%%%%%%%%%%%%%%%%%%%%+++++++++++++:::::::OOOOOOO.......                                               ",
"                                                                                                                         ..............             .......                    .......*******--------------------------------------------------------------------------------------------------------------------------OOOOOO+++++++++++++++++++++++++++++++++++++++++.......             .......%%%%%%%%%%%%%%%%%%%%%%%%%%%%%%%%%%+++++++++++++:::::::OOOOOOO.......                                               ",
"                                                                                                                         ..............             .......                    .......*******--------------------------------------------------------------------------------------------------------------------------OOOOOO+++++++++++++++++++++++++++++++++++++++++.......             .......%%%%%%%%%%%%%%%%%%%%%%%%%%%%%%%%%%+++++++++++++:::::::OOOOOOO.......                                               ",
"                                                                                                                         ..............             .......                    .......*******--------------------------------------------------------------------------------------------------------------------------OOOOOO+++++++++++++++++++++++++++++++++++++++++.......             .......%%%%%%%%%%%%%%%%%%%%%%%%%%%%%%%%%%+++++++++++++:::::::OOOOOOO.......                                               ",
"                                                                                                                         ..............             .......                    .......*******--------------------------------------------------------------------------------------------------------------------------OOOOOO+++++++++++++++++++++++++++++++++++++++++.......             .......%%%%%%%%%%%%%%%%%%%%%%%%%%%%%%%%%%+++++++++++++:::::::OOOOOOO.......                                               ",
"                                                                                                                         ..............             .......                    .......*******--------------------------------------------------------------------------------------------------------------------------OOOOOO+++++++++++++++++++++++++++++++++++++++++.......             .......%%%%%%%%%%%%%%%%%%%%%%%%%%%%%%%%%%+++++++++++++:::::::OOOOOOO.......                                               ",
"                                                                                                                         ..............             .......                    .......*******--------------------------------------------------------------------------------------------------------------------------OOOOOO+++++++++++++++++++++++++++++++++++++++++.......             .......%%%%%%%%%%%%%%%%%%%%%%%%%%%%%%%%%%+++++++++++++:::::::OOOOOOO.......                                               ",
"                                                                                                                   .............:::::::.......      ..............       ......+++++++---------------------------------------------------------------------------------------------------------------------------------------OOOOOOO+++++++++++++++++++++++++++++++++++++++++......       %%%%%%%%%%%%%%%%%%%%%%%%%%%%%%%%%%%%%%%%%++++++............................                                               ",
"                                                                                                                   .............:::::::.......      ..............       ......+++++++---------------------------------------------------------------------------------------------------------------------------------------OOOOOOO+++++++++++++++++++++++++++++++++++++++++......       %%%%%%%%%%%%%%%%%%%%%%%%%%%%%%%%%%%%%%%%%++++++............................                                               ",
"                                                                                                                   .............:::::::.......      ..............       ......+++++++---------------------------------------------------------------------------------------------------------------------------------------OOOOOOO+++++++++++++++++++++++++++++++++++++++++......       %%%%%%%%%%%%%%%%%%%%%%%%%%%%%%%%%%%%%%%%%++++++............................                                               ",
"                                                                                                                   .............:::::::.......      ..............       ......+++++++---------------------------------------------------------------------------------------------------------------------------------------OOOOOOO+++++++++++++++++++++++++++++++++++++++++......       %%%%%%%%%%%%%%%%%%%%%%%%%%%%%%%%%%%%%%%%%++++++............................                                               ",
"                                                                                                                   .............:::::::.......      ..............       ......+++++++---------------------------------------------------------------------------------------------------------------------------------------OOOOOOO+++++++++++++++++++++++++++++++++++++++++......       %%%%%%%%%%%%%%%%%%%%%%%%%%%%%%%%%%%%%%%%%++++++............................                                               ",
"                                                                                                                   .............:::::::.......      ..............       ......+++++++---------------------------------------------------------------------------------------------------------------------------------------OOOOOOO+++++++++++++++++++++++++++++++++++++++++......       %%%%%%%%%%%%%%%%%%%%%%%%%%%%%%%%%%%%%%%%%++++++............................                                               ",
"                                                                                                            .............OOOOOOO%%%%%%%%%%%%%%%%%%%%:::::::.......       ......+++++++@@@@@@@..............------------------------------------------------------------------------------------------------------------------*******OOOOOOO++++++++++++++++++++++++++++++++++......       .......%%%%%%%%%%%%%%%%%%%%%%%%%%%+++++++++++++++++++++++++++++++++++++++++......                                         ",
"                                                                                                            .............OOOOOOO%%%%%%%%%%%%%%%%%%%%:::::::.......       ......+++++++@@@@@@@..............------------------------------------------------------------------------------------------------------------------*******OOOOOOO++++++++++++++++++++++++++++++++++......       .......%%%%%%%%%%%%%%%%%%%%%%%%%%%+++++++++++++++++++++++++++++++++++++++++......                                         ",
"                                                                                                            .............OOOOOOO%%%%%%%%%%%%%%%%%%%%:::::::.......       ......+++++++@@@@@@@..............------------------------------------------------------------------------------------------------------------------*******OOOOOOO++++++++++++++++++++++++++++++++++......       .......%%%%%%%%%%%%%%%%%%%%%%%%%%%+++++++++++++++++++++++++++++++++++++++++......                                         ",
"                                                                                                            .............OOOOOOO%%%%%%%%%%%%%%%%%%%%:::::::.......       ......+++++++@@@@@@@..............------------------------------------------------------------------------------------------------------------------*******OOOOOOO++++++++++++++++++++++++++++++++++......       .......%%%%%%%%%%%%%%%%%%%%%%%%%%%+++++++++++++++++++++++++++++++++++++++++......                                         ",
"                                                                                                            .............OOOOOOO%%%%%%%%%%%%%%%%%%%%:::::::.......       ......+++++++@@@@@@@..............------------------------------------------------------------------------------------------------------------------*******OOOOOOO++++++++++++++++++++++++++++++++++......       .......%%%%%%%%%%%%%%%%%%%%%%%%%%%+++++++++++++++++++++++++++++++++++++++++......                                         ",
"                                                                                                            .............OOOOOOO%%%%%%%%%%%%%%%%%%%%:::::::.......       ......+++++++@@@@@@@..............------------------------------------------------------------------------------------------------------------------*******OOOOOOO++++++++++++++++++++++++++++++++++......       .......%%%%%%%%%%%%%%%%%%%%%%%%%%%+++++++++++++++++++++++++++++++++++++++++......                                         ",
"                                                                                                            .............OOOOOOO%%%%%%%%%%%%%%%%%%%%:::::::.......       ......+++++++@@@@@@@..............------------------------------------------------------------------------------------------------------------------*******OOOOOOO++++++++++++++++++++++++++++++++++......       .......%%%%%%%%%%%%%%%%%%%%%%%%%%%+++++++++++++++++++++++++++++++++++++++++......                                         ",
"                                                                                                     .......OOOOOOOOOOOOO%%%%%%%%%%%%%%%%%%%%%%%%%%%...........................+++++++---------------------.............-----------------------------------------@@@@@@...........................----------------------------------OOOOOOO++++++++++++++++++++++++++++++++++.............%%%%%%%%%%%%%%%%%%%%%%%%%%%%%%%%%%++++++++++++++++++++++++++++++++++.......                                               ",
"                                                                                                     .......OOOOOOOOOOOOO%%%%%%%%%%%%%%%%%%%%%%%%%%%...........................+++++++---------------------.............-----------------------------------------@@@@@@...........................----------------------------------OOOOOOO++++++++++++++++++++++++++++++++++.............%%%%%%%%%%%%%%%%%%%%%%%%%%%%%%%%%%++++++++++++++++++++++++++++++++++.......                                               ",
"                                                                                                     .......OOOOOOOOOOOOO%%%%%%%%%%%%%%%%%%%%%%%%%%%...........................+++++++---------------------.............-----------------------------------------@@@@@@...........................----------------------------------OOOOOOO++++++++++++++++++++++++++++++++++.............%%%%%%%%%%%%%%%%%%%%%%%%%%%%%%%%%%++++++++++++++++++++++++++++++++++.......                                               ",
"                                                                                                     .......OOOOOOOOOOOOO%%%%%%%%%%%%%%%%%%%%%%%%%%%...........................+++++++---------------------.............-----------------------------------------@@@@@@...........................----------------------------------OOOOOOO++++++++++++++++++++++++++++++++++.............%%%%%%%%%%%%%%%%%%%%%%%%%%%%%%%%%%++++++++++++++++++++++++++++++++++.......                                               ",
"                                                                                                     .......OOOOOOOOOOOOO%%%%%%%%%%%%%%%%%%%%%%%%%%%...........................+++++++---------------------.............-----------------------------------------@@@@@@...........................----------------------------------OOOOOOO++++++++++++++++++++++++++++++++++.............%%%%%%%%%%%%%%%%%%%%%%%%%%%%%%%%%%++++++++++++++++++++++++++++++++++.......                                               ",
"                                                                                                     .......OOOOOOOOOOOOO%%%%%%%%%%%%%%%%%%%%%%%%%%%...........................+++++++---------------------.............-----------------------------------------@@@@@@...........................----------------------------------OOOOOOO++++++++++++++++++++++++++++++++++.............%%%%%%%%%%%%%%%%%%%%%%%%%%%%%%%%%%++++++++++++++++++++++++++++++++++.......                                               ",
"                                                                                                     .......OOOOOOOOOOOOO%%%%%%%%%%%%%%%%%%%%%%%%%%%...........................+++++++---------------------.............-----------------------------------------@@@@@@...........................----------------------------------OOOOOOO++++++++++++++++++++++++++++++++++.............%%%%%%%%%%%%%%%%%%%%%%%%%%%%%%%%%%++++++++++++++++++++++++++++++++++.......                                               ",
"                                                                                                     .......OOOOOOOOOOOOO+++++++%%%%%%%%%%%%%%%%%%%%%%%%%%%:::::::.............+++++++------------------------------------------------------------------------------------------------------------.......@@@@@@@--------------------*******OOOOOOO+++++++++++++++++++++++++++++++++.......%%%%%%%%%%%%%%%%%%%%%%%%%%%%%%%%%%+++++++++++++++++++++++++++++++++++++++++......                                         ",
"                                                                                                     .......OOOOOOOOOOOOO+++++++%%%%%%%%%%%%%%%%%%%%%%%%%%%:::::::.............+++++++------------------------------------------------------------------------------------------------------------.......@@@@@@@--------------------*******OOOOOOO+++++++++++++++++++++++++++++++++.......%%%%%%%%%%%%%%%%%%%%%%%%%%%%%%%%%%+++++++++++++++++++++++++++++++++++++++++......                                         ",
"                                                                                                     .......OOOOOOOOOOOOO+++++++%%%%%%%%%%%%%%%%%%%%%%%%%%%:::::::.............+++++++------------------------------------------------------------------------------------------------------------.......@@@@@@@--------------------*******OOOOOOO+++++++++++++++++++++++++++++++++.......%%%%%%%%%%%%%%%%%%%%%%%%%%%%%%%%%%+++++++++++++++++++++++++++++++++++++++++......                                         ",
"                                                                                                     .......OOOOOOOOOOOOO+++++++%%%%%%%%%%%%%%%%%%%%%%%%%%%:::::::.............+++++++------------------------------------------------------------------------------------------------------------.......@@@@@@@--------------------*******OOOOOOO+++++++++++++++++++++++++++++++++.......%%%%%%%%%%%%%%%%%%%%%%%%%%%%%%%%%%+++++++++++++++++++++++++++++++++++++++++......                                         ",
"                                                                                                     .......OOOOOOOOOOOOO+++++++%%%%%%%%%%%%%%%%%%%%%%%%%%%:::::::.............+++++++------------------------------------------------------------------------------------------------------------.......@@@@@@@--------------------*******OOOOOOO+++++++++++++++++++++++++++++++++.......%%%%%%%%%%%%%%%%%%%%%%%%%%%%%%%%%%+++++++++++++++++++++++++++++++++++++++++......                                         ",
"                                                                                                     .......OOOOOOOOOOOOO+++++++%%%%%%%%%%%%%%%%%%%%%%%%%%%:::::::.............+++++++------------------------------------------------------------------------------------------------------------.......@@@@@@@--------------------*******OOOOOOO+++++++++++++++++++++++++++++++++.......%%%%%%%%%%%%%%%%%%%%%%%%%%%%%%%%%%+++++++++++++++++++++++++++++++++++++++++......                                         ",
"                                                                                                     .......OOOOOOOOOOOOO+++++++%%%%%%%%%%%%%%%%%%%%%%%%%%%:::::::.............+++++++------------------------------------------------------------------------------------------------------------.......@@@@@@@--------------------*******OOOOOOO+++++++++++++++++++++++++++++++++.......%%%%%%%%%%%%%%%%%%%%%%%%%%%%%%%%%%+++++++++++++++++++++++++++++++++++++++++......                                         ",
"                                                                                                     .......:::::::+++++++++++++%%%%%%%%%%%%%%%%%%%%%%%%%%%....................+++++++-----------------------------------------------------------------------------------------------------------------------------------------------------OOOOOOO+++++++++++++++++++++++++++++++++.......%%%%%%%%%%%%%%%%%%%%%%%%%%%%%%%%%%+++++++++++++++++++++++++++++++++++++++++......                                         ",
"                                                                                                     .......:::::::+++++++++++++%%%%%%%%%%%%%%%%%%%%%%%%%%%....................+++++++-----------------------------------------------------------------------------------------------------------------------------------------------------OOOOOOO+++++++++++++++++++++++++++++++++.......%%%%%%%%%%%%%%%%%%%%%%%%%%%%%%%%%%+++++++++++++++++++++++++++++++++++++++++......                                         ",
"                                                                                                     .......:::::::+++++++++++++%%%%%%%%%%%%%%%%%%%%%%%%%%%....................+++++++-----------------------------------------------------------------------------------------------------------------------------------------------------OOOOOOO+++++++++++++++++++++++++++++++++.......%%%%%%%%%%%%%%%%%%%%%%%%%%%%%%%%%%+++++++++++++++++++++++++++++++++++++++++......                                         ",
"                                                                                                     .......:::::::+++++++++++++%%%%%%%%%%%%%%%%%%%%%%%%%%%....................+++++++-----------------------------------------------------------------------------------------------------------------------------------------------------OOOOOOO+++++++++++++++++++++++++++++++++.......%%%%%%%%%%%%%%%%%%%%%%%%%%%%%%%%%%+++++++++++++++++++++++++++++++++++++++++......                                         ",
"                                                                                                     .......:::::::+++++++++++++%%%%%%%%%%%%%%%%%%%%%%%%%%%....................+++++++-----------------------------------------------------------------------------------------------------------------------------------------------------OOOOOOO+++++++++++++++++++++++++++++++++.......%%%%%%%%%%%%%%%%%%%%%%%%%%%%%%%%%%+++++++++++++++++++++++++++++++++++++++++......                                         ",
"                                                                                                     .......:::::::+++++++++++++%%%%%%%%%%%%%%%%%%%%%%%%%%%....................+++++++-----------------------------------------------------------------------------------------------------------------------------------------------------OOOOOOO+++++++++++++++++++++++++++++++++.......%%%%%%%%%%%%%%%%%%%%%%%%%%%%%%%%%%+++++++++++++++++++++++++++++++++++++++++......                                         ",
"                                                                                                     .......:::::::+++++++++++++%%%%%%%%%%%%%%%%%%%%%%%%%%%....................+++++++-----------------------------------------------------------------------------------------------------------------------------------------------------OOOOOOO+++++++++++++++++++++++++++++++++.......%%%%%%%%%%%%%%%%%%%%%%%%%%%%%%%%%%+++++++++++++++++++++++++++++++++++++++++......                                         ",
"                                                                                              .......+++++++++++++++++++++++++++%%%%%%%%%%%%%%%%%%%%%%%%%%%%%%%%%%       ......*******----------------------------------------------------------------------------------------------------------------------------------------------OOOOOOO++++++++++++++++++++++++++++++++++.............%%%%%%%%%%%%%%%%%%%%%%%%%%%+++++++++++++++++++++++++++++++++++++++++                                                      ",
"                                                                                              .......+++++++++++++++++++++++++++%%%%%%%%%%%%%%%%%%%%%%%%%%%%%%%%%%       ......*******----------------------------------------------------------------------------------------------------------------------------------------------OOOOOOO++++++++++++++++++++++++++++++++++.............%%%%%%%%%%%%%%%%%%%%%%%%%%%+++++++++++++++++++++++++++++++++++++++++                                                      ",
"                                                                                              .......+++++++++++++++++++++++++++%%%%%%%%%%%%%%%%%%%%%%%%%%%%%%%%%%       ......*******----------------------------------------------------------------------------------------------------------------------------------------------OOOOOOO++++++++++++++++++++++++++++++++++.............%%%%%%%%%%%%%%%%%%%%%%%%%%%+++++++++++++++++++++++++++++++++++++++++                                                      ",
"                                                                                              .......+++++++++++++++++++++++++++%%%%%%%%%%%%%%%%%%%%%%%%%%%%%%%%%%       ......*******----------------------------------------------------------------------------------------------------------------------------------------------OOOOOOO++++++++++++++++++++++++++++++++++.............%%%%%%%%%%%%%%%%%%%%%%%%%%%+++++++++++++++++++++++++++++++++++++++++                                                      ",
"                                                                                              .......+++++++++++++++++++++++++++%%%%%%%%%%%%%%%%%%%%%%%%%%%%%%%%%%       ......*******----------------------------------------------------------------------------------------------------------------------------------------------OOOOOOO++++++++++++++++++++++++++++++++++.............%%%%%%%%%%%%%%%%%%%%%%%%%%%+++++++++++++++++++++++++++++++++++++++++                                                      ",
"                                                                                              .......+++++++++++++++++++++++++++%%%%%%%%%%%%%%%%%%%%%%%%%%%%%%%%%%       ......*******----------------------------------------------------------------------------------------------------------------------------------------------OOOOOOO++++++++++++++++++++++++++++++++++.............%%%%%%%%%%%%%%%%%%%%%%%%%%%+++++++++++++++++++++++++++++++++++++++++                                                      ",
"                                                                                              .......+++++++++++++++++++++++++++%%%%%%%%%%%%%%%%%%%%%%%%%%%%%%%%%%       ......+++++++----------------------------------------------------------------------------------------------------------------------------------------------OOOOOOO++++++++++++++++++++++++++++++++++++++++%%%%%%%%%%%%%%%%%%%%%%%%%%%++++++++++++++++++++++++++++++++++++++++++++++++.......                                               ",
"                                                                                              .......+++++++++++++++++++++++++++%%%%%%%%%%%%%%%%%%%%%%%%%%%%%%%%%%       ......+++++++----------------------------------------------------------------------------------------------------------------------------------------------OOOOOOO++++++++++++++++++++++++++++++++++++++++%%%%%%%%%%%%%%%%%%%%%%%%%%%++++++++++++++++++++++++++++++++++++++++++++++++.......                                               ",
"                                                                                              .......+++++++++++++++++++++++++++%%%%%%%%%%%%%%%%%%%%%%%%%%%%%%%%%%       ......+++++++----------------------------------------------------------------------------------------------------------------------------------------------OOOOOOO++++++++++++++++++++++++++++++++++++++++%%%%%%%%%%%%%%%%%%%%%%%%%%%++++++++++++++++++++++++++++++++++++++++++++++++.......                                               ",
"                                                                                              .......+++++++++++++++++++++++++++%%%%%%%%%%%%%%%%%%%%%%%%%%%%%%%%%%       ......+++++++----------------------------------------------------------------------------------------------------------------------------------------------OOOOOOO++++++++++++++++++++++++++++++++++++++++%%%%%%%%%%%%%%%%%%%%%%%%%%%++++++++++++++++++++++++++++++++++++++++++++++++.......                                               ",
"                                                                                              .......+++++++++++++++++++++++++++%%%%%%%%%%%%%%%%%%%%%%%%%%%%%%%%%%       ......+++++++----------------------------------------------------------------------------------------------------------------------------------------------OOOOOOO++++++++++++++++++++++++++++++++++++++++%%%%%%%%%%%%%%%%%%%%%%%%%%%++++++++++++++++++++++++++++++++++++++++++++++++.......                                               ",
"                                                                                              .......+++++++++++++++++++++++++++%%%%%%%%%%%%%%%%%%%%%%%%%%%%%%%%%%       ......+++++++----------------------------------------------------------------------------------------------------------------------------------------------OOOOOOO++++++++++++++++++++++++++++++++++++++++%%%%%%%%%%%%%%%%%%%%%%%%%%%++++++++++++++++++++++++++++++++++++++++++++++++.......                                               ",
"                                                                                              .......+++++++++++++++++++++++++++%%%%%%%%%%%%%%%%%%%%%%%%%%%%%%%%%%       ......+++++++----------------------------------------------------------------------------------------------------------------------------------------------OOOOOOO++++++++++++++++++++++++++++++++++++++++%%%%%%%%%%%%%%%%%%%%%%%%%%%++++++++++++++++++++++++++++++++++++++++++++++++.......                                               ",
"                                                                                              .......+++++++++++++++++++++++++++%%%%%%%%%%%%%%%%%%%%%%%%%%%%%%%%%%OOOOOOO      .......*******---------------------------.......####################--------------------------------------------------------------------------*******OOOOOOO+++++++++++++++++++++++++++.............++++++++++++++%%%%%%%+++++++++++++++++++++++++++++++++++++++++++++++++++++++++++++                                               ",
"                                                                                              .......+++++++++++++++++++++++++++%%%%%%%%%%%%%%%%%%%%%%%%%%%%%%%%%%OOOOOOO      .......*******---------------------------.......####################--------------------------------------------------------------------------*******OOOOOOO+++++++++++++++++++++++++++.............++++++++++++++%%%%%%%+++++++++++++++++++++++++++++++++++++++++++++++++++++++++++++                                               ",
"                                                                                              .......+++++++++++++++++++++++++++%%%%%%%%%%%%%%%%%%%%%%%%%%%%%%%%%%OOOOOOO      .......*******---------------------------.......####################--------------------------------------------------------------------------*******OOOOOOO+++++++++++++++++++++++++++.............++++++++++++++%%%%%%%+++++++++++++++++++++++++++++++++++++++++++++++++++++++++++++                                               ",
"                                                                                              .......+++++++++++++++++++++++++++%%%%%%%%%%%%%%%%%%%%%%%%%%%%%%%%%%OOOOOOO      .......*******---------------------------.......####################--------------------------------------------------------------------------*******OOOOOOO+++++++++++++++++++++++++++.............++++++++++++++%%%%%%%+++++++++++++++++++++++++++++++++++++++++++++++++++++++++++++                                               ",
"                                                                                              .......+++++++++++++++++++++++++++%%%%%%%%%%%%%%%%%%%%%%%%%%%%%%%%%%OOOOOOO      .......*******---------------------------.......####################--------------------------------------------------------------------------*******OOOOOOO+++++++++++++++++++++++++++.............++++++++++++++%%%%%%%+++++++++++++++++++++++++++++++++++++++++++++++++++++++++++++                                               ",
"                                                                                              .......+++++++++++++++++++++++++++%%%%%%%%%%%%%%%%%%%%%%%%%%%%%%%%%%OOOOOOO      .......*******---------------------------.......####################--------------------------------------------------------------------------*******OOOOOOO+++++++++++++++++++++++++++.............++++++++++++++%%%%%%%+++++++++++++++++++++++++++++++++++++++++++++++++++++++++++++                                               ",
"                                                                                              .......+++++++++++++++++++++++++++%%%%%%%%%%%%%%%%%%%%%%%%%%%%%%%%%%OOOOOOO      .......*******---------------------------.......####################--------------------------------------------------------------------------*******OOOOOOO+++++++++++++++++++++++++++.............++++++++++++++%%%%%%%+++++++++++++++++++++++++++++++++++++++++++++++++++++++++++++                                               ",
"                                                                                              .......+++++++++++++++++++++++++++%%%%%%%%%%%%%%%%%%%%%%%%%%%%%%%%%%%%%%%%%OOOOOO.......+++++++--------------------.......@@@@@@@###########################.......------------------------------------------------------------OOOOOOO++++++++++++++++++++++++++++++++++OOOOOOO++++++++++++++++++++++++++++++++++++++++++++++++++++++++++++++++++++++++++++++++++++++++                                               ",
"                                                                                              .......+++++++++++++++++++++++++++%%%%%%%%%%%%%%%%%%%%%%%%%%%%%%%%%%%%%%%%%OOOOOO.......+++++++--------------------.......@@@@@@@###########################.......------------------------------------------------------------OOOOOOO++++++++++++++++++++++++++++++++++OOOOOOO++++++++++++++++++++++++++++++++++++++++++++++++++++++++++++++++++++++++++++++++++++++++                                               ",
"                                                                                              .......+++++++++++++++++++++++++++%%%%%%%%%%%%%%%%%%%%%%%%%%%%%%%%%%%%%%%%%OOOOOO.......+++++++--------------------.......@@@@@@@###########################.......------------------------------------------------------------OOOOOOO++++++++++++++++++++++++++++++++++OOOOOOO++++++++++++++++++++++++++++++++++++++++++++++++++++++++++++++++++++++++++++++++++++++++                                               ",
"                                                                                              .......+++++++++++++++++++++++++++%%%%%%%%%%%%%%%%%%%%%%%%%%%%%%%%%%%%%%%%%OOOOOO.......+++++++--------------------.......@@@@@@@###########################.......------------------------------------------------------------OOOOOOO++++++++++++++++++++++++++++++++++OOOOOOO++++++++++++++++++++++++++++++++++++++++++++++++++++++++++++++++++++++++++++++++++++++++                                               ",
"                                                                                              .......+++++++++++++++++++++++++++%%%%%%%%%%%%%%%%%%%%%%%%%%%%%%%%%%%%%%%%%OOOOOO.......+++++++--------------------.......@@@@@@@###########################.......------------------------------------------------------------OOOOOOO++++++++++++++++++++++++++++++++++OOOOOOO++++++++++++++++++++++++++++++++++++++++++++++++++++++++++++++++++++++++++++++++++++++++                                               ",
"                                                                                              .......+++++++++++++++++++++++++++%%%%%%%%%%%%%%%%%%%%%%%%%%%%%%%%%%%%%%%%%OOOOOO.......+++++++--------------------.......@@@@@@@###########################.......------------------------------------------------------------OOOOOOO++++++++++++++++++++++++++++++++++OOOOOOO++++++++++++++++++++++++++++++++++++++++++++++++++++++++++++++++++++++++++++++++++++++++                                               ",
"                                                                                              .......+++++++++++++++++++++++++++%%%%%%%%%%%%%%%%%%%%%%%%%%%%%%%%%%%%%%%%%OOOOOO.......+++++++--------------------.......@@@@@@@###########################.......------------------------------------------------------------OOOOOOO++++++++++++++++++++++++++++++++++OOOOOOO++++++++++++++++++++++++++++++++++++++++++++++++++++++++++++++++++++++++++++++++++++++++                                               ",
"                                                                                              .......+++++++++++++++++++++++++++%%%%%%%%%%%%%%%%%%%%%%%%%%%%%%%%%%%%%%%%%OOOOOO       .......OOOOOOO-------------*******:::::::@@@@@@@####################@@@@@@@::::::------------------------------------------------******OOOOOOO+++++++++++++++++++++++++++OOOOOOO.......+++++++++++++++++++++++++++++++++++++++++++++++++++++++++++++++++++++++++++++++++.......                                               ",
"                                                                                              .......+++++++++++++++++++++++++++%%%%%%%%%%%%%%%%%%%%%%%%%%%%%%%%%%%%%%%%%OOOOOO       .......OOOOOOO-------------*******:::::::@@@@@@@####################@@@@@@@::::::------------------------------------------------******OOOOOOO+++++++++++++++++++++++++++OOOOOOO.......+++++++++++++++++++++++++++++++++++++++++++++++++++++++++++++++++++++++++++++++++.......                                               ",
"                                                                                              .......+++++++++++++++++++++++++++%%%%%%%%%%%%%%%%%%%%%%%%%%%%%%%%%%%%%%%%%OOOOOO       .......OOOOOOO-------------*******:::::::@@@@@@@####################@@@@@@@::::::------------------------------------------------******OOOOOOO+++++++++++++++++++++++++++OOOOOOO.......+++++++++++++++++++++++++++++++++++++++++++++++++++++++++++++++++++++++++++++++++.......                                               ",
"                                                                                              .......+++++++++++++++++++++++++++%%%%%%%%%%%%%%%%%%%%%%%%%%%%%%%%%%%%%%%%%OOOOOO       .......OOOOOOO-------------*******:::::::@@@@@@@####################@@@@@@@::::::------------------------------------------------******OOOOOOO+++++++++++++++++++++++++++OOOOOOO.......+++++++++++++++++++++++++++++++++++++++++++++++++++++++++++++++++++++++++++++++++.......                                               ",
"                                                                                              .......+++++++++++++++++++++++++++%%%%%%%%%%%%%%%%%%%%%%%%%%%%%%%%%%%%%%%%%OOOOOO       .......OOOOOOO-------------*******:::::::@@@@@@@####################@@@@@@@::::::------------------------------------------------******OOOOOOO+++++++++++++++++++++++++++OOOOOOO.......+++++++++++++++++++++++++++++++++++++++++++++++++++++++++++++++++++++++++++++++++.......                                               ",
"                                                                                              .......+++++++++++++++++++++++++++%%%%%%%%%%%%%%%%%%%%%%%%%%%%%%%%%%%%%%%%%OOOOOO       .......OOOOOOO-------------*******:::::::@@@@@@@####################@@@@@@@::::::------------------------------------------------******OOOOOOO+++++++++++++++++++++++++++OOOOOOO.......+++++++++++++++++++++++++++++++++++++++++++++++++++++++++++++++++++++++++++++++++.......                                               ",
"                                                                                              .......++++++++++++++++++++++++++++++++++%%%%%%%%%%%%%%%%%%%%%%%%%%%%%%%%%%%%%%%%              OOOOOOO-----------------------------------------------.......-------------*******-----------------------------------------OOOOOO++++++++++++++++++++++++++++++++++.......++++++++++++++++++++++++++++++++++++++++++++++++++++++++++++++++++++++++++++++++++++++++                                                      ",
"                                                                                              .......++++++++++++++++++++++++++++++++++%%%%%%%%%%%%%%%%%%%%%%%%%%%%%%%%%%%%%%%%              OOOOOOO-----------------------------------------------.......-------------*******-----------------------------------------OOOOOO++++++++++++++++++++++++++++++++++.......++++++++++++++++++++++++++++++++++++++++++++++++++++++++++++++++++++++++++++++++++++++++                                                      ",
"                                                                                              .......++++++++++++++++++++++++++++++++++%%%%%%%%%%%%%%%%%%%%%%%%%%%%%%%%%%%%%%%%              OOOOOOO-----------------------------------------------.......-------------*******-----------------------------------------OOOOOO++++++++++++++++++++++++++++++++++.......++++++++++++++++++++++++++++++++++++++++++++++++++++++++++++++++++++++++++++++++++++++++                                                      ",
"                                                                                              .......++++++++++++++++++++++++++++++++++%%%%%%%%%%%%%%%%%%%%%%%%%%%%%%%%%%%%%%%%              OOOOOOO-----------------------------------------------.......-------------*******-----------------------------------------OOOOOO++++++++++++++++++++++++++++++++++.......++++++++++++++++++++++++++++++++++++++++++++++++++++++++++++++++++++++++++++++++++++++++                                                      ",
"                                                                                              .......++++++++++++++++++++++++++++++++++%%%%%%%%%%%%%%%%%%%%%%%%%%%%%%%%%%%%%%%%              OOOOOOO-----------------------------------------------.......-------------*******-----------------------------------------OOOOOO++++++++++++++++++++++++++++++++++.......++++++++++++++++++++++++++++++++++++++++++++++++++++++++++++++++++++++++++++++++++++++++                                                      ",
"                                                                                              .......++++++++++++++++++++++++++++++++++%%%%%%%%%%%%%%%%%%%%%%%%%%%%%%%%%%%%%%%%              OOOOOOO-----------------------------------------------.......-------------*******-----------------------------------------OOOOOO++++++++++++++++++++++++++++++++++.......++++++++++++++++++++++++++++++++++++++++++++++++++++++++++++++++++++++++++++++++++++++++                                                      ",
"                                                                                              .......++++++++++++++++++++++++++++++++++%%%%%%%%%%%%%%%%%%%%%%%%%%%%%%%%%%%%%%%%              OOOOOOO-----------------------------------------------.......-------------*******-----------------------------------------OOOOOO++++++++++++++++++++++++++++++++++.......++++++++++++++++++++++++++++++++++++++++++++++++++++++++++++++++++++++++++++++++++++++++                                                      ",
"                                                                                                     .......+++++++++++++++++++++++++++%%%%%%%%%%%%%%%%%%%%%%%%%%%%%%%%%%%%%%%%.......              OOOOOOO-----------------------------------------------------------------------------------------------------OOOOOOO+++++++++++++++++++++++++++++++++OOOOOOO+++++++++++++++++++++++++++++++++++++++++++++++++++++++++++++++++++++++++++++++++++++++++++++++                                                      ",
"                                                                                                     .......+++++++++++++++++++++++++++%%%%%%%%%%%%%%%%%%%%%%%%%%%%%%%%%%%%%%%%.......              OOOOOOO-----------------------------------------------------------------------------------------------------OOOOOOO+++++++++++++++++++++++++++++++++OOOOOOO+++++++++++++++++++++++++++++++++++++++++++++++++++++++++++++++++++++++++++++++++++++++++++++++                                                      ",
"                                                                                                     .......+++++++++++++++++++++++++++%%%%%%%%%%%%%%%%%%%%%%%%%%%%%%%%%%%%%%%%.......              OOOOOOO-----------------------------------------------------------------------------------------------------OOOOOOO+++++++++++++++++++++++++++++++++OOOOOOO+++++++++++++++++++++++++++++++++++++++++++++++++++++++++++++++++++++++++++++++++++++++++++++++                                                      ",
"                                                                                                     .......+++++++++++++++++++++++++++%%%%%%%%%%%%%%%%%%%%%%%%%%%%%%%%%%%%%%%%.......              OOOOOOO-----------------------------------------------------------------------------------------------------OOOOOOO+++++++++++++++++++++++++++++++++OOOOOOO+++++++++++++++++++++++++++++++++++++++++++++++++++++++++++++++++++++++++++++++++++++++++++++++                                                      ",
"                                                                                                     .......+++++++++++++++++++++++++++%%%%%%%%%%%%%%%%%%%%%%%%%%%%%%%%%%%%%%%%.......              OOOOOOO-----------------------------------------------------------------------------------------------------OOOOOOO+++++++++++++++++++++++++++++++++OOOOOOO+++++++++++++++++++++++++++++++++++++++++++++++++++++++++++++++++++++++++++++++++++++++++++++++                                                      ",
"                                                                                                     .......+++++++++++++++++++++++++++%%%%%%%%%%%%%%%%%%%%%%%%%%%%%%%%%%%%%%%%.......              OOOOOOO-----------------------------------------------------------------------------------------------------OOOOOOO+++++++++++++++++++++++++++++++++OOOOOOO+++++++++++++++++++++++++++++++++++++++++++++++++++++++++++++++++++++++++++++++++++++++++++++++                                                      ",
"                                                                                                     .......+++++++++++++++++++++++++++%%%%%%%%%%%%%%%%%%%%%%%%%%%%%%%%%%%%%%%%.......              OOOOOOO-----------------------------------------------------------------------------------------------------OOOOOOO+++++++++++++++++++++++++++++++++OOOOOOO+++++++++++++++++++++++++++++++++++++++++++++++++++++++++++++++++++++++++++++++++++++++++++++++                                                      ",
"                                                                                                     +++++++++++++++++++++++++++++++++++++++++++++++++++++++++++++++++++++++++++++++++..............OOOOOOOOOOOOO#######-======------------------------------------------------------#######------OOOOOOO++++++++++++++++++++++++++++++++++++++++++++++++++++++++++++++++++++++++++++++++++++++++++++++++++++++++++++++++++++++++++++++++++++++++++++++OOOOOOOOOOOOOO                                               ",
"                                                                                                     +++++++++++++++++++++++++++++++++++++++++++++++++++++++++++++++++++++++++++++++++..............OOOOOOOOOOOOO#######-====-==-----------------------------------------------------#######------OOOOOOO++++++++++++++++++++++++++++++++++++++++++++++++++++++++++++++++++++++++++++++++++++++++++++++++++++++++++++++++++++++++++++++++++++++++++++++OOOOOOOOOOOOOO                                               ",
"                                                                                                     +++++++++++++++++++++++++++++++++++++++++++++++++++++++++++++++++++++++++++++++++..............OOOOOOOOOOOOO#######===-====-----------------------------------------------------#######------OOOOOOO++++++++++++++++++++++++++++++++++++++++++++++++++++++++++++++++++++++++++++++++++++++++++++++++++++++++++++++++++++++++++++++++++++++++++++++OOOOOOOOOOOOOO                                               ",
"                                                                                                     +++++++++++++++++++++++++++++++++++++++++++++++++++++++++++++++++++++++++++++++++..............OOOOOOOOOOOOO#######-===-==------------------------------------------------------#######=-----OOOOOOO++++++++++++++++++++++++++++++++++++++++++++++++++++++++++++++++++++++++++++++++++++++++++++++++++++++++++++++++++++++++++++++++++++++++++++++OOOOOOOOOOOOOO                                               ",
"                                                                                                     +++++++++++++++++++++++++++++++++++++++++++++++++++++++++++++++++++++++++++++++++..............OOOOOOOOOOOOO#######-=====-------------------------------------------------------#######=-----OOOOOOO++++++++++++++++++++++++++++++++++++++++++++++++++++++++++++++++++++++++++++++++++++++++++++++++++++++++++++++++++++++++++++++++++++++++++++++OOOOOOOOOOOOOO                                               ",
"                                                                                                     +++++++++++++++++++++++++++++++++++++++++++++++++++++++++++++++++++++++++++++++++..............OOOOOOOOOOOOO#######-======------------------------------------------------------#######------OOOOOOO++++++++++++++++++++++++++++++++++++++++++++++++++++++++++++++++++++++++++++++++++++++++++++++++++++++++++++++++++++++++++++++++++++++++++++++OOOOOOOOOOOOOO                                               ",
"                                                                                                     +++++++++++++++++++++++++++++++++++++++++++++++++++++++++++++++++++++++++++++++++..............OOOOOOOOOOOOO#######-=======-----------------------------------------------------#######------OOOOOOO++++++++++++++++++++++++++++++++++++++++++++++++++++++++++++++++++++++++++++++++++++++++++++++++++++++++++++++++++++++++++++++++++++++++++++++OOOOOOOOOOOOOO                                               ",
"                                                                                                     ++++++++++++++++++++++++++++++++++++++++++++++++++++++++++++++++++++++++++..............---------------------===-==********************---------------===-==********************-------OOOOOO++++++++++++++---------------------------OOOOOOO++++++++++++++++++++++++++++++++++++++++++++++++++++++++++++++++++++++++++++++++++++++++++++++++++++++++++++                                                      ",
"                                                                                                     ++++++++++++++++++++++++++++++++++++++++++++++++++++++++++++++++++++++++++..............---------------------===-==********************---------------====-=********************-------OOOOOO++++++++++++++---------------------------OOOOOOO++++++++++++++++++++++++++++++++++++++++++++++++++++++++++++++++++++++++++++++++++++++++++++++++++++++++++++                                                      ",
"                                                                                                     ++++++++++++++++++++++++++++++++++++++++++++++++++++++++++++++++++++++++++..............---------------------===-==********************---------------===-==********************-------OOOOOO++++++++++++++---------------------------OOOOOOO++++++++++++++++++++++++++++++++++++++++++++++++++++++++++++++++++++++++++++++++++++++++++++++++++++++++++++                                                      ",
"                                                                                                     ++++++++++++++++++++++++++++++++++++++++++++++++++++++++++++++++++++++++++..............---------------------====-=********************---------------===-==********************-------OOOOOO++++++++++++++---------------------------OOOOOOO++++++++++++++++++++++++++++++++++++++++++++++++++++++++++++++++++++++++++++++++++++++++++++++++++++++++++++                                                      ",
"                                                                                                     ++++++++++++++++++++++++++++++++++++++++++++++++++++++++++++++++++++++++++..............---------------------===-==********************---------------=====-********************-------OOOOOO++++++++++++++---------------------------OOOOOOO++++++++++++++++++++++++++++++++++++++++++++++++++++++++++++++++++++++++++++++++++++++++++++++++++++++++++++                                                      ",
"                                                                                                     ++++++++++++++++++++++++++++++++++++++++++++++++++++++++++++++++++++++++++..............---------------------===-==********************---------------======********************-------OOOOOO++++++++++++++---------------------------OOOOOOO++++++++++++++++++++++++++++++++++++++++++++++++++++++++++++++++++++++++++++++++++++++++++++++++++++++++++++                                                      ",
"                                                                                                     .......+++++++++++++++++++++++++++++++++++++++++++++++++++++++++++++......------------------------------------------===-==****************************************-===-==-------------------------------------------------------------*******OOOOOO+++++++++++++++++++++++++++++++++++++++++++++++++++++++++++++++++++++++++++++++++++++++++++++++                                                             ",
"                                                                                                     .......+++++++++++++++++++++++++++++++++++++++++++++++++++++++++++++......-----------------------------------------====-==****************************************-===-==-------------------------------------------------------------*******OOOOOO+++++++++++++++++++++++++++++++++++++++++++++++++++++++++++++++++++++++++++++++++++++++++++++++                                                             ",
"                                                                                                     .......+++++++++++++++++++++++++++++++++++++++++++++++++++++++++++++......-----------------------------------------=====-=****************************************===-====------------------------------------------------------------*******OOOOOO+++++++++++++++++++++++++++++++++++++++++++++++++++++++++++++++++++++++++++++++++++++++++++++++                                                             ",
"                                                                                                     .......+++++++++++++++++++++++++++++++++++++++++++++++++++++++++++++......------------------------------------------======****************************************====-==-------------------------------------------------------------*******OOOOOO+++++++++++++++++++++++++++++++++++++++++++++++++++++++++++++++++++++++++++++++++++++++++++++++                                                             ",
"                                                                                                     .......+++++++++++++++++++++++++++++++++++++++++++++++++++++++++++++......-----------------------------------------=======****************************************===-===-------------------------------------------------------------*******OOOOOO+++++++++++++++++++++++++++++++++++++++++++++++++++++++++++++++++++++++++++++++++++++++++++++++                                                             ",
"                                                                                                     .......+++++++++++++++++++++++++++++++++++++++++++++++++++++++++++++......------------------------------------------===-==****************************************-===-==-------------------------------------------------------------*******OOOOOO+++++++++++++++++++++++++++++++++++++++++++++++++++++++++++++++++++++++++++++++++++++++++++++++                                                             ",
"                                                                                                     .......+++++++++++++++++++++++++++++++++++++++++++++++++++++++++++++......------------------------------------------====-=****************************************-===-==-------------------------------------------------------------*******OOOOOO+++++++++++++++++++++++++++++++++++++++++++++++++++++++++++++++++++++++++++++++++++++++++++++++                                                             ",
"                                                                                                            .......++++++++++++++++++++++++++++++++++++++++++++++++++++++......-------------------------------------------------------------**************-====-==-------------------------------------------------------------------------*******OOOOOO++++++++++++++++++++++++++++++++++++++++++++++++++++++++++++++++++++++++++++++++++++++++                                                                    ",
"                                                                                                            .......++++++++++++++++++++++++++++++++++++++++++++++++++++++......-------------------------------------------------------------**************-=====---------------------------------------------------------------------------*******OOOOOO++++++++++++++++++++++++++++++++++++++++++++++++++++++++++++++++++++++++++++++++++++++++                                                                    ",
"                                                                                                            .......++++++++++++++++++++++++++++++++++++++++++++++++++++++......-------------------------------------------------------------**************===-===--------------------------------------------------------------------------*******OOOOOO++++++++++++++++++++++++++++++++++++++++++++++++++++++++++++++++++++++++++++++++++++++++                                                                    ",
"                                                                                                            .......++++++++++++++++++++++++++++++++++++++++++++++++++++++......-------------------------------------------------------------**************-======--------------------------------------------------------------------------*******OOOOOO++++++++++++++++++++++++++++++++++++++++++++++++++++++++++++++++++++++++++++++++++++++++                                                                    ",
"                                                                                                            .......++++++++++++++++++++++++++++++++++++++++++++++++++++++......-------------------------------------------------------------**************===-===--------------------------------------------------------------------------*******OOOOOO++++++++++++++++++++++++++++++++++++++++++++++++++++++++++++++++++++++++++++++++++++++++                                                                    ",
"                                                                                                            .......++++++++++++++++++++++++++++++++++++++++++++++++++++++......-------------------------------------------------------------**************-===-==--------------------------------------------------------------------------*******OOOOOO++++++++++++++++++++++++++++++++++++++++++++++++++++++++++++++++++++++++++++++++++++++++                                                                    ",
"                                                                                                            .......++++++++++++++++++++++++++++++++++++++++++++++++++++++......-------------------------------------------------------------**************-=======-------------------------------------------------------------------------*******OOOOOO++++++++++++++++++++++++++++++++++++++++++++++++++++++++++++++++++++++++++++++++++++++++                                                                    ",
"                                                                                                            .......+++++++++++++++++++++++++++++++++++++++++++++++.......-------------------------------------------------------------------------------------------------------------------------------------------------------------------------------OOOOOOO++++++++++++++++++++++++++++++++++++++++++++++++++++++++++++++++++++++++++                                                                           ",
"                                                                                                            .......+++++++++++++++++++++++++++++++++++++++++++++++.......-------------------------------------------------------------------------------------------------------------------------------------------------------------------------------OOOOOOO++++++++++++++++++++++++++++++++++++++++++++++++++++++++++++++++++++++++++                                                                           ",
"                                                                                                            .......+++++++++++++++++++++++++++++++++++++++++++++++.......-------------------------------------------------------------------------------------------------------------------------------------------------------------------------------OOOOOOO++++++++++++++++++++++++++++++++++++++++++++++++++++++++++++++++++++++++++                                                                           ",
"                                                                                                            .......+++++++++++++++++++++++++++++++++++++++++++++++.......-------------------------------------------------------------------------------------------------------------------------------------------------------------------------------OOOOOOO++++++++++++++++++++++++++++++++++++++++++++++++++++++++++++++++++++++++++                                                                           ",
"                                                                                                            .......+++++++++++++++++++++++++++++++++++++++++++++++.......-------------------------------------------------------------------------------------------------------------------------------------------------------------------------------OOOOOOO++++++++++++++++++++++++++++++++++++++++++++++++++++++++++++++++++++++++++                                                                           ",
"                                                                                                            .......+++++++++++++++++++++++++++++++++++++++++++++++.......-------------------------------------------------------------------------------------------------------------------------------------------------------------------------------OOOOOOO++++++++++++++++++++++++++++++++++++++++++++++++++++++++++++++++++++++++++                                                                           ",
"                                                                                                            .......+++++++++++++++++++++++++++++++++++++++++++++++.......-------------------------------------------------------------------------------------------------------------------------------------------------------------------------------OOOOOOO++++++++++++++++++++++++++++++++++++++++++++++++++++++++++++++++++++++++++                                                                           ",
"                                                                                                                   ++++++++++++++++++++++++++++++++++++++++.......---------------------------------------------------------------------------------------------------------------------------------------------------------------------------------------------OOOOOOOOOOOOOO++++++++++++++++++++++++++++++++++++++++++++++++++++++OOOOOO.......                                                                    ",
"                                                                                                                   ++++++++++++++++++++++++++++++++++++++++.......---------------------------------------------------------------------------------------------------------------------------------------------------------------------------------------------OOOOOOOOOOOOOO++++++++++++++++++++++++++++++++++++++++++++++++++++++OOOOOO.......                                                                    ",
"                                                                                                                   ++++++++++++++++++++++++++++++++++++++++.......---------------------------------------------------------------------------------------------------------------------------------------------------------------------------------------------OOOOOOOOOOOOOO++++++++++++++++++++++++++++++++++++++++++++++++++++++OOOOOO.......                                                                    ",
"                                                                                                                   ++++++++++++++++++++++++++++++++++++++++.......---------------------------------------------------------------------------------------------------------------------------------------------------------------------------------------------OOOOOOOOOOOOOO++++++++++++++++++++++++++++++++++++++++++++++++++++++OOOOOO.......                                                                    ",
"                                                                                                                   ++++++++++++++++++++++++++++++++++++++++.......---------------------------------------------------------------------------------------------------------------------------------------------------------------------------------------------OOOOOOOOOOOOOO++++++++++++++++++++++++++++++++++++++++++++++++++++++OOOOOO.......                                                                    ",
"                                                                                                                   ++++++++++++++++++++++++++++++++++++++++.......---------------------------------------------------------------------------------------------------------------------------------------------------------------------------------------------OOOOOOOOOOOOOO++++++++++++++++++++++++++++++++++++++++++++++++++++++OOOOOO.......                                                                    ",
"                                                                                                            .......+++++++++++++++++++++++++++++++++.......------------------------------------------------------------------------------------------------------------------------------------------------------------------------------------------------------------------OOOOOO+++++++++++++++++++++++++++++++++++++++++++++++++++++++++++++.......                                                             ",
"                                                                                                            .......+++++++++++++++++++++++++++++++++.......------------------------------------------------------------------------------------------------------------------------------------------------------------------------------------------------------------------OOOOOO+++++++++++++++++++++++++++++++++++++++++++++++++++++++++++++.......                                                             ",
"                                                                                                            .......+++++++++++++++++++++++++++++++++.......------------------------------------------------------------------------------------------------------------------------------------------------------------------------------------------------------------------OOOOOO+++++++++++++++++++++++++++++++++++++++++++++++++++++++++++++.......                                                             ",
"                                                                                                            .......+++++++++++++++++++++++++++++++++.......------------------------------------------------------------------------------------------------------------------------------------------------------------------------------------------------------------------OOOOOO+++++++++++++++++++++++++++++++++++++++++++++++++++++++++++++.......                                                             ",
"                                                                                                            .......+++++++++++++++++++++++++++++++++.......------------------------------------------------------------------------------------------------------------------------------------------------------------------------------------------------------------------OOOOOO+++++++++++++++++++++++++++++++++++++++++++++++++++++++++++++.......                                                             ",
"                                                                                                            .......+++++++++++++++++++++++++++++++++.......------------------------------------------------------------------------------------------------------------------------------------------------------------------------------------------------------------------OOOOOO+++++++++++++++++++++++++++++++++++++++++++++++++++++++++++++.......                                                             ",
"                                                                                                            .......+++++++++++++++++++++++++++++++++.......------------------------------------------------------------------------------------------------------------------------------------------------------------------------------------------------------------------OOOOOO+++++++++++++++++++++++++++++++++++++++++++++++++++++++++++++.......                                                             ",
"                                                                                                                         +++++++++++++++++++++......-------------------------------------------------------------------------------------------------------------------------------------------------------------------------------------------------------------------------OOOOOO+++++++++++++++++++++++++++++++++++++++++++++++++++++++++++++OOOOOOO.......                                                      ",
"                                                                                                                         +++++++++++++++++++++......-------------------------------------------------------------------------------------------------------------------------------------------------------------------------------------------------------------------------OOOOOO+++++++++++++++++++++++++++++++++++++++++++++++++++++++++++++OOOOOOO.......                                                      ",
"                                                                                                                         +++++++++++++++++++++......-------------------------------------------------------------------------------------------------------------------------------------------------------------------------------------------------------------------------OOOOOO+++++++++++++++++++++++++++++++++++++++++++++++++++++++++++++OOOOOOO.......                                                      ",
"                                                                                                                         +++++++++++++++++++++......-------------------------------------------------------------------------------------------------------------------------------------------------------------------------------------------------------------------------OOOOOO+++++++++++++++++++++++++++++++++++++++++++++++++++++++++++++OOOOOOO.......                                                      ",
"                                                                                                                         +++++++++++++++++++++......-------------------------------------------------------------------------------------------------------------------------------------------------------------------------------------------------------------------------OOOOOO+++++++++++++++++++++++++++++++++++++++++++++++++++++++++++++OOOOOOO.......                                                      ",
"                                                                                                                         +++++++++++++++++++++......-------------------------------------------------------------------------------------------------------------------------------------------------------------------------------------------------------------------------OOOOOO+++++++++++++++++++++++++++++++++++++++++++++++++++++++++++++OOOOOOO.......                                                      ",
"                                                                                                                         +++++++++++++++++++++......-------------------------------------------------------------------------------------------------------------------------------------------------------------------------------------------------------------------------OOOOOO+++++++++++++++++++++++++++++++++++++++++++++++++++++++++++++OOOOOOO.......                                                      ",
"                                                                                                                                ++++++++++++++......-------------------------------------------------------------------------------------------------------------------------------------------------------------------------------------------------------------------------------OOOOOOO+++++++++++++++++++++++++++++++++++++++++++++++OOOOOOO+++++++..............                                               ",
"                                                                                                                                ++++++++++++++......-------------------------------------------------------------------------------------------------------------------------------------------------------------------------------------------------------------------------------OOOOOOO+++++++++++++++++++++++++++++++++++++++++++++++OOOOOOO+++++++..............                                               ",
"                                                                                                                                ++++++++++++++......-------------------------------------------------------------------------------------------------------------------------------------------------------------------------------------------------------------------------------OOOOOOO+++++++++++++++++++++++++++++++++++++++++++++++OOOOOOO+++++++..............                                               ",
"                                                                                                                                ++++++++++++++......-------------------------------------------------------------------------------------------------------------------------------------------------------------------------------------------------------------------------------OOOOOOO+++++++++++++++++++++++++++++++++++++++++++++++OOOOOOO+++++++..............                                               ",
"                                                                                                                                ++++++++++++++......-------------------------------------------------------------------------------------------------------------------------------------------------------------------------------------------------------------------------------OOOOOOO+++++++++++++++++++++++++++++++++++++++++++++++OOOOOOO+++++++..............                                               ",
"                                                                                                                                ++++++++++++++......-------------------------------------------------------------------------------------------------------------------------------------------------------------------------------------------------------------------------------OOOOOOO+++++++++++++++++++++++++++++++++++++++++++++++OOOOOOO+++++++..............                                               ",
"                                                                                                                                ++++++++++++++......-------------------------------------------------------------------------------------------------------------------------------------------------------------------------------------------------------------------------------OOOOOOO+++++++++++++++++++++++++++++++++++++++++++++++OOOOOOO+++++++..............                                               ",
"                                                                                                                                       .......-------------------------------------------------------------------------------------------------------------------------------------------------------------------------------------------------------------------------------------OOOOOOO+++++++++++++++++++++++++++++++++++++++++OOOOOOOOOOOOO+++++++OOOOOOO.......                                               ",
"                                                                                                                                       .......-------------------------------------------------------------------------------------------------------------------------------------------------------------------------------------------------------------------------------------OOOOOOO+++++++++++++++++++++++++++++++++++++++++OOOOOOOOOOOOO+++++++OOOOOOO.......                                               ",
"                                                                                                                                       .......-------------------------------------------------------------------------------------------------------------------------------------------------------------------------------------------------------------------------------------OOOOOOO+++++++++++++++++++++++++++++++++++++++++OOOOOOOOOOOOO+++++++OOOOOOO.......                                               ",
"                                                                                                                                       .......-------------------------------------------------------------------------------------------------------------------------------------------------------------------------------------------------------------------------------------OOOOOOO+++++++++++++++++++++++++++++++++++++++++OOOOOOOOOOOOO+++++++OOOOOOO.......                                               ",
"                                                                                                                                       .......-------------------------------------------------------------------------------------------------------------------------------------------------------------------------------------------------------------------------------------OOOOOOO+++++++++++++++++++++++++++++++++++++++++OOOOOOOOOOOOO+++++++OOOOOOO.......                                               ",
"                                                                                                                                       .......-------------------------------------------------------------------------------------------------------------------------------------------------------------------------------------------------------------------------------------OOOOOOO+++++++++++++++++++++++++++++++++++++++++OOOOOOOOOOOOO+++++++OOOOOOO.......                                               ",
"                                                                                                                                       .......--------------------------------------------------------------------------------------------------------------------------------------------------------------------------------------------------------------------------------------===-==OOOOOOO+++++++++++++++++++++++++++OOOOOOOOOOOOOOOOOOOOOOOOOOOOOOOOOOOOOOOOO......                                         ",
"                                                                                                                                       .......--------------------------------------------------------------------------------------------------------------------------------------------------------------------------------------------------------------------------------------===-==OOOOOOO+++++++++++++++++++++++++++OOOOOOOOOOOOOOOOOOOOOOOOOOOOOOOOOOOOOOOOO......                                         ",
"                                                                                                                                       .......--------------------------------------------------------------------------------------------------------------------------------------------------------------------------------------------------------------------------------------===-==OOOOOOO+++++++++++++++++++++++++++OOOOOOOOOOOOOOOOOOOOOOOOOOOOOOOOOOOOOOOOO......                                         ",
"                                                                                                                                       .......--------------------------------------------------------------------------------------------------------------------------------------------------------------------------------------------------------------------------------------===-==OOOOOOO+++++++++++++++++++++++++++OOOOOOOOOOOOOOOOOOOOOOOOOOOOOOOOOOOOOOOOO......                                         ",
"                                                                                                                                       .......--------------------------------------------------------------------------------------------------------------------------------------------------------------------------------------------------------------------------------------===-==OOOOOOO+++++++++++++++++++++++++++OOOOOOOOOOOOOOOOOOOOOOOOOOOOOOOOOOOOOOOOO......                                         ",
"                                                                                                                                       .......--------------------------------------------------------------------------------------------------------------------------------------------------------------------------------------------------------------------------------------====-=OOOOOOO+++++++++++++++++++++++++++OOOOOOOOOOOOOOOOOOOOOOOOOOOOOOOOOOOOOOOOO......                                         ",
"                                                                                                                                       .......-------------------------------------------------------------------------------------------------------------------------------------------------------------------------------------------------------------------------------------====-==OOOOOOO+++++++++++++++++++++++++++OOOOOOOOOOOOOOOOOOOOOOOOOOOOOOOOOOOOOOOOO......                                         ",
"                                                                                                                                       .......--------------------------------------------------------------------------------------------------------------------------------------------------------------------------------------------------------------------------------------====-=OOOOOOO+++++++++++++++++++++++++++OOOOOOOOOOOOOOOOOOOOOOOOOOOOOOOOOOOOOOOOO......                                         ",
"                                                                                                                                       .......-------------------------------------------------------------------------------------------------------------------------------------------------------------------------------------------------------------------------------------====-==OOOOOOO+++++++++++++++++++++++++++OOOOOOOOOOOOOOOOOOOOOOOOOOOOOOOOOOOOOOOOO......                                         ",
"                                                                                                                                       .......--------------------------------------------------------------------------------------------------------------------------------------------------------------------------------------------------------------------------------------===-==OOOOOOO+++++++++++++++++++++++++++OOOOOOOOOOOOOOOOOOOOOOOOOOOOOOOOOOOOOOOOO......                                         ",
"                                                                                                                                       .......--------------------------------------------------------------------------------------------------------------------------------------------------------------------------------------------------------------------------------------====-=OOOOOOO+++++++++++++++++++++++++++OOOOOOOOOOOOOOOOOOOOOOOOOOOOOOOOOOOOOOOOO......                                         ",
"                                                                                                                                       .......--------------------------------------------------------------------------------------------------------------------------------------------------------------------------------------------------------------------------------------=====-OOOOOOO+++++++++++++++++++++++++++OOOOOOOOOOOOOOOOOOOOOOOOOOOOOOOOOOOOOOOOO......                                         ",
"                                                                                                                                       .......--------------------------------------------------------------------------------------------------------------------------------------------------------------------------------------------------------------------------------------===-==OOOOOOO+++++++++++++++++++++++++++OOOOOOOOOOOOOOOOOOOOOOOOOOOOOOOOOOOOOOOOO......                                         ",
"                                                                                                                                       .......------------------------------------------------------------------------------------------------------------------------------------------------------------------------------------------------------------------------------------======-=OOOOOOO+++++++++++++++++++++++++++OOOOOOOOOOOOOOOOOOOOOOOOOOOOOOOOOOOOOOOOO......                                         ",
"                                                                                                                                .......---------------------------------------------------------------------------------------------------------------------------------------------------------------------------------------------------------------------------------------------------OOOOOOO++++++++++++++++++++OOOOOOOOOOOOOOOOOOOOOOOOOOOOOOOOOOOOOOOOOOOOOOOO......                                         ",
"                                                                                                                                .......---------------------------------------------------------------------------------------------------------------------------------------------------------------------------------------------------------------------------------------------------OOOOOOO++++++++++++++++++++OOOOOOOOOOOOOOOOOOOOOOOOOOOOOOOOOOOOOOOOOOOOOOOO......                                         ",
"                                                                                                                                .......---------------------------------------------------------------------------------------------------------------------------------------------------------------------------------------------------------------------------------------------------OOOOOOO++++++++++++++++++++OOOOOOOOOOOOOOOOOOOOOOOOOOOOOOOOOOOOOOOOOOOOOOOO......                                         ",
"                                                                                                                                .......---------------------------------------------------------------------------------------------------------------------------------------------------------------------------------------------------------------------------------------------------OOOOOOO++++++++++++++++++++OOOOOOOOOOOOOOOOOOOOOOOOOOOOOOOOOOOOOOOOOOOOOOOO......                                         ",
"                                                                                                                                .......---------------------------------------------------------------------------------------------------------------------------------------------------------------------------------------------------------------------------------------------------OOOOOOO++++++++++++++++++++OOOOOOOOOOOOOOOOOOOOOOOOOOOOOOOOOOOOOOOOOOOOOOOO......                                         ",
"                                                                                                                                .......---------------------------------------------------------------------------------------------------------------------------------------------------------------------------------------------------------------------------------------------------OOOOOOO++++++++++++++++++++OOOOOOOOOOOOOOOOOOOOOOOOOOOOOOOOOOOOOOOOOOOOOOOO......                                         ",
"                                                                                                                                .......---------------------------------------------------------------------------------------------------------------------------------------------------------------------------------------------------------------------------------------------------OOOOOOO++++++++++++++++++++OOOOOOOOOOOOOOOOOOOOOOOOOOOOOOOOOOOOOOOOOOOOOOOO......                                         ",
"                                                                                                                                .......---------------------------------------------------------------------------------------------------------------------------------------------------------------------------------------------------------------------------------------------------OOOOOOO+++++++OOOOOOOOOOOOOOOOOOOOOOOOOOOOOOOOOOOOOOOOOOOOOOOOOOOOOOOOOOOOO......                                         ",
"                                                                                                                                .......---------------------------------------------------------------------------------------------------------------------------------------------------------------------------------------------------------------------------------------------------OOOOOOO+++++++OOOOOOOOOOOOOOOOOOOOOOOOOOOOOOOOOOOOOOOOOOOOOOOOOOOOOOOOOOOOO......                                         ",
"                                                                                                                                .......---------------------------------------------------------------------------------------------------------------------------------------------------------------------------------------------------------------------------------------------------OOOOOOO+++++++OOOOOOOOOOOOOOOOOOOOOOOOOOOOOOOOOOOOOOOOOOOOOOOOOOOOOOOOOOOOO......                                         ",
"                                                                                                                                .......---------------------------------------------------------------------------------------------------------------------------------------------------------------------------------------------------------------------------------------------------OOOOOOO+++++++OOOOOOOOOOOOOOOOOOOOOOOOOOOOOOOOOOOOOOOOOOOOOOOOOOOOOOOOOOOOO......                                         ",
"                                                                                                                                .......---------------------------------------------------------------------------------------------------------------------------------------------------------------------------------------------------------------------------------------------------OOOOOOO+++++++OOOOOOOOOOOOOOOOOOOOOOOOOOOOOOOOOOOOOOOOOOOOOOOOOOOOOOOOOOOOO......                                         ",
"                                                                                                                                .......---------------------------------------------------------------------------------------------------------------------------------------------------------------------------------------------------------------------------------------------------OOOOOOO+++++++OOOOOOOOOOOOOOOOOOOOOOOOOOOOOOOOOOOOOOOOOOOOOOOOOOOOOOOOOOOOO......                                         ",
"                                                                                                                                .......----------------------------------------------------------------------------------------------------------------------------------------------------------------------------------------------------------------------------------------------------------OOOOOOOOOOOOOOOOOOOOOOOOOOOOOOOOOOOOOOOOOOOOOOOOOOOOOOOOOOOOOOOOOOOOOOOOOO.......                                  ",
"                                                                                                                                .......----------------------------------------------------------------------------------------------------------------------------------------------------------------------------------------------------------------------------------------------------------OOOOOOOOOOOOOOOOOOOOOOOOOOOOOOOOOOOOOOOOOOOOOOOOOOOOOOOOOOOOOOOOOOOOOOOOOO.......                                  ",
"                                                                                                                                .......----------------------------------------------------------------------------------------------------------------------------------------------------------------------------------------------------------------------------------------------------------OOOOOOOOOOOOOOOOOOOOOOOOOOOOOOOOOOOOOOOOOOOOOOOOOOOOOOOOOOOOOOOOOOOOOOOOOO.......                                  ",
"                                                                                                                                .......----------------------------------------------------------------------------------------------------------------------------------------------------------------------------------------------------------------------------------------------------------OOOOOOOOOOOOOOOOOOOOOOOOOOOOOOOOOOOOOOOOOOOOOOOOOOOOOOOOOOOOOOOOOOOOOOOOOO.......                                  ",
"                                                                                                                                .......----------------------------------------------------------------------------------------------------------------------------------------------------------------------------------------------------------------------------------------------------------OOOOOOOOOOOOOOOOOOOOOOOOOOOOOOOOOOOOOOOOOOOOOOOOOOOOOOOOOOOOOOOOOOOOOOOOOO.......                                  ",
"                                                                                                                                .......----------------------------------------------------------------------------------------------------------------------------------------------------------------------------------------------------------------------------------------------------------OOOOOOOOOOOOOOOOOOOOOOOOOOOOOOOOOOOOOOOOOOOOOOOOOOOOOOOOOOOOOOOOOOOOOOOOOO.......                                  ",
"                                                                                                                                .......----------------------------------------------------------------------------------------------------------------------------------------------------------------------------------------------------------------------------------------------------------OOOOOOOOOOOOOOOOOOOOOOOOOOOOOOOOOOOOOOOOOOOOOOOOOOOOOOOOOOOOOOOOOOOOOOOOOO.......                                  ",
"                                                                                                                         .......----------------------------------------------------------------------------------------------------------------------------------------------------------------------------------------------------------------------------------------------------------*******OOOOOOOOOOOOOOOOOOOOOOOOOOOOOOOOOOOOOOOOOOOOOOOOOOOOOOOOOOOOOOOOOOOOOOOOOO.......                                  ",
"                                                                                                                         .......----------------------------------------------------------------------------------------------------------------------------------------------------------------------------------------------------------------------------------------------------------*******OOOOOOOOOOOOOOOOOOOOOOOOOOOOOOOOOOOOOOOOOOOOOOOOOOOOOOOOOOOOOOOOOOOOOOOOOO.......                                  ",
"                                                                                                                         .......----------------------------------------------------------------------------------------------------------------------------------------------------------------------------------------------------------------------------------------------------------*******OOOOOOOOOOOOOOOOOOOOOOOOOOOOOOOOOOOOOOOOOOOOOOOOOOOOOOOOOOOOOOOOOOOOOOOOOO.......                                  ",
"                                                                                                                         .......----------------------------------------------------------------------------------------------------------------------------------------------------------------------------------------------------------------------------------------------------------*******OOOOOOOOOOOOOOOOOOOOOOOOOOOOOOOOOOOOOOOOOOOOOOOOOOOOOOOOOOOOOOOOOOOOOOOOOO.......                                  ",
"                                                                                                                         .......----------------------------------------------------------------------------------------------------------------------------------------------------------------------------------------------------------------------------------------------------------*******OOOOOOOOOOOOOOOOOOOOOOOOOOOOOOOOOOOOOOOOOOOOOOOOOOOOOOOOOOOOOOOOOOOOOOOOOO.......                                  ",
"                                                                                                                         .......----------------------------------------------------------------------------------------------------------------------------------------------------------------------------------------------------------------------------------------------------------*******OOOOOOOOOOOOOOOOOOOOOOOOOOOOOOOOOOOOOOOOOOOOOOOOOOOOOOOOOOOOOOOOOOOOOOOOOO.......                                  ",
"                                                                                                                         .......----------------------------------------------------------------------------------------------------------------------------------------------------------------------------------------------------------------------------------------------------------*******OOOOOOOOOOOOOOOOOOOOOOOOOOOOOOOOOOOOOOOOOOOOOOOOOOOOOOOOOOOOOOOOOOOOOOOOOO.......                                  ",
"                                                                                                                         .......---------------------------------------------------------------------------------------------------------------------------------------------------------------------------------------------------------------------------------------------------*********************OOOOOOOOOOOOOOOOOOOOOOOOOOOOOOOOOOOOOOOOOOOOOOOOOOOOOOOOOOOOOOOOOOO.......                                  ",
"                                                                                                                         .......---------------------------------------------------------------------------------------------------------------------------------------------------------------------------------------------------------------------------------------------------*********************OOOOOOOOOOOOOOOOOOOOOOOOOOOOOOOOOOOOOOOOOOOOOOOOOOOOOOOOOOOOOOOOOOO.......                                  ",
"                                                                                                                         .......---------------------------------------------------------------------------------------------------------------------------------------------------------------------------------------------------------------------------------------------------*********************OOOOOOOOOOOOOOOOOOOOOOOOOOOOOOOOOOOOOOOOOOOOOOOOOOOOOOOOOOOOOOOOOOO.......                                  ",
"                                                                                                                         .......---------------------------------------------------------------------------------------------------------------------------------------------------------------------------------------------------------------------------------------------------*********************OOOOOOOOOOOOOOOOOOOOOOOOOOOOOOOOOOOOOOOOOOOOOOOOOOOOOOOOOOOOOOOOOOO.......                                  ",
"                                                                                                                         .......---------------------------------------------------------------------------------------------------------------------------------------------------------------------------------------------------------------------------------------------------*********************OOOOOOOOOOOOOOOOOOOOOOOOOOOOOOOOOOOOOOOOOOOOOOOOOOOOOOOOOOOOOOOOOOO.......                                  ",
"                                                                                                                         .......---------------------------------------------------------------------------------------------------------------------------------------------------------------------------------------------------------------------------------------------------*********************OOOOOOOOOOOOOOOOOOOOOOOOOOOOOOOOOOOOOOOOOOOOOOOOOOOOOOOOOOOOOOOOOOO.......                                  ",
"                                                                                                                         .......---------------------------------------------------------------------------------------------------------------------------------------------------------------------------------------------------------------------------------------------------*********************OOOOOOOOOOOOOOOOOOOOOOOOOOOOOOOOOOOOOOOOOOOOOOOOOOOOOOOOOOOOOOOOOOO.......                                  ",
"                                                                                                                         .......-===-==--------------------------------------------------------------------------------------------------------------------------------------------------------------------------------------------------------------------------------------------*********************OOOOOOOOOOOOOOOOOOOOOOOOOOOOOOOOOOOOOOOOOOOOOOOOOOOOOOOOOOOOOOOOOOO.......                                  ",
"                                                                                                                         .......-====-==-------------------------------------------------------------------------------------------------------------------------------------------------------------------------------------------------------------------------------------------*********************OOOOOOOOOOOOOOOOOOOOOOOOOOOOOOOOOOOOOOOOOOOOOOOOOOOOOOOOOOOOOOOOOOO.......                                  ",
"                                                                                                                         .......-===-==--------------------------------------------------------------------------------------------------------------------------------------------------------------------------------------------------------------------------------------------*********************OOOOOOOOOOOOOOOOOOOOOOOOOOOOOOOOOOOOOOOOOOOOOOOOOOOOOOOOOOOOOOOOOOO.......                                  ",
"                                                                                                                         .......-=====---------------------------------------------------------------------------------------------------------------------------------------------------------------------------------------------------------------------------------------------*********************OOOOOOOOOOOOOOOOOOOOOOOOOOOOOOOOOOOOOOOOOOOOOOOOOOOOOOOOOOOOOOOOOOO.......                                  ",
"                                                                                                                         .......-===-==--------------------------------------------------------------------------------------------------------------------------------------------------------------------------------------------------------------------------------------------*********************OOOOOOOOOOOOOOOOOOOOOOOOOOOOOOOOOOOOOOOOOOOOOOOOOOOOOOOOOOOOOOOOOOO.......                                  ",
"                                                                                                                         .......-======--------------------------------------------------------------------------------------------------------------------------------------------------------------------------------------------------------------------------------------------*********************OOOOOOOOOOOOOOOOOOOOOOOOOOOOOOOOOOOOOOOOOOOOOOOOOOOOOOOOOOOOOOOOOOO.......                                  ",
"                                                                                                                         .......-=======-------------------------------------------------------------------------------------------------------------------------------------------------------------------------------------------------------------------------------------------*********************OOOOOOOOOOOOOOOOOOOOOOOOOOOOOOOOOOOOOOOOOOOOOOOOOOOOOOOOOOOOOOOOOOO.......                                  ",
"                                                                                                                         .......-===-==--------------------------------------------------------------------------------------------------------------------------------------------------------------------------------------------------------------------------------------------*********************OOOOOOOOOOOOOOOOOOOOOOOOOOOOOOOOOOOOOOOOOOOOOOOOOOOOOOOOOOOOOOOOOOO.......                                  ",
"                                                                                                                         .......-====-==-------------------------------------------------------------------------------------------------------------------------------------------------------------------------------------------------------------------------------------------*********************OOOOOOOOOOOOOOOOOOOOOOOOOOOOOOOOOOOOOOOOOOOOOOOOOOOOOOOOOOOOOOOOOOO.......                                  ",
"                                                                                                                         .......-====-==-------------------------------------------------------------------------------------------------------------------------------------------------------------------------------------------------------------------------------------------*********************OOOOOOOOOOOOOOOOOOOOOOOOOOOOOOOOOOOOOOOOOOOOOOOOOOOOOOOOOOOOOOOOOOO.......                                  ",
"                                                                                                                         .......-=====---------------------------------------------------------------------------------------------------------------------------------------------------------------------------------------------------------------------------------------------*********************OOOOOOOOOOOOOOOOOOOOOOOOOOOOOOOOOOOOOOOOOOOOOOOOOOOOOOOOOOOOOOOOOOO.......                                  ",
"                                                                                                                         .......-======--------------------------------------------------------------------------------------------------------------------------------------------------------------------------------------------------------------------------------------------*********************OOOOOOOOOOOOOOOOOOOOOOOOOOOOOOOOOOOOOOOOOOOOOOOOOOOOOOOOOOOOOOOOOOO.......                                  ",
"                                                                                                                         .......-=====---------------------------------------------------------------------------------------------------------------------------------------------------------------------------------------------------------------------------------------------*********************OOOOOOOOOOOOOOOOOOOOOOOOOOOOOOOOOOOOOOOOOOOOOOOOOOOOOOOOOOOOOOOOOOO.......                                  ",
"                                                                                                                         .......-===-==------------------------------------------------------------------------------------------------------------------------------------------------------------------------------------------------------------------===-======-=======-=***************************OOOOOOOOOOOOOOOOOOOOOOOOOOOOOOOOOOOOOOOOOOOOOOOOOOOOOOOOOOOOOOOOOOOOOOOOOO.......                           ",
"                                                                                                                         .......-======-----------------------------------------------------------------------------------------------------------------------------------------------------------------------------------------------------------------====-========-=======***************************OOOOOOOOOOOOOOOOOOOOOOOOOOOOOOOOOOOOOOOOOOOOOOOOOOOOOOOOOOOOOOOOOOOOOOOOOO.......                           ",
"                                                                                                                         .......-=======-----------------------------------------------------------------------------------------------------------------------------------------------------------------------------------------------------------------===-==========-=====***************************OOOOOOOOOOOOOOOOOOOOOOOOOOOOOOOOOOOOOOOOOOOOOOOOOOOOOOOOOOOOOOOOOOOOOOOOOO.......                           ",
"                                                                                                                         .......-====-==-----------------------------------------------------------------------------------------------------------------------------------------------------------------------------------------------------------------===-===========-====***************************OOOOOOOOOOOOOOOOOOOOOOOOOOOOOOOOOOOOOOOOOOOOOOOOOOOOOOOOOOOOOOOOOOOOOOOOOO.......                           ",
"                                                                                                                         .......-===-==------------------------------------------------------------------------------------------------------------------------------------------------------------------------------------------------------------------====-============-==***************************OOOOOOOOOOOOOOOOOOOOOOOOOOOOOOOOOOOOOOOOOOOOOOOOOOOOOOOOOOOOOOOOOOOOOOOOOO.......                           ",
"                                                                                                                         .......===-===------------------------------------------------------------------------------------------------------------------------------------------------------------------------------------------------------------------====-=============-=***************************OOOOOOOOOOOOOOOOOOOOOOOOOOOOOOOOOOOOOOOOOOOOOOOOOOOOOOOOOOOOOOOOOOOOOOOOOO.......                           ",
"                                                                                                                         .......-=======-----------------------------------------------------------------------------------------------------------------------------------------------------------------------------------------------------------------===-==============-=***************************OOOOOOOOOOOOOOOOOOOOOOOOOOOOOOOOOOOOOOOOOOOOOOOOOOOOOOOOOOOOOOOOOOOOOOOOOO.......                           ",
"                                                                                                                   ......*******-===-==------------------------------------------------------------------------------------------------------------------------------------------------------------------------------------------------------------===-========*****************************************OOOOOOOOOOOOOOOOOOOOOOOOOOOOOOOOOOOOOOOOOOOOOOOOOOOOOOOOOOOOOOOOOOOOOOOOOO.......                           ",
"                                                                                                                   ......*******-===-==------------------------------------------------------------------------------------------------------------------------------------------------------------------------------------------------------------===-========*****************************************OOOOOOOOOOOOOOOOOOOOOOOOOOOOOOOOOOOOOOOOOOOOOOOOOOOOOOOOOOOOOOOOOOOOOOOOOO.......                           ",
"                                                                                                                   ......*******===-===------------------------------------------------------------------------------------------------------------------------------------------------------------------------------------------------------------===-========*****************************************OOOOOOOOOOOOOOOOOOOOOOOOOOOOOOOOOOOOOOOOOOOOOOOOOOOOOOOOOOOOOOOOOOOOOOOOOO.......                           ",
"                                                                                                                   ......*******-===-==------------------------------------------------------------------------------------------------------------------------------------------------------------------------------------------------------------===-========*****************************************OOOOOOOOOOOOOOOOOOOOOOOOOOOOOOOOOOOOOOOOOOOOOOOOOOOOOOOOOOOOOOOOOOOOOOOOOO.......                           ",
"                                                                                                                   ......*******===-===------------------------------------------------------------------------------------------------------------------------------------------------------------------------------------------------------------===-========*****************************************OOOOOOOOOOOOOOOOOOOOOOOOOOOOOOOOOOOOOOOOOOOOOOOOOOOOOOOOOOOOOOOOOOOOOOOOOO.......                           ",
"                                                                                                                   ......*******===-===------------------------------------------------------------------------------------------------------------------------------------------------------------------------------------------------------------===-========*****************************************OOOOOOOOOOOOOOOOOOOOOOOOOOOOOOOOOOOOOOOOOOOOOOOOOOOOOOOOOOOOOOOOOOOOOOOOOO.......                           ",
"                                                                                                                   ......*******-====-==-----------------------------------------------------------------------------------------------------------------------------------------------------------------------------------------------------------===-========*****************************************OOOOOOOOOOOOOOOOOOOOOOOOOOOOOOOOOOOOOOOOOOOOOOOOOOOOOOOOOOOOOOOOOOOOOOOOOO.......                           ",
"                                                                                                                   ......**************-===-==----------------------------------------------------------------------------------------------------------------------------------------------------------------------------------------------===-========******************************************************OOOOOOOOOOOOOOOOOOOOOOOOOOOOOOOOOOOOOOOOOOOOOOOOOOOOOOOOOOOOOOOOOOOO.......                           ",
"                                                                                                                   ......**************====-==----------------------------------------------------------------------------------------------------------------------------------------------------------------------------------------------===-========******************************************************OOOOOOOOOOOOOOOOOOOOOOOOOOOOOOOOOOOOOOOOOOOOOOOOOOOOOOOOOOOOOOOOOOOO.......                           ",
"                                                                                                                   ......**************-====-==---------------------------------------------------------------------------------------------------------------------------------------------------------------------------------------------===-========******************************************************OOOOOOOOOOOOOOOOOOOOOOOOOOOOOOOOOOOOOOOOOOOOOOOOOOOOOOOOOOOOOOOOOOOO.......                           ",
"                                                                                                                   ......**************========---------------------------------------------------------------------------------------------------------------------------------------------------------------------------------------------============******************************************************OOOOOOOOOOOOOOOOOOOOOOOOOOOOOOOOOOOOOOOOOOOOOOOOOOOOOOOOOOOOOOOOOOOO.......                           ",
"                                                                                                                   ......**************========---------------------------------------------------------------------------------------------------------------------------------------------------------------------------------------------============******************************************************OOOOOOOOOOOOOOOOOOOOOOOOOOOOOOOOOOOOOOOOOOOOOOOOOOOOOOOOOOOOOOOOOOOO.......                           ",
"                                                                                                                   ......**************========---------------------------------------------------------------------------------------------------------------------------------------------------------------------------------------------========-===******************************************************OOOOOOOOOOOOOOOOOOOOOOOOOOOOOOOOOOOOOOOOOOOOOOOOOOOOOOOOOOOOOOOOOOOO.......                           ",
"                                                                                                                   ......**************========--------------------------------------------------------------------------------------------------------------------------------------------------------------------------------------------=========-===******************************************************OOOOOOOOOOOOOOOOOOOOOOOOOOOOOOOOOOOOOOOOOOOOOOOOOOOOOOOOOOOOOOOOOOOO.......                           ",
"                                                                                                                   ......*********************=======-------------------------------------------------------------------------------------------------------------------------------------------------------------------------========-==========-************************************************************OOOOOOOOOOOOOOOOOOOOOOOOOOOOOOOOOOOOOOOOOOOOOOOOOOOOOOOOOOOOOOOOOOOO.......                           ",
"                                                                                                                   ......*********************=======-------------------------------------------------------------------------------------------------------------------------------------------------------------------------========-===========************************************************************OOOOOOOOOOOOOOOOOOOOOOOOOOOOOOOOOOOOOOOOOOOOOOOOOOOOOOOOOOOOOOOOOOOO.......                           ",
"                                                                                                                   ......*********************=======-------------------------------------------------------------------------------------------------------------------------------------------------------------------------========-===========************************************************************OOOOOOOOOOOOOOOOOOOOOOOOOOOOOOOOOOOOOOOOOOOOOOOOOOOOOOOOOOOOOOOOOOOO.......                           ",
"                                                                                                                   ......*********************=======------------------------------------------------------------------------------------------------------------------------------------------------------------------------=========-===========************************************************************OOOOOOOOOOOOOOOOOOOOOOOOOOOOOOOOOOOOOOOOOOOOOOOOOOOOOOOOOOOOOOOOOOOO.......                           ",
"                                                                                                                   ......*********************=======------------------------------------------------------------------------------------------------------------------------------------------------------------------------=========-===========************************************************************OOOOOOOOOOOOOOOOOOOOOOOOOOOOOOOOOOOOOOOOOOOOOOOOOOOOOOOOOOOOOOOOOOOO.......                           ",
"                                                                                                                   ......*********************=======-------------------------------------------------------------------------------------------------------------------------------------------------------------------------========-===========************************************************************OOOOOOOOOOOOOOOOOOOOOOOOOOOOOOOOOOOOOOOOOOOOOOOOOOOOOOOOOOOOOOOOOOOO.......                           ",
"                                                                   ..............                    .......       ......***************************=========-=====----------------------------------------------------------------------------------------------------------------------------------------------========-==========**************************************************************************OOOOOOOOOOOOOOOOOOOOOOOOOOOOOOOOOOOOOOOOOOOOOOOOOOOOOOOOOOOOOOOOOOOO.......                           ",
"                                                                   ..............                    .......       ......***************************=========-=====----------------------------------------------------------------------------------------------------------------------------------------------========-==========**************************************************************************OOOOOOOOOOOOOOOOOOOOOOOOOOOOOOOOOOOOOOOOOOOOOOOOOOOOOOOOOOOOOOOOOOOO.......                           ",
"                                                                   ..............                    .......       ......***************************========-=====-----------------------------------------------------------------------------------------------------------------------------------------------==========-========**************************************************************************OOOOOOOOOOOOOOOOOOOOOOOOOOOOOOOOOOOOOOOOOOOOOOOOOOOOOOOOOOOOOOOOOOOO.......                           ",
"                                                                   ..............                    .......       ......***************************=========-=====----------------------------------------------------------------------------------------------------------------------------------------------==========-========**************************************************************************OOOOOOOOOOOOOOOOOOOOOOOOOOOOOOOOOOOOOOOOOOOOOOOOOOOOOOOOOOOOOOOOOOOO.......                           ",
"                                                                   ..............                    .......       ......***************************========-=====-----------------------------------------------------------------------------------------------------------------------------------------------==========-========**************************************************************************OOOOOOOOOOOOOOOOOOOOOOOOOOOOOOOOOOOOOOOOOOOOOOOOOOOOOOOOOOOOOOOOOOOO.......                           ",
"                                                                   ..............                    .......       ......***************************========-=====-----------------------------------------------------------------------------------------------------------------------------------------------========-==========**************************************************************************OOOOOOOOOOOOOOOOOOOOOOOOOOOOOOOOOOOOOOOOOOOOOOOOOOOOOOOOOOOOOOOOOOOO.......                           ",
"                                                                   ..............                    .......       ......***************************========-=====-----------------------------------------------------------------------------------------------------------------------------------------------========-==========**************************************************************************OOOOOOOOOOOOOOOOOOOOOOOOOOOOOOOOOOOOOOOOOOOOOOOOOOOOOOOOOOOOOOOOOOOO.......                           ",
"                                                                   .......:::::::.......      .......:::::::.............**********************************========-============-------------------------------------------------------------------------------------------------------------========-===================-===*****************************************.......*********************************OOOOOOO..............OOOOOOOOOOOOOOOOOOOOOOOOOOOOOOOOOOOOOOOOOOOOOOO.......                           ",
"                                                                   .......:::::::.......      .......:::::::.............**********************************========-============------------------------------------------------------------------------------------------------------------=========-============-========-=*****************************************.......*********************************OOOOOOO..............OOOOOOOOOOOOOOOOOOOOOOOOOOOOOOOOOOOOOOOOOOOOOOO.......                           ",
"                                                                   .......:::::::.......      .......:::::::.............**********************************=========-===========-------------------------------------------------------------------------------------------------------------==========-============-========*****************************************.......*********************************OOOOOOO..............OOOOOOOOOOOOOOOOOOOOOOOOOOOOOOOOOOOOOOOOOOOOOOO.......                           ",
"                                                                   .......:::::::.......      .......:::::::.............**********************************==========-==========-------------------------------------------------------------------------------------------------------------========-============-==========*****************************************.......*********************************OOOOOOO..............OOOOOOOOOOOOOOOOOOOOOOOOOOOOOOOOOOOOOOOOOOOOOOO.......                           ",
"                                                                   .......:::::::.......      .......:::::::.............**********************************========-============-------------------------------------------------------------------------------------------------------------========-============-==========*****************************************.......*********************************OOOOOOO..............OOOOOOOOOOOOOOOOOOOOOOOOOOOOOOOOOOOOOOOOOOOOOOO.......                           ",
"                                                                   .......:::::::.......      .......:::::::.............**********************************=========-===========-------------------------------------------------------------------------------------------------------------========-============-==========*****************************************.......*********************************OOOOOOO..............OOOOOOOOOOOOOOOOOOOOOOOOOOOOOOOOOOOOOOOOOOOOOOO.......                           ",
"                                                                   .......:::::::.......      .......:::::::.............**********************************========-============-------------------------------------------------------------------------------------------------------------========-============-==========*****************************************.......*********************************OOOOOOO..............OOOOOOOOOOOOOOOOOOOOOOOOOOOOOOOOOOOOOOOOOOOOOOO.......                           ",
"                                                                   .......::::::::::::::.............:::::::;;;;;;;......**********************************========-============-------------------------------------------------------------------------------------------------------------=========-============-=========**********************************.......:::::::......***************************.......;;;;;;;.......OOOOOOOOOOOOOOOOOOOOOOOOOOOOOOOOOOOOOOOOOOOOOOO.......                           ",
"                                                                   .......::::::::::::::.............:::::::;;;;;;;......**********************************========-============-------------------------------------------------------------------------------------------------------------=========-============-=========**********************************.......:::::::......***************************.......;;;;;;;.......OOOOOOOOOOOOOOOOOOOOOOOOOOOOOOOOOOOOOOOOOOOOOOO.......                           ",
"                                                                   .......::::::::::::::.............:::::::;;;;;;;......**********************************========-============-------------------------------------------------------------------------------------------------------------========-============-==========**********************************.......:::::::......***************************.......;;;;;;;.......OOOOOOOOOOOOOOOOOOOOOOOOOOOOOOOOOOOOOOOOOOOOOOO.......                           ",
"                                                                   .......::::::::::::::.............:::::::;;;;;;;......**********************************==========-==========------------------------------------------------------------------------------------------------------------==========-============-=========**********************************.......:::::::......***************************.......;;;;;;;.......OOOOOOOOOOOOOOOOOOOOOOOOOOOOOOOOOOOOOOOOOOOOOOO.......                           ",
"                                                                   .......::::::::::::::.............:::::::;;;;;;;......**********************************=========-===========------------------------------------------------------------------------------------------------------------=========-============-==========**********************************.......:::::::......***************************.......;;;;;;;.......OOOOOOOOOOOOOOOOOOOOOOOOOOOOOOOOOOOOOOOOOOOOOOO.......                           ",
"                                                                   .......::::::::::::::.............:::::::;;;;;;;......**********************************==========-==========-------------------------------------------------------------------------------------------------------------==========-============-========**********************************.......:::::::......***************************.......;;;;;;;.......OOOOOOOOOOOOOOOOOOOOOOOOOOOOOOOOOOOOOOOOOOOOOOO.......                           ",
"                                                                   .......::::::::::::::.............:::::::;;;;;;;......**********************************==========-==========------------------------------------------------------------------------------------------------------------=========-============-==========**********************************.......:::::::......***************************.......;;;;;;;.......OOOOOOOOOOOOOOOOOOOOOOOOOOOOOOOOOOOOOOOOOOOOOOO.......                           ",
"                                               ...........................::::::::::::::oooooo.......:::::::;;;;;;;;;;;;;.......**********************************==========-============-====--------------------------------------------------------------------------========-============-==================***********************************************.......:::::::......*********************......:::::::;;;;;;;.......OOOOOOOOOOOOOOOOOOOOOOOOOOOOOOOOOOOOOOOOOOOOOOO.......                           ",
"                                               ...........................::::::::::::::oooooo.......:::::::;;;;;;;;;;;;;.......**********************************=========-============-====---------------------------------------------------------------------------=========-============-=================***********************************************.......:::::::......*********************......:::::::;;;;;;;.......OOOOOOOOOOOOOOOOOOOOOOOOOOOOOOOOOOOOOOOOOOOOOOO.......                           ",
"                                               ...........................::::::::::::::oooooo.......:::::::;;;;;;;;;;;;;.......**********************************==========-============-====--------------------------------------------------------------------------========-============-==================***********************************************.......:::::::......*********************......:::::::;;;;;;;.......OOOOOOOOOOOOOOOOOOOOOOOOOOOOOOOOOOOOOOOOOOOOOOO.......                           ",
"                                               ...........................::::::::::::::oooooo.......:::::::;;;;;;;;;;;;;.......**********************************=========-============-====---------------------------------------------------------------------------=========-============-=================***********************************************.......:::::::......*********************......:::::::;;;;;;;.......OOOOOOOOOOOOOOOOOOOOOOOOOOOOOOOOOOOOOOOOOOOOOOO.......                           ",
"                                               ...........................::::::::::::::oooooo.......:::::::;;;;;;;;;;;;;.......**********************************===========-============-===--------------------------------------------------------------------------==========-============-================***********************************************.......:::::::......*********************......:::::::;;;;;;;.......OOOOOOOOOOOOOOOOOOOOOOOOOOOOOOOOOOOOOOOOOOOOOOO.......                           ",
"                                               ...........................::::::::::::::oooooo.......:::::::;;;;;;;;;;;;;.......**********************************========-============-======--------------------------------------------------------------------------===========-============-===============***********************************************.......:::::::......*********************......:::::::;;;;;;;.......OOOOOOOOOOOOOOOOOOOOOOOOOOOOOOOOOOOOOOOOOOOOOOO.......                           ",
"                                               .......:::::::::::::;;;;;;;oooooooooooooo------.......;;;;;;;;;;;;;;oooooo..............****************************************========-============-=======================-============-========================-============-============************************************************************.......::::::::::::::::::::.....................:::::::::::::;;;;;;;.......OOOOOOOOOOOOO..............OOOOOOOOOOOOOOOOOOOO.......                           ",
"                                               .......:::::::::::::;;;;;;;oooooooooooooo------.......;;;;;;;;;;;;;;oooooo..............****************************************========-============-=========================-============-==========================-============-========************************************************************.......::::::::::::::::::::.....................:::::::::::::;;;;;;;.......OOOOOOOOOOOOO..............OOOOOOOOOOOOOOOOOOOO.......                           ",
"                                               .......:::::::::::::;;;;;;;oooooooooooooo------.......;;;;;;;;;;;;;;oooooo..............****************************************========-============-===========================-============-============================-============-====************************************************************.......::::::::::::::::::::.....................:::::::::::::;;;;;;;.......OOOOOOOOOOOOO..............OOOOOOOOOOOOOOOOOOOO.......                           ",
"                                               .......:::::::::::::;;;;;;;oooooooooooooo------.......;;;;;;;;;;;;;;oooooo..............****************************************========-============-=============================-============-==============================-============-************************************************************.......::::::::::::::::::::.....................:::::::::::::;;;;;;;.......OOOOOOOOOOOOO..............OOOOOOOOOOOOOOOOOOOO.......                           ",
"                                               .......:::::::::::::;;;;;;;oooooooooooooo------.......;;;;;;;;;;;;;;oooooo..............****************************************========-============-===============================-============-================================-=========************************************************************.......::::::::::::::::::::.....................:::::::::::::;;;;;;;.......OOOOOOOOOOOOO..............OOOOOOOOOOOOOOOOOOOO.......                           ",
"                                               .......:::::::::::::;;;;;;;oooooooooooooo------.......;;;;;;;;;;;;;;oooooo..............****************************************=========-============-=================================-============-==================================-====************************************************************.......::::::::::::::::::::.....................:::::::::::::;;;;;;;.......OOOOOOOOOOOOO..............OOOOOOOOOOOOOOOOOOOO.......                           ",
"                                               .......:::::::::::::;;;;;;;oooooooooooooo------.......;;;;;;;;;;;;;;oooooo..............****************************************========-============-===================================-============-====================================-=************************************************************.......::::::::::::::::::::.....................:::::::::::::;;;;;;;.......OOOOOOOOOOOOO..............OOOOOOOOOOOOOOOOOOOO.......                           ",
"                                                      .......::::::.......---------------------------oooooooooooooo......-------*******.......******************************************************==========-============-=====================================-=====*********************************************************************************.......;;;;;;;:::::::;;;;;;.......*******.......;;;;;;;;;;;;;;;;;;;;....................:::::::.......OOOOOOOOOOOOOOOOOOOO.......                           ",
"                                                      .......::::::.......---------------------------oooooooooooooo......-------*******.......******************************************************========-============-======================================-======*********************************************************************************.......;;;;;;;:::::::;;;;;;.......*******.......;;;;;;;;;;;;;;;;;;;;....................:::::::.......OOOOOOOOOOOOOOOOOOOO.......                           ",
"                                                      .......::::::.......---------------------------oooooooooooooo......-------*******.......******************************************************========-============-=======================================-=====*********************************************************************************.......;;;;;;;:::::::;;;;;;.......*******.......;;;;;;;;;;;;;;;;;;;;....................:::::::.......OOOOOOOOOOOOOOOOOOOO.......                           ",
"                                                      .......::::::.......---------------------------oooooooooooooo......-------*******.......******************************************************========-============-========================================-====*********************************************************************************.......;;;;;;;:::::::;;;;;;.......*******.......;;;;;;;;;;;;;;;;;;;;....................:::::::.......OOOOOOOOOOOOOOOOOOOO.......                           ",
"                                                      .......::::::.......---------------------------oooooooooooooo......-------*******.......******************************************************==========-============-=========================================-=*********************************************************************************.......;;;;;;;:::::::;;;;;;.......*******.......;;;;;;;;;;;;;;;;;;;;....................:::::::.......OOOOOOOOOOOOOOOOOOOO.......                           ",
"                                                      .......::::::.......---------------------------oooooooooooooo......-------*******.......******************************************************=========-============-==========================================-=*********************************************************************************.......;;;;;;;:::::::;;;;;;.......*******.......;;;;;;;;;;;;;;;;;;;;....................:::::::.......OOOOOOOOOOOOOOOOOOOO.......                           ",
"                                                      .......::::::.......---------------------------oooooooooooooo......-------*******.......******************************************************========-============-===========================================-=*********************************************************************************.......;;;;;;;:::::::;;;;;;.......*******.......;;;;;;;;;;;;;;;;;;;;....................:::::::.......OOOOOOOOOOOOOOOOOOOO.......                           ",
"                                                      .......;;;;;;.......-------------------------------------------------------------*******......**********************************************************************************************************************************************************************************************......*******XXXXXXXXXXXXXXXXXXXX--------------*******....................*******......::::::::::::::.......OOOOOOOOOOOOOOOOOOOO.......                           ",
"                                                      .......;;;;;;.......-------------------------------------------------------------*******......**********************************************************************************************************************************************************************************************......*******XXXXXXXXXXXXXXXXXXXX--------------*******....................*******......::::::::::::::.......OOOOOOOOOOOOOOOOOOOO.......                           ",
"                                                      .......;;;;;;.......-------------------------------------------------------------*******......**********************************************************************************************************************************************************************************************......*******XXXXXXXXXXXXXXXXXXXX--------------*******....................*******......::::::::::::::.......OOOOOOOOOOOOOOOOOOOO.......                           ",
"                                                      .......;;;;;;.......-------------------------------------------------------------*******......**********************************************************************************************************************************************************************************************......*******XXXXXXXXXXXXXXXXXXXX--------------*******....................*******......::::::::::::::.......OOOOOOOOOOOOOOOOOOOO.......                           ",
"                                                      .......;;;;;;.......-------------------------------------------------------------*******......**********************************************************************************************************************************************************************************************......*******XXXXXXXXXXXXXXXXXXXX--------------*******....................*******......::::::::::::::.......OOOOOOOOOOOOOOOOOOOO.......                           ",
"                                                      .......;;;;;;.......-------------------------------------------------------------*******......**********************************************************************************************************************************************************************************************......*******XXXXXXXXXXXXXXXXXXXX--------------*******....................*******......::::::::::::::.......OOOOOOOOOOOOOOOOOOOO.......                           ",
"                                                      .......;;;;;;.......-------------------------------------------------------------*******......**********************************************************************************************************************************************************************************************......*******XXXXXXXXXXXXXXXXXXXX--------------*******....................*******......::::::::::::::.......OOOOOOOOOOOOOOOOOOOO.......                           ",
"                                                             ......--------========-============-============---------------------------------******.......********************************************************************************************************************************************************************************.......-------------------------------------------------------========-===**************......;;;;;;;:::::::.......OOOOOOOOOOOOO.......                                  ",
"                                                             ......--------=========-============-===========---------------------------------******.......********************************************************************************************************************************************************************************.......-------------------------------------------------------=========-==**************......;;;;;;;:::::::.......OOOOOOOOOOOOO.......                                  ",
"                                                             ......--------==========-============-==========---------------------------------******.......********************************************************************************************************************************************************************************.......-------------------------------------------------------========-===**************......;;;;;;;:::::::.......OOOOOOOOOOOOO.......                                  ",
"                                                             ......--------=========-============-===========---------------------------------******.......********************************************************************************************************************************************************************************.......------------------------------------------------------==========-==**************......;;;;;;;:::::::.......OOOOOOOOOOOOO.......                                  ",
"                                                             ......--------========-============-===========----------------------------------******.......********************************************************************************************************************************************************************************.......------------------------------------------------------=========-===**************......;;;;;;;:::::::.......OOOOOOOOOOOOO.......                                  ",
"                                                             ......-------===========-============-==========---------------------------------******.......********************************************************************************************************************************************************************************.......-------------------------------------------------------===========-**************......;;;;;;;:::::::.......OOOOOOOOOOOOO.......                                  ",
"                                                             ......-========-====***************************========---------------------------=====.......*************************************************************************************************************************************************************************.......-----------------------------------------=========-==========*********************************.....................OOOOOOOOOOOOO.......                                  ",
"                                                             ......========-=====***************************========--------------------------======.......*************************************************************************************************************************************************************************.......----------------------------------------=========-===========*********************************.....................OOOOOOOOOOOOO.......                                  ",
"                                                             ......-========-====***************************========---------------------------=====.......*************************************************************************************************************************************************************************.......----------------------------------------==========-==========*********************************.....................OOOOOOOOOOOOO.......                                  ",
"                                                             ......-=========-===***************************=======----------------------------=====.......*************************************************************************************************************************************************************************.......-----------------------------------------===========-========*********************************.....................OOOOOOOOOOOOO.......                                  ",
"                                                             ......-=========-===***************************=======----------------------------=====.......*************************************************************************************************************************************************************************.......-----------------------------------------=========-==========*********************************.....................OOOOOOOOOOOOO.......                                  ",
"                                                             ......-========-====***************************========--------------------------======.......*************************************************************************************************************************************************************************.......----------------------------------------=========-===========*********************************.....................OOOOOOOOOOOOO.......                                  ",
"                                                             ......-==========-==***************************========-------------------------=======.......*************************************************************************************************************************************************************************.......-----------------------------------------============-=======*********************************.....................OOOOOOOOOOOOO.......                                  ",
"                                                             ......-======*****************************************=======--------------=========-==*******.......***********************************************************************************************************************************************************.......-----------------------------------============********************************************************************.......OOOOOOOOOOOOO.......                                  ",
"                                                             ......-======*****************************************=======------------===========-==*******.......***********************************************************************************************************************************************************.......---------------------------------============-=********************************************************************.......OOOOOOOOOOOOO.......                                  ",
"                                                             ......-======*****************************************=======-------------============-*******.......***********************************************************************************************************************************************************.......-----------------------------------==========-=********************************************************************.......OOOOOOOOOOOOO.......                                  ",
"                                                             ......-======*****************************************=======--------------============*******.......***********************************************************************************************************************************************************.......----------------------------------=============********************************************************************.......OOOOOOOOOOOOO.......                                  ",
"                                                             ......-======*****************************************=======-------------===========-=*******.......***********************************************************************************************************************************************************.......---------------------------------==============********************************************************************.......OOOOOOOOOOOOO.......                                  ",
"                                                             ......-======*****************************************=======-------------==========-==*******.......***********************************************************************************************************************************************************.......-----------------------------------============********************************************************************.......OOOOOOOOOOOOO.......                                  ",
"                                                             ......-======*****************************************=======--------------============*******.......***********************************************************************************************************************************************************.......----------------------------------=============********************************************************************.......OOOOOOOOOOOOO.......                                  ",
"                                                             ......******************************************************========-============*************.......***********************************************************************************************************************************************************.......--------------------------========*********************************************************************************.......OOOOOOOOOOOOO.......                                  ",
"                                                             ......******************************************************========-============*************.......***********************************************************************************************************************************************************.......---------------------------=======*********************************************************************************.......OOOOOOOOOOOOO.......                                  ",
"                                                             ......******************************************************========-============*************.......***********************************************************************************************************************************************************.......----------------------------======*********************************************************************************.......OOOOOOOOOOOOO.......                                  ",
"                                                             ......******************************************************========-============*************.......***********************************************************************************************************************************************************.......----------------------------======*********************************************************************************.......OOOOOOOOOOOOO.......                                  ",
"                                                             ......******************************************************========-============*************.......***********************************************************************************************************************************************************.......----------------------------======*********************************************************************************.......OOOOOOOOOOOOO.......                                  ",
"                                                             ......******************************************************========-============*************.......***********************************************************************************************************************************************************.......----------------------------======*********************************************************************************.......OOOOOOOOOOOOO.......                                  ",
"                                                             ......******************************************************=========-===========*************.......***********************************************************************************************************************************************************.......----------------------------======*********************************************************************************.......OOOOOOOOOOOOO.......                                  ",
"                                                                   .......*******XXXXXXXXXXXXXXXXXXXX*************************************************************.......**********************************************************************************************************************************************......*******---------------------======***************************XXXXXXXXXXXXXXXXXXXX*****************************************.......OOOOOOO......                                         ",
"                                                                   .......*******XXXXXXXXXXXXXXXXXXXX*************************************************************.......**********************************************************************************************************************************************......*******---------------------======***************************XXXXXXXXXXXXXXXXXXXX*****************************************.......OOOOOOO......                                         ",
"                                                                   .......*******XXXXXXXXXXXXXXXXXXXX*************************************************************.......**********************************************************************************************************************************************......*******---------------------======***************************XXXXXXXXXXXXXXXXXXXX*****************************************.......OOOOOOO......                                         ",
"                                                                   .......*******XXXXXXXXXXXXXXXXXXXX*************************************************************.......**********************************************************************************************************************************************......*******---------------------======***************************XXXXXXXXXXXXXXXXXXXX*****************************************.......OOOOOOO......                                         ",
"                                                                   .......*******XXXXXXXXXXXXXXXXXXXX*************************************************************.......**********************************************************************************************************************************************......*******-------------------========***************************XXXXXXXXXXXXXXXXXXXX*****************************************.......OOOOOOO......                                         ",
"                                                                   .......*******XXXXXXXXXXXXXXXXXXXX*************************************************************.......**********************************************************************************************************************************************......*******-------------------========***************************XXXXXXXXXXXXXXXXXXXX*****************************************.......OOOOOOO......                                         ",
"                                                                   .......XXXXXXX####################XXXXXXX******************************************************.......**********************************************************************************************************************************************......---------------------======*********************XXXXXXXXXXXXX####################XXXXXXX***************************.......OOOOOOOOOOOOOO......                                         ",
"                                                                   .......XXXXXXX####################XXXXXXX******************************************************.......**********************************************************************************************************************************************......----------------------=====*********************XXXXXXXXXXXXX####################XXXXXXX***************************.......OOOOOOOOOOOOOO......                                         ",
"                                                                   .......XXXXXXX####################XXXXXXX******************************************************.......**********************************************************************************************************************************************......--------------------=======*********************XXXXXXXXXXXXX####################XXXXXXX***************************.......OOOOOOOOOOOOOO......                                         ",
"                                                                   .......XXXXXXX####################XXXXXXX******************************************************.......**********************************************************************************************************************************************......---------------------======*********************XXXXXXXXXXXXX####################XXXXXXX***************************.......OOOOOOOOOOOOOO......                                         ",
"                                                                   .......XXXXXXX####################XXXXXXX******************************************************.......**********************************************************************************************************************************************......=---------------------=====*********************XXXXXXXXXXXXX####################XXXXXXX***************************.......OOOOOOOOOOOOOO......                                         ",
"                                                                   .......XXXXXXX####################XXXXXXX******************************************************.......**********************************************************************************************************************************************......---------------------======*********************XXXXXXXXXXXXX####################XXXXXXX***************************.......OOOOOOOOOOOOOO......                                         ",
"                                                                   .......XXXXXXX####################XXXXXXX******************************************************.......**********************************************************************************************************************************************......--------------------=======*********************XXXXXXXXXXXXX####################XXXXXXX***************************.......OOOOOOOOOOOOOO......                                         ",
"                                                                          .......###########################XXXXXXX***********************************************.......**********************************************************************************************************************************************......---------------------======**************XXXXXXX########################################XXXXXXX********************.......OOOOOOO.......                                               ",
"                                                                          .......###########################XXXXXXX***********************************************.......**********************************************************************************************************************************************......----------------------=====**************XXXXXXX########################################XXXXXXX********************.......OOOOOOO.......                                               ",
"                                                                          .......###########################XXXXXXX***********************************************.......**********************************************************************************************************************************************......---------------------======**************XXXXXXX########################################XXXXXXX********************.......OOOOOOO.......                                               ",
"                                                                          .......###########################XXXXXXX***********************************************.......**********************************************************************************************************************************************......----------------------=====**************XXXXXXX########################################XXXXXXX********************.......OOOOOOO.......                                               ",
"                                                                          .......###########################XXXXXXX***********************************************.......**********************************************************************************************************************************************......---------------------======**************XXXXXXX########################################XXXXXXX********************.......OOOOOOO.......                                               ",
"                                                                          .......###########################XXXXXXX***********************************************.......**********************************************************************************************************************************************......----------------------=====**************XXXXXXX########################################XXXXXXX********************.......OOOOOOO.......                                               ",
"                                                                          .......###########################XXXXXXX***********************************************.......**********************************************************************************************************************************************......--------------------=======**************XXXXXXX########################################XXXXXXX********************.......OOOOOOO.......                                               ",
"                                                                          .......###########################XXXXXXX***********************************************.......OOOOOO****************************************************************************************************************************************......----------------------=====**************XXXXXXX########################################XXXXXXX********************..............                                                      ",
"                                                                          .......###########################XXXXXXX***********************************************.......OOOOOO****************************************************************************************************************************************......=-------------------=======**************XXXXXXX########################################XXXXXXX********************..............                                                      ",
"                                                                          .......###########################XXXXXXX***********************************************.......OOOOOO****************************************************************************************************************************************......---------------------======**************XXXXXXX########################################XXXXXXX********************..............                                                      ",
"                                                                          .......###########################XXXXXXX***********************************************.......OOOOOO****************************************************************************************************************************************......---------------------======**************XXXXXXX########################################XXXXXXX********************..............                                                      ",
"                                                                          .......###########################XXXXXXX***********************************************.......OOOOOO****************************************************************************************************************************************......---------------------======**************XXXXXXX########################################XXXXXXX********************..............                                                      ",
"                                                                          .......###########################XXXXXXX***********************************************.......OOOOOO****************************************************************************************************************************************......----------------------=====**************XXXXXXX########################################XXXXXXX********************..............                                                      ",
"                                                                          .......###########################XXXXXXX***********************************************.......OOOOOO****************************************************************************************************************************************......----------------------=====**************XXXXXXX########################################XXXXXXX********************..............                                                      ",
"                                                                                 .......###########################XXXXXX*****************************************.......OOOOOOOOOOOOO*********************************************************************************************************************************......--------------=======*************XXXXXXX###############################################XXXXXXX*************..............                                                             ",
"                                                                                 .......###########################XXXXXX*****************************************.......OOOOOOOOOOOOO*********************************************************************************************************************************......---------------======*************XXXXXXX###############################################XXXXXXX*************..............                                                             ",
"                                                                                 .......###########################XXXXXX*****************************************.......OOOOOOOOOOOOO*********************************************************************************************************************************......---------------======*************XXXXXXX###############################################XXXXXXX*************..............                                                             ",
"                                                                                 .......###########################XXXXXX*****************************************.......OOOOOOOOOOOOO*********************************************************************************************************************************......---------------======*************XXXXXXX###############################################XXXXXXX*************..............                                                             ",
"                                                                                 .......###########################XXXXXX*****************************************.......OOOOOOOOOOOOO*********************************************************************************************************************************......-------------========*************XXXXXXX###############################################XXXXXXX*************..............                                                             ",
"                                                                                 .......###########################XXXXXX*****************************************.......OOOOOOOOOOOOO*********************************************************************************************************************************......---------------======*************XXXXXXX###############################################XXXXXXX*************..............                                                             ",
"                                                                                        ......#####################XXXXXX**********************************.......OOOOOOO...........................$$$$$$$*********************************=------*******-------******=------*******=------******-------********************.......--------======*************XXXXXXX########################################XXXXXXX********************.......                                                                    ",
"                                                                                        ......#####################XXXXXX**********************************.......OOOOOOO...........................$$$$$$$*********************************=------*******-------******-------*******-------******-------********************.......-------=======*************XXXXXXX########################################XXXXXXX********************.......                                                                    ",
"                                                                                        ......#####################XXXXXX**********************************.......OOOOOOO...........................$$$$$$$*********************************=------*******-------******-------*******-------******=------********************.......-------=======*************XXXXXXX########################################XXXXXXX********************.......                                                                    ",
"                                                                                        ......#####################XXXXXX**********************************.......OOOOOOO...........................$$$$$$$*********************************=------*******-------******-------*******-------******-------********************.......--------======*************XXXXXXX########################################XXXXXXX********************.......                                                                    ",
"                                                                                        ......#####################XXXXXX**********************************.......OOOOOOO...........................$$$$$$$*********************************=------*******-------******-------*******=------******-------********************.......-------=======*************XXXXXXX########################################XXXXXXX********************.......                                                                    ",
"                                                                                        ......#####################XXXXXX**********************************.......OOOOOOO...........................$$$$$$$*********************************=------*******-------******-------*******-------******-------********************.......--------======*************XXXXXXX########################################XXXXXXX********************.......                                                                    ",
"                                                                                        ......#####################XXXXXX**********************************.......OOOOOOO...........................$$$$$$$*********************************=------*******-------******-------*******=------******-------********************.......-------=======*************XXXXXXX########################################XXXXXXX********************.......                                                                    ",
"                                                                                              .......##############XXXXXX**********************************.......OOOOOOO...........................$$$$$$$*********************************=------*******-------******-------*******-------******-------********************.......-------=======********************XXXXXXX###########################XXXXXX*********************.............                                                                    ",
"                                                                                              .......##############XXXXXX**********************************.......OOOOOOO...........................$$$$$$$*********************************=------*******-------******-------*******-------******-------********************.......--------======********************XXXXXXX###########################XXXXXX*********************.............                                                                    ",
"                                                                                              .......##############XXXXXX**********************************.......OOOOOOO...........................$$$$$$$*********************************=------*******-------******-------*******-------******-------********************.......--------======********************XXXXXXX###########################XXXXXX*********************.............                                                                    ",
"                                                                                              .......##############XXXXXX**********************************.......OOOOOOO...........................$$$$$$$*********************************=------*******-------******-------*******-------******-------********************.......-------=======********************XXXXXXX###########################XXXXXX*********************.............                                                                    ",
"                                                                                              .......##############XXXXXX**********************************.......OOOOOOO...........................$$$$$$$*********************************=------*******-------******-------*******-------******=------********************.......------========********************XXXXXXX###########################XXXXXX*********************.............                                                                    ",
"                                                                                              .......##############XXXXXX**********************************.......OOOOOOO...........................$$$$$$$*********************************-------*******-------******-------*******-------******-------********************.......--------======********************XXXXXXX###########################XXXXXX*********************.............                                                                    ",
"                                                                                              .......##############XXXXXX**********************************.......OOOOOOO...........................$$$$$$$*********************************=------*******-------******-------*******-------******-------********************.......--------======********************XXXXXXX###########################XXXXXX*********************.............                                                                    ",
"                                                                                                     ..............***************************...........................                           ........................................$$$$$$$-------*******------*******-------*******------*******..................................**********************************XXXXXXXXXXXXXXXXXXXXXXXXXXX********************.......                                                                                 ",
"                                                                                                     ..............***************************...........................                           ........................................$$$$$$$-------*******------*******-------*******------*******..................................**********************************XXXXXXXXXXXXXXXXXXXXXXXXXXX********************.......                                                                                 ",
"                                                                                                     ..............***************************...........................                           ........................................$$$$$$$-------*******------*******=------*******------*******..................................**********************************XXXXXXXXXXXXXXXXXXXXXXXXXXX********************.......                                                                                 ",
"                                                                                                     ..............***************************...........................                           ........................................$$$$$$$-------*******------*******-------*******------*******..................................**********************************XXXXXXXXXXXXXXXXXXXXXXXXXXX********************.......                                                                                 ",
"                                                                                                     ..............***************************...........................                           ........................................$$$$$$$-------*******------*******=------*******=-----*******..................................**********************************XXXXXXXXXXXXXXXXXXXXXXXXXXX********************.......                                                                                 ",
"                                                                                                     ..............***************************...........................                           ........................................$$$$$$$-------*******------*******-------*******------*******..................................**********************************XXXXXXXXXXXXXXXXXXXXXXXXXXX********************.......                                                                                 ",
"                                                                                                     ..............***************************...........................                           ........................................$$$$$$$-------*******------*******=------*******------*******..................................**********************************XXXXXXXXXXXXXXXXXXXXXXXXXXX********************.......                                                                                 ",
"                                                                                                                   ...........................                                                                                              .............................................................                                  .......************************************************************..............                                                                                        ",
"                                                                                                                   ...........................                                                                                              .............................................................                                  .......************************************************************..............                                                                                        ",
"                                                                                                                   ...........................                                                                                              .............................................................                                  .......************************************************************..............                                                                                        ",
"                                                                                                                   ...........................                                                                                              .............................................................                                  .......************************************************************..............                                                                                        ",
"                                                                                                                   ...........................                                                                                              .............................................................                                  .......************************************************************..............                                                                                        ",
"                                                                                                                   ...........................                                                                                              .............................................................                                  .......************************************************************..............                                                                                        ",
"                                                                                                                   ...........................                                                                                              .............................................................                                  .......************************************************************..............                                                                                        ",
"                                                                                                                                                                                                                                                                                                                                                  .............**********************************.............                                                                                                      ",
"                                                                                                                                                                                                                                                                                                                                                  .............**********************************.............                                                                                                      ",
"                                                                                                                                                                                                                                                                                                                                                  .............**********************************.............                                                                                                      ",
"                                                                                                                                                                                                                                                                                                                                                  .............**********************************.............                                                                                                      ",
"                                                                                                                                                                                                                                                                                                                                                  .............**********************************.............                                                                                                      ",
"                                                                                                                                                                                                                                                                                                                                                  .............**********************************.............                                                                                                      ",
"                                                                                                                                                                                                                                                                                                                                                               ..................................                                                                                                                   ",
"                                                                                                                                                                                                                                                                                                                                                               ..................................                                                                                                                   ",
"                                                                                                                                                                                                                                                                                                                                                               ..................................                                                                                                                   ",
"                                                                                                                                                                                                                                                                                                                                                               ..................................                                                                                                                   ",
"                                                                                                                                                                                                                                                                                                                                                               ..................................                                                                                                                   ",
"                                                                                                                                                                                                                                                                                                                                                               ..................................                                                                                                                   ",
"                                                                                                                                                                                                                                                                                                                                                               ..................................                                                                                                                   ",
"                                                                                                                                                                                                                                                                                                                                                               ..................................                                                                                                                   ",
"                                                                                                                                                                                                                                                                                                                                                                                                                                                                                                                    ",
"                                                                                                                                                                                                                                                                                                                                                                                                                                                                                                                    "
};
