/* XPM */
static char *out[] = {
/* columns rows colors chars-per-pixel */
"500 503 16 1 ",
"  c #FF00FF",
". c black",
"X c #634221",
"o c #735A21",
"O c #103942",
"+ c #315A7B",
"@ c gray45",
"# c #A57352",
"$ c #C69C5A",
"% c #528CAD",
"& c #73A5BD",
"* c #E7C6AD",
"= c #F7D6BD",
"- c #F7E7BD",
"; c #CECECE",
": c white",
/* pixels */
"                                                                                                                                                                                                                                                                                                                                                                                                                                                                                                                    ",
"                                                                                                                                                                                                                                                                                                                                                                                                                                                                                                                    ",
"                                                                                                                                                                                                                                                                                                                                                                                                                                                                                                                    ",
"                                                                                                                                                                                                                                                                                                                                                                                                                                                                                                                    ",
"                                                                                                                                                                                                                                                                                                                                                                                                                                                                                                                    ",
"                                                                                                                                                                                                                                                                                                                                                                                                                                                                                                                    ",
"                                                                                                                                                                                                                                                                                                                                                                                                                                                                                                                    ",
"                                                                                                                                                                                                                                                                                                                                                                                                                                                                                                                    ",
"                                                                                                                                                                                                                                                                                                                                                                                                                                                                                                                    ",
"                                                                                                                                                                                                                                                                                                                                                                                                                                                                                                                    ",
"                                                                                                                                                                                                                                                                                                                                                                                                                                                                                                                    ",
"                                                                                                                                                                                                                                                                                                                                                                                                                                                                                                                    ",
"                                                                                                                                                                                                                                                                                                                                                                                                                                                                                                                    ",
"                                                                                                                                                                                                                                                                                                                                                                                                                                                                                                                    ",
"                                                                                                                                                                                                                                                                                                                                                                                                                                                                                                                    ",
"                                                                                                                                                                                                                                                                                                                                                                                                                                                                                                                    ",
"                                                                                                                                                                                                                                                                                                                                                                                                                                                                                                                    ",
"                                                                                                                                                                                                                                                                                                                                                                                                                                                                                                                    ",
"                                                                                                                                                                                                                                                                                                                                                                                                                                                                                                                    ",
"                                                                                                                                                                                                                                                                                                                                                                                                                                                                                                                    ",
"                                                                                                                                                                                                                                                                                                                                                                                                                                                                                                                    ",
"                                                                                                                                                                                                                                                                                                                                                                                                                                                                                                                    ",
"                                                                                                                                                                                                                                                                                                                                                                                                                                                                                                                    ",
"                                                                                                                                                                                                                                                                                                                                                                                                                                                                                                                    ",
"                                                                                                                                                                                                                                                                                                                                                                                                                                                                                                                    ",
"                                                                                                                                                                                                                                                                                                                                                                                                                                                                                                                    ",
"                                                                                                                                                                                                                                                                                                                                                                                                                                                                                                                    ",
"                                                                                                                                                                                                                                                                                                                                                                                                                                                                                                                    ",
"                                                                                                                                                                                                                                                                                                                                                                                                                                                                                                                    ",
"                                                                                                                                                                                                                                                                                                                                                                                                                                                                                                                    ",
"                                                                                                                                                                                                                                                                                                                                                                                                                                                                                                                    ",
"                                                                                                                                                                                                                                                                                                                                                                                                                                                                                                                    ",
"                                                                                                                                                                                                                                                                                                                                                                                                                                                                                                                    ",
"                                                                                                                                                                                                                                                                                                                                                                                                                                                                                                                    ",
"                                                                                                                                                                                                                                                                                                                                                                                                                                                                                                                    ",
"                                                                                                                                                                                                                                                                                                                                                                                                                                                                                                                    ",
"                                                                                                                                                                                                                                                                                                                                                                                                                                                                                                                    ",
"                                                                                                                                                                                                                                                                                                                                                                                                                                                                                                                    ",
"                                                                                                                                                                                                                                                                                                                                                                                                                                                                                                                    ",
"                                                                                                                                                                                                                                                                                                                                                                                                                                                                                                                    ",
"                                                                                                                                                                                                                                                                                                                                                                                                                                                                                                                    ",
"                                                                                                                                                                                                                                                                                                                                                                                                                                                                                                                    ",
"                                                                                                                                                                                                                                                                                                                                                                                                                                                                                                                    ",
"                                                                                                                                                                                                                                                                                                                                                                                                                                                                                                                    ",
"                                                                                                                                                                                                                                                                                                                                                                                                                                                                                                                    ",
"                                                                                                                                                                                                                                                                                                                                                                                                                                                                                                                    ",
"                                                                                                                                                                                                                                                                                                                                                                                                                                                                                                                    ",
"                                                                                                                                                                                                                                                                                                         ....................                                                                                                                                                                                       ",
"                                                                                                                                                                                                                                                                                                         ....................                                                                                                                                                                                       ",
"                                                                                                                                                                                                                                                                                                         ....................                                                                                                                                                                                       ",
"                                                                                                                                                                                                                                                                                                         ....................                                                                                                                                                                                       ",
"                                                                                                                                                                                                                                                                                                         ....................                                                                                                                                                                                       ",
"                                                                                                                                                                                                                                                                                                         ....................                                                                                                                                                                                       ",
"                                                                                                                                                                                                                                                                                                         ....................                                                                                                                                                                                       ",
"                                                                                                                                                                                                                                                                                                  OOOOOOO%%%%%%%+++++++++++++.......                                                                                                                                                                                ",
"                                                                                                                                                                                                                                                                                                  OOOOOOO%%%%%%%+++++++++++++.......                                                                                                                                                                                ",
"                                                                                                                                                                                                                                                                                                  OOOOOOO%%%%%%%+++++++++++++.......                                                                                                                                                                                ",
"                                                                                                                                                                                                                                                                                                  OOOOOOO%%%%%%%+++++++++++++.......                                                                                                                                                                                ",
"                                                                                                                                                                                                                                                                                                  OOOOOOO%%%%%%%+++++++++++++.......                                                                                                                                                                                ",
"                                                                                                                                                                                                                                                                                                  OOOOOOO%%%%%%%+++++++++++++.......                                                                                                                                                                                ",
"                                                                                                                                                                                                                                                                                                  OOOOOOO%%%%%%%+++++++++++++.......                                                                                                                                                                                ",
"                                                                                                                                                                                             ..............                                                                                 OOOOOO%%%%%%%%%%%%%%%%%%%%%++++++.......                                                                                                                                                                                ",
"                                                                                                                                                                                             ..............                                                                                 OOOOOO%%%%%%%%%%%%%%%%%%%%%++++++.......                                                                                                                                                                                ",
"                                                                                                                                                                                             ..............                                                                                 OOOOOO%%%%%%%%%%%%%%%%%%%%%++++++.......                                                                                                                                                                                ",
"                                                                                                                                                                                             ..............                                                                                 OOOOOO%%%%%%%%%%%%%%%%%%%%%++++++.......                                                                                                                                                                                ",
"                                                                                                                                                                                             ..............                                                                                 OOOOOO%%%%%%%%%%%%%%%%%%%%%++++++.......                                                                                                                                                                                ",
"                                                                                                                                                                                             ..............                                                                                 OOOOOO%%%%%%%%%%%%%%%%%%%%%++++++.......                                                                                                                                                                                ",
"                                                                                                                                                                                      OOOOOOO%%%%%%%+++++++.............                                                             OOOOOOO%%%%%%%%%%%%%%%%%%%%%%%%%%%+++++++++++++.......                                                                                                                                                                         ",
"                                                                                                                                                                                      OOOOOOO%%%%%%%+++++++.............                                                             OOOOOOO%%%%%%%%%%%%%%%%%%%%%%%%%%%+++++++++++++.......                                                                                                                                                                         ",
"                                                                                                                                                                                      OOOOOOO%%%%%%%+++++++.............                                                             OOOOOOO%%%%%%%%%%%%%%%%%%%%%%%%%%%+++++++++++++.......                                                                                                                                                                         ",
"                                                                                                                                                                                      OOOOOOO%%%%%%%+++++++.............                                                             OOOOOOO%%%%%%%%%%%%%%%%%%%%%%%%%%%+++++++++++++.......                                                                                                                                                                         ",
"                                                                                                                                                                                      OOOOOOO%%%%%%%+++++++.............                                                             OOOOOOO%%%%%%%%%%%%%%%%%%%%%%%%%%%+++++++++++++.......                                                                                                                                                                         ",
"                                                                                                                                                                                      OOOOOOO%%%%%%%+++++++.............                                                             OOOOOOO%%%%%%%%%%%%%%%%%%%%%%%%%%%+++++++++++++.......                                                                                                                                                                         ",
"                                                                                                                                                                                      OOOOOOO%%%%%%%+++++++.............                                                             OOOOOOO%%%%%%%%%%%%%%%%%%%%%%%%%%%+++++++++++++.......                                                                                                                                                                         ",
"                                                                                                                                                                                      OOOOOOO%%%%%%%++++++++++++++++++++.......                                               OOOOOOO%%%%%%%%%%%%%%%%%%%%%%%%%%%%%%%%%%+++++++++++++.......                                                                                                                                                                         ",
"                                                                                                                                                                                      OOOOOOO%%%%%%%++++++++++++++++++++.......                                               OOOOOOO%%%%%%%%%%%%%%%%%%%%%%%%%%%%%%%%%%+++++++++++++.......                                                                                                                                                                         ",
"                                                                                                                                                                                      OOOOOOO%%%%%%%++++++++++++++++++++.......                                               OOOOOOO%%%%%%%%%%%%%%%%%%%%%%%%%%%%%%%%%%+++++++++++++.......                                                                                                                                                                         ",
"                                                                                                                                                                                      OOOOOOO%%%%%%%++++++++++++++++++++.......                                               OOOOOOO%%%%%%%%%%%%%%%%%%%%%%%%%%%%%%%%%%+++++++++++++.......                                                                                                                                                                         ",
"                                                                                                                                                                                      OOOOOOO%%%%%%%++++++++++++++++++++.......                                               OOOOOOO%%%%%%%%%%%%%%%%%%%%%%%%%%%%%%%%%%+++++++++++++.......                                                                                                                                                                         ",
"                                                                                                                                                                                      OOOOOOO%%%%%%%++++++++++++++++++++.......                                               OOOOOOO%%%%%%%%%%%%%%%%%%%%%%%%%%%%%%%%%%+++++++++++++.......                                                                                                                                                                         ",
"                                                                                                                                                                                      OOOOOOO%%%%%%%++++++++++++++++++++.......                                               OOOOOOO%%%%%%%%%%%%%%%%%%%%%%%%%%%%%%%%%%+++++++++++++.......                                                                                                                                                                         ",
"                                                                                                                                                                               OOOOOOO%%%%%%%%%%%%%%%%%%%%%++++++++++++++++++++...............................................%%%%%%%%%%%%%%%%%%%%%%%%%%%%%%%%%%+++++++++++++++++++++++++++.......                                                                                                                                                                  ",
"                                                                                                                                                                               OOOOOOO%%%%%%%%%%%%%%%%%%%%%++++++++++++++++++++...............................................%%%%%%%%%%%%%%%%%%%%%%%%%%%%%%%%%%+++++++++++++++++++++++++++.......                                                                                                                                                                  ",
"                                                                                                                                                                               OOOOOOO%%%%%%%%%%%%%%%%%%%%%++++++++++++++++++++...............................................%%%%%%%%%%%%%%%%%%%%%%%%%%%%%%%%%%+++++++++++++++++++++++++++.......                                                                                                                                                                  ",
"                                                                                                                                                                               OOOOOOO%%%%%%%%%%%%%%%%%%%%%++++++++++++++++++++...............................................%%%%%%%%%%%%%%%%%%%%%%%%%%%%%%%%%%+++++++++++++++++++++++++++.......                                                                                                                                                                  ",
"                                                                                                                                                                               OOOOOOO%%%%%%%%%%%%%%%%%%%%%++++++++++++++++++++...............................................%%%%%%%%%%%%%%%%%%%%%%%%%%%%%%%%%%+++++++++++++++++++++++++++.......                                                                                                                                                                  ",
"                                                                                                                                                                               OOOOOOO%%%%%%%%%%%%%%%%%%%%%++++++++++++++++++++...............................................%%%%%%%%%%%%%%%%%%%%%%%%%%%%%%%%%%+++++++++++++++++++++++++++.......                                                                                                                                                                  ",
"                                                                                                                                                                               OOOOOOO%%%%%%%%%%%%%%%%%%%%%++++++++++++++++++++...............................................%%%%%%%%%%%%%%%%%%%%%%%%%%%%%%%%%%+++++++++++++++++++++++++++.......                                                                                                                                                                  ",
"                                                                                                                                                                               OOOOOOO%%%%%%%%%%%%%%%%%%%%%++++++OOOOOOOOOOOOOO+++++++&&&&&&&&&&&&&%%%%%%%%%%%%%%%%%%%%%%%%%%%%%%%%%%%%%%%%%%%%%%%%%%%%%%%%%%%%%++++++++++++++++++++++++++++++++++......                                                                                                                                                            ",
"                                                                                                                                                                               OOOOOOO%%%%%%%%%%%%%%%%%%%%%++++++OOOOOOOOOOOOOO+++++++&&&&&&&&&&&&&%%%%%%%%%%%%%%%%%%%%%%%%%%%%%%%%%%%%%%%%%%%%%%%%%%%%%%%%%%%%%++++++++++++++++++++++++++++++++++......                                                                                                                                                            ",
"                                                                                                                                                                               OOOOOOO%%%%%%%%%%%%%%%%%%%%%++++++OOOOOOOOOOOOOO+++++++&&&&&&&&&&&&&%%%%%%%%%%%%%%%%%%%%%%%%%%%%%%%%%%%%%%%%%%%%%%%%%%%%%%%%%%%%%++++++++++++++++++++++++++++++++++......                                                                                                                                                            ",
"                                                                                                                                                                               OOOOOOO%%%%%%%%%%%%%%%%%%%%%++++++OOOOOOOOOOOOOO+++++++&&&&&&&&&&&&&%%%%%%%%%%%%%%%%%%%%%%%%%%%%%%%%%%%%%%%%%%%%%%%%%%%%%%%%%%%%%++++++++++++++++++++++++++++++++++......                                                                                                                                                            ",
"                                                                                                                                                                               OOOOOOO%%%%%%%%%%%%%%%%%%%%%++++++OOOOOOOOOOOOOO+++++++&&&&&&&&&&&&&%%%%%%%%%%%%%%%%%%%%%%%%%%%%%%%%%%%%%%%%%%%%%%%%%%%%%%%%%%%%%++++++++++++++++++++++++++++++++++......                                                                                                                                                            ",
"                                                                                                                                                                               OOOOOOO%%%%%%%%%%%%%%%%%%%%%++++++OOOOOOOOOOOOOO+++++++&&&&&&&&&&&&&%%%%%%%%%%%%%%%%%%%%%%%%%%%%%%%%%%%%%%%%%%%%%%%%%%%%%%%%%%%%%++++++++++++++++++++++++++++++++++......                                                                                                                                                            ",
"                                                                                                                                                                               OOOOOOO%%%%%%%%%%%%%%+++++++++++++%%%%%%%&&&&&&&&&&&&&&&&&&&&&&&&&&&&&&&&&&%%%%%%%%%%%%%%%%%%%%%%%%%%%%%%%%%%%%%%%%%%%%%%%+++++++++++++++++++++++++++++++++++++++++++++++.......                                                                                                                                                     ",
"                                                                                                                                                                               OOOOOOO%%%%%%%%%%%%%%+++++++++++++%%%%%%%&&&&&&&&&&&&&&&&&&&&&&&&&&&&&&&&&&%%%%%%%%%%%%%%%%%%%%%%%%%%%%%%%%%%%%%%%%%%%%%%%+++++++++++++++++++++++++++++++++++++++++++++++.......                                                                                                                                                     ",
"                                                                                                                                                                               OOOOOOO%%%%%%%%%%%%%%+++++++++++++%%%%%%%&&&&&&&&&&&&&&&&&&&&&&&&&&&&&&&&&&%%%%%%%%%%%%%%%%%%%%%%%%%%%%%%%%%%%%%%%%%%%%%%%+++++++++++++++++++++++++++++++++++++++++++++++.......                                                                                                                                                     ",
"                                                                                                                                                                               OOOOOOO%%%%%%%%%%%%%%+++++++++++++%%%%%%%&&&&&&&&&&&&&&&&&&&&&&&&&&&&&&&&&&%%%%%%%%%%%%%%%%%%%%%%%%%%%%%%%%%%%%%%%%%%%%%%%+++++++++++++++++++++++++++++++++++++++++++++++.......                                                                                                                                                     ",
"                                                                                                                                                                               OOOOOOO%%%%%%%%%%%%%%+++++++++++++%%%%%%%&&&&&&&&&&&&&&&&&&&&&&&&&&&&&&&&&&%%%%%%%%%%%%%%%%%%%%%%%%%%%%%%%%%%%%%%%%%%%%%%%+++++++++++++++++++++++++++++++++++++++++++++++.......                                                                                                                                                     ",
"                                                                                                                                                                               OOOOOOO%%%%%%%%%%%%%%+++++++++++++%%%%%%%&&&&&&&&&&&&&&&&&&&&&&&&&&&&&&&&&&%%%%%%%%%%%%%%%%%%%%%%%%%%%%%%%%%%%%%%%%%%%%%%%+++++++++++++++++++++++++++++++++++++++++++++++.......                                                                                                                                                     ",
"                                                                                                                                                                               OOOOOOO%%%%%%%%%%%%%%+++++++++++++%%%%%%%&&&&&&&&&&&&&&&&&&&&&&&&&&&&&&&&&&%%%%%%%%%%%%%%%%%%%%%%%%%%%%%%%%%%%%%%%%%%%%%%%+++++++++++++++++++++++++++++++++++++++++++++++.......                                                                                                                                                     ",
"                                                                                                                                                                               OOOOOOO%%%%%%%+++++++%%%%%%%%%%%%%%%%%%%%%%%%%%%&&&&&&&&&&&&&&&&&&&&%%%%%%%%%%%%%%%%%%%%%%%%%%%++++++++++++++++++++++++++++++++++++++++++++++++++++++++++++++++++++++++++.......                                                                                                                                                     ",
"                                                                                                                                                                               OOOOOOO%%%%%%%+++++++%%%%%%%%%%%%%%%%%%%%%%%%%%%&&&&&&&&&&&&&&&&&&&&%%%%%%%%%%%%%%%%%%%%%%%%%%%++++++++++++++++++++++++++++++++++++++++++++++++++++++++++++++++++++++++++.......                                                                                                                                                     ",
"                                                                                                                                                                               OOOOOOO%%%%%%%+++++++%%%%%%%%%%%%%%%%%%%%%%%%%%%&&&&&&&&&&&&&&&&&&&&%%%%%%%%%%%%%%%%%%%%%%%%%%%++++++++++++++++++++++++++++++++++++++++++++++++++++++++++++++++++++++++++.......                                                                                                                                                     ",
"                                                                                                                                                                               OOOOOOO%%%%%%%+++++++%%%%%%%%%%%%%%%%%%%%%%%%%%%&&&&&&&&&&&&&&&&&&&&%%%%%%%%%%%%%%%%%%%%%%%%%%%++++++++++++++++++++++++++++++++++++++++++++++++++++++++++++++++++++++++++.......                                                                                                                                                     ",
"                                                                                                                                                                               OOOOOOO%%%%%%%+++++++%%%%%%%%%%%%%%%%%%%%%%%%%%%&&&&&&&&&&&&&&&&&&&&%%%%%%%%%%%%%%%%%%%%%%%%%%%++++++++++++++++++++++++++++++++++++++++++++++++++++++++++++++++++++++++++.......                                                                                                                                                     ",
"                                                                                                                                                                               OOOOOOO%%%%%%%+++++++%%%%%%%%%%%%%%%%%%%%%%%%%%%&&&&&&&&&&&&&&&&&&&&%%%%%%%%%%%%%%%%%%%%%%%%%%%++++++++++++++++++++++++++++++++++++++++++++++++++++++++++++++++++++++++++.......                                                                                                                                                     ",
"                                                                                                                                                                               OOOOOOO%%%%%%%+++++++%%%%%%%%%%%%%%%%%%%%%%%%%%%&&&&&&&&&&&&&&&&&&&&%%%%%%%%%%%%%%%%%%%%%%%%%%%++++++++++++++++++++++++++++++++++++++++++++++++++++++++++++++++++++++++++.......                                                                                                                                                     ",
"                                                                                                                                                                               .......+++++++%%%%%%%+++++++++++++%%%%%%%%%%%%%%%%%%%%%%%%%%%%%%%%%%%%%%%%%%%%%%%%+++++++++++++-------*******OOOOOOOOOOOOO++++++++++++++++++++++++++++++++++++++++++++++++++++++.......                                                                                                                                              ",
"                                                                                                                                                                               .......+++++++%%%%%%%+++++++++++++%%%%%%%%%%%%%%%%%%%%%%%%%%%%%%%%%%%%%%%%%%%%%%%%+++++++++++++-------*******OOOOOOOOOOOOO++++++++++++++++++++++++++++++++++++++++++++++++++++++.......                                                                                                                                              ",
"                                                                                                                                                                               .......+++++++%%%%%%%+++++++++++++%%%%%%%%%%%%%%%%%%%%%%%%%%%%%%%%%%%%%%%%%%%%%%%%+++++++++++++-------*******OOOOOOOOOOOOO++++++++++++++++++++++++++++++++++++++++++++++++++++++.......                                                                                                                                              ",
"                                                                                                                                                                               .......+++++++%%%%%%%+++++++++++++%%%%%%%%%%%%%%%%%%%%%%%%%%%%%%%%%%%%%%%%%%%%%%%%+++++++++++++-------*******OOOOOOOOOOOOO++++++++++++++++++++++++++++++++++++++++++++++++++++++.......                                                                                                                                              ",
"                                                                                                                                                                               .......+++++++%%%%%%%+++++++++++++%%%%%%%%%%%%%%%%%%%%%%%%%%%%%%%%%%%%%%%%%%%%%%%%+++++++++++++-------*******OOOOOOOOOOOOO++++++++++++++++++++++++++++++++++++++++++++++++++++++.......                                                                                                                                              ",
"                                                                                                                                                                               .......+++++++%%%%%%%+++++++++++++%%%%%%%%%%%%%%%%%%%%%%%%%%%%%%%%%%%%%%%%%%%%%%%%+++++++++++++-------*******OOOOOOOOOOOOO++++++++++++++++++++++++++++++++++++++++++++++++++++++.......                                                                                                                                              ",
"                                                                                                                                                                               .......+++++++%%%%%%%+++++++++++++%%%%%%%%%%%%%%%%%%%%%%%%%%%%%%%%%%%%%%%%%%%%%%%%+++++++++++++-------*******OOOOOOOOOOOOO++++++++++++++++++++++++++++++++++++++++++++++++++++++.......                                                                                                                                              ",
"                                                                                                                                                                               .......++++++++++++++-------******+++++++%%%%%%%%%%%%%%%%%%%%%%%%%%%%%%%%%%+++++++---------------------------------*******OOOOOOO+++++++++++++++++++++++++++++++++++++++++++++++.......                                                                                                                                              ",
"                                                                                                                                                                               .......++++++++++++++-------******+++++++%%%%%%%%%%%%%%%%%%%%%%%%%%%%%%%%%%+++++++---------------------------------*******OOOOOOO+++++++++++++++++++++++++++++++++++++++++++++++.......                                                                                                                                              ",
"                                                                                                                                                                               .......++++++++++++++-------******+++++++%%%%%%%%%%%%%%%%%%%%%%%%%%%%%%%%%%+++++++---------------------------------*******OOOOOOO+++++++++++++++++++++++++++++++++++++++++++++++.......                                                                                                                                              ",
"                                                                                                                                                                               .......++++++++++++++-------******+++++++%%%%%%%%%%%%%%%%%%%%%%%%%%%%%%%%%%+++++++---------------------------------*******OOOOOOO+++++++++++++++++++++++++++++++++++++++++++++++.......                                                                                                                                              ",
"                                                                                                                                                                               .......++++++++++++++-------******+++++++%%%%%%%%%%%%%%%%%%%%%%%%%%%%%%%%%%+++++++---------------------------------*******OOOOOOO+++++++++++++++++++++++++++++++++++++++++++++++.......                                                                                                                                              ",
"                                                                                                                                                                               .......++++++++++++++-------******+++++++%%%%%%%%%%%%%%%%%%%%%%%%%%%%%%%%%%+++++++---------------------------------*******OOOOOOO+++++++++++++++++++++++++++++++++++++++++++++++.......                                                                                                                                              ",
"                                                                                                                                                                         ......++++++++++++++---------------------------+++++++%%%%%%%%%%%%%%%%%%%%+++++++------------------------------------------------------OOOOOOO+++++++++++++++++++++++++++++++++++++++++++++++.......                                                      .............                                                                    ",
"                                                                                                                                                                         ......++++++++++++++---------------------------+++++++%%%%%%%%%%%%%%%%%%%%+++++++------------------------------------------------------OOOOOOO+++++++++++++++++++++++++++++++++++++++++++++++.......                                                      .............                                                                    ",
"                                                                                                                                                                         ......++++++++++++++---------------------------+++++++%%%%%%%%%%%%%%%%%%%%+++++++------------------------------------------------------OOOOOOO+++++++++++++++++++++++++++++++++++++++++++++++.......                                                      .............                                                                    ",
"                                                                                                                                                                         ......++++++++++++++---------------------------+++++++%%%%%%%%%%%%%%%%%%%%+++++++------------------------------------------------------OOOOOOO+++++++++++++++++++++++++++++++++++++++++++++++.......                                                      .............                                                                    ",
"                                                                                                                                                                         ......++++++++++++++---------------------------+++++++%%%%%%%%%%%%%%%%%%%%+++++++------------------------------------------------------OOOOOOO+++++++++++++++++++++++++++++++++++++++++++++++.......                                                      .............                                                                    ",
"                                                                                                                                                                         ......++++++++++++++---------------------------+++++++%%%%%%%%%%%%%%%%%%%%+++++++------------------------------------------------------OOOOOOO+++++++++++++++++++++++++++++++++++++++++++++++.......                                                      .............                                                                    ",
"                                                                                                                                                                         ......++++++++++++++---------------------------+++++++%%%%%%%%%%%%%%%%%%%%+++++++------------------------------------------------------OOOOOOO+++++++++++++++++++++++++++++++++++++++++++++++.......                                                      .............                                                                    ",
"                                                                                                                                                                         ......+++++++*******----------------------------------+++++++++++++*******--------------------------------------------------------------------OOOOOO+++++++++++++++++++++++++++++++++++++++++.......                                 .......       .......::::::.......                                                                    ",
"                                                                                                                                                                         ......+++++++*******----------------------------------+++++++++++++*******--------------------------------------------------------------------OOOOOO+++++++++++++++++++++++++++++++++++++++++.......                                 .......       .......::::::.......                                                                    ",
"                                                                                                                                                                         ......+++++++*******----------------------------------+++++++++++++*******--------------------------------------------------------------------OOOOOO+++++++++++++++++++++++++++++++++++++++++.......                                 .......       .......::::::.......                                                                    ",
"                                                                                                                                                                         ......+++++++*******----------------------------------+++++++++++++*******--------------------------------------------------------------------OOOOOO+++++++++++++++++++++++++++++++++++++++++.......                                 .......       .......::::::.......                                                                    ",
"                                                                                                                                                                         ......+++++++*******----------------------------------+++++++++++++*******--------------------------------------------------------------------OOOOOO+++++++++++++++++++++++++++++++++++++++++.......                                 .......       .......::::::.......                                                                    ",
"                                                                                                                                                                         ......+++++++*******----------------------------------+++++++++++++*******--------------------------------------------------------------------OOOOOO+++++++++++++++++++++++++++++++++++++++++.......                                 .......       .......::::::.......                                                                    ",
"                                                                                                                                                                         ......+++++++*******----------------------------------+++++++++++++*******--------------------------------------------------------------------OOOOOO+++++++++++++++++++++++++++++++++++++++++.......                                 .......       .......::::::.......                                                                    ",
"                                                                                                                                                                         ......+++++++---------------------------------------------------------------------------------------------------------------------------------******OOOOOOO++++++++++++++++++++++++++++++++++.......                           ......:::::::...........................       ..............                                               ",
"                                                                                                                                                                         ......+++++++---------------------------------------------------------------------------------------------------------------------------------******OOOOOOO++++++++++++++++++++++++++++++++++.......                           ......:::::::...........................       ..............                                               ",
"                                                                                                                                                                         ......+++++++---------------------------------------------------------------------------------------------------------------------------------******OOOOOOO++++++++++++++++++++++++++++++++++.......                           ......:::::::...........................       ..............                                               ",
"                                                                                                                                                                         ......+++++++---------------------------------------------------------------------------------------------------------------------------------******OOOOOOO++++++++++++++++++++++++++++++++++.......                           ......:::::::...........................       ..............                                               ",
"                                                                                                                                                                         ......+++++++---------------------------------------------------------------------------------------------------------------------------------******OOOOOOO++++++++++++++++++++++++++++++++++.......                           ......:::::::...........................       ..............                                               ",
"                                                                                                                                                                         ......+++++++---------------------------------------------------------------------------------------------------------------------------------******OOOOOOO++++++++++++++++++++++++++++++++++.......                           ......:::::::...........................       ..............                                               ",
"                                                                                                                                                                         ......+++++++---------------------------------------------------------------------------------------------------------------------------------******OOOOOOO++++++++++++++++++++++++++++++++++.......                           ......:::::::...........................       ..............                                               ",
"                                                                                                                                                                         ......*******---------------------------------------------------------------------------------------------------------------------------------------OOOOOOO+++++++++++++++++++++++++++++++++++++++++......                     ......%%%%%%%%%%%%%%%%%%%%%%%%%%%OOOOOOO.......:::::::.......                                               ",
"                                                                                                                                                                         ......*******---------------------------------------------------------------------------------------------------------------------------------------OOOOOOO+++++++++++++++++++++++++++++++++++++++++......                     ......%%%%%%%%%%%%%%%%%%%%%%%%%%%OOOOOOO.......:::::::.......                                               ",
"                                                                                                                                                                         ......*******---------------------------------------------------------------------------------------------------------------------------------------OOOOOOO+++++++++++++++++++++++++++++++++++++++++......                     ......%%%%%%%%%%%%%%%%%%%%%%%%%%%OOOOOOO.......:::::::.......                                               ",
"                                                                                                                                                                         ......*******---------------------------------------------------------------------------------------------------------------------------------------OOOOOOO+++++++++++++++++++++++++++++++++++++++++......                     ......%%%%%%%%%%%%%%%%%%%%%%%%%%%OOOOOOO.......:::::::.......                                               ",
"                                                                                                                                                                         ......*******---------------------------------------------------------------------------------------------------------------------------------------OOOOOOO+++++++++++++++++++++++++++++++++++++++++......                     ......%%%%%%%%%%%%%%%%%%%%%%%%%%%OOOOOOO.......:::::::.......                                               ",
"                                                                                                                                                                         ......*******---------------------------------------------------------------------------------------------------------------------------------------OOOOOOO+++++++++++++++++++++++++++++++++++++++++......                     ......%%%%%%%%%%%%%%%%%%%%%%%%%%%OOOOOOO.......:::::::.......                                               ",
"                                                                                                                                                                         ......*******---------------------------------------------------------------------------------------------------------------------------------------OOOOOOO+++++++++++++++++++++++++++++++++++++++++......                     ......%%%%%%%%%%%%%%%%%%%%%%%%%%%OOOOOOO.......:::::::.......                                               ",
"                                                                                                                                                                  .......++++++----------------------------------------------------------------------------------------..................................--------------------*******OOOOOOO++++++++++++++++++++++++++++++++++......                     ......%%%%%%%%%%%%%%%%%%%%%%%%%%%%%%%%%%OOOOOOO..............                                               ",
"                                                                                                                                                                  .......++++++----------------------------------------------------------------------------------------..................................--------------------*******OOOOOOO++++++++++++++++++++++++++++++++++......                     ......%%%%%%%%%%%%%%%%%%%%%%%%%%%%%%%%%%OOOOOOO..............                                               ",
"                                                                                                                                                                  .......++++++----------------------------------------------------------------------------------------..................................--------------------*******OOOOOOO++++++++++++++++++++++++++++++++++......                     ......%%%%%%%%%%%%%%%%%%%%%%%%%%%%%%%%%%OOOOOOO..............                                               ",
"                                                                                                                                                                  .......++++++----------------------------------------------------------------------------------------..................................--------------------*******OOOOOOO++++++++++++++++++++++++++++++++++......                     ......%%%%%%%%%%%%%%%%%%%%%%%%%%%%%%%%%%OOOOOOO..............                                               ",
"                                                                                                                                                                  .......++++++----------------------------------------------------------------------------------------..................................--------------------*******OOOOOOO++++++++++++++++++++++++++++++++++......                     ......%%%%%%%%%%%%%%%%%%%%%%%%%%%%%%%%%%OOOOOOO..............                                               ",
"                                                                                                                                                                  .......++++++----------------------------------------------------------------------------------------..................................--------------------*******OOOOOOO++++++++++++++++++++++++++++++++++......                     ......%%%%%%%%%%%%%%%%%%%%%%%%%%%%%%%%%%OOOOOOO..............                                               ",
"                                                                                                                                                                  .......++++++.....................------------------------------------------------------.............@@@@@@@------------------------------------------------------OOOOOOO++++++++++++++++++++++++++++++++++......              .......%%%%%%%%%%%%%%%%%%%%%%%%%%%%%%%%%%%%%%%%.......:::::::.......                                               ",
"                                                                                                                                                                  .......++++++.....................------------------------------------------------------.............@@@@@@@------------------------------------------------------OOOOOOO++++++++++++++++++++++++++++++++++......              .......%%%%%%%%%%%%%%%%%%%%%%%%%%%%%%%%%%%%%%%%.......:::::::.......                                               ",
"                                                                                                                                                                  .......++++++.....................------------------------------------------------------.............@@@@@@@------------------------------------------------------OOOOOOO++++++++++++++++++++++++++++++++++......              .......%%%%%%%%%%%%%%%%%%%%%%%%%%%%%%%%%%%%%%%%.......:::::::.......                                               ",
"                                                                                                                                                                  .......++++++.....................------------------------------------------------------.............@@@@@@@------------------------------------------------------OOOOOOO++++++++++++++++++++++++++++++++++......              .......%%%%%%%%%%%%%%%%%%%%%%%%%%%%%%%%%%%%%%%%.......:::::::.......                                               ",
"                                                                                                                                                                  .......++++++.....................------------------------------------------------------.............@@@@@@@------------------------------------------------------OOOOOOO++++++++++++++++++++++++++++++++++......              .......%%%%%%%%%%%%%%%%%%%%%%%%%%%%%%%%%%%%%%%%.......:::::::.......                                               ",
"                                                                                                                                                                  .......++++++.....................------------------------------------------------------.............@@@@@@@------------------------------------------------------OOOOOOO++++++++++++++++++++++++++++++++++......              .......%%%%%%%%%%%%%%%%%%%%%%%%%%%%%%%%%%%%%%%%.......:::::::.......                                               ",
"                                                                                                                                                                  .......++++++.....................------------------------------------------------------.............@@@@@@@------------------------------------------------------OOOOOOO++++++++++++++++++++++++++++++++++......              .......%%%%%%%%%%%%%%%%%%%%%%%%%%%%%%%%%%%%%%%%.......:::::::.......                                               ",
"                                                                                        ......              .............                                         .......++++++--------------@@@@@@@.............-------------------------------------------------------------------------------------------------------------------OOOOOOO++++++++++++++++++++++++++++++++++......              .......%%%%%%%%%%%%%%%%%%%%%%%%%%%%%%%%%%%%%%%%+++++++OOOOOOO.............                                         ",
"                                                                                        ......              .............                                         .......++++++--------------@@@@@@@.............-------------------------------------------------------------------------------------------------------------------OOOOOOO++++++++++++++++++++++++++++++++++......              .......%%%%%%%%%%%%%%%%%%%%%%%%%%%%%%%%%%%%%%%%+++++++OOOOOOO.............                                         ",
"                                                                                        ......              .............                                         .......++++++--------------@@@@@@@.............-------------------------------------------------------------------------------------------------------------------OOOOOOO++++++++++++++++++++++++++++++++++......              .......%%%%%%%%%%%%%%%%%%%%%%%%%%%%%%%%%%%%%%%%+++++++OOOOOOO.............                                         ",
"                                                                                        ......              .............                                         .......++++++--------------@@@@@@@.............-------------------------------------------------------------------------------------------------------------------OOOOOOO++++++++++++++++++++++++++++++++++......              .......%%%%%%%%%%%%%%%%%%%%%%%%%%%%%%%%%%%%%%%%+++++++OOOOOOO.............                                         ",
"                                                                                        ......              .............                                         .......++++++--------------@@@@@@@.............-------------------------------------------------------------------------------------------------------------------OOOOOOO++++++++++++++++++++++++++++++++++......              .......%%%%%%%%%%%%%%%%%%%%%%%%%%%%%%%%%%%%%%%%+++++++OOOOOOO.............                                         ",
"                                                                                        ......              .............                                         .......++++++--------------@@@@@@@.............-------------------------------------------------------------------------------------------------------------------OOOOOOO++++++++++++++++++++++++++++++++++......              .......%%%%%%%%%%%%%%%%%%%%%%%%%%%%%%%%%%%%%%%%+++++++OOOOOOO.............                                         ",
"                                                                                        ......              .............                                         .......++++++--------------@@@@@@@.............-------------------------------------------------------------------------------------------------------------------OOOOOOO++++++++++++++++++++++++++++++++++......              .......%%%%%%%%%%%%%%%%%%%%%%%%%%%%%%%%%%%%%%%%+++++++OOOOOOO.............                                         ",
"                                                                                        .............       .......::::::.....................                    .......++++++-----------------------------------------------------------------------------------------------------------------------------------------------------OOOOOOO+++++++++++++++++++++++++++OOOOOOOOOOOOO..............%%%%%%%%%%%%%%%%%%%%%%%%%%%%%%%%%%%%%%%%++++++++++++++.......OOOOOOO......                                         ",
"                                                                                        .............       .......::::::.....................                    .......++++++-----------------------------------------------------------------------------------------------------------------------------------------------------OOOOOOO+++++++++++++++++++++++++++OOOOOOOOOOOOO..............%%%%%%%%%%%%%%%%%%%%%%%%%%%%%%%%%%%%%%%%++++++++++++++.......OOOOOOO......                                         ",
"                                                                                        .............       .......::::::.....................                    .......++++++-----------------------------------------------------------------------------------------------------------------------------------------------------OOOOOOO+++++++++++++++++++++++++++OOOOOOOOOOOOO..............%%%%%%%%%%%%%%%%%%%%%%%%%%%%%%%%%%%%%%%%++++++++++++++.......OOOOOOO......                                         ",
"                                                                                        .............       .......::::::.....................                    .......++++++-----------------------------------------------------------------------------------------------------------------------------------------------------OOOOOOO+++++++++++++++++++++++++++OOOOOOOOOOOOO..............%%%%%%%%%%%%%%%%%%%%%%%%%%%%%%%%%%%%%%%%++++++++++++++.......OOOOOOO......                                         ",
"                                                                                        .............       .......::::::.....................                    .......++++++-----------------------------------------------------------------------------------------------------------------------------------------------------OOOOOOO+++++++++++++++++++++++++++OOOOOOOOOOOOO..............%%%%%%%%%%%%%%%%%%%%%%%%%%%%%%%%%%%%%%%%++++++++++++++.......OOOOOOO......                                         ",
"                                                                                        .............       .......::::::.....................                    .......++++++-----------------------------------------------------------------------------------------------------------------------------------------------------OOOOOOO+++++++++++++++++++++++++++OOOOOOOOOOOOO..............%%%%%%%%%%%%%%%%%%%%%%%%%%%%%%%%%%%%%%%%++++++++++++++.......OOOOOOO......                                         ",
"                                                                                        .............       .......::::::.....................                    .......++++++-----------------------------------------------------------------------------------------------------------------------------------------------------OOOOOOO+++++++++++++++++++++++++++OOOOOOOOOOOOO..............%%%%%%%%%%%%%%%%%%%%%%%%%%%%%%%%%%%%%%%%++++++++++++++.......OOOOOOO......                                         ",
"                                                                                        ......:::::::.......%%%%%%%%%%%%%.......:::::::.......                    .......++++++----------------------------------------------------------------------------------@@@@@@*******-----------------------------------------------*******OOOOOOO+++++++++++++++++++++++++++OOOOOOO.............%%%%%%%%%%%%%%%%%%%%%%%%%%%%%%%%%%%%%%%%%+++++++++++++.......:::::::.............                                         ",
"                                                                                        ......:::::::.......%%%%%%%%%%%%%.......:::::::.......                    .......++++++----------------------------------------------------------------------------------@@@@@@*******-----------------------------------------------*******OOOOOOO+++++++++++++++++++++++++++OOOOOOO.............%%%%%%%%%%%%%%%%%%%%%%%%%%%%%%%%%%%%%%%%%+++++++++++++.......:::::::.............                                         ",
"                                                                                        ......:::::::.......%%%%%%%%%%%%%.......:::::::.......                    .......++++++----------------------------------------------------------------------------------@@@@@@*******-----------------------------------------------*******OOOOOOO+++++++++++++++++++++++++++OOOOOOO.............%%%%%%%%%%%%%%%%%%%%%%%%%%%%%%%%%%%%%%%%%+++++++++++++.......:::::::.............                                         ",
"                                                                                        ......:::::::.......%%%%%%%%%%%%%.......:::::::.......                    .......++++++----------------------------------------------------------------------------------@@@@@@*******-----------------------------------------------*******OOOOOOO+++++++++++++++++++++++++++OOOOOOO.............%%%%%%%%%%%%%%%%%%%%%%%%%%%%%%%%%%%%%%%%%+++++++++++++.......:::::::.............                                         ",
"                                                                                        ......:::::::.......%%%%%%%%%%%%%.......:::::::.......                    .......++++++----------------------------------------------------------------------------------@@@@@@*******-----------------------------------------------*******OOOOOOO+++++++++++++++++++++++++++OOOOOOO.............%%%%%%%%%%%%%%%%%%%%%%%%%%%%%%%%%%%%%%%%%+++++++++++++.......:::::::.............                                         ",
"                                                                                        ......:::::::.......%%%%%%%%%%%%%.......:::::::.......                    .......++++++----------------------------------------------------------------------------------@@@@@@*******-----------------------------------------------*******OOOOOOO+++++++++++++++++++++++++++OOOOOOO.............%%%%%%%%%%%%%%%%%%%%%%%%%%%%%%%%%%%%%%%%%+++++++++++++.......:::::::.............                                         ",
"                                                                                 .............OOOOOOO%%%%%%%%%%%%%%%%%%%%%%%%%%%..............                           ......*******---------------------------@@@@@@@----------------------------------@@@@@@@::::::.......-----------------------------------------------OOOOOOO+++++++++++++++++++++++++++OOOOOOO.......++++++%%%%%%%%%%%%%%%%%%%%%%%%%%%%%%%%%%%%%%%%%+++++++++++++++++++++++++++.......OOOOOOO                                               ",
"                                                                                 .............OOOOOOO%%%%%%%%%%%%%%%%%%%%%%%%%%%..............                           ......*******---------------------------@@@@@@@----------------------------------@@@@@@@::::::.......-----------------------------------------------OOOOOOO+++++++++++++++++++++++++++OOOOOOO.......++++++%%%%%%%%%%%%%%%%%%%%%%%%%%%%%%%%%%%%%%%%%+++++++++++++++++++++++++++.......OOOOOOO                                               ",
"                                                                                 .............OOOOOOO%%%%%%%%%%%%%%%%%%%%%%%%%%%..............                           ......*******---------------------------@@@@@@@----------------------------------@@@@@@@::::::.......-----------------------------------------------OOOOOOO+++++++++++++++++++++++++++OOOOOOO.......++++++%%%%%%%%%%%%%%%%%%%%%%%%%%%%%%%%%%%%%%%%%+++++++++++++++++++++++++++.......OOOOOOO                                               ",
"                                                                                 .............OOOOOOO%%%%%%%%%%%%%%%%%%%%%%%%%%%..............                           ......*******---------------------------@@@@@@@----------------------------------@@@@@@@::::::.......-----------------------------------------------OOOOOOO+++++++++++++++++++++++++++OOOOOOO.......++++++%%%%%%%%%%%%%%%%%%%%%%%%%%%%%%%%%%%%%%%%%+++++++++++++++++++++++++++.......OOOOOOO                                               ",
"                                                                                 .............OOOOOOO%%%%%%%%%%%%%%%%%%%%%%%%%%%..............                           ......*******---------------------------@@@@@@@----------------------------------@@@@@@@::::::.......-----------------------------------------------OOOOOOO+++++++++++++++++++++++++++OOOOOOO.......++++++%%%%%%%%%%%%%%%%%%%%%%%%%%%%%%%%%%%%%%%%%+++++++++++++++++++++++++++.......OOOOOOO                                               ",
"                                                                                 .............OOOOOOO%%%%%%%%%%%%%%%%%%%%%%%%%%%..............                           ......*******---------------------------@@@@@@@----------------------------------@@@@@@@::::::.......-----------------------------------------------OOOOOOO+++++++++++++++++++++++++++OOOOOOO.......++++++%%%%%%%%%%%%%%%%%%%%%%%%%%%%%%%%%%%%%%%%%+++++++++++++++++++++++++++.......OOOOOOO                                               ",
"                                                                                 .............OOOOOOO%%%%%%%%%%%%%%%%%%%%%%%%%%%..............                           ......*******---------------------------@@@@@@@----------------------------------@@@@@@@::::::.......-----------------------------------------------OOOOOOO+++++++++++++++++++++++++++OOOOOOO.......++++++%%%%%%%%%%%%%%%%%%%%%%%%%%%%%%%%%%%%%%%%%+++++++++++++++++++++++++++.......OOOOOOO                                               ",
"                                                                                 .......::::::OOOOOOO%%%%%%%%%%%%%%%%%%%%%%%%%%%%%%%%%%%%%%%%%OOOOOO                     ......+++++++---------------------@@@@@@:::::::@@@@@@@-------******.....................@@@@@@*******-----------------------------------------******OOOOOOO+++++++++++++++++++++++++++.......+++++++++++++%%%%%%%%%%%%%%%%%%%%%%%%%%%%%%%%%%+++++++++++++++++++++++++++++++++++++++++.......                                               ",
"                                                                                 .......::::::OOOOOOO%%%%%%%%%%%%%%%%%%%%%%%%%%%%%%%%%%%%%%%%%OOOOOO                     ......+++++++---------------------@@@@@@:::::::@@@@@@@-------******.....................@@@@@@*******-----------------------------------------******OOOOOOO+++++++++++++++++++++++++++.......+++++++++++++%%%%%%%%%%%%%%%%%%%%%%%%%%%%%%%%%%+++++++++++++++++++++++++++++++++++++++++.......                                               ",
"                                                                                 .......::::::OOOOOOO%%%%%%%%%%%%%%%%%%%%%%%%%%%%%%%%%%%%%%%%%OOOOOO                     ......+++++++---------------------@@@@@@:::::::@@@@@@@-------******.....................@@@@@@*******-----------------------------------------******OOOOOOO+++++++++++++++++++++++++++.......+++++++++++++%%%%%%%%%%%%%%%%%%%%%%%%%%%%%%%%%%+++++++++++++++++++++++++++++++++++++++++.......                                               ",
"                                                                                 .......::::::OOOOOOO%%%%%%%%%%%%%%%%%%%%%%%%%%%%%%%%%%%%%%%%%OOOOOO                     ......+++++++---------------------@@@@@@:::::::@@@@@@@-------******.....................@@@@@@*******-----------------------------------------******OOOOOOO+++++++++++++++++++++++++++.......+++++++++++++%%%%%%%%%%%%%%%%%%%%%%%%%%%%%%%%%%+++++++++++++++++++++++++++++++++++++++++.......                                               ",
"                                                                                 .......::::::OOOOOOO%%%%%%%%%%%%%%%%%%%%%%%%%%%%%%%%%%%%%%%%%OOOOOO                     ......+++++++---------------------@@@@@@:::::::@@@@@@@-------******.....................@@@@@@*******-----------------------------------------******OOOOOOO+++++++++++++++++++++++++++.......+++++++++++++%%%%%%%%%%%%%%%%%%%%%%%%%%%%%%%%%%+++++++++++++++++++++++++++++++++++++++++.......                                               ",
"                                                                                 .......::::::OOOOOOO%%%%%%%%%%%%%%%%%%%%%%%%%%%%%%%%%%%%%%%%%OOOOOO                     ......+++++++---------------------@@@@@@:::::::@@@@@@@-------******.....................@@@@@@*******-----------------------------------------******OOOOOOO+++++++++++++++++++++++++++.......+++++++++++++%%%%%%%%%%%%%%%%%%%%%%%%%%%%%%%%%%+++++++++++++++++++++++++++++++++++++++++.......                                               ",
"                                                                                 .......::::::OOOOOOO%%%%%%%%%%%%%%%%%%%%%%%%%%%%%%%%%%%%%%%%%OOOOOO                     ......+++++++---------------------@@@@@@:::::::@@@@@@@-------******.....................@@@@@@*******-----------------------------------------******OOOOOOO+++++++++++++++++++++++++++.......+++++++++++++%%%%%%%%%%%%%%%%%%%%%%%%%%%%%%%%%%+++++++++++++++++++++++++++++++++++++++++.......                                               ",
"                                                                                 .......OOOOOOOOOOOOO%%%%%%%%%%%%%%%%%%%%%%%%%%%%%%%%%%%%%%%%%%%%%%%                           .......*******--------------@@@@@@...........................*******--------------------------------------------------------------------OOOOOO+++++++++++++++++++++++++++.......+++++++++++++++++++++++++++%%%%%%%%%%%%%%%%%%%%++++++++++++++++++++++++++++++++++++++++++++++++.......                                               ",
"                                                                                 .......OOOOOOOOOOOOO%%%%%%%%%%%%%%%%%%%%%%%%%%%%%%%%%%%%%%%%%%%%%%%                           .......*******--------------@@@@@@...........................*******--------------------------------------------------------------------OOOOOO+++++++++++++++++++++++++++.......+++++++++++++++++++++++++++%%%%%%%%%%%%%%%%%%%%++++++++++++++++++++++++++++++++++++++++++++++++.......                                               ",
"                                                                                 .......OOOOOOOOOOOOO%%%%%%%%%%%%%%%%%%%%%%%%%%%%%%%%%%%%%%%%%%%%%%%                           .......*******--------------@@@@@@...........................*******--------------------------------------------------------------------OOOOOO+++++++++++++++++++++++++++.......+++++++++++++++++++++++++++%%%%%%%%%%%%%%%%%%%%++++++++++++++++++++++++++++++++++++++++++++++++.......                                               ",
"                                                                                 .......OOOOOOOOOOOOO%%%%%%%%%%%%%%%%%%%%%%%%%%%%%%%%%%%%%%%%%%%%%%%                           .......*******--------------@@@@@@...........................*******--------------------------------------------------------------------OOOOOO+++++++++++++++++++++++++++.......+++++++++++++++++++++++++++%%%%%%%%%%%%%%%%%%%%++++++++++++++++++++++++++++++++++++++++++++++++.......                                               ",
"                                                                                 .......OOOOOOOOOOOOO%%%%%%%%%%%%%%%%%%%%%%%%%%%%%%%%%%%%%%%%%%%%%%%                           .......*******--------------@@@@@@...........................*******--------------------------------------------------------------------OOOOOO+++++++++++++++++++++++++++.......+++++++++++++++++++++++++++%%%%%%%%%%%%%%%%%%%%++++++++++++++++++++++++++++++++++++++++++++++++.......                                               ",
"                                                                                 .......OOOOOOOOOOOOO%%%%%%%%%%%%%%%%%%%%%%%%%%%%%%%%%%%%%%%%%%%%%%%                           .......*******--------------@@@@@@...........................*******--------------------------------------------------------------------OOOOOO+++++++++++++++++++++++++++.......+++++++++++++++++++++++++++%%%%%%%%%%%%%%%%%%%%++++++++++++++++++++++++++++++++++++++++++++++++.......                                               ",
"                                                                                 .......OOOOOOOOOOOOO%%%%%%%%%%%%%%%%%%%%%%%%%%%%%%%%%%%%%%%%%%%%%%%                           .......*******--------------@@@@@@...........................*******--------------------------------------------------------------------OOOOOO+++++++++++++++++++++++++++.......+++++++++++++++++++++++++++%%%%%%%%%%%%%%%%%%%%++++++++++++++++++++++++++++++++++++++++++++++++.......                                               ",
"                                                                                 .......OOOOOOOOOOOOO+++++++%%%%%%%%%%%%%%%%%%%%%%%%%%%%%%%%%%%%%%%%OOOOOOOOOOOOOO             .......+++++++-------------------------------------------------------------------------------------------------------------------OOOOOOO+++++++++++++++++++++++++++OOOOOO+++++++++++++++++++++++++++++++++++++++++%%%%%%%+++++++++++++++++++++++++++++++++++++++++++++++.......                                                      ",
"                                                                                 .......OOOOOOOOOOOOO+++++++%%%%%%%%%%%%%%%%%%%%%%%%%%%%%%%%%%%%%%%%OOOOOOOOOOOOOO             .......+++++++-------------------------------------------------------------------------------------------------------------------OOOOOOO+++++++++++++++++++++++++++OOOOOO+++++++++++++++++++++++++++++++++++++++++%%%%%%%+++++++++++++++++++++++++++++++++++++++++++++++.......                                                      ",
"                                                                                 .......OOOOOOOOOOOOO+++++++%%%%%%%%%%%%%%%%%%%%%%%%%%%%%%%%%%%%%%%%OOOOOOOOOOOOOO             .......+++++++-------------------------------------------------------------------------------------------------------------------OOOOOOO+++++++++++++++++++++++++++OOOOOO+++++++++++++++++++++++++++++++++++++++++%%%%%%%+++++++++++++++++++++++++++++++++++++++++++++++.......                                                      ",
"                                                                                 .......OOOOOOOOOOOOO+++++++%%%%%%%%%%%%%%%%%%%%%%%%%%%%%%%%%%%%%%%%OOOOOOOOOOOOOO             .......+++++++-------------------------------------------------------------------------------------------------------------------OOOOOOO+++++++++++++++++++++++++++OOOOOO+++++++++++++++++++++++++++++++++++++++++%%%%%%%+++++++++++++++++++++++++++++++++++++++++++++++.......                                                      ",
"                                                                                 .......OOOOOOOOOOOOO+++++++%%%%%%%%%%%%%%%%%%%%%%%%%%%%%%%%%%%%%%%%OOOOOOOOOOOOOO             .......+++++++-------------------------------------------------------------------------------------------------------------------OOOOOOO+++++++++++++++++++++++++++OOOOOO+++++++++++++++++++++++++++++++++++++++++%%%%%%%+++++++++++++++++++++++++++++++++++++++++++++++.......                                                      ",
"                                                                                 .......OOOOOOOOOOOOO+++++++%%%%%%%%%%%%%%%%%%%%%%%%%%%%%%%%%%%%%%%%OOOOOOOOOOOOOO             .......+++++++-------------------------------------------------------------------------------------------------------------------OOOOOOO+++++++++++++++++++++++++++OOOOOO+++++++++++++++++++++++++++++++++++++++++%%%%%%%+++++++++++++++++++++++++++++++++++++++++++++++.......                                                      ",
"                                                                                 .......::::::++++++++++++++%%%%%%%%%%%%%%%%%%%%%%%%%%%%%%%%%%%%%%%%%%%%%%%OOOOOOOOOOOOOO             .......OOOOOOO-----------------------------------------------------------------------------------------------------OOOOOOO+++++++++++++++++++++++++++++++++++++++++++++++++++++++++++++++++++++++++++++++++++++++++++++++++++++++++++++++++++++++++++++++++++++++.......                                                      ",
"                                                                                 .......::::::++++++++++++++%%%%%%%%%%%%%%%%%%%%%%%%%%%%%%%%%%%%%%%%%%%%%%%OOOOOOOOOOOOOO             .......OOOOOOO-----------------------------------------------------------------------------------------------------OOOOOOO+++++++++++++++++++++++++++++++++++++++++++++++++++++++++++++++++++++++++++++++++++++++++++++++++++++++++++++++++++++++++++++++++++++++.......                                                      ",
"                                                                                 .......::::::++++++++++++++%%%%%%%%%%%%%%%%%%%%%%%%%%%%%%%%%%%%%%%%%%%%%%%OOOOOOOOOOOOOO             .......OOOOOOO-----------------------------------------------------------------------------------------------------OOOOOOO+++++++++++++++++++++++++++++++++++++++++++++++++++++++++++++++++++++++++++++++++++++++++++++++++++++++++++++++++++++++++++++++++++++++.......                                                      ",
"                                                                                 .......::::::++++++++++++++%%%%%%%%%%%%%%%%%%%%%%%%%%%%%%%%%%%%%%%%%%%%%%%OOOOOOOOOOOOOO             .......OOOOOOO-----------------------------------------------------------------------------------------------------OOOOOOO+++++++++++++++++++++++++++++++++++++++++++++++++++++++++++++++++++++++++++++++++++++++++++++++++++++++++++++++++++++++++++++++++++++++.......                                                      ",
"                                                                                 .......::::::++++++++++++++%%%%%%%%%%%%%%%%%%%%%%%%%%%%%%%%%%%%%%%%%%%%%%%OOOOOOOOOOOOOO             .......OOOOOOO-----------------------------------------------------------------------------------------------------OOOOOOO+++++++++++++++++++++++++++++++++++++++++++++++++++++++++++++++++++++++++++++++++++++++++++++++++++++++++++++++++++++++++++++++++++++++.......                                                      ",
"                                                                                 .......::::::++++++++++++++%%%%%%%%%%%%%%%%%%%%%%%%%%%%%%%%%%%%%%%%%%%%%%%OOOOOOOOOOOOOO             .......OOOOOOO-----------------------------------------------------------------------------------------------------OOOOOOO+++++++++++++++++++++++++++++++++++++++++++++++++++++++++++++++++++++++++++++++++++++++++++++++++++++++++++++++++++++++++++++++++++++++.......                                                      ",
"                                                                                 .......::::::++++++++++++++%%%%%%%%%%%%%%%%%%%%%%%%%%%%%%%%%%%%%%%%%%%%%%%OOOOOOOOOOOOOO             .......OOOOOOO-----------------------------------------------------------------------------------------------------OOOOOOO+++++++++++++++++++++++++++++++++++++++++++++++++++++++++++++++++++++++++++++++++++++++++++++++++++++++++++++++++++++++++++++++++++++++.......                                                      ",
"                                                                                 .......+++++++++++++++++++++++++++%%%%%%%%%%%%%%%%%%%%%%%%%%%%%%%%%%%%%%%%%%%%%%%%%%%%%%....................OOOOOOOOOOOOOO---------------------------------------------------------------------------------######OOOOOOO++++++++++++++++++++++++++++++++++++++++++++++++++++++++++++++++++++++++++++++++++++++++++++++++++++++++++++++++++++++++++++++++++++++++++++++.......                                                      ",
"                                                                                 .......+++++++++++++++++++++++++++%%%%%%%%%%%%%%%%%%%%%%%%%%%%%%%%%%%%%%%%%%%%%%%%%%%%%%....................OOOOOOOOOOOOOO---------------------------------------------------------------------------------######OOOOOOO++++++++++++++++++++++++++++++++++++++++++++++++++++++++++++++++++++++++++++++++++++++++++++++++++++++++++++++++++++++++++++++++++++++++++++++.......                                                      ",
"                                                                                 .......+++++++++++++++++++++++++++%%%%%%%%%%%%%%%%%%%%%%%%%%%%%%%%%%%%%%%%%%%%%%%%%%%%%%....................OOOOOOOOOOOOOO---------------------------------------------------------------------------------######OOOOOOO++++++++++++++++++++++++++++++++++++++++++++++++++++++++++++++++++++++++++++++++++++++++++++++++++++++++++++++++++++++++++++++++++++++++++++++.......                                                      ",
"                                                                                 .......+++++++++++++++++++++++++++%%%%%%%%%%%%%%%%%%%%%%%%%%%%%%%%%%%%%%%%%%%%%%%%%%%%%%....................OOOOOOOOOOOOOO---------------------------------------------------------------------------------######OOOOOOO++++++++++++++++++++++++++++++++++++++++++++++++++++++++++++++++++++++++++++++++++++++++++++++++++++++++++++++++++++++++++++++++++++++++++++++.......                                                      ",
"                                                                                 .......+++++++++++++++++++++++++++%%%%%%%%%%%%%%%%%%%%%%%%%%%%%%%%%%%%%%%%%%%%%%%%%%%%%%....................OOOOOOOOOOOOOO---------------------------------------------------------------------------------######OOOOOOO++++++++++++++++++++++++++++++++++++++++++++++++++++++++++++++++++++++++++++++++++++++++++++++++++++++++++++++++++++++++++++++++++++++++++++++.......                                                      ",
"                                                                                 .......+++++++++++++++++++++++++++%%%%%%%%%%%%%%%%%%%%%%%%%%%%%%%%%%%%%%%%%%%%%%%%%%%%%%....................OOOOOOOOOOOOOO---------------------------------------------------------------------------------######OOOOOOO++++++++++++++++++++++++++++++++++++++++++++++++++++++++++++++++++++++++++++++++++++++++++++++++++++++++++++++++++++++++++++++++++++++++++++++.......                                                      ",
"                                                                                 .......+++++++++++++++++++++++++++%%%%%%%%%%%%%%%%%%%%%%%%%%%%%%%%%%%%%%%%%%%%%%%%%%%%%%....................OOOOOOOOOOOOOO---------------------------------------------------------------------------------######OOOOOOO++++++++++++++++++++++++++++++++++++++++++++++++++++++++++++++++++++++++++++++++++++++++++++++++++++++++++++++++++++++++++++++++++++++++++++++.......                                                      ",
"                                                                                        +++++++++++++++++++++++++++++++++%%%%%%%%%%%%%%%%%%%%%%%%%%%%%%%%%%%%%%%%%%%%%%%%+++++++++++++++++++++++++++OOOOOOOOOOOOOOOOOOOO#######========---------------------------=====*********************--------------------OOOOOOOOOOOOO+++++++++++++++++++++++++++++++++++++++++++++++++++++++++++++++++++++++++++++++++++++++++++++++++++++++++++++++++++.......                                                             ",
"                                                                                        +++++++++++++++++++++++++++++++++%%%%%%%%%%%%%%%%%%%%%%%%%%%%%%%%%%%%%%%%%%%%%%%%+++++++++++++++++++++++++++OOOOOOOOOOOOOOOOOOOO#######=======----------------------------=====*********************--------------------OOOOOOOOOOOOO+++++++++++++++++++++++++++++++++++++++++++++++++++++++++++++++++++++++++++++++++++++++++++++++++++++++++++++++++++.......                                                             ",
"                                                                                        +++++++++++++++++++++++++++++++++%%%%%%%%%%%%%%%%%%%%%%%%%%%%%%%%%%%%%%%%%%%%%%%%+++++++++++++++++++++++++++OOOOOOOOOOOOOOOOOOOO#######========---------------------------=====*********************--------------------OOOOOOOOOOOOO+++++++++++++++++++++++++++++++++++++++++++++++++++++++++++++++++++++++++++++++++++++++++++++++++++++++++++++++++++.......                                                             ",
"                                                                                        +++++++++++++++++++++++++++++++++%%%%%%%%%%%%%%%%%%%%%%%%%%%%%%%%%%%%%%%%%%%%%%%%+++++++++++++++++++++++++++OOOOOOOOOOOOOOOOOOOO#######========---------------------------=====*********************--------------------OOOOOOOOOOOOO+++++++++++++++++++++++++++++++++++++++++++++++++++++++++++++++++++++++++++++++++++++++++++++++++++++++++++++++++++.......                                                             ",
"                                                                                        +++++++++++++++++++++++++++++++++%%%%%%%%%%%%%%%%%%%%%%%%%%%%%%%%%%%%%%%%%%%%%%%%+++++++++++++++++++++++++++OOOOOOOOOOOOOOOOOOOO#######========---------------------------=====*********************--------------------OOOOOOOOOOOOO+++++++++++++++++++++++++++++++++++++++++++++++++++++++++++++++++++++++++++++++++++++++++++++++++++++++++++++++++++.......                                                             ",
"                                                                                        +++++++++++++++++++++++++++++++++%%%%%%%%%%%%%%%%%%%%%%%%%%%%%%%%%%%%%%%%%%%%%%%%+++++++++++++++++++++++++++OOOOOOOOOOOOOOOOOOOO#######========---------------------------=====*********************--------------------OOOOOOOOOOOOO+++++++++++++++++++++++++++++++++++++++++++++++++++++++++++++++++++++++++++++++++++++++++++++++++++++++++++++++++++.......                                                             ",
"                                                                                        +++++++++++++++++++++++++++++++++%%%%%%%%%%%%%%%%%%%%%%%%%%%%%%%%%%%%%%%%%%%%%%%%+++++++++++++++++++++++++++OOOOOOOOOOOOOOOOOOOO#######======----------------------------======*********************--------------------OOOOOOOOOOOOO+++++++++++++++++++++++++++++++++++++++++++++++++++++++++++++++++++++++++++++++++++++++++++++++++++++++++++++++++++.......                                                             ",
"                                                                                        ......+++++++++++++++++++++++++++++++++++++++++%%%%%%%%%%%%%%%%%%%%%%%%%%%+++++++++++++++++++++++++++..............--------------======***********************************************=======----------------------------------------OOOOOOOOOOOOOO+++++++++++++++++++++++++++++++++++++++++++++++++++++++++++++++++++++++++++++++++++++++++++++++++++++.......                                                             ",
"                                                                                        ......+++++++++++++++++++++++++++++++++++++++++%%%%%%%%%%%%%%%%%%%%%%%%%%%+++++++++++++++++++++++++++..............--------------======***********************************************-=======---------------------------------------OOOOOOOOOOOOOO+++++++++++++++++++++++++++++++++++++++++++++++++++++++++++++++++++++++++++++++++++++++++++++++++++++.......                                                             ",
"                                                                                        ......+++++++++++++++++++++++++++++++++++++++++%%%%%%%%%%%%%%%%%%%%%%%%%%%+++++++++++++++++++++++++++..............--------------======***********************************************-=======---------------------------------------OOOOOOOOOOOOOO+++++++++++++++++++++++++++++++++++++++++++++++++++++++++++++++++++++++++++++++++++++++++++++++++++++.......                                                             ",
"                                                                                        ......+++++++++++++++++++++++++++++++++++++++++%%%%%%%%%%%%%%%%%%%%%%%%%%%+++++++++++++++++++++++++++..............--------------======***********************************************=======----------------------------------------OOOOOOOOOOOOOO+++++++++++++++++++++++++++++++++++++++++++++++++++++++++++++++++++++++++++++++++++++++++++++++++++++.......                                                             ",
"                                                                                        ......+++++++++++++++++++++++++++++++++++++++++%%%%%%%%%%%%%%%%%%%%%%%%%%%+++++++++++++++++++++++++++..............--------------======***********************************************=======----------------------------------------OOOOOOOOOOOOOO+++++++++++++++++++++++++++++++++++++++++++++++++++++++++++++++++++++++++++++++++++++++++++++++++++++.......                                                             ",
"                                                                                        ......+++++++++++++++++++++++++++++++++++++++++%%%%%%%%%%%%%%%%%%%%%%%%%%%+++++++++++++++++++++++++++..............-------------=======***********************************************=======----------------------------------------OOOOOOOOOOOOOO+++++++++++++++++++++++++++++++++++++++++++++++++++++++++++++++++++++++++++++++++++++++++++++++++++++.......                                                             ",
"                                                                                        ......++++++++++++++++++++++++++++++++++++++++++++++++%%%%%%+++++++++++++++++++++++++++..............-----------------------------------======***************************=======-------------------------------------------------------------------OOOOOOO+++++++++++++++++++++++++++++++++++++++++++++++++++++++++++++++++++++++++++++++++++++++.......                                                                    ",
"                                                                                        ......++++++++++++++++++++++++++++++++++++++++++++++++%%%%%%+++++++++++++++++++++++++++..............-----------------------------------======***************************=======-------------------------------------------------------------------OOOOOOO+++++++++++++++++++++++++++++++++++++++++++++++++++++++++++++++++++++++++++++++++++++++.......                                                                    ",
"                                                                                        ......++++++++++++++++++++++++++++++++++++++++++++++++%%%%%%+++++++++++++++++++++++++++..............-----------------------------------======***************************=======-------------------------------------------------------------------OOOOOOO+++++++++++++++++++++++++++++++++++++++++++++++++++++++++++++++++++++++++++++++++++++++.......                                                                    ",
"                                                                                        ......++++++++++++++++++++++++++++++++++++++++++++++++%%%%%%+++++++++++++++++++++++++++..............-----------------------------------======***************************=======-------------------------------------------------------------------OOOOOOO+++++++++++++++++++++++++++++++++++++++++++++++++++++++++++++++++++++++++++++++++++++++.......                                                                    ",
"                                                                                        ......++++++++++++++++++++++++++++++++++++++++++++++++%%%%%%+++++++++++++++++++++++++++..............-----------------------------------======***************************=======-------------------------------------------------------------------OOOOOOO+++++++++++++++++++++++++++++++++++++++++++++++++++++++++++++++++++++++++++++++++++++++.......                                                                    ",
"                                                                                        ......++++++++++++++++++++++++++++++++++++++++++++++++%%%%%%+++++++++++++++++++++++++++..............-----------------------------------======***************************=======-------------------------------------------------------------------OOOOOOO+++++++++++++++++++++++++++++++++++++++++++++++++++++++++++++++++++++++++++++++++++++++.......                                                                    ",
"                                                                                        ......++++++++++++++++++++++++++++++++++++++++++++++++%%%%%%+++++++++++++++++++++++++++..............-----------------------------------======***************************-======-------------------------------------------------------------------OOOOOOO+++++++++++++++++++++++++++++++++++++++++++++++++++++++++++++++++++++++++++++++++++++++.......                                                                    ",
"                                                                                              .......++++++++++++++++++++++++++++++++++++++++++++++++++++++++++++++++++++......------------------------------------------------------------------------------------------------------------------------------------------------------------*******OOOOOO+++++++++++++++++++++++++++++++++++++++++++++++++++++++++++++++++++++++++++......                                                                           ",
"                                                                                              .......++++++++++++++++++++++++++++++++++++++++++++++++++++++++++++++++++++......------------------------------------------------------------------------------------------------------------------------------------------------------------*******OOOOOO+++++++++++++++++++++++++++++++++++++++++++++++++++++++++++++++++++++++++++......                                                                           ",
"                                                                                              .......++++++++++++++++++++++++++++++++++++++++++++++++++++++++++++++++++++......------------------------------------------------------------------------------------------------------------------------------------------------------------*******OOOOOO+++++++++++++++++++++++++++++++++++++++++++++++++++++++++++++++++++++++++++......                                                                           ",
"                                                                                              .......++++++++++++++++++++++++++++++++++++++++++++++++++++++++++++++++++++......------------------------------------------------------------------------------------------------------------------------------------------------------------*******OOOOOO+++++++++++++++++++++++++++++++++++++++++++++++++++++++++++++++++++++++++++......                                                                           ",
"                                                                                              .......++++++++++++++++++++++++++++++++++++++++++++++++++++++++++++++++++++......------------------------------------------------------------------------------------------------------------------------------------------------------------*******OOOOOO+++++++++++++++++++++++++++++++++++++++++++++++++++++++++++++++++++++++++++......                                                                           ",
"                                                                                              .......++++++++++++++++++++++++++++++++++++++++++++++++++++++++++++++++++++......------------------------------------------------------------------------------------------------------------------------------------------------------------*******OOOOOO+++++++++++++++++++++++++++++++++++++++++++++++++++++++++++++++++++++++++++......                                                                           ",
"                                                                                              .......++++++++++++++++++++++++++++++++++++++++++++++++++++++++++++++++++++......------------------------------------------------------------------------------------------------------------------------------------------------------------*******OOOOOO+++++++++++++++++++++++++++++++++++++++++++++++++++++++++++++++++++++++++++......                                                                           ",
"                                                                                                     .......++++++++++++++++++++++++++++++++++++++++++++++++++++++.......-------------------------------------------------------------------------------------------------------------------------------------------------------------------------------OOOOOOO+++++++++++++++++++++++++++++++++++++++++++++++++++++++++++++OOOOOOO++++++                                                                           ",
"                                                                                                     .......++++++++++++++++++++++++++++++++++++++++++++++++++++++.......-------------------------------------------------------------------------------------------------------------------------------------------------------------------------------OOOOOOO+++++++++++++++++++++++++++++++++++++++++++++++++++++++++++++OOOOOOO++++++                                                                           ",
"                                                                                                     .......++++++++++++++++++++++++++++++++++++++++++++++++++++++.......-------------------------------------------------------------------------------------------------------------------------------------------------------------------------------OOOOOOO+++++++++++++++++++++++++++++++++++++++++++++++++++++++++++++OOOOOOO++++++                                                                           ",
"                                                                                                     .......++++++++++++++++++++++++++++++++++++++++++++++++++++++.......-------------------------------------------------------------------------------------------------------------------------------------------------------------------------------OOOOOOO+++++++++++++++++++++++++++++++++++++++++++++++++++++++++++++OOOOOOO++++++                                                                           ",
"                                                                                                     .......++++++++++++++++++++++++++++++++++++++++++++++++++++++.......-------------------------------------------------------------------------------------------------------------------------------------------------------------------------------OOOOOOO+++++++++++++++++++++++++++++++++++++++++++++++++++++++++++++OOOOOOO++++++                                                                           ",
"                                                                                                     .......++++++++++++++++++++++++++++++++++++++++++++++++++++++.......-------------------------------------------------------------------------------------------------------------------------------------------------------------------------------OOOOOOO+++++++++++++++++++++++++++++++++++++++++++++++++++++++++++++OOOOOOO++++++                                                                           ",
"                                                                                                     .......++++++++++++++++++++++++++++++++++++++++++++++++++++++.......-------------------------------------------------------------------------------------------------------------------------------------------------------------------------------OOOOOOO+++++++++++++++++++++++++++++++++++++++++++++++++++++++++++++OOOOOOO++++++                                                                           ",
"                                                                                                            .......++++++++++++++++++++++++++++++++++++++++.......---------------------------------------------------------------------------------------------------------------------------------------------------------------------------------------------OOOOOOO+++++++++++++++++++++++++++++++++++++++++++++++OOOOOOO+++++++OOOOOO.......                                                                    ",
"                                                                                                            .......++++++++++++++++++++++++++++++++++++++++.......---------------------------------------------------------------------------------------------------------------------------------------------------------------------------------------------OOOOOOO+++++++++++++++++++++++++++++++++++++++++++++++OOOOOOO+++++++OOOOOO.......                                                                    ",
"                                                                                                            .......++++++++++++++++++++++++++++++++++++++++.......---------------------------------------------------------------------------------------------------------------------------------------------------------------------------------------------OOOOOOO+++++++++++++++++++++++++++++++++++++++++++++++OOOOOOO+++++++OOOOOO.......                                                                    ",
"                                                                                                            .......++++++++++++++++++++++++++++++++++++++++.......---------------------------------------------------------------------------------------------------------------------------------------------------------------------------------------------OOOOOOO+++++++++++++++++++++++++++++++++++++++++++++++OOOOOOO+++++++OOOOOO.......                                                                    ",
"                                                                                                            .......++++++++++++++++++++++++++++++++++++++++.......---------------------------------------------------------------------------------------------------------------------------------------------------------------------------------------------OOOOOOO+++++++++++++++++++++++++++++++++++++++++++++++OOOOOOO+++++++OOOOOO.......                                                                    ",
"                                                                                                            .......++++++++++++++++++++++++++++++++++++++++.......---------------------------------------------------------------------------------------------------------------------------------------------------------------------------------------------OOOOOOO+++++++++++++++++++++++++++++++++++++++++++++++OOOOOOO+++++++OOOOOO.......                                                                    ",
"                                                                                                                   ......+++++++++++++++++++++++++++.......------------------------------------------------------------------------------------------------------------------------------------------------------------------------------------------------------------------+++++++++++++++++++++++++++++++++++++++++++++++++++++++++++++++++++.......                                                             ",
"                                                                                                                   ......+++++++++++++++++++++++++++.......------------------------------------------------------------------------------------------------------------------------------------------------------------------------------------------------------------------+++++++++++++++++++++++++++++++++++++++++++++++++++++++++++++++++++.......                                                             ",
"                                                                                                                   ......+++++++++++++++++++++++++++.......------------------------------------------------------------------------------------------------------------------------------------------------------------------------------------------------------------------+++++++++++++++++++++++++++++++++++++++++++++++++++++++++++++++++++.......                                                             ",
"                                                                                                                   ......+++++++++++++++++++++++++++.......------------------------------------------------------------------------------------------------------------------------------------------------------------------------------------------------------------------+++++++++++++++++++++++++++++++++++++++++++++++++++++++++++++++++++.......                                                             ",
"                                                                                                                   ......+++++++++++++++++++++++++++.......------------------------------------------------------------------------------------------------------------------------------------------------------------------------------------------------------------------+++++++++++++++++++++++++++++++++++++++++++++++++++++++++++++++++++.......                                                             ",
"                                                                                                                   ......+++++++++++++++++++++++++++.......------------------------------------------------------------------------------------------------------------------------------------------------------------------------------------------------------------------+++++++++++++++++++++++++++++++++++++++++++++++++++++++++++++++++++.......                                                             ",
"                                                                                                                   ......+++++++++++++++++++++++++++.......------------------------------------------------------------------------------------------------------------------------------------------------------------------------------------------------------------------+++++++++++++++++++++++++++++++++++++++++++++++++++++++++++++++++++.......                                                             ",
"                                                                                                                   .............++++++++++++++......-------------------------------------------------------------------------------------------------------------------------------------------------------------------------------------------------------------------------OOOOOO+++++++++++++++++++++++++++++++++++++++++++++++++++++++++++++OOOOOOO.......                                                      ",
"                                                                                                                   .............++++++++++++++......-------------------------------------------------------------------------------------------------------------------------------------------------------------------------------------------------------------------------OOOOOO+++++++++++++++++++++++++++++++++++++++++++++++++++++++++++++OOOOOOO.......                                                      ",
"                                                                                                                   .............++++++++++++++......-------------------------------------------------------------------------------------------------------------------------------------------------------------------------------------------------------------------------OOOOOO+++++++++++++++++++++++++++++++++++++++++++++++++++++++++++++OOOOOOO.......                                                      ",
"                                                                                                                   .............++++++++++++++......-------------------------------------------------------------------------------------------------------------------------------------------------------------------------------------------------------------------------OOOOOO+++++++++++++++++++++++++++++++++++++++++++++++++++++++++++++OOOOOOO.......                                                      ",
"                                                                                                                   .............++++++++++++++......-------------------------------------------------------------------------------------------------------------------------------------------------------------------------------------------------------------------------OOOOOO+++++++++++++++++++++++++++++++++++++++++++++++++++++++++++++OOOOOOO.......                                                      ",
"                                                                                                                   .............++++++++++++++......-------------------------------------------------------------------------------------------------------------------------------------------------------------------------------------------------------------------------OOOOOO+++++++++++++++++++++++++++++++++++++++++++++++++++++++++++++OOOOOOO.......                                                      ",
"                                                                                                                   .............++++++++++++++......-------------------------------------------------------------------------------------------------------------------------------------------------------------------------------------------------------------------------OOOOOO+++++++++++++++++++++++++++++++++++++++++++++++++++++++++++++OOOOOOO.......                                                      ",
"                                                                                                                                .......+++++++......-------------------------------------------------------------------------------------------------------------------------------------------------------------------------------------------------------------------------------OOOOOOO+++++++++++++++++++++++++++++++++++++++++++++++OOOOOOO+++++++..............                                               ",
"                                                                                                                                .......+++++++......-------------------------------------------------------------------------------------------------------------------------------------------------------------------------------------------------------------------------------OOOOOOO+++++++++++++++++++++++++++++++++++++++++++++++OOOOOOO+++++++..............                                               ",
"                                                                                                                                .......+++++++......-------------------------------------------------------------------------------------------------------------------------------------------------------------------------------------------------------------------------------OOOOOOO+++++++++++++++++++++++++++++++++++++++++++++++OOOOOOO+++++++..............                                               ",
"                                                                                                                                .......+++++++......-------------------------------------------------------------------------------------------------------------------------------------------------------------------------------------------------------------------------------OOOOOOO+++++++++++++++++++++++++++++++++++++++++++++++OOOOOOO+++++++..............                                               ",
"                                                                                                                                .......+++++++......-------------------------------------------------------------------------------------------------------------------------------------------------------------------------------------------------------------------------------OOOOOOO+++++++++++++++++++++++++++++++++++++++++++++++OOOOOOO+++++++..............                                               ",
"                                                                                                                                .......+++++++......-------------------------------------------------------------------------------------------------------------------------------------------------------------------------------------------------------------------------------OOOOOOO+++++++++++++++++++++++++++++++++++++++++++++++OOOOOOO+++++++..............                                               ",
"                                                                                                                                .......+++++++......-------------------------------------------------------------------------------------------------------------------------------------------------------------------------------------------------------------------------------OOOOOOO+++++++++++++++++++++++++++++++++++++++++++++++OOOOOOO+++++++..............                                               ",
"                                                                                                                                       .......-------------------------------------------------------------------------------------------------------------------------------------------------------------------------------------------------------------------------------------OOOOOOO+++++++++++++++++++++++++++++++++++++++++OOOOOOOOOOOOO+++++++OOOOOOO.......                                               ",
"                                                                                                                                       .......-------------------------------------------------------------------------------------------------------------------------------------------------------------------------------------------------------------------------------------OOOOOOO+++++++++++++++++++++++++++++++++++++++++OOOOOOOOOOOOO+++++++OOOOOOO.......                                               ",
"                                                                                                                                       .......-------------------------------------------------------------------------------------------------------------------------------------------------------------------------------------------------------------------------------------OOOOOOO+++++++++++++++++++++++++++++++++++++++++OOOOOOOOOOOOO+++++++OOOOOOO.......                                               ",
"                                                                                                                                       .......-------------------------------------------------------------------------------------------------------------------------------------------------------------------------------------------------------------------------------------OOOOOOO+++++++++++++++++++++++++++++++++++++++++OOOOOOOOOOOOO+++++++OOOOOOO.......                                               ",
"                                                                                                                                       .......-------------------------------------------------------------------------------------------------------------------------------------------------------------------------------------------------------------------------------------OOOOOOO+++++++++++++++++++++++++++++++++++++++++OOOOOOOOOOOOO+++++++OOOOOOO.......                                               ",
"                                                                                                                                       .......-------------------------------------------------------------------------------------------------------------------------------------------------------------------------------------------------------------------------------------OOOOOOO+++++++++++++++++++++++++++++++++++++++++OOOOOOOOOOOOO+++++++OOOOOOO.......                                               ",
"                                                                                                                                       .......--------------------------------------------------------------------------------------------------------------------------------------------------------------------------------------------------------------------------------------======OOOOOOO+++++++++++++++++++++++++++OOOOOOOOOOOOOOOOOOOOOOOOOOOOOOOOOOOOOOOOO......                                         ",
"                                                                                                                                       .......--------------------------------------------------------------------------------------------------------------------------------------------------------------------------------------------------------------------------------------======OOOOOOO+++++++++++++++++++++++++++OOOOOOOOOOOOOOOOOOOOOOOOOOOOOOOOOOOOOOOOO......                                         ",
"                                                                                                                                       .......--------------------------------------------------------------------------------------------------------------------------------------------------------------------------------------------------------------------------------------======OOOOOOO+++++++++++++++++++++++++++OOOOOOOOOOOOOOOOOOOOOOOOOOOOOOOOOOOOOOOOO......                                         ",
"                                                                                                                                       .......--------------------------------------------------------------------------------------------------------------------------------------------------------------------------------------------------------------------------------------======OOOOOOO+++++++++++++++++++++++++++OOOOOOOOOOOOOOOOOOOOOOOOOOOOOOOOOOOOOOOOO......                                         ",
"                                                                                                                                       .......--------------------------------------------------------------------------------------------------------------------------------------------------------------------------------------------------------------------------------------======OOOOOOO+++++++++++++++++++++++++++OOOOOOOOOOOOOOOOOOOOOOOOOOOOOOOOOOOOOOOOO......                                         ",
"                                                                                                                                       .......--------------------------------------------------------------------------------------------------------------------------------------------------------------------------------------------------------------------------------------======OOOOOOO+++++++++++++++++++++++++++OOOOOOOOOOOOOOOOOOOOOOOOOOOOOOOOOOOOOOOOO......                                         ",
"                                                                                                                                       .......--------------------------------------------------------------------------------------------------------------------------------------------------------------------------------------------------------------------------------------======OOOOOOO+++++++++++++++++++++++++++OOOOOOOOOOOOOOOOOOOOOOOOOOOOOOOOOOOOOOOOO......                                         ",
"                                                                                                                                .......---------------------------------------------------------------------------------------------------------------------------------------------------------------------------------------------------------------------------------------------------OOOOOOO++++++++++++++++++++OOOOOOOOOOOOOOOOOOOOOOOOOOOOOOOOOOOOOOOOOOOOOOOO......                                         ",
"                                                                                                                                .......---------------------------------------------------------------------------------------------------------------------------------------------------------------------------------------------------------------------------------------------------OOOOOOO++++++++++++++++++++OOOOOOOOOOOOOOOOOOOOOOOOOOOOOOOOOOOOOOOOOOOOOOOO......                                         ",
"                                                                                                                                .......---------------------------------------------------------------------------------------------------------------------------------------------------------------------------------------------------------------------------------------------------OOOOOOO++++++++++++++++++++OOOOOOOOOOOOOOOOOOOOOOOOOOOOOOOOOOOOOOOOOOOOOOOO......                                         ",
"                                                                                                                                .......---------------------------------------------------------------------------------------------------------------------------------------------------------------------------------------------------------------------------------------------------OOOOOOO++++++++++++++++++++OOOOOOOOOOOOOOOOOOOOOOOOOOOOOOOOOOOOOOOOOOOOOOOO......                                         ",
"                                                                                                                                .......---------------------------------------------------------------------------------------------------------------------------------------------------------------------------------------------------------------------------------------------------OOOOOOO++++++++++++++++++++OOOOOOOOOOOOOOOOOOOOOOOOOOOOOOOOOOOOOOOOOOOOOOOO......                                         ",
"                                                                                                                                .......---------------------------------------------------------------------------------------------------------------------------------------------------------------------------------------------------------------------------------------------------OOOOOOO++++++++++++++++++++OOOOOOOOOOOOOOOOOOOOOOOOOOOOOOOOOOOOOOOOOOOOOOOO......                                         ",
"                                                                                                                                .......---------------------------------------------------------------------------------------------------------------------------------------------------------------------------------------------------------------------------------------------------OOOOOOO++++++++++++++++++++OOOOOOOOOOOOOOOOOOOOOOOOOOOOOOOOOOOOOOOOOOOOOOOO......                                         ",
"                                                                                                                                .......---------------------------------------------------------------------------------------------------------------------------------------------------------------------------------------------------------------------------------------------------OOOOOOO+++++++OOOOOOOOOOOOOOOOOOOOOOOOOOOOOOOOOOOOOOOOOOOOOOOOOOOOOOOOOOOOO......                                         ",
"                                                                                                                                .......---------------------------------------------------------------------------------------------------------------------------------------------------------------------------------------------------------------------------------------------------OOOOOOO+++++++OOOOOOOOOOOOOOOOOOOOOOOOOOOOOOOOOOOOOOOOOOOOOOOOOOOOOOOOOOOOO......                                         ",
"                                                                                                                                .......---------------------------------------------------------------------------------------------------------------------------------------------------------------------------------------------------------------------------------------------------OOOOOOO+++++++OOOOOOOOOOOOOOOOOOOOOOOOOOOOOOOOOOOOOOOOOOOOOOOOOOOOOOOOOOOOO......                                         ",
"                                                                                                                                .......---------------------------------------------------------------------------------------------------------------------------------------------------------------------------------------------------------------------------------------------------OOOOOOO+++++++OOOOOOOOOOOOOOOOOOOOOOOOOOOOOOOOOOOOOOOOOOOOOOOOOOOOOOOOOOOOO......                                         ",
"                                                                                                                                .......---------------------------------------------------------------------------------------------------------------------------------------------------------------------------------------------------------------------------------------------------OOOOOOO+++++++OOOOOOOOOOOOOOOOOOOOOOOOOOOOOOOOOOOOOOOOOOOOOOOOOOOOOOOOOOOOO......                                         ",
"                                                                                                                                .......---------------------------------------------------------------------------------------------------------------------------------------------------------------------------------------------------------------------------------------------------OOOOOOO+++++++OOOOOOOOOOOOOOOOOOOOOOOOOOOOOOOOOOOOOOOOOOOOOOOOOOOOOOOOOOOOO......                                         ",
"                                                                                                                                .......---------------------------------------------------------------------------------------------------------------------------------------------------------------------------------------------------------------------------------------------------OOOOOOO+++++++OOOOOOOOOOOOOOOOOOOOOOOOOOOOOOOOOOOOOOOOOOOOOOOOOOOOOOOOOOOOO......                                         ",
"                                                                                                                                .......----------------------------------------------------------------------------------------------------------------------------------------------------------------------------------------------------------------------------------------------------------OOOOOOOOOOOOOOOOOOOOOOOOOOOOOOOOOOOOOOOOOOOOOOOOOOOOOOOOOOOOOOOOOOOOOOOOOO.......                                  ",
"                                                                                                                                .......----------------------------------------------------------------------------------------------------------------------------------------------------------------------------------------------------------------------------------------------------------OOOOOOOOOOOOOOOOOOOOOOOOOOOOOOOOOOOOOOOOOOOOOOOOOOOOOOOOOOOOOOOOOOOOOOOOOO.......                                  ",
"                                                                                                                                .......----------------------------------------------------------------------------------------------------------------------------------------------------------------------------------------------------------------------------------------------------------OOOOOOOOOOOOOOOOOOOOOOOOOOOOOOOOOOOOOOOOOOOOOOOOOOOOOOOOOOOOOOOOOOOOOOOOOO.......                                  ",
"                                                                                                                                .......----------------------------------------------------------------------------------------------------------------------------------------------------------------------------------------------------------------------------------------------------------OOOOOOOOOOOOOOOOOOOOOOOOOOOOOOOOOOOOOOOOOOOOOOOOOOOOOOOOOOOOOOOOOOOOOOOOOO.......                                  ",
"                                                                                                                                .......----------------------------------------------------------------------------------------------------------------------------------------------------------------------------------------------------------------------------------------------------------OOOOOOOOOOOOOOOOOOOOOOOOOOOOOOOOOOOOOOOOOOOOOOOOOOOOOOOOOOOOOOOOOOOOOOOOOO.......                                  ",
"                                                                                                                                .......----------------------------------------------------------------------------------------------------------------------------------------------------------------------------------------------------------------------------------------------------------OOOOOOOOOOOOOOOOOOOOOOOOOOOOOOOOOOOOOOOOOOOOOOOOOOOOOOOOOOOOOOOOOOOOOOOOOO.......                                  ",
"                                                                                                                                .......----------------------------------------------------------------------------------------------------------------------------------------------------------------------------------------------------------------------------------------------------------OOOOOOOOOOOOOOOOOOOOOOOOOOOOOOOOOOOOOOOOOOOOOOOOOOOOOOOOOOOOOOOOOOOOOOOOOO.......                                  ",
"                                                                                                                         .......----------------------------------------------------------------------------------------------------------------------------------------------------------------------------------------------------------------------------------------------------------*******OOOOOOOOOOOOOOOOOOOOOOOOOOOOOOOOOOOOOOOOOOOOOOOOOOOOOOOOOOOOOOOOOOOOOOOOOO.......                                  ",
"                                                                                                                         .......----------------------------------------------------------------------------------------------------------------------------------------------------------------------------------------------------------------------------------------------------------*******OOOOOOOOOOOOOOOOOOOOOOOOOOOOOOOOOOOOOOOOOOOOOOOOOOOOOOOOOOOOOOOOOOOOOOOOOO.......                                  ",
"                                                                                                                         .......----------------------------------------------------------------------------------------------------------------------------------------------------------------------------------------------------------------------------------------------------------*******OOOOOOOOOOOOOOOOOOOOOOOOOOOOOOOOOOOOOOOOOOOOOOOOOOOOOOOOOOOOOOOOOOOOOOOOOO.......                                  ",
"                                                                                                                         .......----------------------------------------------------------------------------------------------------------------------------------------------------------------------------------------------------------------------------------------------------------*******OOOOOOOOOOOOOOOOOOOOOOOOOOOOOOOOOOOOOOOOOOOOOOOOOOOOOOOOOOOOOOOOOOOOOOOOOO.......                                  ",
"                                                                                                                         .......----------------------------------------------------------------------------------------------------------------------------------------------------------------------------------------------------------------------------------------------------------*******OOOOOOOOOOOOOOOOOOOOOOOOOOOOOOOOOOOOOOOOOOOOOOOOOOOOOOOOOOOOOOOOOOOOOOOOOO.......                                  ",
"                                                                                                                         .......----------------------------------------------------------------------------------------------------------------------------------------------------------------------------------------------------------------------------------------------------------*******OOOOOOOOOOOOOOOOOOOOOOOOOOOOOOOOOOOOOOOOOOOOOOOOOOOOOOOOOOOOOOOOOOOOOOOOOO.......                                  ",
"                                                                                                                         .......---------------------------------------------------------------------------------------------------------------------------------------------------------------------------------------------------------------------------------------------------*********************OOOOOOOOOOOOOOOOOOOOOOOOOOOOOOOOOOOOOOOOOOOOOOOOOOOOOOOOOOOOOOOOOOO.......                                  ",
"                                                                                                                         .......---------------------------------------------------------------------------------------------------------------------------------------------------------------------------------------------------------------------------------------------------*********************OOOOOOOOOOOOOOOOOOOOOOOOOOOOOOOOOOOOOOOOOOOOOOOOOOOOOOOOOOOOOOOOOOO.......                                  ",
"                                                                                                                         .......---------------------------------------------------------------------------------------------------------------------------------------------------------------------------------------------------------------------------------------------------*********************OOOOOOOOOOOOOOOOOOOOOOOOOOOOOOOOOOOOOOOOOOOOOOOOOOOOOOOOOOOOOOOOOOO.......                                  ",
"                                                                                                                         .......---------------------------------------------------------------------------------------------------------------------------------------------------------------------------------------------------------------------------------------------------*********************OOOOOOOOOOOOOOOOOOOOOOOOOOOOOOOOOOOOOOOOOOOOOOOOOOOOOOOOOOOOOOOOOOO.......                                  ",
"                                                                                                                         .......---------------------------------------------------------------------------------------------------------------------------------------------------------------------------------------------------------------------------------------------------*********************OOOOOOOOOOOOOOOOOOOOOOOOOOOOOOOOOOOOOOOOOOOOOOOOOOOOOOOOOOOOOOOOOOO.......                                  ",
"                                                                                                                         .......---------------------------------------------------------------------------------------------------------------------------------------------------------------------------------------------------------------------------------------------------*********************OOOOOOOOOOOOOOOOOOOOOOOOOOOOOOOOOOOOOOOOOOOOOOOOOOOOOOOOOOOOOOOOOOO.......                                  ",
"                                                                                                                         .......---------------------------------------------------------------------------------------------------------------------------------------------------------------------------------------------------------------------------------------------------*********************OOOOOOOOOOOOOOOOOOOOOOOOOOOOOOOOOOOOOOOOOOOOOOOOOOOOOOOOOOOOOOOOOOO.......                                  ",
"                                                                                                                         .......-=======-------------------------------------------------------------------------------------------------------------------------------------------------------------------------------------------------------------------------------------------*********************OOOOOOOOOOOOOOOOOOOOOOOOOOOOOOOOOOOOOOOOOOOOOOOOOOOOOOOOOOOOOOOOOOO.......                                  ",
"                                                                                                                         .......-=======-------------------------------------------------------------------------------------------------------------------------------------------------------------------------------------------------------------------------------------------*********************OOOOOOOOOOOOOOOOOOOOOOOOOOOOOOOOOOOOOOOOOOOOOOOOOOOOOOOOOOOOOOOOOOO.......                                  ",
"                                                                                                                         .......-=======-------------------------------------------------------------------------------------------------------------------------------------------------------------------------------------------------------------------------------------------*********************OOOOOOOOOOOOOOOOOOOOOOOOOOOOOOOOOOOOOOOOOOOOOOOOOOOOOOOOOOOOOOOOOOO.......                                  ",
"                                                                                                                         .......-=======-------------------------------------------------------------------------------------------------------------------------------------------------------------------------------------------------------------------------------------------*********************OOOOOOOOOOOOOOOOOOOOOOOOOOOOOOOOOOOOOOOOOOOOOOOOOOOOOOOOOOOOOOOOOOO.......                                  ",
"                                                                                                                         .......-=======-------------------------------------------------------------------------------------------------------------------------------------------------------------------------------------------------------------------------------------------*********************OOOOOOOOOOOOOOOOOOOOOOOOOOOOOOOOOOOOOOOOOOOOOOOOOOOOOOOOOOOOOOOOOOO.......                                  ",
"                                                                                                                         .......-=======-------------------------------------------------------------------------------------------------------------------------------------------------------------------------------------------------------------------------------------------*********************OOOOOOOOOOOOOOOOOOOOOOOOOOOOOOOOOOOOOOOOOOOOOOOOOOOOOOOOOOOOOOOOOOO.......                                  ",
"                                                                                                                         .......-=======-------------------------------------------------------------------------------------------------------------------------------------------------------------------------------------------------------------------------------------------*********************OOOOOOOOOOOOOOOOOOOOOOOOOOOOOOOOOOOOOOOOOOOOOOOOOOOOOOOOOOOOOOOOOOO.......                                  ",
"                                                                                                                         .......-=======-----------------------------------------------------------------------------------------------------------------------------------------------------------------------------------------------------------------=======-=======-====***************************OOOOOOOOOOOOOOOOOOOOOOOOOOOOOOOOOOOOOOOOOOOOOOOOOOOOOOOOOOOOOOOOOOOOOOOOOO.......                           ",
"                                                                                                                         .......-=======-----------------------------------------------------------------------------------------------------------------------------------------------------------------------------------------------------------------=======-=========-==***************************OOOOOOOOOOOOOOOOOOOOOOOOOOOOOOOOOOOOOOOOOOOOOOOOOOOOOOOOOOOOOOOOOOOOOOOOOO.......                           ",
"                                                                                                                         .......-=======------------------------------------------------------------------------------------------------------------------------------------------------------------------------------------------------------------=----=======-==========-=***************************OOOOOOOOOOOOOOOOOOOOOOOOOOOOOOOOOOOOOOOOOOOOOOOOOOOOOOOOOOOOOOOOOOOOOOOOOO.......                           ",
"                                                                                                                         .......-=======-------------------------------------------------------------------------------------------------------------------------------------------------------------------------------------------------------------=---========-===========***************************OOOOOOOOOOOOOOOOOOOOOOOOOOOOOOOOOOOOOOOOOOOOOOOOOOOOOOOOOOOOOOOOOOOOOOOOOO.......                           ",
"                                                                                                                         .......-=======-------------------------------------------------------------------------------------------------------------------------------------------------------------------------------------------------------=---------=======-============***************************OOOOOOOOOOOOOOOOOOOOOOOOOOOOOOOOOOOOOOOOOOOOOOOOOOOOOOOOOOOOOOOOOOOOOOOOOO.......                           ",
"                                                                                                                         .......-=====--------------------------------------------------------------------------------------------------------------------------------------------------------------------------------------------------------=----------========-===========***************************OOOOOOOOOOOOOOOOOOOOOOOOOOOOOOOOOOOOOOOOOOOOOOOOOOOOOOOOOOOOOOOOOOOOOOOOOO.......                           ",
"                                                                                                                         .......-=======--------------------------------------------------------------------------------------------------------------------------------------------------------------------------------------------------------=--------========-===========***************************OOOOOOOOOOOOOOOOOOOOOOOOOOOOOOOOOOOOOOOOOOOOOOOOOOOOOOOOOOOOOOOOOOOOOOOOOO.......                           ",
"                                                                                                                   ......*******-=======-----------------------------------------------------------------------------------------------------------------------------------------------------------------------------------------------------------=======-====*****************************************OOOOOOOOOOOOOOOOOOOOOOOOOOOOOOOOOOOOOOOOOOOOOOOOOOOOOOOOOOOOOOOOOOOOOOOOOO.......                           ",
"                                                                                                                   ......*******-=======-----------------------------------------------------------------------------------------------------------------------------------------------------------------------------------------------------------=======-====*****************************************OOOOOOOOOOOOOOOOOOOOOOOOOOOOOOOOOOOOOOOOOOOOOOOOOOOOOOOOOOOOOOOOOOOOOOOOOO.......                           ",
"                                                                                                                   ......*******-=======-----------------------------------------------------------------------------------------------------------------------------------------------------------------------------------------------------------=======-====*****************************************OOOOOOOOOOOOOOOOOOOOOOOOOOOOOOOOOOOOOOOOOOOOOOOOOOOOOOOOOOOOOOOOOOOOOOOOOO.......                           ",
"                                                                                                                   ......*******-=======-----------------------------------------------------------------------------------------------------------------------------------------------------------------------------------------------------------=======-====*****************************************OOOOOOOOOOOOOOOOOOOOOOOOOOOOOOOOOOOOOOOOOOOOOOOOOOOOOOOOOOOOOOOOOOOOOOOOOO.......                           ",
"                                                                                                                   ......*******-=======-----------------------------------------------------------------------------------------------------------------------------------------------------------------------------------------------------------=======-====*****************************************OOOOOOOOOOOOOOOOOOOOOOOOOOOOOOOOOOOOOOOOOOOOOOOOOOOOOOOOOOOOOOOOOOOOOOOOOO.......                           ",
"                                                                                                                   ......*******-=======-----------------------------------------------------------------------------------------------------------------------------------------------------------------------------------------------------------=======-====*****************************************OOOOOOOOOOOOOOOOOOOOOOOOOOOOOOOOOOOOOOOOOOOOOOOOOOOOOOOOOOOOOOOOOOOOOOOOOO.......                           ",
"                                                                                                                   ......**************=======----------------------------------------------------------------------------------------------------------------------------------------------------------------------------------------------=======-====******************************************************OOOOOOOOOOOOOOOOOOOOOOOOOOOOOOOOOOOOOOOOOOOOOOOOOOOOOOOOOOOOOOOOOOOO.......                           ",
"                                                                                                                   ......**************========---------------------------------------------------------------------------------------------------------------------------------------------------------------------------------------------=======-====******************************************************OOOOOOOOOOOOOOOOOOOOOOOOOOOOOOOOOOOOOOOOOOOOOOOOOOOOOOOOOOOOOOOOOOOO.......                           ",
"                                                                                                                   ......**************=======----------------------------------------------------------------------------------------------------------------------------------------------------------------------------------------------========-===******************************************************OOOOOOOOOOOOOOOOOOOOOOOOOOOOOOOOOOOOOOOOOOOOOOOOOOOOOOOOOOOOOOOOOOOO.......                           ",
"                                                                                                                   ......**************========---------------------------------------------------------------------------------------------------------------------------------------------------------------------------------------------=======-====******************************************************OOOOOOOOOOOOOOOOOOOOOOOOOOOOOOOOOOOOOOOOOOOOOOOOOOOOOOOOOOOOOOOOOOOO.......                           ",
"                                                                                                                   ......**************========---------------------------------------------------------------------------------------------------------------------------------------------------------------------------------------------=======-====******************************************************OOOOOOOOOOOOOOOOOOOOOOOOOOOOOOOOOOOOOOOOOOOOOOOOOOOOOOOOOOOOOOOOOOOO.......                           ",
"                                                                                                                   ......**************======-----------------------------------------------------------------------------------------------------------------------------------------------------------------------------------------------========-===******************************************************OOOOOOOOOOOOOOOOOOOOOOOOOOOOOOOOOOOOOOOOOOOOOOOOOOOOOOOOOOOOOOOOOOOO.......                           ",
"                                                                                                                   ......**************========---------------------------------------------------------------------------------------------------------------------------------------------------------------------------------------------=======-====******************************************************OOOOOOOOOOOOOOOOOOOOOOOOOOOOOOOOOOOOOOOOOOOOOOOOOOOOOOOOOOOOOOOOOOOO.......                           ",
"                                                      .............                     ......                     ......*********************=======-------------------------------------------------------------------------------------------------------------------------------------------------------------------------=======-============*********************************.......********************OOOOOOOOOOOOOOOOOOOOOOOOOOOOOOOOOOOOOOOOOOOOOOOOOOOOOOOOOOOOOOOOOOOO.......                           ",
"                                                      .............                     ......                     ......*********************=======-------------------------------------------------------------------------------------------------------------------------------------------------------------------------=======-============*********************************.......********************OOOOOOOOOOOOOOOOOOOOOOOOOOOOOOOOOOOOOOOOOOOOOOOOOOOOOOOOOOOOOOOOOOOO.......                           ",
"                                                      .............                     ......                     ......*********************=======-------------------------------------------------------------------------------------------------------------------------------------------------------------------------=======-============*********************************.......********************OOOOOOOOOOOOOOOOOOOOOOOOOOOOOOOOOOOOOOOOOOOOOOOOOOOOOOOOOOOOOOOOOOOO.......                           ",
"                                                      .............                     ......                     ......*********************=======-------------------------------------------------------------------------------------------------------------------------------------------------------------------------=======-============*********************************.......********************OOOOOOOOOOOOOOOOOOOOOOOOOOOOOOOOOOOOOOOOOOOOOOOOOOOOOOOOOOOOOOOOOOOO.......                           ",
"                                                      .............                     ......                     ......*********************=======-------------------------------------------------------------------------------------------------------------------------------------------------------------------------=======-============*********************************.......********************OOOOOOOOOOOOOOOOOOOOOOOOOOOOOOOOOOOOOOOOOOOOOOOOOOOOOOOOOOOOOOOOOOOO.......                           ",
"                                                      .............                     ......                     ......*********************=======-------------------------------------------------------------------------------------------------------------------------------------------------------------------------========-===========*********************************.......********************OOOOOOOOOOOOOOOOOOOOOOOOOOOOOOOOOOOOOOOOOOOOOOOOOOOOOOOOOOOOOOOOOOOO.......                           ",
"                                                      .............                     ......                     ......*********************=======-------------------------------------------------------------------------------------------------------------------------------------------------------------------------=======-============*********************************.......********************OOOOOOOOOOOOOOOOOOOOOOOOOOOOOOOOOOOOOOOOOOOOOOOOOOOOOOOOOOOOOOOOOOOO.......                           ",
"                                                      .......::::::.......       .......::::::..............       ......***************************=======-=======----------------------------------------------------------------------------------------------------------------------------------------------=======-===========**********************************.......::::::.......********************OOOOOOOOOOOOOO.............OOOOOOOOOOOOOOOOOOOOOOOOOOOOOOOOOOOOOOOOO.......                           ",
"                                                      .......::::::.......       .......::::::..............       ......***************************========-======----------------------------------------------------------------------------------------------------------------------------------------------========-==========**********************************.......::::::.......********************OOOOOOOOOOOOOO.............OOOOOOOOOOOOOOOOOOOOOOOOOOOOOOOOOOOOOOOOO.......                           ",
"                                                      .......::::::.......       .......::::::..............       ......***************************=======-=======----------------------------------------------------------------------------------------------------------------------------------------------=======-===========**********************************.......::::::.......********************OOOOOOOOOOOOOO.............OOOOOOOOOOOOOOOOOOOOOOOOOOOOOOOOOOOOOOOOO.......                           ",
"                                                      .......::::::.......       .......::::::..............       ......***************************=======-=======----------------------------------------------------------------------------------------------------------------------------------------------=======-===========**********************************.......::::::.......********************OOOOOOOOOOOOOO.............OOOOOOOOOOOOOOOOOOOOOOOOOOOOOOOOOOOOOOOOO.......                           ",
"                                                      .......::::::.......       .......::::::..............       ......***************************=======-=======----------------------------------------------------------------------------------------------------------------------------------------------=======-===========**********************************.......::::::.......********************OOOOOOOOOOOOOO.............OOOOOOOOOOOOOOOOOOOOOOOOOOOOOOOOOOOOOOOOO.......                           ",
"                                                      .......::::::.......       .......::::::..............       ......***************************==========-====----------------------------------------------------------------------------------------------------------------------------------------------=========-=========**********************************.......::::::.......********************OOOOOOOOOOOOOO.............OOOOOOOOOOOOOOOOOOOOOOOOOOOOOOOOOOOOOOOOO.......                           ",
"                                                      .......::::::.......       .......::::::..............       ......***************************=======-=======----------------------------------------------------------------------------------------------------------------------------------------------=======-===========**********************************.......::::::.......********************OOOOOOOOOOOOOO.............OOOOOOOOOOOOOOOOOOOOOOOOOOOOOOOOOOOOOOOOO.......                           ",
"                                                      .......:::::::::::::..............::::::;;;;;;;;;;;;;;.............**********************************=======-============--------------------------------------------------------------------------------------------------------------=======-============-=======-===*****************************************.......::::::.......********************..............;;;;;;;......OOOOOOOOOOOOOOOOOOOOOOOOOOOOOOOOOOOOOOOOO.......                           ",
"                                                      .......:::::::::::::..............::::::;;;;;;;;;;;;;;.............**********************************=======-============-=------------------------------------------------------------------------------------------------------------=======-============-========-==*****************************************.......::::::.......********************..............;;;;;;;......OOOOOOOOOOOOOOOOOOOOOOOOOOOOOOOOOOOOOOOOO.......                           ",
"                                                      .......:::::::::::::..............::::::;;;;;;;;;;;;;;.............**********************************=======-============-=------------------------------------------------------------------------------------------------------------=======-============-=========-=*****************************************.......::::::.......********************..............;;;;;;;......OOOOOOOOOOOOOOOOOOOOOOOOOOOOOOOOOOOOOOOOO.......                           ",
"                                                      .......:::::::::::::..............::::::;;;;;;;;;;;;;;.............**********************************========-============-------------------------------------------------------------------------------------------------------------========-============-==========*****************************************.......::::::.......********************..............;;;;;;;......OOOOOOOOOOOOOOOOOOOOOOOOOOOOOOOOOOOOOOOOO.......                           ",
"                                                      .......:::::::::::::..............::::::;;;;;;;;;;;;;;.............**********************************========-============-------------------------------------------------------------------------------------------------------------========-============-==========*****************************************.......::::::.......********************..............;;;;;;;......OOOOOOOOOOOOOOOOOOOOOOOOOOOOOOOOOOOOOOOOO.......                           ",
"                                                      .......:::::::::::::..............::::::;;;;;;;;;;;;;;.............**********************************=======-============-=------------------------------------------------------------------------------------------------------------=======-============-===========*****************************************.......::::::.......********************..............;;;;;;;......OOOOOOOOOOOOOOOOOOOOOOOOOOOOOOOOOOOOOOOOO.......                           ",
"                                 ............................:::::::::::::ooooooo.......::::::;;;;;;;ooooooo.............*****************************************=======-============-======---------------------------------------------------------------------------========-============-======-=======-===***********************************************.......::::::::::::::::::::....................::::::::::::::;;;;;;;......OOOOOOOOOOOOOOOOOOOOOOOOOOOOOOOOOOOOOOOOO.......                           ",
"                                 ............................:::::::::::::ooooooo.......::::::;;;;;;;ooooooo.............*****************************************=======-============-======-=------------------------------------------------------------------------========-============-======-========-===***********************************************.......::::::::::::::::::::....................::::::::::::::;;;;;;;......OOOOOOOOOOOOOOOOOOOOOOOOOOOOOOOOOOOOOOOOO.......                           ",
"                                 ............................:::::::::::::ooooooo.......::::::;;;;;;;ooooooo.............*****************************************=======-============-======-=-------------------------------------------------------------------------=========-============-======-=========-***********************************************.......::::::::::::::::::::....................::::::::::::::;;;;;;;......OOOOOOOOOOOOOOOOOOOOOOOOOOOOOOOOOOOOOOOOO.......                           ",
"                                 ............................:::::::::::::ooooooo.......::::::;;;;;;;ooooooo.............*****************************************=======-============-======-=-------------------------------------------------------------------------=======-============-======-==========-=***********************************************.......::::::::::::::::::::....................::::::::::::::;;;;;;;......OOOOOOOOOOOOOOOOOOOOOOOOOOOOOOOOOOOOOOOOO.......                           ",
"                                 ............................:::::::::::::ooooooo.......::::::;;;;;;;ooooooo.............*****************************************=======-============-======-=-------------------------------------------------------------------------=======-============-======-===========-***********************************************.......::::::::::::::::::::....................::::::::::::::;;;;;;;......OOOOOOOOOOOOOOOOOOOOOOOOOOOOOOOOOOOOOOOOO.......                           ",
"                                 ............................:::::::::::::ooooooo.......::::::;;;;;;;ooooooo.............*****************************************=======-============-======-=-------------------------------------------------------------------------=======-============-======-============***********************************************.......::::::::::::::::::::....................::::::::::::::;;;;;;;......OOOOOOOOOOOOOOOOOOOOOOOOOOOOOOOOOOOOOOOOO.......                           ",
"                                 ............................:::::::::::::ooooooo.......::::::;;;;;;;ooooooo.............*****************************************========-============-======-------------------------------------------------------------------------==========-============-======-==========***********************************************.......::::::::::::::::::::....................::::::::::::::;;;;;;;......OOOOOOOOOOOOOOOOOOOOOOOOOOOOOOOOOOOOOOOOO.......                           ",
"                                 .......::::::::::::::;;;;;;;ooooooooooooo-------.......;;;;;;;;;;;;;.......-------******.......***********************************************=========-============-======-==============-============-======-===============-============-======-========*******************************************************************.......;;;;;;;::::::;;;;;;;.......*******......;;;;;;;:::::::;;;;;;;......OOOOOOOOOOOOOO..............OOOOOOOOOOOOO.......                           ",
"                                 .......::::::::::::::;;;;;;;ooooooooooooo-------.......;;;;;;;;;;;;;.......-------******.......***********************************************-========-============-======-================-============-======-=================-============-======-====*******************************************************************.......;;;;;;;::::::;;;;;;;.......*******......;;;;;;;:::::::;;;;;;;......OOOOOOOOOOOOOO..............OOOOOOOOOOOOO.......                           ",
"                                 .......::::::::::::::;;;;;;;ooooooooooooo-------.......;;;;;;;;;;;;;.......-------******.......***********************************************========-============-======-==================-============-======-===================-============-======-=*******************************************************************.......;;;;;;;::::::;;;;;;;.......*******......;;;;;;;:::::::;;;;;;;......OOOOOOOOOOOOOO..............OOOOOOOOOOOOO.......                           ",
"                                 .......::::::::::::::;;;;;;;ooooooooooooo-------.......;;;;;;;;;;;;;.......-------******.......***********************************************==========-============-======-====================-============-======-=====================-============-==*******************************************************************.......;;;;;;;::::::;;;;;;;.......*******......;;;;;;;:::::::;;;;;;;......OOOOOOOOOOOOOO..............OOOOOOOOOOOOO.......                           ",
"                                 .......::::::::::::::;;;;;;;ooooooooooooo-------.......;;;;;;;;;;;;;.......-------******.......***********************************************========-============-======-======================-============-======-=======================-============-*******************************************************************.......;;;;;;;::::::;;;;;;;.......*******......;;;;;;;:::::::;;;;;;;......OOOOOOOOOOOOOO..............OOOOOOOOOOOOO.......                           ",
"                                 .......::::::::::::::;;;;;;;ooooooooooooo-------.......;;;;;;;;;;;;;.......-------******.......***********************************************========-============-======-========================-============-======-=========================-=========*******************************************************************.......;;;;;;;::::::;;;;;;;.......*******......;;;;;;;:::::::;;;;;;;......OOOOOOOOOOOOOO..............OOOOOOOOOOOOO.......                           ",
"                                 .......::::::::::::::;;;;;;;ooooooooooooo-------.......;;;;;;;;;;;;;.......-------******.......***********************************************=============================================================================================================*******************************************************************.......;;;;;;;::::::;;;;;;;.......*******......;;;;;;;:::::::;;;;;;;......OOOOOOOOOOOOOO..............OOOOOOOOOOOOO.......                           ",
"                                        .......:::::::.......---------------------------ooooooooooooo--------------------*******.......*************************************************************===================================================================*********************************************************************************.......*******XXXXXXXXXXXXXXXXXXXX--------------******.......;;;;;;;;;;;;;;....................:::::::.......OOOOOOOOOOOOO.......                           ",
"                                        .......:::::::.......---------------------------ooooooooooooo--------------------*******.......*************************************************************===================================================================*********************************************************************************.......*******XXXXXXXXXXXXXXXXXXXX--------------******.......;;;;;;;;;;;;;;....................:::::::.......OOOOOOOOOOOOO.......                           ",
"                                        .......:::::::.......---------------------------ooooooooooooo--------------------*******.......*************************************************************===================================================================*********************************************************************************.......*******XXXXXXXXXXXXXXXXXXXX--------------******.......;;;;;;;;;;;;;;....................:::::::.......OOOOOOOOOOOOO.......                           ",
"                                        .......:::::::.......---------------------------ooooooooooooo--------------------*******.......*************************************************************===================================================================*********************************************************************************.......*******XXXXXXXXXXXXXXXXXXXX--------------******.......;;;;;;;;;;;;;;....................:::::::.......OOOOOOOOOOOOO.......                           ",
"                                        .......:::::::.......---------------------------ooooooooooooo--------------------*******.......*************************************************************===================================================================*********************************************************************************.......*******XXXXXXXXXXXXXXXXXXXX--------------******.......;;;;;;;;;;;;;;....................:::::::.......OOOOOOOOOOOOO.......                           ",
"                                        .......:::::::.......---------------------------ooooooooooooo--------------------*******.......*************************************************************===================================================================*********************************************************************************.......*******XXXXXXXXXXXXXXXXXXXX--------------******.......;;;;;;;;;;;;;;....................:::::::.......OOOOOOOOOOOOO.......                           ",
"                                        .......:::::::.......---------------------------ooooooooooooo--------------------*******.......*************************************************************===================================================================*********************************************************************************.......*******XXXXXXXXXXXXXXXXXXXX--------------******.......;;;;;;;;;;;;;;....................:::::::.......OOOOOOOOOOOOO.......                           ",
"                                        .......;;;;;;;.......-------------------------------------------------------------------*******.......****************************************************************************************************************************************************************************************************......-------------------------------------------------------======..............******.......::::::::::::::.......OOOOOOOOOOOOO.......                           ",
"                                        .......;;;;;;;.......-------------------------------------------------------------------*******.......****************************************************************************************************************************************************************************************************......-------------------------------------------------------======..............******.......::::::::::::::.......OOOOOOOOOOOOO.......                           ",
"                                        .......;;;;;;;.......-------------------------------------------------------------------*******.......****************************************************************************************************************************************************************************************************......-------------------------------------------------------======..............******.......::::::::::::::.......OOOOOOOOOOOOO.......                           ",
"                                        .......;;;;;;;.......-------------------------------------------------------------------*******.......****************************************************************************************************************************************************************************************************......-------------------------------------------------------======..............******.......::::::::::::::.......OOOOOOOOOOOOO.......                           ",
"                                        .......;;;;;;;.......-------------------------------------------------------------------*******.......****************************************************************************************************************************************************************************************************......-------------------------------------------------------======..............******.......::::::::::::::.......OOOOOOOOOOOOO.......                           ",
"                                        .......;;;;;;;.......-------------------------------------------------------------------*******.......****************************************************************************************************************************************************************************************************......-------------------------------------------------------======..............******.......::::::::::::::.......OOOOOOOOOOOOO.......                           ",
"                                               .......--------=================================----------------------------------======.......**************************************************************************************************************************************************************************************..............-----------------------------------------===================*******=======*************.......;;;;;;;:::::::.......OOOOOO.......                                  ",
"                                               .......--------================================-----------------------------------======.......**************************************************************************************************************************************************************************************..............-----------------------------------------===================*******=======*************.......;;;;;;;:::::::.......OOOOOO.......                                  ",
"                                               .......--------================================-----------------------------------======.......**************************************************************************************************************************************************************************************..............-----------------------------------------===================*******=======*************.......;;;;;;;:::::::.......OOOOOO.......                                  ",
"                                               .......--------=================================----------------------------------======.......**************************************************************************************************************************************************************************************..............-----------------------------------------===================*******=======*************.......;;;;;;;:::::::.......OOOOOO.......                                  ",
"                                               .......--------=================================----------------------------------======.......**************************************************************************************************************************************************************************************..............-----------------------------------------===================*******=======*************.......;;;;;;;:::::::.......OOOOOO.......                                  ",
"                                               .......--------=================================----------------------------------======.......**************************************************************************************************************************************************************************************..............---------------------------------------=====================*******=======*************.......;;;;;;;:::::::.......OOOOOO.......                                  ",
"                                               .......--------=================================----------------------------------======.......**************************************************************************************************************************************************************************************..............----------------------------------------====================*******=======*************.......;;;;;;;:::::::.......OOOOOO.......                                  ",
"                                               .......-============***************************===============-------------=============*******......********************************************************************************************************************************************************************************.......-----------------------------------============******************************************************.....................OOOOOO.......                                  ",
"                                               .......-============***************************===============------------==============*******......********************************************************************************************************************************************************************************.......----------------------------------=============******************************************************.....................OOOOOO.......                                  ",
"                                               .......-============***************************===============-------------=============*******......********************************************************************************************************************************************************************************.......-----------------------------------============******************************************************.....................OOOOOO.......                                  ",
"                                               .......-============***************************===============-------------=============*******......********************************************************************************************************************************************************************************.......-----------------------------------============******************************************************.....................OOOOOO.......                                  ",
"                                               .......-============***************************===============-------------=============*******......********************************************************************************************************************************************************************************.......-----------------------------------============******************************************************.....................OOOOOO.......                                  ",
"                                               .......-============***************************===============------------==============*******......********************************************************************************************************************************************************************************.......----------------------------------=============******************************************************.....................OOOOOO.......                                  ",
"                                               .......-============***************************===============-------------=============*******......********************************************************************************************************************************************************************************.......-----------------------------------============******************************************************.....................OOOOOO.......                                  ",
"                                               .......-======***********************************************====================**************......*************************************************************************************************************************************************************************..............----------------------------======*********************************************************************************.......OOOOOO.......                                  ",
"                                               .......-======***********************************************====================**************......*************************************************************************************************************************************************************************..............---------------------------=======*********************************************************************************.......OOOOOO.......                                  ",
"                                               .......-======***********************************************====================**************......*************************************************************************************************************************************************************************..............---------------------------=======*********************************************************************************.......OOOOOO.......                                  ",
"                                               .......-======***********************************************====================**************......*************************************************************************************************************************************************************************..............----------------------------======*********************************************************************************.......OOOOOO.......                                  ",
"                                               .......-======***********************************************====================**************......*************************************************************************************************************************************************************************..............----------------------------======*********************************************************************************.......OOOOOO.......                                  ",
"                                               .......-======***********************************************====================**************......*************************************************************************************************************************************************************************..............----------------------------======*********************************************************************************.......OOOOOO.......                                  ",
"                                               .......-======***********************************************====================**************......*************************************************************************************************************************************************************************..............---------------------------=======*********************************************************************************.......OOOOOO.......                                  ",
"                                               .......**********************************************************************************************.......******************************************************************************************************************************************************************.......*******-------------------========***************************XXXXXXXXXXXXXXXXXXXX*****************************************.............                                         ",
"                                               .......**********************************************************************************************.......******************************************************************************************************************************************************************.......*******--------------------=======***************************XXXXXXXXXXXXXXXXXXXX*****************************************.............                                         ",
"                                               .......**********************************************************************************************.......******************************************************************************************************************************************************************.......*******-------------------========***************************XXXXXXXXXXXXXXXXXXXX*****************************************.............                                         ",
"                                               .......**********************************************************************************************.......******************************************************************************************************************************************************************.......*******---------------------======***************************XXXXXXXXXXXXXXXXXXXX*****************************************.............                                         ",
"                                               .......**********************************************************************************************.......******************************************************************************************************************************************************************.......*******---------------------======***************************XXXXXXXXXXXXXXXXXXXX*****************************************.............                                         ",
"                                               .......**********************************************************************************************.......******************************************************************************************************************************************************************.......*******---------------------======***************************XXXXXXXXXXXXXXXXXXXX*****************************************.............                                         ",
"                                                             ......*******XXXXXXXXXXXXXXXXXXXX*************************************************************.......***********************************************************************************************************************************************************.......---------------------======********************XXXXXXXXXXXXXX####################*****************************************.............                                         ",
"                                                             ......*******XXXXXXXXXXXXXXXXXXXX*************************************************************.......***********************************************************************************************************************************************************.......---------------------======********************XXXXXXXXXXXXXX####################*****************************************.............                                         ",
"                                                             ......*******XXXXXXXXXXXXXXXXXXXX*************************************************************.......***********************************************************************************************************************************************************.......--------------------=======********************XXXXXXXXXXXXXX####################*****************************************.............                                         ",
"                                                             ......*******XXXXXXXXXXXXXXXXXXXX*************************************************************.......***********************************************************************************************************************************************************.......---------------------======********************XXXXXXXXXXXXXX####################*****************************************.............                                         ",
"                                                             ......*******XXXXXXXXXXXXXXXXXXXX*************************************************************.......***********************************************************************************************************************************************************.......--------------------=======********************XXXXXXXXXXXXXX####################*****************************************.............                                         ",
"                                                             ......*******XXXXXXXXXXXXXXXXXXXX*************************************************************.......***********************************************************************************************************************************************************.......---------------------======********************XXXXXXXXXXXXXX####################*****************************************.............                                         ",
"                                                             ......*******XXXXXXXXXXXXXXXXXXXX*************************************************************.......***********************************************************************************************************************************************************.......---------------------======********************XXXXXXXXXXXXXX####################*****************************************.............                                         ",
"                                                             ......XXXXXXX####################XXXXXXX******************************************************.......OOOOOOO****************************************************************************************************************************************************.......---------------------======**************XXXXXX##################################XXXXXXX***************************..............                                               ",
"                                                             ......XXXXXXX####################XXXXXXX******************************************************.......OOOOOOO****************************************************************************************************************************************************.......---------------------======**************XXXXXX##################################XXXXXXX***************************..............                                               ",
"                                                             ......XXXXXXX####################XXXXXXX******************************************************.......OOOOOOO****************************************************************************************************************************************************.......---------------------======**************XXXXXX##################################XXXXXXX***************************..............                                               ",
"                                                             ......XXXXXXX####################XXXXXXX******************************************************.......OOOOOOO****************************************************************************************************************************************************.......---------------------======**************XXXXXX##################################XXXXXXX***************************..............                                               ",
"                                                             ......XXXXXXX####################XXXXXXX******************************************************.......OOOOOOO****************************************************************************************************************************************************.......---------------------======**************XXXXXX##################################XXXXXXX***************************..............                                               ",
"                                                             ......XXXXXXX####################XXXXXXX******************************************************.......OOOOOOO****************************************************************************************************************************************************.......-------------------========**************XXXXXX##################################XXXXXXX***************************..............                                               ",
"                                                             ......XXXXXXX####################XXXXXXX******************************************************.......OOOOOOO****************************************************************************************************************************************************.......---------------------======**************XXXXXX##################################XXXXXXX***************************..............                                               ",
"                                                                   .......###########################XXXXXXX***********************************************.......OOOOOOOOOOOOO****************************************************************************************************************************************......----------------------=====**************XXXXXXX########################################XXXXXXX********************..............                                                      ",
"                                                                   .......###########################XXXXXXX***********************************************.......OOOOOOOOOOOOO****************************************************************************************************************************************......----------------------=====**************XXXXXXX########################################XXXXXXX********************..............                                                      ",
"                                                                   .......###########################XXXXXXX***********************************************.......OOOOOOOOOOOOO****************************************************************************************************************************************......---------------------======**************XXXXXXX########################################XXXXXXX********************..............                                                      ",
"                                                                   .......###########################XXXXXXX***********************************************.......OOOOOOOOOOOOO****************************************************************************************************************************************......----------------------=====**************XXXXXXX########################################XXXXXXX********************..............                                                      ",
"                                                                   .......###########################XXXXXXX***********************************************.......OOOOOOOOOOOOO****************************************************************************************************************************************......----------------------=====**************XXXXXXX########################################XXXXXXX********************..............                                                      ",
"                                                                   .......###########################XXXXXXX***********************************************.......OOOOOOOOOOOOO****************************************************************************************************************************************......----------------------=====**************XXXXXXX########################################XXXXXXX********************..............                                                      ",
"                                                                   .......###########################XXXXXXX***********************************************.......OOOOOOOOOOOOO****************************************************************************************************************************************......---------------------======**************XXXXXXX########################################XXXXXXX********************..............                                                      ",
"                                                                   .......###########################XXXXXXX***********************************************.......OOOOOOOOOOOOOOOOOOOO***************************************************************************************************************************************---------------======*************XXXXXXX###############################################XXXXXXX********************.......                                                             ",
"                                                                   .......###########################XXXXXXX***********************************************.......OOOOOOOOOOOOOOOOOOOO***************************************************************************************************************************************--------------=======*************XXXXXXX###############################################XXXXXXX********************.......                                                             ",
"                                                                   .......###########################XXXXXXX***********************************************.......OOOOOOOOOOOOOOOOOOOO***************************************************************************************************************************************---------------======*************XXXXXXX###############################################XXXXXXX********************.......                                                             ",
"                                                                   .......###########################XXXXXXX***********************************************.......OOOOOOOOOOOOOOOOOOOO***************************************************************************************************************************************--------------=======*************XXXXXXX###############################################XXXXXXX********************.......                                                             ",
"                                                                   .......###########################XXXXXXX***********************************************.......OOOOOOOOOOOOOOOOOOOO***************************************************************************************************************************************---------------======*************XXXXXXX###############################################XXXXXXX********************.......                                                             ",
"                                                                   .......###########################XXXXXXX***********************************************.......OOOOOOOOOOOOOOOOOOOO***************************************************************************************************************************************---------------======*************XXXXXXX###############################################XXXXXXX********************.......                                                             ",
"                                                                          .......###########################XXXXXXX*********************************.......OOOOOOOOOOOOOO...........................$$$$$$$*********************************-------*******=------******=------*******=------******=------********************.......-------=======*************XXXXXXX###############################################XXXXXXX*************.......                                                                    ",
"                                                                          .......###########################XXXXXXX*********************************.......OOOOOOOOOOOOOO...........................$$$$$$$*********************************-------*******=------******-------*******=------******=------********************.......-------=======*************XXXXXXX###############################################XXXXXXX*************.......                                                                    ",
"                                                                          .......###########################XXXXXXX*********************************.......OOOOOOOOOOOOOO...........................$$$$$$$*********************************-------*******=------******=------*******=------******-------********************.......-------=======*************XXXXXXX###############################################XXXXXXX*************.......                                                                    ",
"                                                                          .......###########################XXXXXXX*********************************.......OOOOOOOOOOOOOO...........................$$$$$$$*********************************-------*******=------******=------*******=------******=------********************.......-------=======*************XXXXXXX###############################################XXXXXXX*************.......                                                                    ",
"                                                                          .......###########################XXXXXXX*********************************.......OOOOOOOOOOOOOO...........................$$$$$$$*********************************-------*******=------******-------*******-------******-------********************.......-------=======*************XXXXXXX###############################################XXXXXXX*************.......                                                                    ",
"                                                                          .......###########################XXXXXXX*********************************.......OOOOOOOOOOOOOO...........................$$$$$$$*********************************-------*******=------******-------*******-------******-------********************.......------========*************XXXXXXX###############################################XXXXXXX*************.......                                                                    ",
"                                                                          .......###########################XXXXXXX*********************************.......OOOOOOOOOOOOOO...........................$$$$$$$*********************************-------*******-------******-------*******-------******=------********************.......--------======*************XXXXXXX###############################################XXXXXXX*************.......                                                                    ",
"                                                                                 .......####################XXXXXXX*********************************.....................                           ........................................$$$$$$$-------*******------*******=------*******------*******...........................--------======********************XXXXXXX###########################XXXXXXXXXXXXX********************.......                                                                    ",
"                                                                                 .......####################XXXXXXX*********************************.....................                           ........................................$$$$$$$-------*******------*******-------*******------*******...........................--------======********************XXXXXXX###########################XXXXXXXXXXXXX********************.......                                                                    ",
"                                                                                 .......####################XXXXXXX*********************************.....................                           ........................................$$$$$$$-------*******------*******-------*******------*******...........................--------======********************XXXXXXX###########################XXXXXXXXXXXXX********************.......                                                                    ",
"                                                                                 .......####################XXXXXXX*********************************.....................                           ........................................$$$$$$$-------*******------*******-------*******------*******...........................--------======********************XXXXXXX###########################XXXXXXXXXXXXX********************.......                                                                    ",
"                                                                                 .......####################XXXXXXX*********************************.....................                           ........................................$$$$$$$-------*******------*******-------*******------*******...........................------========********************XXXXXXX###########################XXXXXXXXXXXXX********************.......                                                                    ",
"                                                                                 .......####################XXXXXXX*********************************.....................                           ........................................$$$$$$$-------*******=-----*******=------*******------*******...........................-------=======********************XXXXXXX###########################XXXXXXXXXXXXX********************.......                                                                    ",
"                                                                                 .......####################XXXXXXX*********************************.....................                           ........................................$$$$$$$-------*******------*******-------*******------*******...........................--------======********************XXXXXXX###########################XXXXXXXXXXXXX********************.......                                                                    ",
"                                                                                        ......##############XXXXXXX********************.............                                                                                        .............................................................                           .......**********************************XXXXXXXXXXXXXXXXXXXXXXXXXXX***************************......                                                                           ",
"                                                                                        ......##############XXXXXXX********************.............                                                                                        .............................................................                           .......**********************************XXXXXXXXXXXXXXXXXXXXXXXXXXX***************************......                                                                           ",
"                                                                                        ......##############XXXXXXX********************.............                                                                                        .............................................................                           .......**********************************XXXXXXXXXXXXXXXXXXXXXXXXXXX***************************......                                                                           ",
"                                                                                        ......##############XXXXXXX********************.............                                                                                        .............................................................                           .......**********************************XXXXXXXXXXXXXXXXXXXXXXXXXXX***************************......                                                                           ",
"                                                                                        ......##############XXXXXXX********************.............                                                                                        .............................................................                           .......**********************************XXXXXXXXXXXXXXXXXXXXXXXXXXX***************************......                                                                           ",
"                                                                                        ......##############XXXXXXX********************.............                                                                                        .............................................................                           .......**********************************XXXXXXXXXXXXXXXXXXXXXXXXXXX***************************......                                                                           ",
"                                                                                        ......##############XXXXXXX********************.............                                                                                        .............................................................                           .......**********************************XXXXXXXXXXXXXXXXXXXXXXXXXXX***************************......                                                                           ",
"                                                                                              ..............*******....................                                                                                                                                                                                                    .......**************************************************************************.......                                                                                 ",
"                                                                                              ..............*******....................                                                                                                                                                                                                    .......**************************************************************************.......                                                                                 ",
"                                                                                              ..............*******....................                                                                                                                                                                                                    .......**************************************************************************.......                                                                                 ",
"                                                                                              ..............*******....................                                                                                                                                                                                                    .......**************************************************************************.......                                                                                 ",
"                                                                                              ..............*******....................                                                                                                                                                                                                    .......**************************************************************************.......                                                                                 ",
"                                                                                              ..............*******....................                                                                                                                                                                                                    .......**************************************************************************.......                                                                                 ",
"                                                                                              ..............*******....................                                                                                                                                                                                                    .......**************************************************************************.......                                                                                 ",
"                                                                                                            .......                                                                                                                                                                                                                               .............**********************************...........................                                                                                        ",
"                                                                                                            .......                                                                                                                                                                                                                               .............**********************************...........................                                                                                        ",
"                                                                                                            .......                                                                                                                                                                                                                               .............**********************************...........................                                                                                        ",
"                                                                                                            .......                                                                                                                                                                                                                               .............**********************************...........................                                                                                        ",
"                                                                                                            .......                                                                                                                                                                                                                               .............**********************************...........................                                                                                        ",
"                                                                                                            .......                                                                                                                                                                                                                               .............**********************************...........................                                                                                        ",
"                                                                                                                                                                                                                                                                                                                                                               ..................................                                                                                                                   ",
"                                                                                                                                                                                                                                                                                                                                                               ..................................                                                                                                                   ",
"                                                                                                                                                                                                                                                                                                                                                               ..................................                                                                                                                   ",
"                                                                                                                                                                                                                                                                                                                                                               ..................................                                                                                                                   ",
"                                                                                                                                                                                                                                                                                                                                                               ..................................                                                                                                                   ",
"                                                                                                                                                                                                                                                                                                                                                               ..................................                                                                                                                   ",
"                                                                                                                                                                                                                                                                                                                                                               ..................................                                                                                                                   ",
"                                                                                                                                                                                                                                                                                                                                                               ..................................                                                                                                                   ",
"                                                                                                                                                                                                                                                                                                                                                                                                                                                                                                                    ",
"                                                                                                                                                                                                                                                                                                                                                                                                                                                                                                                    "
};
