/* XPM */
static char *out[] = {
/* columns rows colors chars-per-pixel */
"500 503 16 1 ",
"  c #FF00FF",
". c black",
"X c #634221",
"o c #735A21",
"O c #103942",
"+ c #315A7B",
"@ c gray45",
"# c #A57352",
"$ c #C69C5A",
"% c #528CAD",
"& c #73A5BD",
"* c #E7C6AD",
"= c #F7D6BD",
"- c #F7E7BD",
"; c #CECECE",
": c white",
/* pixels */
"                                                                                                                                                                                                                                                                                                                                                                                                                                                                                                                    ",
"                                                                                                                                                                                                                                                                                                                                                                                                                                                                                                                    ",
"                                                                                                                                                                                                                                                                                                                                                                                                                                                                                                                    ",
"                                                                                                                                                                                                                                                                                                                                                                                                                                                                                                                    ",
"                                                                                                                                                                                                                                                                                                                                                                                                                                                                                                                    ",
"                                                                                                                                                                                                                                                                                                                                                                                                                                                                                                                    ",
"                                                                                                                                                                                                                                                                                                                                                                                                                                                                                                                    ",
"                                                                                                                                                                                                                                                                                                                                                                                                                                                                                                                    ",
"                                                                                                                                                                                                                                                                                                                                                                                                                                                                                                                    ",
"                                                                                                                                                                                                                                                                                                                                                                                                                                                                                                                    ",
"                                                                                                                                                                                                                                                                                                                                                                                                                                                                                                                    ",
"                                                                                                                                                                                                                                                                                                                                                                                                                                                                                                                    ",
"                                                                                                                                                                                                                                                                                                                                                                                                                                                                                                                    ",
"                                                                                                                                                                                                                                                                                                                                                                                                                                                                                                                    ",
"                                                                                                                                                                                                                                                                                                                                                                                                                                                                                                                    ",
"                                                                                                                                                                                                                                                                                                                                                                                                                                                                                                                    ",
"                                                                                                                                                                                                                                                                                                                                                                                                                                                                                                                    ",
"                                                                                                                                                                                                                                                                                                                                                                                                                                                                                                                    ",
"                                                                                                                                                                                                                                                                                                                                                                                                                                                                                                                    ",
"                                                                                                                                                                                                                                                                                                                                                                                                                                                                                                                    ",
"                                                                                                                                                                                                                                                                                                                                                                                                                                                                                                                    ",
"                                                                                                                                                                                                                                                                                                                                                                                                                                                                                                                    ",
"                                                                                                                                                                                                                                                                                                                                                                                                                                                                                                                    ",
"                                                                                                                                                                                                                                                                                                                                                                                                                                                                                                                    ",
"                                                                                                                                                                                                                                                                                                                                                                                                                                                                                                                    ",
"                                                                                                                                                                                                                                                                                                                                                                                                                                                                                                                    ",
"                                                                                                                                                                                                                                                                                                                                                                                                                                                                                                                    ",
"                                                                                                                                                                                                                                                                                                                                                                                                                                                                                                                    ",
"                                                                                                                                                                                                                                                                                                                                                                                                                                                                                                                    ",
"                                                                                                                                                                                                                                                                                                                                                                                                                                                                                                                    ",
"                                                                                                                                                                                                                                                                                                                                                                                                                                                                                                                    ",
"                                                                                                                                                                                                                                                                                                                                                                                                                                                                                                                    ",
"                                                                                                                                                                                                                                                                                                                                                                                                                                                                                                                    ",
"                                                                                                                                                                                                                                                                                                                                                                                                                                                                                                                    ",
"                                                                                                                                                                                                                                                                                                                                                                                                                                                                                                                    ",
"                                                                                                                                                                                                                                                                                                                                                                                                                                                                                                                    ",
"                                                                                                                                                                                                                                                                                                                                                                                                                                                                                                                    ",
"                                                                                                                                                                                                                                                                                                                                                                                                                                                                                                                    ",
"                                                                                                                                                                                                                                                                                                                                                                                                                                                                                                                    ",
"                                                                                                                                                                                                                                                                                                                                                                                                                                                                                                                    ",
"                                                                                                                                                                                                                                                                                                                                                                                                                                                                                                                    ",
"                                                                                                                                                                                                                                                                                                                                                                                                                                                                                                                    ",
"                                                                                                                                                                                                                                                                                                                                                                                                                                                                                                                    ",
"                                                                                                                                                                                                                                                                                                                                                                                                                                                                                                                    ",
"                                                                                                                                                                                                                                                                                                                                                                                                                                                                                                                    ",
"                                                                                                                                                                                                                                                                                                                                                                                                                                                                                                                    ",
"                                                                                                                                                                                                                                                                                                                                                                                                                                                                                                                    ",
"                                                                                                                                                                                                                                                                                                                                                                                                                                                                                                                    ",
"                                                                                                                                                                                                                                                                                                                                                                                                                                                                                                                    ",
"                                                                                                                                                                                                                                                                                                                                                                                                                                                                                                                    ",
"                                                                                                                                                                                                                                                                                                                                                                                                                                                                                                                    ",
"                                                                                                                                                                                                                                                                                                                                                                                                                                                                                                                    ",
"                                                                                                                                                                                                                                                                                                                                                                                                                                                                                                                    ",
"                                                                                                                                                                                                                                                                                                                                                                                                                                                                                                                    ",
"                                                                                                                                                                                                                                                                                                                                                                                                                                                                                                                    ",
"                                                                                                                                                                                                                                                                                                                                                                                                                                                                                                                    ",
"                                                                                                                                                                                                                                                                                                                                                                                                                                                                                                                    ",
"                                                                                                                                                                                                                                                                                                                                                                                                                                                                                                                    ",
"                                                                                                                                                                                                                                                                                                                                                                                                                                                                                                                    ",
"                                                                                                                                                                                                                                                                                                                                                                                                                                                                                                                    ",
"                                                                                                                                                                                                                                                                                                         ....................                                                                                                                                                                                       ",
"                                                                                                                                                                                                                                                                                                         ....................                                                                                                                                                                                       ",
"                                                                                                                                                                                                                                                                                                         ....................                                                                                                                                                                                       ",
"                                                                                                                                                                                                                                                                                                         ....................                                                                                                                                                                                       ",
"                                                                                                                                                                                                                                                                                                         ....................                                                                                                                                                                                       ",
"                                                                                                                                                                                                                                                                                                         ....................                                                                                                                                                                                       ",
"                                                                                                                                                                                                                                                                                                         ....................                                                                                                                                                                                       ",
"                                                                                                                                                                                                                                                                                                  OOOOOOO%%%%%%%+++++++++++++.......                                                                                                                                                                                ",
"                                                                                                                                                                                                                                                                                                  OOOOOOO%%%%%%%+++++++++++++.......                                                                                                                                                                                ",
"                                                                                                                                                                                                                                                                                                  OOOOOOO%%%%%%%+++++++++++++.......                                                                                                                                                                                ",
"                                                                                                                                                                                                                                                                                                  OOOOOOO%%%%%%%+++++++++++++.......                                                                                                                                                                                ",
"                                                                                                                                                                                                                                                                                                  OOOOOOO%%%%%%%+++++++++++++.......                                                                                                                                                                                ",
"                                                                                                                                                                                                                                                                                                  OOOOOOO%%%%%%%+++++++++++++.......                                                                                                                                                                                ",
"                                                                                                                                                                                                                                                                                                  OOOOOOO%%%%%%%+++++++++++++.......                                                                                                                                                                                ",
"                                                                                                                                                                                             ..............                                                                                 OOOOOO%%%%%%%%%%%%%%%%%%%%%++++++.......                                                                                                                                                                                ",
"                                                                                                                                                                                             ..............                                                                                 OOOOOO%%%%%%%%%%%%%%%%%%%%%++++++.......                                                                                                                                                                                ",
"                                                                                                                                                                                             ..............                                                                                 OOOOOO%%%%%%%%%%%%%%%%%%%%%++++++.......                                                                                                                                                                                ",
"                                                                                                                                                                                             ..............                                                                                 OOOOOO%%%%%%%%%%%%%%%%%%%%%++++++.......                                                                                                                                                                                ",
"                                                                                                                                                                                             ..............                                                                                 OOOOOO%%%%%%%%%%%%%%%%%%%%%++++++.......                                                                                                                                                                                ",
"                                                                                                                                                                                             ..............                                                                                 OOOOOO%%%%%%%%%%%%%%%%%%%%%++++++.......                                                                                                                                                                                ",
"                                                                                                                                                                                             ..............                                                                                 OOOOOO%%%%%%%%%%%%%%%%%%%%%++++++.......                                                                                                                                                                                ",
"                                                                                                                                                                                      OOOOOOO%%%%%%%+++++++.............                                                             OOOOOOO%%%%%%%%%%%%%%%%%%%%%%%%%%%+++++++++++++.......                                                                                                                                                                         ",
"                                                                                                                                                                                      OOOOOOO%%%%%%%+++++++.............                                                             OOOOOOO%%%%%%%%%%%%%%%%%%%%%%%%%%%+++++++++++++.......                                                                                                                                                                         ",
"                                                                                                                                                                                      OOOOOOO%%%%%%%+++++++.............                                                             OOOOOOO%%%%%%%%%%%%%%%%%%%%%%%%%%%+++++++++++++.......                                                                                                                                                                         ",
"                                                                                                                                                                                      OOOOOOO%%%%%%%+++++++.............                                                             OOOOOOO%%%%%%%%%%%%%%%%%%%%%%%%%%%+++++++++++++.......                                                                                                                                                                         ",
"                                                                                                                                                                                      OOOOOOO%%%%%%%+++++++.............                                                             OOOOOOO%%%%%%%%%%%%%%%%%%%%%%%%%%%+++++++++++++.......                                                                                                                                                                         ",
"                                                                                                                                                                                      OOOOOOO%%%%%%%+++++++.............                                                             OOOOOOO%%%%%%%%%%%%%%%%%%%%%%%%%%%+++++++++++++.......                                                                                                                                                                         ",
"                                                                                                                                                                                      OOOOOOO%%%%%%%+++++++.............                                                             OOOOOOO%%%%%%%%%%%%%%%%%%%%%%%%%%%+++++++++++++.......                                                                                                                                                                         ",
"                                                                                                                                                                                      OOOOOOO%%%%%%%++++++++++++++++++++.......                                               OOOOOOO%%%%%%%%%%%%%%%%%%%%%%%%%%%%%%%%%%+++++++++++++.......                                                                                                                                                                         ",
"                                                                                                                                                                                      OOOOOOO%%%%%%%++++++++++++++++++++.......                                               OOOOOOO%%%%%%%%%%%%%%%%%%%%%%%%%%%%%%%%%%+++++++++++++.......                                                                                                                                                                         ",
"                                                                                                                                                                                      OOOOOOO%%%%%%%++++++++++++++++++++.......                                               OOOOOOO%%%%%%%%%%%%%%%%%%%%%%%%%%%%%%%%%%+++++++++++++.......                                                                                                                                                                         ",
"                                                                                                                                                                                      OOOOOOO%%%%%%%++++++++++++++++++++.......                                               OOOOOOO%%%%%%%%%%%%%%%%%%%%%%%%%%%%%%%%%%+++++++++++++.......                                                                                                                                                                         ",
"                                                                                                                                                                                      OOOOOOO%%%%%%%++++++++++++++++++++.......                                               OOOOOOO%%%%%%%%%%%%%%%%%%%%%%%%%%%%%%%%%%+++++++++++++.......                                                                                                                                                                         ",
"                                                                                                                                                                                      OOOOOOO%%%%%%%++++++++++++++++++++.......                                               OOOOOOO%%%%%%%%%%%%%%%%%%%%%%%%%%%%%%%%%%+++++++++++++.......                                                                                                                                                                         ",
"                                                                                                                                                                               OOOOOOO%%%%%%%%%%%%%%%%%%%%%++++++++++++++++++++...............................................%%%%%%%%%%%%%%%%%%%%%%%%%%%%%%%%%%+++++++++++++++++++++++++++.......                                                                                                                                                                  ",
"                                                                                                                                                                               OOOOOOO%%%%%%%%%%%%%%%%%%%%%++++++++++++++++++++...............................................%%%%%%%%%%%%%%%%%%%%%%%%%%%%%%%%%%+++++++++++++++++++++++++++.......                                                                                                                                                                  ",
"                                                                                                                                                                               OOOOOOO%%%%%%%%%%%%%%%%%%%%%++++++++++++++++++++...............................................%%%%%%%%%%%%%%%%%%%%%%%%%%%%%%%%%%+++++++++++++++++++++++++++.......                                                                                                                                                                  ",
"                                                                                                                                                                               OOOOOOO%%%%%%%%%%%%%%%%%%%%%++++++++++++++++++++...............................................%%%%%%%%%%%%%%%%%%%%%%%%%%%%%%%%%%+++++++++++++++++++++++++++.......                                                                                                                                                                  ",
"                                                                                                                                                                               OOOOOOO%%%%%%%%%%%%%%%%%%%%%++++++++++++++++++++...............................................%%%%%%%%%%%%%%%%%%%%%%%%%%%%%%%%%%+++++++++++++++++++++++++++.......                                                                                                                                                                  ",
"                                                                                                                                                                               OOOOOOO%%%%%%%%%%%%%%%%%%%%%++++++++++++++++++++...............................................%%%%%%%%%%%%%%%%%%%%%%%%%%%%%%%%%%+++++++++++++++++++++++++++.......                                                                                                                                                                  ",
"                                                                                                                                                                               OOOOOOO%%%%%%%%%%%%%%%%%%%%%++++++++++++++++++++...............................................%%%%%%%%%%%%%%%%%%%%%%%%%%%%%%%%%%+++++++++++++++++++++++++++.......                                                                                                                                                                  ",
"                                                                                                                                                                               OOOOOOO%%%%%%%%%%%%%%%%%%%%%++++++OOOOOOOOOOOOOO+++++++&&&&&&&&&&&&&%%%%%%%%%%%%%%%%%%%%%%%%%%%%%%%%%%%%%%%%%%%%%%%%%%%%%%%%%%%%%++++++++++++++++++++++++++++++++++......                                                                                                                                                            ",
"                                                                                                                                                                               OOOOOOO%%%%%%%%%%%%%%%%%%%%%++++++OOOOOOOOOOOOOO+++++++&&&&&&&&&&&&&%%%%%%%%%%%%%%%%%%%%%%%%%%%%%%%%%%%%%%%%%%%%%%%%%%%%%%%%%%%%%++++++++++++++++++++++++++++++++++......                                                                                                                                                            ",
"                                                                                                                                                                               OOOOOOO%%%%%%%%%%%%%%%%%%%%%++++++OOOOOOOOOOOOOO+++++++&&&&&&&&&&&&&%%%%%%%%%%%%%%%%%%%%%%%%%%%%%%%%%%%%%%%%%%%%%%%%%%%%%%%%%%%%%++++++++++++++++++++++++++++++++++......                                                                                                                                                            ",
"                                                                                                                                                                               OOOOOOO%%%%%%%%%%%%%%%%%%%%%++++++OOOOOOOOOOOOOO+++++++&&&&&&&&&&&&&%%%%%%%%%%%%%%%%%%%%%%%%%%%%%%%%%%%%%%%%%%%%%%%%%%%%%%%%%%%%%++++++++++++++++++++++++++++++++++......                                                                                                                                                            ",
"                                                                                                                                                                               OOOOOOO%%%%%%%%%%%%%%%%%%%%%++++++OOOOOOOOOOOOOO+++++++&&&&&&&&&&&&&%%%%%%%%%%%%%%%%%%%%%%%%%%%%%%%%%%%%%%%%%%%%%%%%%%%%%%%%%%%%%++++++++++++++++++++++++++++++++++......                                                                                                                                                            ",
"                                                                                                                                                                               OOOOOOO%%%%%%%%%%%%%%%%%%%%%++++++OOOOOOOOOOOOOO+++++++&&&&&&&&&&&&&%%%%%%%%%%%%%%%%%%%%%%%%%%%%%%%%%%%%%%%%%%%%%%%%%%%%%%%%%%%%%++++++++++++++++++++++++++++++++++......                                                                                                                                                            ",
"                                                                                                                                                                               OOOOOOO%%%%%%%%%%%%%%%%%%%%%++++++OOOOOOOOOOOOOO+++++++&&&&&&&&&&&&&%%%%%%%%%%%%%%%%%%%%%%%%%%%%%%%%%%%%%%%%%%%%%%%%%%%%%%%%%%%%%++++++++++++++++++++++++++++++++++......                                                                                                                                                            ",
"                                                                                                                                                                               OOOOOOO%%%%%%%%%%%%%%+++++++++++++%%%%%%%&&&&&&&&&&&&&&&&&&&&&&&&&&&&&&&&&&%%%%%%%%%%%%%%%%%%%%%%%%%%%%%%%%%%%%%%%%%%%%%%%+++++++++++++++++++++++++++++++++++++++++++++++.......                                                                                                                                                     ",
"                                                                                                                                                                               OOOOOOO%%%%%%%%%%%%%%+++++++++++++%%%%%%%&&&&&&&&&&&&&&&&&&&&&&&&&&&&&&&&&&%%%%%%%%%%%%%%%%%%%%%%%%%%%%%%%%%%%%%%%%%%%%%%%+++++++++++++++++++++++++++++++++++++++++++++++.......                                                                                                                                                     ",
"                                                                                                                                                                               OOOOOOO%%%%%%%%%%%%%%+++++++++++++%%%%%%%&&&&&&&&&&&&&&&&&&&&&&&&&&&&&&&&&&%%%%%%%%%%%%%%%%%%%%%%%%%%%%%%%%%%%%%%%%%%%%%%%+++++++++++++++++++++++++++++++++++++++++++++++.......                                                                                                                                                     ",
"                                                                                                                                                                               OOOOOOO%%%%%%%%%%%%%%+++++++++++++%%%%%%%&&&&&&&&&&&&&&&&&&&&&&&&&&&&&&&&&&%%%%%%%%%%%%%%%%%%%%%%%%%%%%%%%%%%%%%%%%%%%%%%%+++++++++++++++++++++++++++++++++++++++++++++++.......                                                                                                                                                     ",
"                                                                                                                                                                               OOOOOOO%%%%%%%%%%%%%%+++++++++++++%%%%%%%&&&&&&&&&&&&&&&&&&&&&&&&&&&&&&&&&&%%%%%%%%%%%%%%%%%%%%%%%%%%%%%%%%%%%%%%%%%%%%%%%+++++++++++++++++++++++++++++++++++++++++++++++.......                                                                                                                                                     ",
"                                                                                                                                                                               OOOOOOO%%%%%%%%%%%%%%+++++++++++++%%%%%%%&&&&&&&&&&&&&&&&&&&&&&&&&&&&&&&&&&%%%%%%%%%%%%%%%%%%%%%%%%%%%%%%%%%%%%%%%%%%%%%%%+++++++++++++++++++++++++++++++++++++++++++++++.......                                                                                                                                                     ",
"                                                                                                                                                                               OOOOOOO%%%%%%%%%%%%%%+++++++++++++%%%%%%%&&&&&&&&&&&&&&&&&&&&&&&&&&&&&&&&&&%%%%%%%%%%%%%%%%%%%%%%%%%%%%%%%%%%%%%%%%%%%%%%%+++++++++++++++++++++++++++++++++++++++++++++++.......                                                                                                                                                     ",
"                                                                                                                                                                               OOOOOOO%%%%%%%+++++++%%%%%%%%%%%%%%%%%%%%%%%%%%%&&&&&&&&&&&&&&&&&&&&%%%%%%%%%%%%%%%%%%%%%%%%%%%++++++++++++++++++++++++++++++++++++++++++++++++++++++++++++++++++++++++++.......                                                                                                                                                     ",
"                                                                                                                                                                               OOOOOOO%%%%%%%+++++++%%%%%%%%%%%%%%%%%%%%%%%%%%%&&&&&&&&&&&&&&&&&&&&%%%%%%%%%%%%%%%%%%%%%%%%%%%++++++++++++++++++++++++++++++++++++++++++++++++++++++++++++++++++++++++++.......                                                                                                                                                     ",
"                                                                                                                                                                               OOOOOOO%%%%%%%+++++++%%%%%%%%%%%%%%%%%%%%%%%%%%%&&&&&&&&&&&&&&&&&&&&%%%%%%%%%%%%%%%%%%%%%%%%%%%++++++++++++++++++++++++++++++++++++++++++++++++++++++++++++++++++++++++++.......                                                                                                                                                     ",
"                                                                                                                                                                               OOOOOOO%%%%%%%+++++++%%%%%%%%%%%%%%%%%%%%%%%%%%%&&&&&&&&&&&&&&&&&&&&%%%%%%%%%%%%%%%%%%%%%%%%%%%++++++++++++++++++++++++++++++++++++++++++++++++++++++++++++++++++++++++++.......                                                                                                                                                     ",
"                                                                                                                                                                               OOOOOOO%%%%%%%+++++++%%%%%%%%%%%%%%%%%%%%%%%%%%%&&&&&&&&&&&&&&&&&&&&%%%%%%%%%%%%%%%%%%%%%%%%%%%++++++++++++++++++++++++++++++++++++++++++++++++++++++++++++++++++++++++++.......                                                                                                                                                     ",
"                                                                                                                                                                               OOOOOOO%%%%%%%+++++++%%%%%%%%%%%%%%%%%%%%%%%%%%%&&&&&&&&&&&&&&&&&&&&%%%%%%%%%%%%%%%%%%%%%%%%%%%++++++++++++++++++++++++++++++++++++++++++++++++++++++++++++++++++++++++++.......                                                                                                                                                     ",
"                                                                                                                                                                               .......+++++++%%%%%%%+++++++++++++%%%%%%%%%%%%%%%%%%%%%%%%%%%%%%%%%%%%%%%%%%%%%%%%+++++++++++++-------*******OOOOOOOOOOOOO++++++++++++++++++++++++++++++++++++++++++++++++++++++.......                                                                                                                                              ",
"                                                                                                                                                                               .......+++++++%%%%%%%+++++++++++++%%%%%%%%%%%%%%%%%%%%%%%%%%%%%%%%%%%%%%%%%%%%%%%%+++++++++++++-------*******OOOOOOOOOOOOO++++++++++++++++++++++++++++++++++++++++++++++++++++++.......                                                                                                                                              ",
"                                                                                                                                                                               .......+++++++%%%%%%%+++++++++++++%%%%%%%%%%%%%%%%%%%%%%%%%%%%%%%%%%%%%%%%%%%%%%%%+++++++++++++-------*******OOOOOOOOOOOOO++++++++++++++++++++++++++++++++++++++++++++++++++++++.......                                                                                                                                              ",
"                                                                                                                                                                               .......+++++++%%%%%%%+++++++++++++%%%%%%%%%%%%%%%%%%%%%%%%%%%%%%%%%%%%%%%%%%%%%%%%+++++++++++++-------*******OOOOOOOOOOOOO++++++++++++++++++++++++++++++++++++++++++++++++++++++.......                                                                                                                                              ",
"                                                                                                                                                                               .......+++++++%%%%%%%+++++++++++++%%%%%%%%%%%%%%%%%%%%%%%%%%%%%%%%%%%%%%%%%%%%%%%%+++++++++++++-------*******OOOOOOOOOOOOO++++++++++++++++++++++++++++++++++++++++++++++++++++++.......                                                                                                                                              ",
"                                                                                                                                                                               .......+++++++%%%%%%%+++++++++++++%%%%%%%%%%%%%%%%%%%%%%%%%%%%%%%%%%%%%%%%%%%%%%%%+++++++++++++-------*******OOOOOOOOOOOOO++++++++++++++++++++++++++++++++++++++++++++++++++++++.......                                                                                                                                              ",
"                                                                                                                                                                               .......+++++++%%%%%%%+++++++++++++%%%%%%%%%%%%%%%%%%%%%%%%%%%%%%%%%%%%%%%%%%%%%%%%+++++++++++++-------*******OOOOOOOOOOOOO++++++++++++++++++++++++++++++++++++++++++++++++++++++.......                                                                                                                                              ",
"                                                                                                                                                                               .......++++++++++++++-------******+++++++%%%%%%%%%%%%%%%%%%%%%%%%%%%%%%%%%%+++++++---------------------------------*******OOOOOOO+++++++++++++++++++++++++++++++++++++++++++++++.......                                                                                                                                              ",
"                                                                                                                                                                               .......++++++++++++++-------******+++++++%%%%%%%%%%%%%%%%%%%%%%%%%%%%%%%%%%+++++++---------------------------------*******OOOOOOO+++++++++++++++++++++++++++++++++++++++++++++++.......                                                                                                                                              ",
"                                                                                                                                                                               .......++++++++++++++-------******+++++++%%%%%%%%%%%%%%%%%%%%%%%%%%%%%%%%%%+++++++---------------------------------*******OOOOOOO+++++++++++++++++++++++++++++++++++++++++++++++.......                                                                                                                                              ",
"                                                                                                                                                                               .......++++++++++++++-------******+++++++%%%%%%%%%%%%%%%%%%%%%%%%%%%%%%%%%%+++++++---------------------------------*******OOOOOOO+++++++++++++++++++++++++++++++++++++++++++++++.......                                                                                                                                              ",
"                                                                                                                                                                               .......++++++++++++++-------******+++++++%%%%%%%%%%%%%%%%%%%%%%%%%%%%%%%%%%+++++++---------------------------------*******OOOOOOO+++++++++++++++++++++++++++++++++++++++++++++++.......                                                                                                                                              ",
"                                                                                                                                                                               .......++++++++++++++-------******+++++++%%%%%%%%%%%%%%%%%%%%%%%%%%%%%%%%%%+++++++---------------------------------*******OOOOOOO+++++++++++++++++++++++++++++++++++++++++++++++.......                                                                                                                                              ",
"                                                                                                                                                                               .......++++++++++++++-------******+++++++%%%%%%%%%%%%%%%%%%%%%%%%%%%%%%%%%%+++++++---------------------------------*******OOOOOOO+++++++++++++++++++++++++++++++++++++++++++++++.......                                                                                                                                              ",
"                                                                                                                                                                         ......++++++++++++++---------------------------+++++++%%%%%%%%%%%%%%%%%%%%+++++++------------------------------------------------------OOOOOOO+++++++++++++++++++++++++++++++++++++++++++++++.......                                                                                                                                       ",
"                                                                                                                                                                         ......++++++++++++++---------------------------+++++++%%%%%%%%%%%%%%%%%%%%+++++++------------------------------------------------------OOOOOOO+++++++++++++++++++++++++++++++++++++++++++++++.......                                                                                                                                       ",
"                                                                                                                                                                         ......++++++++++++++---------------------------+++++++%%%%%%%%%%%%%%%%%%%%+++++++------------------------------------------------------OOOOOOO+++++++++++++++++++++++++++++++++++++++++++++++.......                                                                                                                                       ",
"                                                                                                                                                                         ......++++++++++++++---------------------------+++++++%%%%%%%%%%%%%%%%%%%%+++++++------------------------------------------------------OOOOOOO+++++++++++++++++++++++++++++++++++++++++++++++.......                                                                                                                                       ",
"                                                                                                                                                                         ......++++++++++++++---------------------------+++++++%%%%%%%%%%%%%%%%%%%%+++++++------------------------------------------------------OOOOOOO+++++++++++++++++++++++++++++++++++++++++++++++.......                                                                                                                                       ",
"                                                                                                                                                                         ......++++++++++++++---------------------------+++++++%%%%%%%%%%%%%%%%%%%%+++++++------------------------------------------------------OOOOOOO+++++++++++++++++++++++++++++++++++++++++++++++.......                                                                                                                                       ",
"                                                                                                                                                                         ......++++++++++++++---------------------------+++++++%%%%%%%%%%%%%%%%%%%%+++++++------------------------------------------------------OOOOOOO+++++++++++++++++++++++++++++++++++++++++++++++.......                                                                                                                                       ",
"                                                                                                                                                                         ......+++++++*******----------------------------------+++++++++++++*******--------------------------------------------------------------------OOOOOO+++++++++++++++++++++++++++++++++++++++++.......                                                                                                                                       ",
"                                                                                                                                                                         ......+++++++*******----------------------------------+++++++++++++*******--------------------------------------------------------------------OOOOOO+++++++++++++++++++++++++++++++++++++++++.......                                                                                                                                       ",
"                                                                                                                                                                         ......+++++++*******----------------------------------+++++++++++++*******--------------------------------------------------------------------OOOOOO+++++++++++++++++++++++++++++++++++++++++.......                                                                                                                                       ",
"                                                                                                                                                                         ......+++++++*******----------------------------------+++++++++++++*******--------------------------------------------------------------------OOOOOO+++++++++++++++++++++++++++++++++++++++++.......                                                                                                                                       ",
"                                                                                                                                                                         ......+++++++*******----------------------------------+++++++++++++*******--------------------------------------------------------------------OOOOOO+++++++++++++++++++++++++++++++++++++++++.......                                                                                                                                       ",
"                                                                                                                                                                         ......+++++++*******----------------------------------+++++++++++++*******--------------------------------------------------------------------OOOOOO+++++++++++++++++++++++++++++++++++++++++.......                                                                                                                                       ",
"                                                                                                                                                                         ......+++++++*******----------------------------------+++++++++++++*******--------------------------------------------------------------------OOOOOO+++++++++++++++++++++++++++++++++++++++++.......                                                                                                                                       ",
"                                                                                                                                                                         ......+++++++---------------------------------------------------------------------------------------------------------------------------------******OOOOOOO++++++++++++++++++++++++++++++++++.......                                                                                 .............              .......                    ",
"                                                                                                                                                                         ......+++++++---------------------------------------------------------------------------------------------------------------------------------******OOOOOOO++++++++++++++++++++++++++++++++++.......                                                                                 .............              .......                    ",
"                                                                                                                                                                         ......+++++++---------------------------------------------------------------------------------------------------------------------------------******OOOOOOO++++++++++++++++++++++++++++++++++.......                                                                                 .............              .......                    ",
"                                                                                                                                                                         ......+++++++---------------------------------------------------------------------------------------------------------------------------------******OOOOOOO++++++++++++++++++++++++++++++++++.......                                                                                 .............              .......                    ",
"                                                                                                                                                                         ......+++++++---------------------------------------------------------------------------------------------------------------------------------******OOOOOOO++++++++++++++++++++++++++++++++++.......                                                                                 .............              .......                    ",
"                                                                                                                                                                         ......+++++++---------------------------------------------------------------------------------------------------------------------------------******OOOOOOO++++++++++++++++++++++++++++++++++.......                                                                                 .............              .......                    ",
"                                                                                                                                                                         ......*******---------------------------------------------------------------------------------------------------------------------------------------OOOOOOO+++++++++++++++++++++++++++++++++++++++++......                                                                    .......:::::::      .......:::::::.......                    ",
"                                                                                                                                                                         ......*******---------------------------------------------------------------------------------------------------------------------------------------OOOOOOO+++++++++++++++++++++++++++++++++++++++++......                                                                    .......:::::::      .......:::::::.......                    ",
"                                                                                                                                                                         ......*******---------------------------------------------------------------------------------------------------------------------------------------OOOOOOO+++++++++++++++++++++++++++++++++++++++++......                                                                    .......:::::::      .......:::::::.......                    ",
"                                                                                                                                                                         ......*******---------------------------------------------------------------------------------------------------------------------------------------OOOOOOO+++++++++++++++++++++++++++++++++++++++++......                                                                    .......:::::::      .......:::::::.......                    ",
"                                                                                                                                                                         ......*******---------------------------------------------------------------------------------------------------------------------------------------OOOOOOO+++++++++++++++++++++++++++++++++++++++++......                                                                    .......:::::::      .......:::::::.......                    ",
"                                                                                                                                                                         ......*******---------------------------------------------------------------------------------------------------------------------------------------OOOOOOO+++++++++++++++++++++++++++++++++++++++++......                                                                    .......:::::::      .......:::::::.......                    ",
"                                                                                                                                                                         ......*******---------------------------------------------------------------------------------------------------------------------------------------OOOOOOO+++++++++++++++++++++++++++++++++++++++++......                                                                    .......:::::::      .......:::::::.......                    ",
"                                                                                                                                                                  .......++++++----------------------------------------------------------------------------------------..................................--------------------*******OOOOOOO++++++++++++++++++++++++++++++++++......                                                      .......       .......%%%%%%%...........................                    ",
"                                                                                                                                                                  .......++++++----------------------------------------------------------------------------------------..................................--------------------*******OOOOOOO++++++++++++++++++++++++++++++++++......                                                      .......       .......%%%%%%%...........................                    ",
"                                                                                                                                                                  .......++++++----------------------------------------------------------------------------------------..................................--------------------*******OOOOOOO++++++++++++++++++++++++++++++++++......                                                      .......       .......%%%%%%%...........................                    ",
"                                                                                                                                                                  .......++++++----------------------------------------------------------------------------------------..................................--------------------*******OOOOOOO++++++++++++++++++++++++++++++++++......                                                      .......       .......%%%%%%%...........................                    ",
"                                                                                                                                                                  .......++++++----------------------------------------------------------------------------------------..................................--------------------*******OOOOOOO++++++++++++++++++++++++++++++++++......                                                      .......       .......%%%%%%%...........................                    ",
"                                                                                                                                                                  .......++++++----------------------------------------------------------------------------------------..................................--------------------*******OOOOOOO++++++++++++++++++++++++++++++++++......                                                      .......       .......%%%%%%%...........................                    ",
"                                                                                                                                                                  .......++++++----------------------------------------------------------------------------------------..................................--------------------*******OOOOOOO++++++++++++++++++++++++++++++++++......                                                      .......       .......%%%%%%%...........................                    ",
"                                                                                                                                                                  .......++++++.....................------------------------------------------------------.............@@@@@@@------------------------------------------------------OOOOOOO++++++++++++++++++++++++++++++++++......                                                ......%%%%%%%.......%%%%%%%%%%%%%%%%%%%%%%%%%%%%%%%%%%OOOOOOO      ..............",
"                                                                                                                                                                  .......++++++.....................------------------------------------------------------.............@@@@@@@------------------------------------------------------OOOOOOO++++++++++++++++++++++++++++++++++......                                                ......%%%%%%%.......%%%%%%%%%%%%%%%%%%%%%%%%%%%%%%%%%%OOOOOOO      ..............",
"                                                                                                                                                                  .......++++++.....................------------------------------------------------------.............@@@@@@@------------------------------------------------------OOOOOOO++++++++++++++++++++++++++++++++++......                                                ......%%%%%%%.......%%%%%%%%%%%%%%%%%%%%%%%%%%%%%%%%%%OOOOOOO      ..............",
"                                                                                                                                                                  .......++++++.....................------------------------------------------------------.............@@@@@@@------------------------------------------------------OOOOOOO++++++++++++++++++++++++++++++++++......                                                ......%%%%%%%.......%%%%%%%%%%%%%%%%%%%%%%%%%%%%%%%%%%OOOOOOO      ..............",
"                                                                                                                                                                  .......++++++.....................------------------------------------------------------.............@@@@@@@------------------------------------------------------OOOOOOO++++++++++++++++++++++++++++++++++......                                                ......%%%%%%%.......%%%%%%%%%%%%%%%%%%%%%%%%%%%%%%%%%%OOOOOOO      ..............",
"                                                                                                                                                                  .......++++++.....................------------------------------------------------------.............@@@@@@@------------------------------------------------------OOOOOOO++++++++++++++++++++++++++++++++++......                                                ......%%%%%%%.......%%%%%%%%%%%%%%%%%%%%%%%%%%%%%%%%%%OOOOOOO      ..............",
"                                                                                                                                                                  .......++++++.....................------------------------------------------------------.............@@@@@@@------------------------------------------------------OOOOOOO++++++++++++++++++++++++++++++++++......                                                ......%%%%%%%.......%%%%%%%%%%%%%%%%%%%%%%%%%%%%%%%%%%OOOOOOO      ..............",
"                                                                                 .......             .......                                                      .......++++++--------------@@@@@@@.............-------------------------------------------------------------------------------------------------------------------OOOOOOO++++++++++++++++++++++++++++++++++......                           .......       .......%%%%%%%%%%%%%%%%%%%%%%%%%%%%%%%%%%%%%%%%%%%%%%%%%%%%%%.......::::::.......       ",
"                                                                                 .......             .......                                                      .......++++++--------------@@@@@@@.............-------------------------------------------------------------------------------------------------------------------OOOOOOO++++++++++++++++++++++++++++++++++......                           .......       .......%%%%%%%%%%%%%%%%%%%%%%%%%%%%%%%%%%%%%%%%%%%%%%%%%%%%%%.......::::::.......       ",
"                                                                                 .......             .......                                                      .......++++++--------------@@@@@@@.............-------------------------------------------------------------------------------------------------------------------OOOOOOO++++++++++++++++++++++++++++++++++......                           .......       .......%%%%%%%%%%%%%%%%%%%%%%%%%%%%%%%%%%%%%%%%%%%%%%%%%%%%%%.......::::::.......       ",
"                                                                                 .......             .......                                                      .......++++++--------------@@@@@@@.............-------------------------------------------------------------------------------------------------------------------OOOOOOO++++++++++++++++++++++++++++++++++......                           .......       .......%%%%%%%%%%%%%%%%%%%%%%%%%%%%%%%%%%%%%%%%%%%%%%%%%%%%%%.......::::::.......       ",
"                                                                                 .......             .......                                                      .......++++++--------------@@@@@@@.............-------------------------------------------------------------------------------------------------------------------OOOOOOO++++++++++++++++++++++++++++++++++......                           .......       .......%%%%%%%%%%%%%%%%%%%%%%%%%%%%%%%%%%%%%%%%%%%%%%%%%%%%%%.......::::::.......       ",
"                                                                                 .......             .......                                                      .......++++++--------------@@@@@@@.............-------------------------------------------------------------------------------------------------------------------OOOOOOO++++++++++++++++++++++++++++++++++......                           .......       .......%%%%%%%%%%%%%%%%%%%%%%%%%%%%%%%%%%%%%%%%%%%%%%%%%%%%%%.......::::::.......       ",
"                                                                          .......:::::::....................                                                      .......++++++-----------------------------------------------------------------------------------------------------------------------------------------------------OOOOOOO+++++++++++++++++++++++++++OOOOOOOOOOOOO.....................++++++%%%%%%%%%%%%%%%%%%%%%%%%%%%%%%%%%%%%%%%%%%%%%%%%%%%%%%%%%%%%%%%%%%%%%%%%%%%OOOOOOO.............       ",
"                                                                          .......:::::::....................                                                      .......++++++-----------------------------------------------------------------------------------------------------------------------------------------------------OOOOOOO+++++++++++++++++++++++++++OOOOOOOOOOOOO.....................++++++%%%%%%%%%%%%%%%%%%%%%%%%%%%%%%%%%%%%%%%%%%%%%%%%%%%%%%%%%%%%%%%%%%%%%%%%%%%OOOOOOO.............       ",
"                                                                          .......:::::::....................                                                      .......++++++-----------------------------------------------------------------------------------------------------------------------------------------------------OOOOOOO+++++++++++++++++++++++++++OOOOOOOOOOOOO.....................++++++%%%%%%%%%%%%%%%%%%%%%%%%%%%%%%%%%%%%%%%%%%%%%%%%%%%%%%%%%%%%%%%%%%%%%%%%%%%OOOOOOO.............       ",
"                                                                          .......:::::::....................                                                      .......++++++-----------------------------------------------------------------------------------------------------------------------------------------------------OOOOOOO+++++++++++++++++++++++++++OOOOOOOOOOOOO.....................++++++%%%%%%%%%%%%%%%%%%%%%%%%%%%%%%%%%%%%%%%%%%%%%%%%%%%%%%%%%%%%%%%%%%%%%%%%%%%OOOOOOO.............       ",
"                                                                          .......:::::::....................                                                      .......++++++-----------------------------------------------------------------------------------------------------------------------------------------------------OOOOOOO+++++++++++++++++++++++++++OOOOOOOOOOOOO.....................++++++%%%%%%%%%%%%%%%%%%%%%%%%%%%%%%%%%%%%%%%%%%%%%%%%%%%%%%%%%%%%%%%%%%%%%%%%%%%OOOOOOO.............       ",
"                                                                          .......:::::::....................                                                      .......++++++-----------------------------------------------------------------------------------------------------------------------------------------------------OOOOOOO+++++++++++++++++++++++++++OOOOOOOOOOOOO.....................++++++%%%%%%%%%%%%%%%%%%%%%%%%%%%%%%%%%%%%%%%%%%%%%%%%%%%%%%%%%%%%%%%%%%%%%%%%%%%OOOOOOO.............       ",
"                                                                          .......:::::::....................                                                      .......++++++-----------------------------------------------------------------------------------------------------------------------------------------------------OOOOOOO+++++++++++++++++++++++++++OOOOOOOOOOOOO.....................++++++%%%%%%%%%%%%%%%%%%%%%%%%%%%%%%%%%%%%%%%%%%%%%%%%%%%%%%%%%%%%%%%%%%%%%%%%%%%OOOOOOO.............       ",
"                                                      .............       %%%%%%%%%%%%%%......:::::::.......                                                      .......++++++----------------------------------------------------------------------------------@@@@@@*******-----------------------------------------------*******OOOOOOO++++++++++++++++++++++++++++++++++OOOOOO.......++++++++++++++++++++%%%%%%%%%%%%%%%%%%%%%%%%%%%%%%%%%%%%%%%%%%%%%%%%%%%%%%%%%%%%%%%%%%%%+++++++OOOOOOO::::::.......       ",
"                                                      .............       %%%%%%%%%%%%%%......:::::::.......                                                      .......++++++----------------------------------------------------------------------------------@@@@@@*******-----------------------------------------------*******OOOOOOO++++++++++++++++++++++++++++++++++OOOOOO.......++++++++++++++++++++%%%%%%%%%%%%%%%%%%%%%%%%%%%%%%%%%%%%%%%%%%%%%%%%%%%%%%%%%%%%%%%%%%%%+++++++OOOOOOO::::::.......       ",
"                                                      .............       %%%%%%%%%%%%%%......:::::::.......                                                      .......++++++----------------------------------------------------------------------------------@@@@@@*******-----------------------------------------------*******OOOOOOO++++++++++++++++++++++++++++++++++OOOOOO.......++++++++++++++++++++%%%%%%%%%%%%%%%%%%%%%%%%%%%%%%%%%%%%%%%%%%%%%%%%%%%%%%%%%%%%%%%%%%%%+++++++OOOOOOO::::::.......       ",
"                                                      .............       %%%%%%%%%%%%%%......:::::::.......                                                      .......++++++----------------------------------------------------------------------------------@@@@@@*******-----------------------------------------------*******OOOOOOO++++++++++++++++++++++++++++++++++OOOOOO.......++++++++++++++++++++%%%%%%%%%%%%%%%%%%%%%%%%%%%%%%%%%%%%%%%%%%%%%%%%%%%%%%%%%%%%%%%%%%%%+++++++OOOOOOO::::::.......       ",
"                                                      .............       %%%%%%%%%%%%%%......:::::::.......                                                      .......++++++----------------------------------------------------------------------------------@@@@@@*******-----------------------------------------------*******OOOOOOO++++++++++++++++++++++++++++++++++OOOOOO.......++++++++++++++++++++%%%%%%%%%%%%%%%%%%%%%%%%%%%%%%%%%%%%%%%%%%%%%%%%%%%%%%%%%%%%%%%%%%%%+++++++OOOOOOO::::::.......       ",
"                                                      .............       %%%%%%%%%%%%%%......:::::::.......                                                      .......++++++----------------------------------------------------------------------------------@@@@@@*******-----------------------------------------------*******OOOOOOO++++++++++++++++++++++++++++++++++OOOOOO.......++++++++++++++++++++%%%%%%%%%%%%%%%%%%%%%%%%%%%%%%%%%%%%%%%%%%%%%%%%%%%%%%%%%%%%%%%%%%%%+++++++OOOOOOO::::::.......       ",
"                                                      .............       %%%%%%%%%%%%%%......:::::::.......                                                      .......++++++----------------------------------------------------------------------------------@@@@@@*******-----------------------------------------------*******OOOOOOO++++++++++++++++++++++++++++++++++OOOOOO.......++++++++++++++++++++%%%%%%%%%%%%%%%%%%%%%%%%%%%%%%%%%%%%%%%%%%%%%%%%%%%%%%%%%%%%%%%%%%%%+++++++OOOOOOO::::::.......       ",
"                                                             ......:::::::.......%%%%%%%%%%%%%%%%%%%%.......%%%%%%%OOOOOO       OOOOOOO                                  ......*******---------------------------@@@@@@@----------------------------------@@@@@@@::::::.......-----------------------------------------------OOOOOOO+++++++++++++++++++++++++++++++++++++++++++++++++++++++++++++++++++++++++++++++++%%%%%%%%%%%%%%%%%%%%%%%%%%%%%%%%%%%%%%%%%++++++++++++++++++++....................              ",
"                                                             ......:::::::.......%%%%%%%%%%%%%%%%%%%%.......%%%%%%%OOOOOO       OOOOOOO                                  ......*******---------------------------@@@@@@@----------------------------------@@@@@@@::::::.......-----------------------------------------------OOOOOOO+++++++++++++++++++++++++++++++++++++++++++++++++++++++++++++++++++++++++++++++++%%%%%%%%%%%%%%%%%%%%%%%%%%%%%%%%%%%%%%%%%++++++++++++++++++++....................              ",
"                                                             ......:::::::.......%%%%%%%%%%%%%%%%%%%%.......%%%%%%%OOOOOO       OOOOOOO                                  ......*******---------------------------@@@@@@@----------------------------------@@@@@@@::::::.......-----------------------------------------------OOOOOOO+++++++++++++++++++++++++++++++++++++++++++++++++++++++++++++++++++++++++++++++++%%%%%%%%%%%%%%%%%%%%%%%%%%%%%%%%%%%%%%%%%++++++++++++++++++++....................              ",
"                                                             ......:::::::.......%%%%%%%%%%%%%%%%%%%%.......%%%%%%%OOOOOO       OOOOOOO                                  ......*******---------------------------@@@@@@@----------------------------------@@@@@@@::::::.......-----------------------------------------------OOOOOOO+++++++++++++++++++++++++++++++++++++++++++++++++++++++++++++++++++++++++++++++++%%%%%%%%%%%%%%%%%%%%%%%%%%%%%%%%%%%%%%%%%++++++++++++++++++++....................              ",
"                                                             ......:::::::.......%%%%%%%%%%%%%%%%%%%%.......%%%%%%%OOOOOO       OOOOOOO                                  ......*******---------------------------@@@@@@@----------------------------------@@@@@@@::::::.......-----------------------------------------------OOOOOOO+++++++++++++++++++++++++++++++++++++++++++++++++++++++++++++++++++++++++++++++++%%%%%%%%%%%%%%%%%%%%%%%%%%%%%%%%%%%%%%%%%++++++++++++++++++++....................              ",
"                                                             ......:::::::.......%%%%%%%%%%%%%%%%%%%%.......%%%%%%%OOOOOO       OOOOOOO                                  ......*******---------------------------@@@@@@@----------------------------------@@@@@@@::::::.......-----------------------------------------------OOOOOOO+++++++++++++++++++++++++++++++++++++++++++++++++++++++++++++++++++++++++++++++++%%%%%%%%%%%%%%%%%%%%%%%%%%%%%%%%%%%%%%%%%++++++++++++++++++++....................              ",
"                                                             ......:::::::.......%%%%%%%%%%%%%%%%%%%%.......%%%%%%%OOOOOO       OOOOOOO                                  ......*******---------------------------@@@@@@@----------------------------------@@@@@@@::::::.......-----------------------------------------------OOOOOOO+++++++++++++++++++++++++++++++++++++++++++++++++++++++++++++++++++++++++++++++++%%%%%%%%%%%%%%%%%%%%%%%%%%%%%%%%%%%%%%%%%++++++++++++++++++++....................              ",
"                                                             ......OOOOOOO%%%%%%%%%%%%%%%%%%%%%%%%%%%%%%%%%%%%%%%%%%%%%%%OOOOOOO%%%%%%%OOOOOOOOOOOOO       ....................+++++++---------------------@@@@@@:::::::@@@@@@@-------******.....................@@@@@@*******-----------------------------------------******OOOOOOO+++++++++++++++++++++++++++++++++++++++++++++++++++++++++++++++++++++++++++++++++%%%%%%%%%%%%%%%%%%%%%%%%%%%%%%%%%%++++++++++++++++++++.......:::::::OOOOOOO......              ",
"                                                             ......OOOOOOO%%%%%%%%%%%%%%%%%%%%%%%%%%%%%%%%%%%%%%%%%%%%%%%OOOOOOO%%%%%%%OOOOOOOOOOOOO       ....................+++++++---------------------@@@@@@:::::::@@@@@@@-------******.....................@@@@@@*******-----------------------------------------******OOOOOOO+++++++++++++++++++++++++++++++++++++++++++++++++++++++++++++++++++++++++++++++++%%%%%%%%%%%%%%%%%%%%%%%%%%%%%%%%%%++++++++++++++++++++.......:::::::OOOOOOO......              ",
"                                                             ......OOOOOOO%%%%%%%%%%%%%%%%%%%%%%%%%%%%%%%%%%%%%%%%%%%%%%%OOOOOOO%%%%%%%OOOOOOOOOOOOO       ....................+++++++---------------------@@@@@@:::::::@@@@@@@-------******.....................@@@@@@*******-----------------------------------------******OOOOOOO+++++++++++++++++++++++++++++++++++++++++++++++++++++++++++++++++++++++++++++++++%%%%%%%%%%%%%%%%%%%%%%%%%%%%%%%%%%++++++++++++++++++++.......:::::::OOOOOOO......              ",
"                                                             ......OOOOOOO%%%%%%%%%%%%%%%%%%%%%%%%%%%%%%%%%%%%%%%%%%%%%%%OOOOOOO%%%%%%%OOOOOOOOOOOOO       ....................+++++++---------------------@@@@@@:::::::@@@@@@@-------******.....................@@@@@@*******-----------------------------------------******OOOOOOO+++++++++++++++++++++++++++++++++++++++++++++++++++++++++++++++++++++++++++++++++%%%%%%%%%%%%%%%%%%%%%%%%%%%%%%%%%%++++++++++++++++++++.......:::::::OOOOOOO......              ",
"                                                             ......OOOOOOO%%%%%%%%%%%%%%%%%%%%%%%%%%%%%%%%%%%%%%%%%%%%%%%OOOOOOO%%%%%%%OOOOOOOOOOOOO       ....................+++++++---------------------@@@@@@:::::::@@@@@@@-------******.....................@@@@@@*******-----------------------------------------******OOOOOOO+++++++++++++++++++++++++++++++++++++++++++++++++++++++++++++++++++++++++++++++++%%%%%%%%%%%%%%%%%%%%%%%%%%%%%%%%%%++++++++++++++++++++.......:::::::OOOOOOO......              ",
"                                                             ......OOOOOOO%%%%%%%%%%%%%%%%%%%%%%%%%%%%%%%%%%%%%%%%%%%%%%%OOOOOOO%%%%%%%OOOOOOOOOOOOO       ....................+++++++---------------------@@@@@@:::::::@@@@@@@-------******.....................@@@@@@*******-----------------------------------------******OOOOOOO+++++++++++++++++++++++++++++++++++++++++++++++++++++++++++++++++++++++++++++++++%%%%%%%%%%%%%%%%%%%%%%%%%%%%%%%%%%++++++++++++++++++++.......:::::::OOOOOOO......              ",
"                                                             ......OOOOOOO%%%%%%%%%%%%%%%%%%%%%%%%%%%%%%%%%%%%%%%%%%%%%%%%%%%%%%%%%%%%%%%%%%%%%%%%%%+++++++++++++++++++++++++++.......*******--------------@@@@@@...........................*******--------------------------------------------------------------------OOOOOO++++++++++++++++++++++++++++++++++++++++++++++++++++++++++++++++++++++++++++++++++++++++%%%%%%%+++++++++++++%%%%%%%++++++++++++++++++++++++++++++++++....................              ",
"                                                             ......OOOOOOO%%%%%%%%%%%%%%%%%%%%%%%%%%%%%%%%%%%%%%%%%%%%%%%%%%%%%%%%%%%%%%%%%%%%%%%%%%+++++++++++++++++++++++++++.......*******--------------@@@@@@...........................*******--------------------------------------------------------------------OOOOOO++++++++++++++++++++++++++++++++++++++++++++++++++++++++++++++++++++++++++++++++++++++++%%%%%%%+++++++++++++%%%%%%%++++++++++++++++++++++++++++++++++....................              ",
"                                                             ......OOOOOOO%%%%%%%%%%%%%%%%%%%%%%%%%%%%%%%%%%%%%%%%%%%%%%%%%%%%%%%%%%%%%%%%%%%%%%%%%%+++++++++++++++++++++++++++.......*******--------------@@@@@@...........................*******--------------------------------------------------------------------OOOOOO++++++++++++++++++++++++++++++++++++++++++++++++++++++++++++++++++++++++++++++++++++++++%%%%%%%+++++++++++++%%%%%%%++++++++++++++++++++++++++++++++++....................              ",
"                                                             ......OOOOOOO%%%%%%%%%%%%%%%%%%%%%%%%%%%%%%%%%%%%%%%%%%%%%%%%%%%%%%%%%%%%%%%%%%%%%%%%%%+++++++++++++++++++++++++++.......*******--------------@@@@@@...........................*******--------------------------------------------------------------------OOOOOO++++++++++++++++++++++++++++++++++++++++++++++++++++++++++++++++++++++++++++++++++++++++%%%%%%%+++++++++++++%%%%%%%++++++++++++++++++++++++++++++++++....................              ",
"                                                             ......OOOOOOO%%%%%%%%%%%%%%%%%%%%%%%%%%%%%%%%%%%%%%%%%%%%%%%%%%%%%%%%%%%%%%%%%%%%%%%%%%+++++++++++++++++++++++++++.......*******--------------@@@@@@...........................*******--------------------------------------------------------------------OOOOOO++++++++++++++++++++++++++++++++++++++++++++++++++++++++++++++++++++++++++++++++++++++++%%%%%%%+++++++++++++%%%%%%%++++++++++++++++++++++++++++++++++....................              ",
"                                                             ......OOOOOOO%%%%%%%%%%%%%%%%%%%%%%%%%%%%%%%%%%%%%%%%%%%%%%%%%%%%%%%%%%%%%%%%%%%%%%%%%%+++++++++++++++++++++++++++.......*******--------------@@@@@@...........................*******--------------------------------------------------------------------OOOOOO++++++++++++++++++++++++++++++++++++++++++++++++++++++++++++++++++++++++++++++++++++++++%%%%%%%+++++++++++++%%%%%%%++++++++++++++++++++++++++++++++++....................              ",
"                                                             ......OOOOOOO%%%%%%%%%%%%%%%%%%%%%%%%%%%%%%%%%%%%%%%%%%%%%%%%%%%%%%%%%%%%%%%%%%%%%%%%%%+++++++++++++++++++++++++++.......*******--------------@@@@@@...........................*******--------------------------------------------------------------------OOOOOO++++++++++++++++++++++++++++++++++++++++++++++++++++++++++++++++++++++++++++++++++++++++%%%%%%%+++++++++++++%%%%%%%++++++++++++++++++++++++++++++++++....................              ",
"                                                      .......::::::OOOOOOO%%%%%%%%%%%%%%%%%%%%%%%%%%%%%%%%%%%%%%%%%%%%%%%%%%%%%%%%%%%%%%%%%%%%%%%%%%%%%%%%%++++++++++++++++++++.......+++++++-------------------------------------------------------------------------------------------------------------------OOOOOOO++++++++++++++++++++++++++++++++++++++++++++++++++++++++++++++++++++++++++++++++++++++++++++++++++++++++++++++++++++++++++++++++++++++++++++++++++++++++++++++++++.............              ",
"                                                      .......::::::OOOOOOO%%%%%%%%%%%%%%%%%%%%%%%%%%%%%%%%%%%%%%%%%%%%%%%%%%%%%%%%%%%%%%%%%%%%%%%%%%%%%%%%%++++++++++++++++++++.......+++++++-------------------------------------------------------------------------------------------------------------------OOOOOOO++++++++++++++++++++++++++++++++++++++++++++++++++++++++++++++++++++++++++++++++++++++++++++++++++++++++++++++++++++++++++++++++++++++++++++++++++++++++++++++++++.............              ",
"                                                      .......::::::OOOOOOO%%%%%%%%%%%%%%%%%%%%%%%%%%%%%%%%%%%%%%%%%%%%%%%%%%%%%%%%%%%%%%%%%%%%%%%%%%%%%%%%%++++++++++++++++++++.......+++++++-------------------------------------------------------------------------------------------------------------------OOOOOOO++++++++++++++++++++++++++++++++++++++++++++++++++++++++++++++++++++++++++++++++++++++++++++++++++++++++++++++++++++++++++++++++++++++++++++++++++++++++++++++++++.............              ",
"                                                      .......::::::OOOOOOO%%%%%%%%%%%%%%%%%%%%%%%%%%%%%%%%%%%%%%%%%%%%%%%%%%%%%%%%%%%%%%%%%%%%%%%%%%%%%%%%%++++++++++++++++++++.......+++++++-------------------------------------------------------------------------------------------------------------------OOOOOOO++++++++++++++++++++++++++++++++++++++++++++++++++++++++++++++++++++++++++++++++++++++++++++++++++++++++++++++++++++++++++++++++++++++++++++++++++++++++++++++++++.............              ",
"                                                      .......::::::OOOOOOO%%%%%%%%%%%%%%%%%%%%%%%%%%%%%%%%%%%%%%%%%%%%%%%%%%%%%%%%%%%%%%%%%%%%%%%%%%%%%%%%%++++++++++++++++++++.......+++++++-------------------------------------------------------------------------------------------------------------------OOOOOOO++++++++++++++++++++++++++++++++++++++++++++++++++++++++++++++++++++++++++++++++++++++++++++++++++++++++++++++++++++++++++++++++++++++++++++++++++++++++++++++++++.............              ",
"                                                      .......::::::OOOOOOO%%%%%%%%%%%%%%%%%%%%%%%%%%%%%%%%%%%%%%%%%%%%%%%%%%%%%%%%%%%%%%%%%%%%%%%%%%%%%%%%%++++++++++++++++++++.......+++++++-------------------------------------------------------------------------------------------------------------------OOOOOOO++++++++++++++++++++++++++++++++++++++++++++++++++++++++++++++++++++++++++++++++++++++++++++++++++++++++++++++++++++++++++++++++++++++++++++++++++++++++++++++++++.............              ",
"                                                      .......::::::OOOOOOO%%%%%%%%%%%%%%%%%%%%%%%%%%%%%%%%%%%%%%%%%%%%%%%%%%%%%%%%%%%%%%%%%%%%%%%%%%%%%%%%%++++++++++++++++++++.......+++++++-------------------------------------------------------------------------------------------------------------------OOOOOOO++++++++++++++++++++++++++++++++++++++++++++++++++++++++++++++++++++++++++++++++++++++++++++++++++++++++++++++++++++++++++++++++++++++++++++++++++++++++++++++++++.............              ",
"                                                             ......OOOOOOOOOOOOOO+++++++++++++%%%%%%%%%%%%%%%%%%%%%%%%%%%%%%%%%%%%%%%%%%%%%%%%%%%%%%++++++++++++++++++++++++++++++++++.......OOOOOOO-----------------------------------------------------------------------------------------------------OOOOOOO++++++++++++++++++++++++++++++++++++++++++++++++++++++++++++++++++++++++++++++++++++++++++++++++++++++++++++++++++++++++++++++++++++++++++++++++++++++++++++++++++.......                           ",
"                                                             ......OOOOOOOOOOOOOO+++++++++++++%%%%%%%%%%%%%%%%%%%%%%%%%%%%%%%%%%%%%%%%%%%%%%%%%%%%%%++++++++++++++++++++++++++++++++++.......OOOOOOO-----------------------------------------------------------------------------------------------------OOOOOOO++++++++++++++++++++++++++++++++++++++++++++++++++++++++++++++++++++++++++++++++++++++++++++++++++++++++++++++++++++++++++++++++++++++++++++++++++++++++++++++++++.......                           ",
"                                                             ......OOOOOOOOOOOOOO+++++++++++++%%%%%%%%%%%%%%%%%%%%%%%%%%%%%%%%%%%%%%%%%%%%%%%%%%%%%%++++++++++++++++++++++++++++++++++.......OOOOOOO-----------------------------------------------------------------------------------------------------OOOOOOO++++++++++++++++++++++++++++++++++++++++++++++++++++++++++++++++++++++++++++++++++++++++++++++++++++++++++++++++++++++++++++++++++++++++++++++++++++++++++++++++++.......                           ",
"                                                             ......OOOOOOOOOOOOOO+++++++++++++%%%%%%%%%%%%%%%%%%%%%%%%%%%%%%%%%%%%%%%%%%%%%%%%%%%%%%++++++++++++++++++++++++++++++++++.......OOOOOOO-----------------------------------------------------------------------------------------------------OOOOOOO++++++++++++++++++++++++++++++++++++++++++++++++++++++++++++++++++++++++++++++++++++++++++++++++++++++++++++++++++++++++++++++++++++++++++++++++++++++++++++++++++.......                           ",
"                                                             ......OOOOOOOOOOOOOO+++++++++++++%%%%%%%%%%%%%%%%%%%%%%%%%%%%%%%%%%%%%%%%%%%%%%%%%%%%%%++++++++++++++++++++++++++++++++++.......OOOOOOO-----------------------------------------------------------------------------------------------------OOOOOOO++++++++++++++++++++++++++++++++++++++++++++++++++++++++++++++++++++++++++++++++++++++++++++++++++++++++++++++++++++++++++++++++++++++++++++++++++++++++++++++++++.......                           ",
"                                                             ......OOOOOOOOOOOOOO+++++++++++++%%%%%%%%%%%%%%%%%%%%%%%%%%%%%%%%%%%%%%%%%%%%%%%%%%%%%%++++++++++++++++++++++++++++++++++.......OOOOOOO-----------------------------------------------------------------------------------------------------OOOOOOO++++++++++++++++++++++++++++++++++++++++++++++++++++++++++++++++++++++++++++++++++++++++++++++++++++++++++++++++++++++++++++++++++++++++++++++++++++++++++++++++++.......                           ",
"                                                             ......OOOOOOOOOOOOOO+++++++++++++%%%%%%%%%%%%%%%%%%%%%%%%%%%%%%%%%%%%%%%%%%%%%%%%%%%%%%++++++++++++++++++++++++++++++++++.......OOOOOOO-----------------------------------------------------------------------------------------------------OOOOOOO++++++++++++++++++++++++++++++++++++++++++++++++++++++++++++++++++++++++++++++++++++++++++++++++++++++++++++++++++++++++++++++++++++++++++++++++++++++++++++++++++.......                           ",
"                                                             ......OOOOOOO:::::::++++++++++++++++++++%%%%%%%%%%%%%%%%%%%%%%%%%%%%%%%%%%+++++++++++++++++++++++++++++++++++++++++++++++.......OOOOOOOOOOOOOO---------------------------------------------------------------------------------######OOOOOOO++++++++++++++-------------OOOOOOOOOOOOOO+++++++++++++++++++++++++++++++++++++++++++++++++++++++++++++++++++++++++++++++++++++++++++++++++++++++++++++++++++++++++.......                                  ",
"                                                             ......OOOOOOO:::::::++++++++++++++++++++%%%%%%%%%%%%%%%%%%%%%%%%%%%%%%%%%%+++++++++++++++++++++++++++++++++++++++++++++++.......OOOOOOOOOOOOOO---------------------------------------------------------------------------------######OOOOOOO++++++++++++++-------------OOOOOOOOOOOOOO+++++++++++++++++++++++++++++++++++++++++++++++++++++++++++++++++++++++++++++++++++++++++++++++++++++++++++++++++++++++++.......                                  ",
"                                                             ......OOOOOOO:::::::++++++++++++++++++++%%%%%%%%%%%%%%%%%%%%%%%%%%%%%%%%%%+++++++++++++++++++++++++++++++++++++++++++++++.......OOOOOOOOOOOOOO---------------------------------------------------------------------------------######OOOOOOO++++++++++++++-------------OOOOOOOOOOOOOO+++++++++++++++++++++++++++++++++++++++++++++++++++++++++++++++++++++++++++++++++++++++++++++++++++++++++++++++++++++++++.......                                  ",
"                                                             ......OOOOOOO:::::::++++++++++++++++++++%%%%%%%%%%%%%%%%%%%%%%%%%%%%%%%%%%+++++++++++++++++++++++++++++++++++++++++++++++.......OOOOOOOOOOOOOO---------------------------------------------------------------------------------######OOOOOOO++++++++++++++-------------OOOOOOOOOOOOOO+++++++++++++++++++++++++++++++++++++++++++++++++++++++++++++++++++++++++++++++++++++++++++++++++++++++++++++++++++++++++.......                                  ",
"                                                             ......OOOOOOO:::::::++++++++++++++++++++%%%%%%%%%%%%%%%%%%%%%%%%%%%%%%%%%%+++++++++++++++++++++++++++++++++++++++++++++++.......OOOOOOOOOOOOOO---------------------------------------------------------------------------------######OOOOOOO++++++++++++++-------------OOOOOOOOOOOOOO+++++++++++++++++++++++++++++++++++++++++++++++++++++++++++++++++++++++++++++++++++++++++++++++++++++++++++++++++++++++++.......                                  ",
"                                                             ......OOOOOOO:::::::++++++++++++++++++++%%%%%%%%%%%%%%%%%%%%%%%%%%%%%%%%%%+++++++++++++++++++++++++++++++++++++++++++++++.......OOOOOOOOOOOOOO---------------------------------------------------------------------------------######OOOOOOO++++++++++++++-------------OOOOOOOOOOOOOO+++++++++++++++++++++++++++++++++++++++++++++++++++++++++++++++++++++++++++++++++++++++++++++++++++++++++++++++++++++++++.......                                  ",
"                                                                   .......+++++++++++++++++++++++++++++++++++++++++++++++%%%%%%%+++++++++++++++++++++++++++++++++++++++++.............--------------OOOOOOOOOOOOOOOOOOOO#######========---------------------------=====*********************------------------------------------------------------OOOOOO+++++++++++++++++++++++++++++++++++++++++++++++++++++++++++++++++++++++++++++++++++++++++++++++++++++++++++++++++++.......                                  ",
"                                                                   .......+++++++++++++++++++++++++++++++++++++++++++++++%%%%%%%+++++++++++++++++++++++++++++++++++++++++.............--------------OOOOOOOOOOOOOOOOOOOO#######=======----------------------------=====*********************------------------------------------------------------OOOOOO+++++++++++++++++++++++++++++++++++++++++++++++++++++++++++++++++++++++++++++++++++++++++++++++++++++++++++++++++++.......                                  ",
"                                                                   .......+++++++++++++++++++++++++++++++++++++++++++++++%%%%%%%+++++++++++++++++++++++++++++++++++++++++.............--------------OOOOOOOOOOOOOOOOOOOO#######========---------------------------=====*********************------------------------------------------------------OOOOOO+++++++++++++++++++++++++++++++++++++++++++++++++++++++++++++++++++++++++++++++++++++++++++++++++++++++++++++++++++.......                                  ",
"                                                                   .......+++++++++++++++++++++++++++++++++++++++++++++++%%%%%%%+++++++++++++++++++++++++++++++++++++++++.............--------------OOOOOOOOOOOOOOOOOOOO#######=======---------------------------======*********************------------------------------------------------------OOOOOO+++++++++++++++++++++++++++++++++++++++++++++++++++++++++++++++++++++++++++++++++++++++++++++++++++++++++++++++++++.......                                  ",
"                                                                   .......+++++++++++++++++++++++++++++++++++++++++++++++%%%%%%%+++++++++++++++++++++++++++++++++++++++++.............--------------OOOOOOOOOOOOOOOOOOOO#######========--------------------------======*********************------------------------------------------------------OOOOOO+++++++++++++++++++++++++++++++++++++++++++++++++++++++++++++++++++++++++++++++++++++++++++++++++++++++++++++++++++.......                                  ",
"                                                                   .......+++++++++++++++++++++++++++++++++++++++++++++++%%%%%%%+++++++++++++++++++++++++++++++++++++++++.............--------------OOOOOOOOOOOOOOOOOOOO#######========---------------------------=====*********************------------------------------------------------------OOOOOO+++++++++++++++++++++++++++++++++++++++++++++++++++++++++++++++++++++++++++++++++++++++++++++++++++++++++++++++++++.......                                  ",
"                                                                   .......+++++++++++++++++++++++++++++++++++++++++++++++%%%%%%%+++++++++++++++++++++++++++++++++++++++++.............--------------OOOOOOOOOOOOOOOOOOOO#######=======----------------------------=====*********************------------------------------------------------------OOOOOO+++++++++++++++++++++++++++++++++++++++++++++++++++++++++++++++++++++++++++++++++++++++++++++++++++++++++++++++++++.......                                  ",
"                                                                          .......+++++++++++++++++++++++++++++++++++++++++++++++++++++++++++++++++++++++++++++++++.......------------------------------------------------======***********************************************=======-------------------------------------------------------------******OOOOOOOOOOOOOO+++++++++++++++++++++++++++++++++++++++++++++++++++++++++++++++++++++++++++++++++..............                                               ",
"                                                                          .......+++++++++++++++++++++++++++++++++++++++++++++++++++++++++++++++++++++++++++++++++.......------------------------------------------------======***********************************************=======-------------------------------------------------------------******OOOOOOOOOOOOOO+++++++++++++++++++++++++++++++++++++++++++++++++++++++++++++++++++++++++++++++++..............                                               ",
"                                                                          .......+++++++++++++++++++++++++++++++++++++++++++++++++++++++++++++++++++++++++++++++++.......------------------------------------------------======***********************************************-=======------------------------------------------------------------******OOOOOOOOOOOOOO+++++++++++++++++++++++++++++++++++++++++++++++++++++++++++++++++++++++++++++++++..............                                               ",
"                                                                          .......+++++++++++++++++++++++++++++++++++++++++++++++++++++++++++++++++++++++++++++++++.......------------------------------------------------======***********************************************=======-------------------------------------------------------------******OOOOOOOOOOOOOO+++++++++++++++++++++++++++++++++++++++++++++++++++++++++++++++++++++++++++++++++..............                                               ",
"                                                                          .......+++++++++++++++++++++++++++++++++++++++++++++++++++++++++++++++++++++++++++++++++.......------------------------------------------------======***********************************************=======-------------------------------------------------------------******OOOOOOOOOOOOOO+++++++++++++++++++++++++++++++++++++++++++++++++++++++++++++++++++++++++++++++++..............                                               ",
"                                                                          .......+++++++++++++++++++++++++++++++++++++++++++++++++++++++++++++++++++++++++++++++++.......------------------------------------------------======***********************************************=======-------------------------------------------------------------******OOOOOOOOOOOOOO+++++++++++++++++++++++++++++++++++++++++++++++++++++++++++++++++++++++++++++++++..............                                               ",
"                                                                          .......+++++++++++++++++++++++++++++++++++++++++++++++++++++++++++++++++++++++++++++++++.......------------------------------------------------======***********************************************=======-------------------------------------------------------------******OOOOOOOOOOOOOO+++++++++++++++++++++++++++++++++++++++++++++++++++++++++++++++++++++++++++++++++..............                                               ",
"                                                                                 .......+++++++++++++++++++++++++++++++++++++++++++++++++++++++++++++++++++.......--------------------------------------------------------------======***************************=======----------------------------------------------------------------------------------------------+++++++++++++++++++++++++++++++++++++++++++++++++++++++++++++++++++++++++++++++++.......                                                      ",
"                                                                                 .......+++++++++++++++++++++++++++++++++++++++++++++++++++++++++++++++++++.......--------------------------------------------------------------======***************************=======----------------------------------------------------------------------------------------------+++++++++++++++++++++++++++++++++++++++++++++++++++++++++++++++++++++++++++++++++.......                                                      ",
"                                                                                 .......+++++++++++++++++++++++++++++++++++++++++++++++++++++++++++++++++++.......--------------------------------------------------------------======***************************=======----------------------------------------------------------------------------------------------+++++++++++++++++++++++++++++++++++++++++++++++++++++++++++++++++++++++++++++++++.......                                                      ",
"                                                                                 .......+++++++++++++++++++++++++++++++++++++++++++++++++++++++++++++++++++.......-------------------------------------------------------------=======***************************=======----------------------------------------------------------------------------------------------+++++++++++++++++++++++++++++++++++++++++++++++++++++++++++++++++++++++++++++++++.......                                                      ",
"                                                                                 .......+++++++++++++++++++++++++++++++++++++++++++++++++++++++++++++++++++.......-------------------------------------------------------------=======***************************=======----------------------------------------------------------------------------------------------+++++++++++++++++++++++++++++++++++++++++++++++++++++++++++++++++++++++++++++++++.......                                                      ",
"                                                                                 .......+++++++++++++++++++++++++++++++++++++++++++++++++++++++++++++++++++.......--------------------------------------------------------------======***************************=======----------------------------------------------------------------------------------------------+++++++++++++++++++++++++++++++++++++++++++++++++++++++++++++++++++++++++++++++++.......                                                      ",
"                                                                                 .......+++++++++++++++++++++++++++++++++++++++++++++++++++++++++++++++++++.......--------------------------------------------------------------======***************************=======----------------------------------------------------------------------------------------------+++++++++++++++++++++++++++++++++++++++++++++++++++++++++++++++++++++++++++++++++.......                                                      ",
"                                                                                 .............++++++++++++++++++++++++++++++++++++++++++++++++++++++.......------------------------------------------------------------------------------------------------------------------------------------------------------------------------------------------------------------------+++++++++++++++++++++++++++++++++++++++++++++++++++++++++++++++++++..............                                                      ",
"                                                                                 .............++++++++++++++++++++++++++++++++++++++++++++++++++++++.......------------------------------------------------------------------------------------------------------------------------------------------------------------------------------------------------------------------+++++++++++++++++++++++++++++++++++++++++++++++++++++++++++++++++++..............                                                      ",
"                                                                                 .............++++++++++++++++++++++++++++++++++++++++++++++++++++++.......------------------------------------------------------------------------------------------------------------------------------------------------------------------------------------------------------------------+++++++++++++++++++++++++++++++++++++++++++++++++++++++++++++++++++..............                                                      ",
"                                                                                 .............++++++++++++++++++++++++++++++++++++++++++++++++++++++.......------------------------------------------------------------------------------------------------------------------------------------------------------------------------------------------------------------------+++++++++++++++++++++++++++++++++++++++++++++++++++++++++++++++++++..............                                                      ",
"                                                                                 .............++++++++++++++++++++++++++++++++++++++++++++++++++++++.......------------------------------------------------------------------------------------------------------------------------------------------------------------------------------------------------------------------+++++++++++++++++++++++++++++++++++++++++++++++++++++++++++++++++++..............                                                      ",
"                                                                                 .............++++++++++++++++++++++++++++++++++++++++++++++++++++++.......------------------------------------------------------------------------------------------------------------------------------------------------------------------------------------------------------------------+++++++++++++++++++++++++++++++++++++++++++++++++++++++++++++++++++..............                                                      ",
"                                                                                                     .......++++++++++++++++++++++++++++++++++......-------------------------------------------------------------------------------------------------------------------------------------------------------------------------------------------------------------------------------++++++++++++++++++++++++++++++++++++++++++++++++OOOOOO.......++++++++++++++.......                                               ",
"                                                                                                     .......++++++++++++++++++++++++++++++++++......-------------------------------------------------------------------------------------------------------------------------------------------------------------------------------------------------------------------------------++++++++++++++++++++++++++++++++++++++++++++++++OOOOOO.......++++++++++++++.......                                               ",
"                                                                                                     .......++++++++++++++++++++++++++++++++++......-------------------------------------------------------------------------------------------------------------------------------------------------------------------------------------------------------------------------------++++++++++++++++++++++++++++++++++++++++++++++++OOOOOO.......++++++++++++++.......                                               ",
"                                                                                                     .......++++++++++++++++++++++++++++++++++......-------------------------------------------------------------------------------------------------------------------------------------------------------------------------------------------------------------------------------++++++++++++++++++++++++++++++++++++++++++++++++OOOOOO.......++++++++++++++.......                                               ",
"                                                                                                     .......++++++++++++++++++++++++++++++++++......-------------------------------------------------------------------------------------------------------------------------------------------------------------------------------------------------------------------------------++++++++++++++++++++++++++++++++++++++++++++++++OOOOOO.......++++++++++++++.......                                               ",
"                                                                                                     .......++++++++++++++++++++++++++++++++++......-------------------------------------------------------------------------------------------------------------------------------------------------------------------------------------------------------------------------------++++++++++++++++++++++++++++++++++++++++++++++++OOOOOO.......++++++++++++++.......                                               ",
"                                                                                                     .......++++++++++++++++++++++++++++++++++......-------------------------------------------------------------------------------------------------------------------------------------------------------------------------------------------------------------------------------++++++++++++++++++++++++++++++++++++++++++++++++OOOOOO.......++++++++++++++.......                                               ",
"                                                                                                            .............+++++++..............-------------------------------------------------------------------------------------------------------------------------------------------------------------------------------------------------------------------------------------OOOOOOO+++++++++++++++++++++++++++OOOOOOO++++++++++++++++++++++++++++++++++OOOOOOO.............                                  ",
"                                                                                                            .............+++++++..............-------------------------------------------------------------------------------------------------------------------------------------------------------------------------------------------------------------------------------------OOOOOOO+++++++++++++++++++++++++++OOOOOOO++++++++++++++++++++++++++++++++++OOOOOOO.............                                  ",
"                                                                                                            .............+++++++..............-------------------------------------------------------------------------------------------------------------------------------------------------------------------------------------------------------------------------------------OOOOOOO+++++++++++++++++++++++++++OOOOOOO++++++++++++++++++++++++++++++++++OOOOOOO.............                                  ",
"                                                                                                            .............+++++++..............-------------------------------------------------------------------------------------------------------------------------------------------------------------------------------------------------------------------------------------OOOOOOO+++++++++++++++++++++++++++OOOOOOO++++++++++++++++++++++++++++++++++OOOOOOO.............                                  ",
"                                                                                                            .............+++++++..............-------------------------------------------------------------------------------------------------------------------------------------------------------------------------------------------------------------------------------------OOOOOOO+++++++++++++++++++++++++++OOOOOOO++++++++++++++++++++++++++++++++++OOOOOOO.............                                  ",
"                                                                                                            .............+++++++..............-------------------------------------------------------------------------------------------------------------------------------------------------------------------------------------------------------------------------------------OOOOOOO+++++++++++++++++++++++++++OOOOOOO++++++++++++++++++++++++++++++++++OOOOOOO.............                                  ",
"                                                                                                            .............+++++++..............-------------------------------------------------------------------------------------------------------------------------------------------------------------------------------------------------------------------------------------OOOOOOO+++++++++++++++++++++++++++OOOOOOO++++++++++++++++++++++++++++++++++OOOOOOO.............                                  ",
"                                                                                                                         .....................--------------------------------------------------------------------------------------------------------------------------------------------------------------------------------------------------------------------------------------------OOOOOOO++++++++++++++++++++++++++++++++++++++++++++++++++++++OOOOOOO+++++++....................                           ",
"                                                                                                                         .....................--------------------------------------------------------------------------------------------------------------------------------------------------------------------------------------------------------------------------------------------OOOOOOO++++++++++++++++++++++++++++++++++++++++++++++++++++++OOOOOOO+++++++....................                           ",
"                                                                                                                         .....................--------------------------------------------------------------------------------------------------------------------------------------------------------------------------------------------------------------------------------------------OOOOOOO++++++++++++++++++++++++++++++++++++++++++++++++++++++OOOOOOO+++++++....................                           ",
"                                                                                                                         .....................--------------------------------------------------------------------------------------------------------------------------------------------------------------------------------------------------------------------------------------------OOOOOOO++++++++++++++++++++++++++++++++++++++++++++++++++++++OOOOOOO+++++++....................                           ",
"                                                                                                                         .....................--------------------------------------------------------------------------------------------------------------------------------------------------------------------------------------------------------------------------------------------OOOOOOO++++++++++++++++++++++++++++++++++++++++++++++++++++++OOOOOOO+++++++....................                           ",
"                                                                                                                         .....................--------------------------------------------------------------------------------------------------------------------------------------------------------------------------------------------------------------------------------------------OOOOOOO++++++++++++++++++++++++++++++++++++++++++++++++++++++OOOOOOO+++++++....................                           ",
"                                                                                                                         .....................--------------------------------------------------------------------------------------------------------------------------------------------------------------------------------------------------------------------------------------------OOOOOOO++++++++++++++++++++++++++++++++++++++++++++++++++++++OOOOOOO+++++++....................                           ",
"                                                                                                                         .......----------------------------------------------------------------------------------------------------------------------------------------------------------------------------------------------------------------------------------------------------------OOOOOOO+++++++++++++++++++++++++++++++++++++++++++++++OOOOOOOOOOOOOO+++++++OOOOOOOOOOOOO.......                           ",
"                                                                                                                         .......----------------------------------------------------------------------------------------------------------------------------------------------------------------------------------------------------------------------------------------------------------OOOOOOO+++++++++++++++++++++++++++++++++++++++++++++++OOOOOOOOOOOOOO+++++++OOOOOOOOOOOOO.......                           ",
"                                                                                                                         .......----------------------------------------------------------------------------------------------------------------------------------------------------------------------------------------------------------------------------------------------------------OOOOOOO+++++++++++++++++++++++++++++++++++++++++++++++OOOOOOOOOOOOOO+++++++OOOOOOOOOOOOO.......                           ",
"                                                                                                                         .......----------------------------------------------------------------------------------------------------------------------------------------------------------------------------------------------------------------------------------------------------------OOOOOOO+++++++++++++++++++++++++++++++++++++++++++++++OOOOOOOOOOOOOO+++++++OOOOOOOOOOOOO.......                           ",
"                                                                                                                         .......----------------------------------------------------------------------------------------------------------------------------------------------------------------------------------------------------------------------------------------------------------OOOOOOO+++++++++++++++++++++++++++++++++++++++++++++++OOOOOOOOOOOOOO+++++++OOOOOOOOOOOOO.......                           ",
"                                                                                                                         .......----------------------------------------------------------------------------------------------------------------------------------------------------------------------------------------------------------------------------------------------------------OOOOOOO+++++++++++++++++++++++++++++++++++++++++++++++OOOOOOOOOOOOOO+++++++OOOOOOOOOOOOO.......                           ",
"                                                                                                                         .......-----------------------------------------------------------------------------------------------------------------------------------------------------------------------------------------------------------------------------------------------------------======OOOOOOO+++++++++++++++++++++++++++++++++OOOOOOOOOOOOOOOOOOOOOOOOOOOOOOOOOOOOOOOOOOOOOOOO.......                    ",
"                                                                                                                         .......-----------------------------------------------------------------------------------------------------------------------------------------------------------------------------------------------------------------------------------------------------------======OOOOOOO+++++++++++++++++++++++++++++++++OOOOOOOOOOOOOOOOOOOOOOOOOOOOOOOOOOOOOOOOOOOOOOOO.......                    ",
"                                                                                                                         .......-----------------------------------------------------------------------------------------------------------------------------------------------------------------------------------------------------------------------------------------------------------======OOOOOOO+++++++++++++++++++++++++++++++++OOOOOOOOOOOOOOOOOOOOOOOOOOOOOOOOOOOOOOOOOOOOOOOO.......                    ",
"                                                                                                                         .......-----------------------------------------------------------------------------------------------------------------------------------------------------------------------------------------------------------------------------------------------------------======OOOOOOO+++++++++++++++++++++++++++++++++OOOOOOOOOOOOOOOOOOOOOOOOOOOOOOOOOOOOOOOOOOOOOOOO.......                    ",
"                                                                                                                         .......-----------------------------------------------------------------------------------------------------------------------------------------------------------------------------------------------------------------------------------------------------------======OOOOOOO+++++++++++++++++++++++++++++++++OOOOOOOOOOOOOOOOOOOOOOOOOOOOOOOOOOOOOOOOOOOOOOOO.......                    ",
"                                                                                                                         .......---------------------------------------------------------------------------------------------------------------------------------------------------------------------------------------------------------------------------------------------------------========OOOOOOO+++++++++++++++++++++++++++++++++OOOOOOOOOOOOOOOOOOOOOOOOOOOOOOOOOOOOOOOOOOOOOOOO.......                    ",
"                                                                                                                         .......-----------------------------------------------------------------------------------------------------------------------------------------------------------------------------------------------------------------------------------------------------------======OOOOOOO+++++++++++++++++++++++++++++++++OOOOOOOOOOOOOOOOOOOOOOOOOOOOOOOOOOOOOOOOOOOOOOOO.......                    ",
"                                                                                                                   ......------------------------------------------------------------------------------------------------------------------------------------------------------------------------------------------------------------------------------------------------------------------------OOOOOOO+++++++++++++++++++++++++++OOOOOOOOOOOOOOOOOOOOOOOOOOOOOOOOOOOOOOOOOOOOOOOOOOOOOO.......                    ",
"                                                                                                                   ......------------------------------------------------------------------------------------------------------------------------------------------------------------------------------------------------------------------------------------------------------------------------OOOOOOO+++++++++++++++++++++++++++OOOOOOOOOOOOOOOOOOOOOOOOOOOOOOOOOOOOOOOOOOOOOOOOOOOOOO.......                    ",
"                                                                                                                   ......------------------------------------------------------------------------------------------------------------------------------------------------------------------------------------------------------------------------------------------------------------------------OOOOOOO+++++++++++++++++++++++++++OOOOOOOOOOOOOOOOOOOOOOOOOOOOOOOOOOOOOOOOOOOOOOOOOOOOOO.......                    ",
"                                                                                                                   ......------------------------------------------------------------------------------------------------------------------------------------------------------------------------------------------------------------------------------------------------------------------------OOOOOOO+++++++++++++++++++++++++++OOOOOOOOOOOOOOOOOOOOOOOOOOOOOOOOOOOOOOOOOOOOOOOOOOOOOO.......                    ",
"                                                                                                                   ......------------------------------------------------------------------------------------------------------------------------------------------------------------------------------------------------------------------------------------------------------------------------OOOOOOO+++++++++++++++++++++++++++OOOOOOOOOOOOOOOOOOOOOOOOOOOOOOOOOOOOOOOOOOOOOOOOOOOOOO.......                    ",
"                                                                                                                   ......------------------------------------------------------------------------------------------------------------------------------------------------------------------------------------------------------------------------------------------------------------------------OOOOOOO+++++++++++++++++++++++++++OOOOOOOOOOOOOOOOOOOOOOOOOOOOOOOOOOOOOOOOOOOOOOOOOOOOOO.......                    ",
"                                                                                                                   ......------------------------------------------------------------------------------------------------------------------------------------------------------------------------------------------------------------------------------------------------------------------------OOOOOOO+++++++++++++++++++++++++++OOOOOOOOOOOOOOOOOOOOOOOOOOOOOOOOOOOOOOOOOOOOOOOOOOOOOO.......                    ",
"                                                                                                                   ......------------------------------------------------------------------------------------------------------------------------------------------------------------------------------------------------------------------------------------------------------------------------OOOOOOO++++++OOOOOOOOOOOOOOOOOOOOOOOOOOOOOOOOOOOOOOOOOOOOOOOOOOOOOOOOOOOOOOOOOOOOOOOOOOO.......                    ",
"                                                                                                                   ......------------------------------------------------------------------------------------------------------------------------------------------------------------------------------------------------------------------------------------------------------------------------OOOOOOO++++++OOOOOOOOOOOOOOOOOOOOOOOOOOOOOOOOOOOOOOOOOOOOOOOOOOOOOOOOOOOOOOOOOOOOOOOOOOO.......                    ",
"                                                                                                                   ......------------------------------------------------------------------------------------------------------------------------------------------------------------------------------------------------------------------------------------------------------------------------OOOOOOO++++++OOOOOOOOOOOOOOOOOOOOOOOOOOOOOOOOOOOOOOOOOOOOOOOOOOOOOOOOOOOOOOOOOOOOOOOOOOO.......                    ",
"                                                                                                                   ......------------------------------------------------------------------------------------------------------------------------------------------------------------------------------------------------------------------------------------------------------------------------OOOOOOO++++++OOOOOOOOOOOOOOOOOOOOOOOOOOOOOOOOOOOOOOOOOOOOOOOOOOOOOOOOOOOOOOOOOOOOOOOOOOO.......                    ",
"                                                                                                                   ......------------------------------------------------------------------------------------------------------------------------------------------------------------------------------------------------------------------------------------------------------------------------OOOOOOO++++++OOOOOOOOOOOOOOOOOOOOOOOOOOOOOOOOOOOOOOOOOOOOOOOOOOOOOOOOOOOOOOOOOOOOOOOOOOO.......                    ",
"                                                                                                                   ......------------------------------------------------------------------------------------------------------------------------------------------------------------------------------------------------------------------------------------------------------------------------OOOOOOO++++++OOOOOOOOOOOOOOOOOOOOOOOOOOOOOOOOOOOOOOOOOOOOOOOOOOOOOOOOOOOOOOOOOOOOOOOOOOO.......                    ",
"                                                                                                                   ......------------------------------------------------------------------------------------------------------------------------------------------------------------------------------------------------------------------------------------------------------------------------OOOOOOO++++++OOOOOOOOOOOOOOOOOOOOOOOOOOOOOOOOOOOOOOOOOOOOOOOOOOOOOOOOOOOOOOOOOOOOOOOOOOO.......                    ",
"                                                                                                                   ......-------------------------------------------------------------------------------------------------------------------------------------------------------------------------------------------------------------------------------------------------------------------------------OOOOOOOOOOOOOOOOOOOOOOOOOOOOOOOOOOOOOOOOOOOOOOOOOOOOOOOOOOOOOOOOOOOOOOOOOOOOOOOOOOOOOOOO......              ",
"                                                                                                                   ......-------------------------------------------------------------------------------------------------------------------------------------------------------------------------------------------------------------------------------------------------------------------------------OOOOOOOOOOOOOOOOOOOOOOOOOOOOOOOOOOOOOOOOOOOOOOOOOOOOOOOOOOOOOOOOOOOOOOOOOOOOOOOOOOOOOOOO......              ",
"                                                                                                                   ......-------------------------------------------------------------------------------------------------------------------------------------------------------------------------------------------------------------------------------------------------------------------------------OOOOOOOOOOOOOOOOOOOOOOOOOOOOOOOOOOOOOOOOOOOOOOOOOOOOOOOOOOOOOOOOOOOOOOOOOOOOOOOOOOOOOOOO......              ",
"                                                                                                                   ......-------------------------------------------------------------------------------------------------------------------------------------------------------------------------------------------------------------------------------------------------------------------------------OOOOOOOOOOOOOOOOOOOOOOOOOOOOOOOOOOOOOOOOOOOOOOOOOOOOOOOOOOOOOOOOOOOOOOOOOOOOOOOOOOOOOOOO......              ",
"                                                                                                                   ......-------------------------------------------------------------------------------------------------------------------------------------------------------------------------------------------------------------------------------------------------------------------------------OOOOOOOOOOOOOOOOOOOOOOOOOOOOOOOOOOOOOOOOOOOOOOOOOOOOOOOOOOOOOOOOOOOOOOOOOOOOOOOOOOOOOOOO......              ",
"                                                                                                                   ......-------------------------------------------------------------------------------------------------------------------------------------------------------------------------------------------------------------------------------------------------------------------------------OOOOOOOOOOOOOOOOOOOOOOOOOOOOOOOOOOOOOOOOOOOOOOOOOOOOOOOOOOOOOOOOOOOOOOOOOOOOOOOOOOOOOOOO......              ",
"                                                                                                                   ......-------------------------------------------------------------------------------------------------------------------------------------------------------------------------------------------------------------------------------------------------------------------------------OOOOOOOOOOOOOOOOOOOOOOOOOOOOOOOOOOOOOOOOOOOOOOOOOOOOOOOOOOOOOOOOOOOOOOOOOOOOOOOOOOOOOOOO......              ",
"                                                                                                            .......------------------------------------------------------------------------------------------------------------------------------------------------------------------------------------------------------------------------------------------------------------------------------*******OOOOOOOOOOOOOOOOOOOOOOOOOOOOOOOOOOOOOOOOOOOOOOOOOOOOOOOOOOOOOOOOOOOOOOOOOOOOOOOOOOOOOOOO......              ",
"                                                                                                            .......------------------------------------------------------------------------------------------------------------------------------------------------------------------------------------------------------------------------------------------------------------------------------*******OOOOOOOOOOOOOOOOOOOOOOOOOOOOOOOOOOOOOOOOOOOOOOOOOOOOOOOOOOOOOOOOOOOOOOOOOOOOOOOOOOOOOOOO......              ",
"                                                                                                            .......------------------------------------------------------------------------------------------------------------------------------------------------------------------------------------------------------------------------------------------------------------------------------*******OOOOOOOOOOOOOOOOOOOOOOOOOOOOOOOOOOOOOOOOOOOOOOOOOOOOOOOOOOOOOOOOOOOOOOOOOOOOOOOOOOOOOOOO......              ",
"                                                                                                            .......------------------------------------------------------------------------------------------------------------------------------------------------------------------------------------------------------------------------------------------------------------------------------*******OOOOOOOOOOOOOOOOOOOOOOOOOOOOOOOOOOOOOOOOOOOOOOOOOOOOOOOOOOOOOOOOOOOOOOOOOOOOOOOOOOOOOOOO......              ",
"                                                                                                            .......------------------------------------------------------------------------------------------------------------------------------------------------------------------------------------------------------------------------------------------------------------------------------*******OOOOOOOOOOOOOOOOOOOOOOOOOOOOOOOOOOOOOOOOOOOOOOOOOOOOOOOOOOOOOOOOOOOOOOOOOOOOOOOOOOOOOOOO......              ",
"                                                                                                            .......------------------------------------------------------------------------------------------------------------------------------------------------------------------------------------------------------------------------------------------------------------------------------*******OOOOOOOOOOOOOOOOOOOOOOOOOOOOOOOOOOOOOOOOOOOOOOOOOOOOOOOOOOOOOOOOOOOOOOOOOOOOOOOOOOOOOOOO......              ",
"                                                                                                            .......-----------------------------------------------------------------------------------------------------------------------------------------------------------------------------------------------------------------------------------------------------------------------********************OOOOOOOOOOOOOOOOOOOOOOOOOOOOOOOOOOOOOOOOOOOOOOOOOOOOOOOOOOOOOOOOOOOOOOOOOOOOOOOOOO......              ",
"                                                                                                            .......-----------------------------------------------------------------------------------------------------------------------------------------------------------------------------------------------------------------------------------------------------------------------********************OOOOOOOOOOOOOOOOOOOOOOOOOOOOOOOOOOOOOOOOOOOOOOOOOOOOOOOOOOOOOOOOOOOOOOOOOOOOOOOOOO......              ",
"                                                                                                            .......-----------------------------------------------------------------------------------------------------------------------------------------------------------------------------------------------------------------------------------------------------------------------********************OOOOOOOOOOOOOOOOOOOOOOOOOOOOOOOOOOOOOOOOOOOOOOOOOOOOOOOOOOOOOOOOOOOOOOOOOOOOOOOOOO......              ",
"                                                                                                            .......-----------------------------------------------------------------------------------------------------------------------------------------------------------------------------------------------------------------------------------------------------------------------********************OOOOOOOOOOOOOOOOOOOOOOOOOOOOOOOOOOOOOOOOOOOOOOOOOOOOOOOOOOOOOOOOOOOOOOOOOOOOOOOOOO......              ",
"                                                                                                            .......-----------------------------------------------------------------------------------------------------------------------------------------------------------------------------------------------------------------------------------------------------------------------********************OOOOOOOOOOOOOOOOOOOOOOOOOOOOOOOOOOOOOOOOOOOOOOOOOOOOOOOOOOOOOOOOOOOOOOOOOOOOOOOOOO......              ",
"                                                                                                            .......-----------------------------------------------------------------------------------------------------------------------------------------------------------------------------------------------------------------------------------------------------------------------********************OOOOOOOOOOOOOOOOOOOOOOOOOOOOOOOOOOOOOOOOOOOOOOOOOOOOOOOOOOOOOOOOOOOOOOOOOOOOOOOOOO......              ",
"                                                                                                            .......-----------------------------------------------------------------------------------------------------------------------------------------------------------------------------------------------------------------------------------------------------------------------********************OOOOOOOOOOOOOOOOOOOOOOOOOOOOOOOOOOOOOOOOOOOOOOOOOOOOOOOOOOOOOOOOOOOOOOOOOOOOOOOOOO......              ",
"                                                                                                            .......-======----------------------------------------------------------------------------------------------------------------------------------------------------------------------------------------------------------------------------------------------------------------********************OOOOOOOOOOOOOOOOOOOOOOOOOOOOOOOOOOOOOOOOOOOOOOOOOOOOOOOOOOOOOOOOOOOOOOOOOOOOOOOOOO......              ",
"                                                                                                            .......-======----------------------------------------------------------------------------------------------------------------------------------------------------------------------------------------------------------------------------------------------------------------********************OOOOOOOOOOOOOOOOOOOOOOOOOOOOOOOOOOOOOOOOOOOOOOOOOOOOOOOOOOOOOOOOOOOOOOOOOOOOOOOOOO......              ",
"                                                                                                            .......-======----------------------------------------------------------------------------------------------------------------------------------------------------------------------------------------------------------------------------------------------------------------********************OOOOOOOOOOOOOOOOOOOOOOOOOOOOOOOOOOOOOOOOOOOOOOOOOOOOOOOOOOOOOOOOOOOOOOOOOOOOOOOOOO......              ",
"                                                                                                            .......-======----------------------------------------------------------------------------------------------------------------------------------------------------------------------------------------------------------------------------------------------------------------********************OOOOOOOOOOOOOOOOOOOOOOOOOOOOOOOOOOOOOOOOOOOOOOOOOOOOOOOOOOOOOOOOOOOOOOOOOOOOOOOOOO......              ",
"                                                                                                            .......-======----------------------------------------------------------------------------------------------------------------------------------------------------------------------------------------------------------------------------------------------------------------********************OOOOOOOOOOOOOOOOOOOOOOOOOOOOOOOOOOOOOOOOOOOOOOOOOOOOOOOOOOOOOOOOOOOOOOOOOOOOOOOOOO......              ",
"                                                                                                            .......-====------------------------------------------------------------------------------------------------------------------------------------------------------------------------------------------------------------------------------------------------------------------********************OOOOOOOOOOOOOOOOOOOOOOOOOOOOOOOOOOOOOOOOOOOOOOOOOOOOOOOOOOOOOOOOOOOOOOOOOOOOOOOOOO......              ",
"                                                                                                            .......-=====-----------------------------------------------------------------------------------------------------------------------------------------------------------------------------------------------------------------------------------------------------------------********************OOOOOOOOOOOOOOOOOOOOOOOOOOOOOOOOOOOOOOOOOOOOOOOOOOOOOOOOOOOOOOOOOOOOOOOOOOOOOOOOOO......              ",
"                                                                                                            .......-======---------------------------------------------------------------------------------------------------------------------------------------------------------------------------------------------------------------------------------------------=======-====***************************OOOOOOOOOOOOOOOOOOOOOOOOOOOOOOOOOOOOOOOOOOOOOOOOOOOOOOOOOOOOOOOOOOOOOOOOOOOOOOOOOOOOOOOO.......       ",
"                                                                                                            .......-====----------------------------------------------------------------------------------------------------------------------------------------------------------------------------------------------------------------------------------------------========-====***************************OOOOOOOOOOOOOOOOOOOOOOOOOOOOOOOOOOOOOOOOOOOOOOOOOOOOOOOOOOOOOOOOOOOOOOOOOOOOOOOOOOOOOOOO.......       ",
"                                                                                                            .......-=====---------------------------------------------------------------------------------------------------------------------------------------------------------------------------------------------------------------------------------------------=========-===***************************OOOOOOOOOOOOOOOOOOOOOOOOOOOOOOOOOOOOOOOOOOOOOOOOOOOOOOOOOOOOOOOOOOOOOOOOOOOOOOOOOOOOOOOO.......       ",
"                                                                                                            .......-======---------------------------------------------------------------------------------------------------------------------------------------------------------------------------------------------------------------------------------------------========-===***************************OOOOOOOOOOOOOOOOOOOOOOOOOOOOOOOOOOOOOOOOOOOOOOOOOOOOOOOOOOOOOOOOOOOOOOOOOOOOOOOOOOOOOOOO.......       ",
"                                                                                                            .......-=====--------------------------------------------------------------------------------------------------------------------------------------------------------------------------------------------------------------------------------------------=========-====***************************OOOOOOOOOOOOOOOOOOOOOOOOOOOOOOOOOOOOOOOOOOOOOOOOOOOOOOOOOOOOOOOOOOOOOOOOOOOOOOOOOOOOOOOO.......       ",
"                                                                                                            .......-======---------------------------------------------------------------------------------------------------------------------------------------------------------------------------------------------------------------------------------------------=======-====***************************OOOOOOOOOOOOOOOOOOOOOOOOOOOOOOOOOOOOOOOOOOOOOOOOOOOOOOOOOOOOOOOOOOOOOOOOOOOOOOOOOOOOOOOO.......       ",
"                                                                                                            .......-======---------------------------------------------------------------------------------------------------------------------------------------------------------------------------------------------------------------------------------------------=======-====***************************OOOOOOOOOOOOOOOOOOOOOOOOOOOOOOOOOOOOOOOOOOOOOOOOOOOOOOOOOOOOOOOOOOOOOOOOOOOOOOOOOOOOOOOO.......       ",
"                                                                                                     .......*******-======-------------------------------------------------------------------------------------------------------------------------------------------------------------------------------------------------------------------------------=======-===========-*********************************OOOOOOOOOOOOOOOOOOOOOOOOOOOOOOOOOOOOOOOOOOOOOOOOOOOOOOOOOOOOOOOOOOOOOOOOOOOOOOOOOOOOOOOO.......       ",
"                                                                                                     .......*******-======-------------------------------------------------------------------------------------------------------------------------------------------------------------------------------------------------------------------------------=======-============*********************************OOOOOOOOOOOOOOOOOOOOOOOOOOOOOOOOOOOOOOOOOOOOOOOOOOOOOOOOOOOOOOOOOOOOOOOOOOOOOOOOOOOOOOOO.......       ",
"                                                                                                     .......*******-======-------------------------------------------------------------------------------------------------------------------------------------------------------------------------------------------------------------------------------=======-============*********************************OOOOOOOOOOOOOOOOOOOOOOOOOOOOOOOOOOOOOOOOOOOOOOOOOOOOOOOOOOOOOOOOOOOOOOOOOOOOOOOOOOOOOOOO.......       ",
"                                                                                                     .......*******-======------------------------------------------------------------------------------------------------------------------------------------------------------------------------------------------------------------------------------===========-=========*********************************OOOOOOOOOOOOOOOOOOOOOOOOOOOOOOOOOOOOOOOOOOOOOOOOOOOOOOOOOOOOOOOOOOOOOOOOOOOOOOOOOOOOOOOO.......       ",
"                                                                                                     .......*******-====--------------------------------------------------------------------------------------------------------------------------------------------------------------------------------------------------------------------------------========-============*********************************OOOOOOOOOOOOOOOOOOOOOOOOOOOOOOOOOOOOOOOOOOOOOOOOOOOOOOOOOOOOOOOOOOOOOOOOOOOOOOOOOOOOOOOO.......       ",
"                                                                                                     .......*******-======-------------------------------------------------------------------------------------------------------------------------------------------------------------------------------------------------------------------------------=======-============*********************************OOOOOOOOOOOOOOOOOOOOOOOOOOOOOOOOOOOOOOOOOOOOOOOOOOOOOOOOOOOOOOOOOOOOOOOOOOOOOOOOOOOOOOOO.......       ",
"                                                                                                     .......*************-=======------------------------------------------------------------------------------------------------------------------------------------------------------------------------------------------------------------------=======-===========******************************************************OOOOOOOOOOOOOOOOOOOOOOOOOOOOOOOOOOOOOOOOOOOOOOOOOOOOOOOOOOOOOOOOOOOOOOOOOO.......       ",
"                                                                                                     .......*************=======-------------------------------------------------------------------------------------------------------------------------------------------------------------------------------------------------------------------========-==========******************************************************OOOOOOOOOOOOOOOOOOOOOOOOOOOOOOOOOOOOOOOOOOOOOOOOOOOOOOOOOOOOOOOOOOOOOOOOOO.......       ",
"                                                                                                     .......*************-=======------------------------------------------------------------------------------------------------------------------------------------------------------------------------------------------------------------------=======-===========******************************************************OOOOOOOOOOOOOOOOOOOOOOOOOOOOOOOOOOOOOOOOOOOOOOOOOOOOOOOOOOOOOOOOOOOOOOOOOO.......       ",
"                                                                                                     .......*************-=======------------------------------------------------------------------------------------------------------------------------------------------------------------------------------------------------------------------=======-===========******************************************************OOOOOOOOOOOOOOOOOOOOOOOOOOOOOOOOOOOOOOOOOOOOOOOOOOOOOOOOOOOOOOOOOOOOOOOOOO.......       ",
"                                                                                                     .......*************=======-------------------------------------------------------------------------------------------------------------------------------------------------------------------------------------------------------------------========-==========******************************************************OOOOOOOOOOOOOOOOOOOOOOOOOOOOOOOOOOOOOOOOOOOOOOOOOOOOOOOOOOOOOOOOOOOOOOOOOO.......       ",
"                                                                                                     .......*************-=======---------------------------------------------------------------------------------------------------------------------------------------------------------------------------------------------------------=--------=======-===========******************************************************OOOOOOOOOOOOOOOOOOOOOOOOOOOOOOOOOOOOOOOOOOOOOOOOOOOOOOOOOOOOOOOOOOOOOOOOOO.......       ",
"                                                                                                     .......*************========------------------------------------------------------------------------------------------------------------------------------------------------------------------------------------------------------------------=======-===========******************************************************OOOOOOOOOOOOOOOOOOOOOOOOOOOOOOOOOOOOOOOOOOOOOOOOOOOOOOOOOOOOOOOOOOOOOOOOOO.......       ",
"                                                                                                     .......********************=========-=====--------------------------------------------------------------------------------------------------------------------------------------------------------------------------------------=======-===========********************************************************************.......OOOOOOOOOOOOOOOOOOOOOOOOOOOOOOOOOOOOOOOOOOOOOOOOOOOOOOOOOOOOOOOOOOO.......       ",
"                                                                                                     .......********************==========-====--------------------------------------------------------------------------------------------------------------------------------------------------------------------------------------========-==========********************************************************************.......OOOOOOOOOOOOOOOOOOOOOOOOOOOOOOOOOOOOOOOOOOOOOOOOOOOOOOOOOOOOOOOOOOO.......       ",
"                                                                                                     .......********************========-=====---------------------------------------------------------------------------------------------------------------------------------------------------------------------------------------=========-=========********************************************************************.......OOOOOOOOOOOOOOOOOOOOOOOOOOOOOOOOOOOOOOOOOOOOOOOOOOOOOOOOOOOOOOOOOOO.......       ",
"                                                                                                     .......********************=========-=====--------------------------------------------------------------------------------------------------------------------------------------------------------------------------------------=======-===========********************************************************************.......OOOOOOOOOOOOOOOOOOOOOOOOOOOOOOOOOOOOOOOOOOOOOOOOOOOOOOOOOOOOOOOOOOO.......       ",
"                                                                                                     .......********************=======-=====---------------------------------------------------------------------------------------------------------------------------------------------------------------------------------------========-===========********************************************************************.......OOOOOOOOOOOOOOOOOOOOOOOOOOOOOOOOOOOOOOOOOOOOOOOOOOOOOOOOOOOOOOOOOOO.......       ",
"                                                                                                     .......********************========-=====---------------------------------------------------------------------------------------------------------------------------------------------------------------------------------------=======-===========********************************************************************.......OOOOOOOOOOOOOOOOOOOOOOOOOOOOOOOOOOOOOOOOOOOOOOOOOOOOOOOOOOOOOOOOOOO.......       ",
"                                                                                                     .......********************========-=====---------------------------------------------------------------------------------------------------------------------------------------------------------------------------------------=======-===========********************************************************************.......OOOOOOOOOOOOOOOOOOOOOOOOOOOOOOOOOOOOOOOOOOOOOOOOOOOOOOOOOOOOOOOOOOO.......       ",
"                                               ..............                                        .......**********************************==============------------------------------------------------------------------------------------------------------------------------------------------------------------===================**************************************************************************.......:::::::......OOOOOOOOOOOOOOOOOOOOOOOOOOOOOOOOOOOOOOOOOOOOOOOOOOOOOOOOOOOOO.......       ",
"                                               ..............                                        .......**********************************==============------------------------------------------------------------------------------------------------------------------------------------------------------------===================**************************************************************************.......:::::::......OOOOOOOOOOOOOOOOOOOOOOOOOOOOOOOOOOOOOOOOOOOOOOOOOOOOOOOOOOOOO.......       ",
"                                               ..............                                        .......**********************************==============------------------------------------------------------------------------------------------------------------------------------------------------------------===================**************************************************************************.......:::::::......OOOOOOOOOOOOOOOOOOOOOOOOOOOOOOOOOOOOOOOOOOOOOOOOOOOOOOOOOOOOO.......       ",
"                                               ..............                                        .......**********************************==============------------------------------------------------------------------------------------------------------------------------------------------------------------===================**************************************************************************.......:::::::......OOOOOOOOOOOOOOOOOOOOOOOOOOOOOOOOOOOOOOOOOOOOOOOOOOOOOOOOOOOOO.......       ",
"                                               ..............                                        .......**********************************==============------------------------------------------------------------------------------------------------------------------------------------------------------------==============-====**************************************************************************.......:::::::......OOOOOOOOOOOOOOOOOOOOOOOOOOOOOOOOOOOOOOOOOOOOOOOOOOOOOOOOOOOOO.......       ",
"                                               ..............                                        .......**********************************==============------------------------------------------------------------------------------------------------------------------------------------------------------------==============-====**************************************************************************.......:::::::......OOOOOOOOOOOOOOOOOOOOOOOOOOOOOOOOOOOOOOOOOOOOOOOOOOOOOOOOOOOOO.......       ",
"                                               ..............                                        .......**********************************==============------------------------------------------------------------------------------------------------------------------------------------------------------------==============-====**************************************************************************.......:::::::......OOOOOOOOOOOOOOOOOOOOOOOOOOOOOOOOOOOOOOOOOOOOOOOOOOOOOOOOOOOOO.......       ",
"             .....................      .......:::::::;;;;;;;......                                  .......****************************************==============-=======-------------------------------------------------------------------------------------------------------------------==============-==================-=====**************************************************************************..............:::::::......OOOOOOOOOOOOOOOOOOOOOOOOOOOOOOOOOO..............OOOOOOOOOOOOO.......       ",
"             .....................      .......:::::::;;;;;;;......                                  .......****************************************==============-=======-------------------------------------------------------------------------------------------------------------------===============-====================-==**************************************************************************..............:::::::......OOOOOOOOOOOOOOOOOOOOOOOOOOOOOOOOOO..............OOOOOOOOOOOOO.......       ",
"             .....................      .......:::::::;;;;;;;......                                  .......****************************************==============-=======-------------------------------------------------------------------------------------------------------------------==============-=======-==============-=**************************************************************************..............:::::::......OOOOOOOOOOOOOOOOOOOOOOOOOOOOOOOOOO..............OOOOOOOOOOOOO.......       ",
"             .....................      .......:::::::;;;;;;;......                                  .......****************************************==============-=======-------------------------------------------------------------------------------------------------------------------==============-=======-===============-**************************************************************************..............:::::::......OOOOOOOOOOOOOOOOOOOOOOOOOOOOOOOOOO..............OOOOOOOOOOOOO.......       ",
"             .....................      .......:::::::;;;;;;;......                                  .......****************************************===============-======------------------------------------------------------------------------------------------------------------------===============-=======-================**************************************************************************..............:::::::......OOOOOOOOOOOOOOOOOOOOOOOOOOOOOOOOOO..............OOOOOOOOOOOOO.......       ",
"             .....................      .......:::::::;;;;;;;......                                  .......****************************************===============-======-------------------------------------------------------------------------------------------------------------------==============-=======-================**************************************************************************..............:::::::......OOOOOOOOOOOOOOOOOOOOOOOOOOOOOOOOOO..............OOOOOOOOOOOOO.......       ",
"                    .......:::::::::::::..............:::::::;;;;;;;;;;;;;..............             .......***********************************************==============-=======-====---------------------------------------------------------------------------------===============-=======-==================-=====*********************************************************************************......;;;;;;;::::::::::::::......OOOOOOOOOOOOOO.......:::::::;;;;;;.......OOOOOOOOOOOOOOOOOOOO.......       ",
"                    .......:::::::::::::..............:::::::;;;;;;;;;;;;;..............             .......***********************************************==============-=======-====----------------------------------------------------------------------------------==============-=======-===================-====*********************************************************************************......;;;;;;;::::::::::::::......OOOOOOOOOOOOOO.......:::::::;;;;;;.......OOOOOOOOOOOOOOOOOOOO.......       ",
"                    .......:::::::::::::..............:::::::;;;;;;;;;;;;;..............             .......***********************************************===============-=======-====---------------------------------------------------------------------------------================-=======-====================-=*********************************************************************************......;;;;;;;::::::::::::::......OOOOOOOOOOOOOO.......:::::::;;;;;;.......OOOOOOOOOOOOOOOOOOOO.......       ",
"                    .......:::::::::::::..............:::::::;;;;;;;;;;;;;..............             .......***********************************************==============-=======-====----------------------------------------------------------------------------------==============-=======-=====================-==*********************************************************************************......;;;;;;;::::::::::::::......OOOOOOOOOOOOOO.......:::::::;;;;;;.......OOOOOOOOOOOOOOOOOOOO.......       ",
"                    .......:::::::::::::..............:::::::;;;;;;;;;;;;;..............             .......***********************************************==============-=======-====----------------------------------------------------------------------------------===============-=======-======================-*********************************************************************************......;;;;;;;::::::::::::::......OOOOOOOOOOOOOO.......:::::::;;;;;;.......OOOOOOOOOOOOOOOOOOOO.......       ",
"                    .......:::::::::::::..............:::::::;;;;;;;;;;;;;..............             .......***********************************************===============-=======-====--------------------------------------------------------------------------------===============-=======-=======================-*********************************************************************************......;;;;;;;::::::::::::::......OOOOOOOOOOOOOO.......:::::::;;;;;;.......OOOOOOOOOOOOOOOOOOOO.......       ",
"                    .......:::::::::::::..............:::::::;;;;;;;;;;;;;..............             .......***********************************************==============-=======-====----------------------------------------------------------------------------------================-=======-======================*********************************************************************************......;;;;;;;::::::::::::::......OOOOOOOOOOOOOO.......:::::::;;;;;;.......OOOOOOOOOOOOOOOOOOOO.......       ",
"                    .......:::::::::::::ooooooo.......:::::::;;;;;;ooooooo.......*******......       OOOOOOO*************************************************************==============-=======-=========================-=======-==========================-=======-=======================*****************************************************************************************************.......******;;;;;;;:::::::;;;;;;;....................::::::::::::::;;;;;;.......OOOOOOOOOOOOOOOOOOOO.......       ",
"                    .......:::::::::::::ooooooo.......:::::::;;;;;;ooooooo.......*******......       OOOOOOO*************************************************************==============-=======-============================-=======-=============================-=======-=================*****************************************************************************************************.......******;;;;;;;:::::::;;;;;;;....................::::::::::::::;;;;;;.......OOOOOOOOOOOOOOOOOOOO.......       ",
"                    .......:::::::::::::ooooooo.......:::::::;;;;;;ooooooo.......*******......       OOOOOOO*************************************************************===============-=======-===============================-=======-================================-=======-==========*****************************************************************************************************.......******;;;;;;;:::::::;;;;;;;....................::::::::::::::;;;;;;.......OOOOOOOOOOOOOOOOOOOO.......       ",
"                    .......:::::::::::::ooooooo.......:::::::;;;;;;ooooooo.......*******......       OOOOOOO*************************************************************================-=======-=================================-=======-==================================-=======-=====*****************************************************************************************************.......******;;;;;;;:::::::;;;;;;;....................::::::::::::::;;;;;;.......OOOOOOOOOOOOOOOOOOOO.......       ",
"                    .......:::::::::::::ooooooo.......:::::::;;;;;;ooooooo.......*******......       OOOOOOO*************************************************************==============-=======-===================================-=======-====================================-=======-===*****************************************************************************************************.......******;;;;;;;:::::::;;;;;;;....................::::::::::::::;;;;;;.......OOOOOOOOOOOOOOOOOOOO.......       ",
"                    .......:::::::::::::ooooooo.......:::::::;;;;;;ooooooo.......*******......       OOOOOOO*************************************************************==============-=======-=====================================-=======-======================================-=======*****************************************************************************************************.......******;;;;;;;:::::::;;;;;;;....................::::::::::::::;;;;;;.......OOOOOOOOOOOOOOOOOOOO.......       ",
"                    .......:::::::::::::ooooooo.......:::::::;;;;;;ooooooo.......*******......       OOOOOOO*************************************************************==============-=======-=======================================-=======-========================================-===*****************************************************************************************************.......******;;;;;;;:::::::;;;;;;;....................::::::::::::::;;;;;;.......OOOOOOOOOOOOOOOOOOOO.......       ",
"      .....................:::::::oooooo-------.......ooooooooooooo.......--------------******.......OOOOOOOOOOOOOO*********************************************************************************==============-=======-=========================================-==************************************************************************************************************..............-------------XXXXXXXXXXXXXXXXXXXXX------*******.......;;;;;;;;;;;;;;;;;;;;.......OOOOOOOOOOOOOOOOOOOO.......       ",
"      .....................:::::::oooooo-------.......ooooooooooooo.......--------------******.......OOOOOOOOOOOOOO*********************************************************************************================-=======-==========================================************************************************************************************************************..............-------------XXXXXXXXXXXXXXXXXXXXX------*******.......;;;;;;;;;;;;;;;;;;;;.......OOOOOOOOOOOOOOOOOOOO.......       ",
"      .....................:::::::oooooo-------.......ooooooooooooo.......--------------******.......OOOOOOOOOOOOOO*********************************************************************************==============-=======-===========================================-************************************************************************************************************..............-------------XXXXXXXXXXXXXXXXXXXXX------*******.......;;;;;;;;;;;;;;;;;;;;.......OOOOOOOOOOOOOOOOOOOO.......       ",
"      .....................:::::::oooooo-------.......ooooooooooooo.......--------------******.......OOOOOOOOOOOOOO*********************************************************************************==============-=======-============================================************************************************************************************************************..............-------------XXXXXXXXXXXXXXXXXXXXX------*******.......;;;;;;;;;;;;;;;;;;;;.......OOOOOOOOOOOOOOOOOOOO.......       ",
"      .....................:::::::oooooo-------.......ooooooooooooo.......--------------******.......OOOOOOOOOOOOOO*********************************************************************************=================-=======-=========================================************************************************************************************************************..............-------------XXXXXXXXXXXXXXXXXXXXX------*******.......;;;;;;;;;;;;;;;;;;;;.......OOOOOOOOOOOOOOOOOOOO.......       ",
"      .....................:::::::oooooo-------.......ooooooooooooo.......--------------******.......OOOOOOOOOOOOOO*********************************************************************************==============-=======-============================================************************************************************************************************************..............-------------XXXXXXXXXXXXXXXXXXXXX------*******.......;;;;;;;;;;;;;;;;;;;;.......OOOOOOOOOOOOOOOOOOOO.......       ",
"      .....................:::::::oooooo-------.......ooooooooooooo.......--------------******.......OOOOOOOOOOOOOO*********************************************************************************==============-=======-============================================************************************************************************************************************..............-------------XXXXXXXXXXXXXXXXXXXXX------*******.......;;;;;;;;;;;;;;;;;;;;.......OOOOOOOOOOOOOOOOOOOO.......       ",
"      .......::::::::::::::;;;;;;;oooooo-------------------------------------------------------------*******.......OOOOOO****************************************************************************************************************************************************************************************************************************************************......-------------------------------------------------------------*******..............;;;;;;..............OOOOOOO.............       ",
"      .......::::::::::::::;;;;;;;oooooo-------------------------------------------------------------*******.......OOOOOO****************************************************************************************************************************************************************************************************************************************************......-------------------------------------------------------------*******..............;;;;;;..............OOOOOOO.............       ",
"      .......::::::::::::::;;;;;;;oooooo-------------------------------------------------------------*******.......OOOOOO****************************************************************************************************************************************************************************************************************************************************......-------------------------------------------------------------*******..............;;;;;;..............OOOOOOO.............       ",
"      .......::::::::::::::;;;;;;;oooooo-------------------------------------------------------------*******.......OOOOOO****************************************************************************************************************************************************************************************************************************************************......-------------------------------------------------------------*******..............;;;;;;..............OOOOOOO.............       ",
"      .......::::::::::::::;;;;;;;oooooo-------------------------------------------------------------*******.......OOOOOO****************************************************************************************************************************************************************************************************************************************************......-------------------------------------------------------------*******..............;;;;;;..............OOOOOOO.............       ",
"      .......::::::::::::::;;;;;;;oooooo-------------------------------------------------------------*******.......OOOOOO****************************************************************************************************************************************************************************************************************************************************......-------------------------------------------------------------*******..............;;;;;;..............OOOOOOO.............       ",
"      ..............:::::::.......----------------------------=====-----------------------------------======.............-======**************************************************************************************************************************************************************************************************************************************.......------------------------------------------------======--------------=============.......******..............:::::::......              ",
"      ..............:::::::.......---------------------------======-----------------------------------======.............-======**************************************************************************************************************************************************************************************************************************************.......------------------------------------------------=======-----------===============.......******..............:::::::......              ",
"      ..............:::::::.......----------------------------======---------------------------------=======.............-======**************************************************************************************************************************************************************************************************************************************.......------------------------------------------------======------------===============.......******..............:::::::......              ",
"      ..............:::::::.......--------------------------=======----------------------------------=======.............-======**************************************************************************************************************************************************************************************************************************************.......------------------------------------------------======-------------==============.......******..............:::::::......              ",
"      ..............:::::::.......---------------------------======---------------------------------========.............-======**************************************************************************************************************************************************************************************************************************************.......------------------------------------------------======--------------=============.......******..............:::::::......              ",
"      ..............:::::::.......----------------------------=====-----------------------------------======.............-======**************************************************************************************************************************************************************************************************************************************.......------------------------------------------------======--------------=============.......******..............:::::::......              ",
"      ..............:::::::.......--------------------------=======----------------------------------=======.............-======**************************************************************************************************************************************************************************************************************************************.......------------------------------------------------======--------------=============.......******..............:::::::......              ",
"             .......;;;;;;;.......==============-=======-====******=======---------------------=============*******......OOOOOOO*******************************************************************************************************************************************************************************************************************************.......*******=-------------------------====================-*******=============***************************.......;;;;;;;:::::::......              ",
"             .......;;;;;;;.......-==============-=======-===******========------------------===============*******......OOOOOOO*******************************************************************************************************************************************************************************************************************************.......*******=-------------------------=====================*******=============***************************.......;;;;;;;:::::::......              ",
"             .......;;;;;;;.......==============-=======-====******=======--------------------==============*******......OOOOOOO*******************************************************************************************************************************************************************************************************************************.......*******----------------------------================-==*******=============***************************.......;;;;;;;:::::::......              ",
"             .......;;;;;;;.......-==============-=======-===******========-------------------==============*******......OOOOOOO*******************************************************************************************************************************************************************************************************************************.......*******--------------------------=====================*******=============***************************.......;;;;;;;:::::::......              ",
"             .......;;;;;;;.......-==============-=======-===******=======--------------------==============*******......OOOOOOO*******************************************************************************************************************************************************************************************************************************.......*******---------------------------====================*******=============***************************.......;;;;;;;:::::::......              ",
"             .......;;;;;;;.......-==============-=======-===******=======---------------------=============*******......OOOOOOO*******************************************************************************************************************************************************************************************************************************.......*******----------------------------===================*******=============***************************.......;;;;;;;:::::::......              ",
"             .......;;;;;;;.......-===============-=======-==******========--------------------=============*******......OOOOOOO*******************************************************************************************************************************************************************************************************************************.......*******=-------------------------=====================*******=============***************************.......;;;;;;;:::::::......              ",
"                    .......--------=====**********************************=======--------============********************.......OOOOOOOOOOOOOO*****************************************************************************************************************************************************************************************************************.......--------------------------========**************************************************************************.......:::::::......              ",
"                    .......--------=====**********************************=======--------============********************.......OOOOOOOOOOOOOO*****************************************************************************************************************************************************************************************************************.......---------------------------=======**************************************************************************.......:::::::......              ",
"                    .......-------======**********************************=======--------============********************.......OOOOOOOOOOOOOO*****************************************************************************************************************************************************************************************************************.......----------------------------======**************************************************************************.......:::::::......              ",
"                    .......-------======**********************************=======--------============********************.......OOOOOOOOOOOOOO*****************************************************************************************************************************************************************************************************************.......---------------------------=======**************************************************************************.......:::::::......              ",
"                    .......--------=====**********************************========-------============********************.......OOOOOOOOOOOOOO*****************************************************************************************************************************************************************************************************************.......--------------------------========**************************************************************************.......:::::::......              ",
"                    .......--------=====**********************************========-------============********************.......OOOOOOOOOOOOOO*****************************************************************************************************************************************************************************************************************.......---------------------------=======**************************************************************************.......:::::::......              ",
"                    .......--------=====**********************************========-------============********************.......OOOOOOOOOOOOOO*****************************************************************************************************************************************************************************************************************.......----------------------------======**************************************************************************.......:::::::......              ",
"                           .......-=====************************************************======**********************************.......OOOOOOOOOOOOO****************************************************************************************************************************************************************************************************.......--------------------=======**********************************XXXXXXX***********************************************..............                    ",
"                           .......======************************************************======**********************************.......OOOOOOOOOOOOO****************************************************************************************************************************************************************************************************.......---------------------======**********************************XXXXXXX***********************************************..............                    ",
"                           .......======************************************************======**********************************.......OOOOOOOOOOOOO****************************************************************************************************************************************************************************************************.......-------------------========**********************************XXXXXXX***********************************************..............                    ",
"                           .......-=====************************************************======**********************************.......OOOOOOOOOOOOO****************************************************************************************************************************************************************************************************.......---------------------======**********************************XXXXXXX***********************************************..............                    ",
"                           .......-=====************************************************======**********************************.......OOOOOOOOOOOOO****************************************************************************************************************************************************************************************************.......---------------------======**********************************XXXXXXX***********************************************..............                    ",
"                           .......-=====************************************************======**********************************.......OOOOOOOOOOOOO****************************************************************************************************************************************************************************************************.......--------------------=======**********************************XXXXXXX***********************************************..............                    ",
"                           .......-=====****************************************************************************************.......OOOOOOOOOOOOOOOOOOOO*********************************************************************************************************************************************************************************************.......-------------------========********************XXXXXXXXXXXXXX#######XXXXXXXXXXXXX*****************************************.......                    ",
"                           .......-=====****************************************************************************************.......OOOOOOOOOOOOOOOOOOOO*********************************************************************************************************************************************************************************************.......--------------------=======********************XXXXXXXXXXXXXX#######XXXXXXXXXXXXX*****************************************.......                    ",
"                           .......-=====****************************************************************************************.......OOOOOOOOOOOOOOOOOOOO*********************************************************************************************************************************************************************************************.......---------------------======********************XXXXXXXXXXXXXX#######XXXXXXXXXXXXX*****************************************.......                    ",
"                           .......-=====****************************************************************************************.......OOOOOOOOOOOOOOOOOOOO*********************************************************************************************************************************************************************************************.......---------------------======********************XXXXXXXXXXXXXX#######XXXXXXXXXXXXX*****************************************.......                    ",
"                           .......-=====****************************************************************************************.......OOOOOOOOOOOOOOOOOOOO*********************************************************************************************************************************************************************************************.......--------------------=======********************XXXXXXXXXXXXXX#######XXXXXXXXXXXXX*****************************************.......                    ",
"                           .......-=====****************************************************************************************.......OOOOOOOOOOOOOOOOOOOO*********************************************************************************************************************************************************************************************.......--------------------=======********************XXXXXXXXXXXXXX#######XXXXXXXXXXXXX*****************************************.......                    ",
"                           .......-=====****************************************************************************************.......OOOOOOOOOOOOOOOOOOOO*********************************************************************************************************************************************************************************************.......---------------------======********************XXXXXXXXXXXXXX#######XXXXXXXXXXXXX*****************************************.......                    ",
"                           .......*************XXXXXXXXXXXXXXXXXXXXXXXXXXX******************************************************.......OOOOOOOOOOOOOOOOOOOOOOOOOOO**************************************************************************************************************************************************************************************.......--------------------=======**************XXXXXX##################################XXXXXXX**********************************.......                    ",
"                           .......*************XXXXXXXXXXXXXXXXXXXXXXXXXXX******************************************************.......OOOOOOOOOOOOOOOOOOOOOOOOOOO**************************************************************************************************************************************************************************************.......---------------------======**************XXXXXX##################################XXXXXXX**********************************.......                    ",
"                           .......*************XXXXXXXXXXXXXXXXXXXXXXXXXXX******************************************************.......OOOOOOOOOOOOOOOOOOOOOOOOOOO**************************************************************************************************************************************************************************************.......-------------------========**************XXXXXX##################################XXXXXXX**********************************.......                    ",
"                           .......*************XXXXXXXXXXXXXXXXXXXXXXXXXXX******************************************************.......OOOOOOOOOOOOOOOOOOOOOOOOOOO**************************************************************************************************************************************************************************************.......---------------------======**************XXXXXX##################################XXXXXXX**********************************.......                    ",
"                           .......*************XXXXXXXXXXXXXXXXXXXXXXXXXXX******************************************************.......OOOOOOOOOOOOOOOOOOOOOOOOOOO**************************************************************************************************************************************************************************************.......---------------------======**************XXXXXX##################################XXXXXXX**********************************.......                    ",
"                           .......*************XXXXXXXXXXXXXXXXXXXXXXXXXXX******************************************************.......OOOOOOOOOOOOOOOOOOOOOOOOOOO**************************************************************************************************************************************************************************************.......---------------------======**************XXXXXX##################################XXXXXXX**********************************.......                    ",
"                           .......*************XXXXXXXXXXXXXXXXXXXXXXXXXXX******************************************************.......OOOOOOOOOOOOOOOOOOOOOOOOOOO**************************************************************************************************************************************************************************************.......--------------------=======**************XXXXXX##################################XXXXXXX**********************************.......                    ",
"                                        .......XXXXXXX###########################XXXXXXX***********************************************.......OOOOOOOOOOOOOOOOOOOOOOOOOOO**************************************************************************************************************************************************************************************.......-------======**************XXXXXXXXXXXXX#########################################**********************************.......                    ",
"                                        .......XXXXXXX###########################XXXXXXX***********************************************.......OOOOOOOOOOOOOOOOOOOOOOOOOOO**************************************************************************************************************************************************************************************.......-------======**************XXXXXXXXXXXXX#########################################**********************************.......                    ",
"                                        .......XXXXXXX###########################XXXXXXX***********************************************.......OOOOOOOOOOOOOOOOOOOOOOOOOOO**************************************************************************************************************************************************************************************.......--------=====**************XXXXXXXXXXXXX#########################################**********************************.......                    ",
"                                        .......XXXXXXX###########################XXXXXXX***********************************************.......OOOOOOOOOOOOOOOOOOOOOOOOOOO**************************************************************************************************************************************************************************************.......=-----=======**************XXXXXXXXXXXXX#########################################**********************************.......                    ",
"                                        .......XXXXXXX###########################XXXXXXX***********************************************.......OOOOOOOOOOOOOOOOOOOOOOOOOOO**************************************************************************************************************************************************************************************.......------=======**************XXXXXXXXXXXXX#########################################**********************************.......                    ",
"                                        .......XXXXXXX###########################XXXXXXX***********************************************.......OOOOOOOOOOOOOOOOOOOOOOOOOOO**************************************************************************************************************************************************************************************.......--------=====**************XXXXXXXXXXXXX#########################################**********************************.......                    ",
"                                        .......XXXXXXX###########################XXXXXXX***********************************************.......OOOOOOOOOOOOOOOOOOOOOOOOOOO**************************************************************************************************************************************************************************************.......--------=====**************XXXXXXXXXXXXX#########################################**********************************.......                    ",
"                                        ..............###########################XXXXXXX****************************************.......OOOOOOOOOOOOOOOOOOOOOOOOOOOOOOOOOOOOOOOO*************************************************************************************************************************************************************************.......--------======*************XXXXXXX###############################################XXXXXXX********************.......                                  ",
"                                        ..............###########################XXXXXXX****************************************.......OOOOOOOOOOOOOOOOOOOOOOOOOOOOOOOOOOOOOOOO*************************************************************************************************************************************************************************.......--------======*************XXXXXXX###############################################XXXXXXX********************.......                                  ",
"                                        ..............###########################XXXXXXX****************************************.......OOOOOOOOOOOOOOOOOOOOOOOOOOOOOOOOOOOOOOOO*************************************************************************************************************************************************************************.......-------=======*************XXXXXXX###############################################XXXXXXX********************.......                                  ",
"                                        ..............###########################XXXXXXX****************************************.......OOOOOOOOOOOOOOOOOOOOOOOOOOOOOOOOOOOOOOOO*************************************************************************************************************************************************************************.......--------======*************XXXXXXX###############################################XXXXXXX********************.......                                  ",
"                                        ..............###########################XXXXXXX****************************************.......OOOOOOOOOOOOOOOOOOOOOOOOOOOOOOOOOOOOOOOO*************************************************************************************************************************************************************************.......--------======*************XXXXXXX###############################################XXXXXXX********************.......                                  ",
"                                        ..............###########################XXXXXXX****************************************.......OOOOOOOOOOOOOOOOOOOOOOOOOOOOOOOOOOOOOOOO*************************************************************************************************************************************************************************.......--------======*************XXXXXXX###############################################XXXXXXX********************.......                                  ",
"                                               .......##################################XXXXXX**********************************.......OOOOOOOOOOOOOOOOOOOOOOOOOOO..................................$$$$$$$***************************------**************=------******-------*******=------******=-------------**********************************OOOOOOOOOOOOO.......***************************###############################################XXXXXXX********************.......                                  ",
"                                               .......##################################XXXXXX**********************************.......OOOOOOOOOOOOOOOOOOOOOOOOOOO..................................$$$$$$$***************************------**************-------******=------*******=------******=-------------**********************************OOOOOOOOOOOOO.......***************************###############################################XXXXXXX********************.......                                  ",
"                                               .......##################################XXXXXX**********************************.......OOOOOOOOOOOOOOOOOOOOOOOOOOO..................................$$$$$$$***************************------**************=------******=------*******-------******=-------------**********************************OOOOOOOOOOOOO.......***************************###############################################XXXXXXX********************.......                                  ",
"                                               .......##################################XXXXXX**********************************.......OOOOOOOOOOOOOOOOOOOOOOOOOOO..................................$$$$$$$***************************------**************=------******=------*******-------******--------------**********************************OOOOOOOOOOOOO.......***************************###############################################XXXXXXX********************.......                                  ",
"                                               .......##################################XXXXXX**********************************.......OOOOOOOOOOOOOOOOOOOOOOOOOOO..................................$$$$$$$***************************------**************-------******-------*******=------******--------------**********************************OOOOOOOOOOOOO.......***************************###############################################XXXXXXX********************.......                                  ",
"                                               .......##################################XXXXXX**********************************.......OOOOOOOOOOOOOOOOOOOOOOOOOOO..................................$$$$$$$***************************------**************=------******-------*******=------******--------------**********************************OOOOOOOOOOOOO.......***************************###############################################XXXXXXX********************.......                                  ",
"                                               .......##################################XXXXXX**********************************.......OOOOOOOOOOOOOOOOOOOOOOOOOOO..................................$$$$$$$***************************------**************=------******-------*******=------******=-------------**********************************OOOOOOOOOOOOO.......***************************###############################################XXXXXXX********************.......                                  ",
"                                                      .......###########################XXXXXX*********************...............................................                                  ..................................$$$$$$--------------*******------*******-------*******------**************.............................................................***************************#################################XXXXXXX*********************.............                                  ",
"                                                      .......###########################XXXXXX*********************...............................................                                  ..................................$$$$$$--------------*******=-----*******=------*******=-----**************.............................................................***************************#################################XXXXXXX*********************.............                                  ",
"                                                      .......###########################XXXXXX*********************...............................................                                  ..................................$$$$$$--------------*******=-----*******=------*******=-----**************.............................................................***************************#################################XXXXXXX*********************.............                                  ",
"                                                      .......###########################XXXXXX*********************...............................................                                  ..................................$$$$$$--------------*******=-----*******=------*******=-----**************.............................................................***************************#################################XXXXXXX*********************.............                                  ",
"                                                      .......###########################XXXXXX*********************...............................................                                  ..................................$$$$$$--------------*******=-----*******=------*******=-----**************.............................................................***************************#################################XXXXXXX*********************.............                                  ",
"                                                      .......###########################XXXXXX*********************...............................................                                  ..................................$$$$$$--------------*******=-----*******=------*******=-----**************.............................................................***************************#################################XXXXXXX*********************.............                                  ",
"                                                      .......###########################XXXXXX*********************...............................................                                  ..................................$$$$$$--------------*******=-----*******=------*******=-----**************.............................................................***************************#################################XXXXXXX*********************.............                                  ",
"                                                                   ..............#############XXXXXXX********************                                                                                                             ..........................................................................                                                             ***************************XXXXXXXXXXXXXXXXXXXX#######XXXXXX****************************......                                         ",
"                                                                   ..............#############XXXXXXX********************                                                                                                             ..........................................................................                                                             ***************************XXXXXXXXXXXXXXXXXXXX#######XXXXXX****************************......                                         ",
"                                                                   ..............#############XXXXXXX********************                                                                                                             ..........................................................................                                                             ***************************XXXXXXXXXXXXXXXXXXXX#######XXXXXX****************************......                                         ",
"                                                                   ..............#############XXXXXXX********************                                                                                                             ..........................................................................                                                             ***************************XXXXXXXXXXXXXXXXXXXX#######XXXXXX****************************......                                         ",
"                                                                   ..............#############XXXXXXX********************                                                                                                             ..........................................................................                                                             ***************************XXXXXXXXXXXXXXXXXXXX#######XXXXXX****************************......                                         ",
"                                                                   ..............#############XXXXXXX********************                                                                                                             ..........................................................................                                                             ***************************XXXXXXXXXXXXXXXXXXXX#######XXXXXX****************************......                                         ",
"                                                                   ..............#############XXXXXXX********************                                                                                                             ..........................................................................                                                             ***************************XXXXXXXXXXXXXXXXXXXX#######XXXXXX****************************......                                         ",
"                                                                                 .............*******....................                                                                                                                                                                                                                                             .............**********************************XXXXXXX***************************.......                                                      ",
"                                                                                 .............*******....................                                                                                                                                                                                                                                             .............**********************************XXXXXXX***************************.......                                                      ",
"                                                                                 .............*******....................                                                                                                                                                                                                                                             .............**********************************XXXXXXX***************************.......                                                      ",
"                                                                                 .............*******....................                                                                                                                                                                                                                                             .............**********************************XXXXXXX***************************.......                                                      ",
"                                                                                 .............*******....................                                                                                                                                                                                                                                             .............**********************************XXXXXXX***************************.......                                                      ",
"                                                                                 .............*******....................                                                                                                                                                                                                                                             .............**********************************XXXXXXX***************************.......                                                      ",
"                                                                                 .............*******....................                                                                                                                                                                                                                                             .............**********************************XXXXXXX***************************.......                                                      ",
"                                                                                                                                                                                                                                                                                                                                                                                   ..............********************.......*******....................                                                             ",
"                                                                                                                                                                                                                                                                                                                                                                                   ..............********************.......*******....................                                                             ",
"                                                                                                                                                                                                                                                                                                                                                                                   ..............********************.......*******....................                                                             ",
"                                                                                                                                                                                                                                                                                                                                                                                   ..............********************.......*******....................                                                             ",
"                                                                                                                                                                                                                                                                                                                                                                                   ..............********************.......*******....................                                                             ",
"                                                                                                                                                                                                                                                                                                                                                                                   ..............********************.......*******....................                                                             ",
"                                                                                                                                                                                                                                                                                                                                                                                                 ....................       .......                                                                                 ",
"                                                                                                                                                                                                                                                                                                                                                                                                 ....................       .......                                                                                 ",
"                                                                                                                                                                                                                                                                                                                                                                                                 ....................       .......                                                                                 ",
"                                                                                                                                                                                                                                                                                                                                                                                                 ....................       .......                                                                                 ",
"                                                                                                                                                                                                                                                                                                                                                                                                 ....................       .......                                                                                 ",
"                                                                                                                                                                                                                                                                                                                                                                                                 ....................       .......                                                                                 ",
"                                                                                                                                                                                                                                                                                                                                                                                                 ....................       .......                                                                                 ",
"                                                                                                                                                                                                                                                                                                                                                                                                 ....................       .......                                                                                 ",
"                                                                                                                                                                                                                                                                                                                                                                                                                                                                                                                    ",
"                                                                                                                                                                                                                                                                                                                                                                                                                                                                                                                    "
};
