/* XPM */
static char *out[] = {
/* columns rows colors chars-per-pixel */
"500 503 16 1 ",
"  c #FF00FF",
". c black",
"X c #634221",
"o c #735A21",
"O c #103942",
"+ c #315A7B",
"@ c gray45",
"# c #A57352",
"$ c #C69C5A",
"% c #528CAD",
"& c #73A5BD",
"* c #E7C6AD",
"= c #F7D6BD",
"- c #F7E7BD",
"; c #CECECE",
": c white",
/* pixels */
"                                                                                                                                                                                                                                                                                                                                                                                                                                                                                                                    ",
"                                                                                                                                                                                                                                                                                                                                                                                                                                                                                                                    ",
"                                                                                                                                                                                                                                                                                                                                                                                                                                                                                                                    ",
"                                                                                                                                                                                                                                                                                                                                                                                                                                                                                                                    ",
"                                                                                                                                                                                                                                                                                                                                                                                                                                                                                                                    ",
"                                                                                                                                                                                                                                                                                                                                                                                                                                                                                                                    ",
"                                                                                                                                                                                                                                                                                                                                                                                                                                                                                                                    ",
"                                                                                                                                                                                                                                                                                                                                                                                                                                                                                                                    ",
"                                                                                                                                                                                                                                                                                                                                                                                                                                                                                                                    ",
"                                                                                                                                                                                                                                                                                                                                                                                                                                                                                                                    ",
"                                                                                                                                                                                                                                                                                                                                                                                                                                                                                                                    ",
"                                                                                                                                                                                                                                                                                                                                                                                                                                                                                                                    ",
"                                                                                                                                                                                                                                                                                                                                                                                                                                                                                                                    ",
"                                                                                                                                                                                                                                                                                                                                                                                                                                                                                                                    ",
"                                                                                                                                                                                                                                                                                                                                                                                                                                                                                                                    ",
"                                                                                                                                                                                                                                                                                                                                                                                                                                                                                                                    ",
"                                                                                                                                                                                                                                                                                                                                                                                                                                                                                                                    ",
"                                                                                                                                                                                                                                                                                                                                                                                                                                                                                                                    ",
"                                                                                                                                                                                                                                                                                                                                                                                                                                                                                                                    ",
"                                                                                                                                                                                                                                                                                                                                                                                                                                                                                                                    ",
"                                                                                                                                                                                                                                                                                                                                                                                                                                                                                                                    ",
"                                                                                                                                                                                                                                                                                                                                                                                                                                                                                                                    ",
"                                                                                                                                                                                                                                                                                                                                                                                                                                                                                                                    ",
"                                                                                                                                                                                                                                                                                                                                                                                                                                                                                                                    ",
"                                                                                                                                                                                                                                                                                                                                                                                                                                                                                                                    ",
"                                                                                                                                                                                                                                                                                                                                                                                                                                                                                                                    ",
"                                                                                                                                                                                                                                                                                                                                                                                                                                                                                                                    ",
"                                                                                                                                                                                                                                                                                                                                                                                                                                                                                                                    ",
"                                                                                                                                                                                                                                                                                                                                                                                                                                                                                                                    ",
"                                                                                                                                                                                                                                                                                                                                                                                                                                                                                                                    ",
"                                                                                                                                                                                                                                                                                                                                                                                                                                                                                                                    ",
"                                                                                                                                                                                                                                                                                                                                                                                                                                                                                                                    ",
"                                                                                                                                                                                                                                                                                                                                                                                                                                                                                                                    ",
"                                                                                                                                                                                                                                                                                                                                                                                                                                                                                                                    ",
"                                                                                                                                                                                                                                                                                                                                                                                                                                                                                                                    ",
"                                                                                                                                                                                                                                                                                                                                                                                                                                                                                                                    ",
"                                                                                                                                                                                                                                                                                                                                                                                                                                                                                                                    ",
"                                                                                                                                                                                                                                                                                                                                                                                                                                                                                                                    ",
"                                                                                                                                                                                                                                                                                                                                                                                                                                                                                                                    ",
"                                                                                                                                                                                                                                                                                                                                                                                                                                                                                                                    ",
"                                                                                                                                                                                                                                                                                                                                                                                                                                                                                                                    ",
"                                                                                                                                                                                                                                                                                                                                                                                                                                                                                                                    ",
"                                                                                                                                                                                                                                                                                                                                                                                                                                                                                                                    ",
"                                                                                                                                                                                                                                                                                                                                                                                                                                                                                                                    ",
"                                                                                                                                                                                                                                                                                                                                                                                                                                                                                                                    ",
"                                                                                                                                                                                                                                                                                                                                                                                                                                                                                                                    ",
"                                                                                                                                                                                                                                                                                                                                                                                                                                                                                                                    ",
"                                                                                                                                                                                                                                                                                                                                                                                                                                                                                                                    ",
"                                                                                                                                                                                                                                                                                                                                                                                                                                                                                                                    ",
"                                                                                                                                                                                                                                                                                                                                                                                                                                                                                                                    ",
"                                                                                                                                                                                                                                                                                                                                                                                                                                                                                                                    ",
"                                                                                                                                                                                                                                                                                                                                                                                                                                                                                                                    ",
"                                                                                                                                                                                                                                                                                                                                                                                                                                                                                                                    ",
"                                                                                                                                                                                                                                                                                                                                                                                                                                                                                                                    ",
"                                                                                                                                                                                                                                                                                                                                                                                                                                                                                                                    ",
"                                                                                                                                                                                                                                                                                                                                                                                                                                                                                                                    ",
"                                                                                                                                                                                                                                                                                                                                                                                                                                                                                                                    ",
"                                                                                                                                                                                                                                                                                                                                                                                                                                                                                                                    ",
"                                                                                                                                                                                                                                                                                                                                                                                                                                                                                                                    ",
"                                                                                                                                                                                                                                                                                                                                                                                                                                                                                                                    ",
"                                                                                                                                                                                                                                                                                                         ....................                                                                                                                                                                                       ",
"                                                                                                                                                                                                                                                                                                         ....................                                                                                                                                                                                       ",
"                                                                                                                                                                                                                                                                                                         ....................                                                                                                                                                                                       ",
"                                                                                                                                                                                                                                                                                                         ....................                                                                                                                                                                                       ",
"                                                                                                                                                                                                                                                                                                         ....................                                                                                                                                                                                       ",
"                                                                                                                                                                                                                                                                                                         ....................                                                                                                                                                                                       ",
"                                                                                                                                                                                                                                                                                                         ....................                                                                                                                                                                                       ",
"                                                                                                                                                                                                                                                                                                  OOOOOOO%%%%%%%+++++++++++++.......                                                                                                                                                                                ",
"                                                                                                                                                                                                                                                                                                  OOOOOOO%%%%%%%+++++++++++++.......                                                                                                                                                                                ",
"                                                                                                                                                                                                                                                                                                  OOOOOOO%%%%%%%+++++++++++++.......                                                                                                                                                                                ",
"                                                                                                                                                                                                                                                                                                  OOOOOOO%%%%%%%+++++++++++++.......                                                                                                                                                                                ",
"                                                                                                                                                                                                                                                                                                  OOOOOOO%%%%%%%+++++++++++++.......                                                                                                                                                                                ",
"                                                                                                                                                                                                                                                                                                  OOOOOOO%%%%%%%+++++++++++++.......                                                                                                                                                                                ",
"                                                                                                                                                                                                                                                                                                  OOOOOOO%%%%%%%+++++++++++++.......                                                                                                                                                                                ",
"                                                                                                                                                                                             ..............                                                                                 OOOOOO%%%%%%%%%%%%%%%%%%%%%++++++.......                                                                                                                                                                                ",
"                                                                                                                                                                                             ..............                                                                                 OOOOOO%%%%%%%%%%%%%%%%%%%%%++++++.......                                                                                                                                                                                ",
"                                                                                                                                                                                             ..............                                                                                 OOOOOO%%%%%%%%%%%%%%%%%%%%%++++++.......                                                                                                                                                                                ",
"                                                                                                                                                                                             ..............                                                                                 OOOOOO%%%%%%%%%%%%%%%%%%%%%++++++.......                                                                                                                                                                                ",
"                                                                                                                                                                                             ..............                                                                                 OOOOOO%%%%%%%%%%%%%%%%%%%%%++++++.......                                                                                                                                                                                ",
"                                                                                                                                                                                             ..............                                                                                 OOOOOO%%%%%%%%%%%%%%%%%%%%%++++++.......                                                                                                                                                                                ",
"                                                                                                                                                                                             ..............                                                                                 OOOOOO%%%%%%%%%%%%%%%%%%%%%++++++.......                                                                                                                                                                                ",
"                                                                                                                                                                                      OOOOOOO%%%%%%%+++++++.............                                                             OOOOOOO%%%%%%%%%%%%%%%%%%%%%%%%%%%+++++++++++++.......                                                                                                                                                                         ",
"                                                                                                                                                                                      OOOOOOO%%%%%%%+++++++.............                                                             OOOOOOO%%%%%%%%%%%%%%%%%%%%%%%%%%%+++++++++++++.......                                                                                                                                                                         ",
"                                                                                                                                                                                      OOOOOOO%%%%%%%+++++++.............                                                             OOOOOOO%%%%%%%%%%%%%%%%%%%%%%%%%%%+++++++++++++.......                                                                                                                                                                         ",
"                                                                                                                                                                                      OOOOOOO%%%%%%%+++++++.............                                                             OOOOOOO%%%%%%%%%%%%%%%%%%%%%%%%%%%+++++++++++++.......                                                                                                                                                                         ",
"                                                                                                                                                                                      OOOOOOO%%%%%%%+++++++.............                                                             OOOOOOO%%%%%%%%%%%%%%%%%%%%%%%%%%%+++++++++++++.......                                                                                                                                                                         ",
"                                                                                                                                                                                      OOOOOOO%%%%%%%+++++++.............                                                             OOOOOOO%%%%%%%%%%%%%%%%%%%%%%%%%%%+++++++++++++.......                                                                                                                                                                         ",
"                                                                                                                                                                                      OOOOOOO%%%%%%%+++++++.............                                                             OOOOOOO%%%%%%%%%%%%%%%%%%%%%%%%%%%+++++++++++++.......                                                                                                                                                                         ",
"                                                                                                                                                                                      OOOOOOO%%%%%%%++++++++++++++++++++.......                                               OOOOOOO%%%%%%%%%%%%%%%%%%%%%%%%%%%%%%%%%%+++++++++++++.......                                                                   ..............             .......                                                                    ",
"                                                                                                                                                                                      OOOOOOO%%%%%%%++++++++++++++++++++.......                                               OOOOOOO%%%%%%%%%%%%%%%%%%%%%%%%%%%%%%%%%%+++++++++++++.......                                                                   ..............             .......                                                                    ",
"                                                                                                                                                                                      OOOOOOO%%%%%%%++++++++++++++++++++.......                                               OOOOOOO%%%%%%%%%%%%%%%%%%%%%%%%%%%%%%%%%%+++++++++++++.......                                                                   ..............             .......                                                                    ",
"                                                                                                                                                                                      OOOOOOO%%%%%%%++++++++++++++++++++.......                                               OOOOOOO%%%%%%%%%%%%%%%%%%%%%%%%%%%%%%%%%%+++++++++++++.......                                                                   ..............             .......                                                                    ",
"                                                                                                                                                                                      OOOOOOO%%%%%%%++++++++++++++++++++.......                                               OOOOOOO%%%%%%%%%%%%%%%%%%%%%%%%%%%%%%%%%%+++++++++++++.......                                                                   ..............             .......                                                                    ",
"                                                                                                                                                                                      OOOOOOO%%%%%%%++++++++++++++++++++.......                                               OOOOOOO%%%%%%%%%%%%%%%%%%%%%%%%%%%%%%%%%%+++++++++++++.......                                                                   ..............             .......                                                                    ",
"                                                                                                                                                                               OOOOOOO%%%%%%%%%%%%%%%%%%%%%++++++++++++++++++++...............................................%%%%%%%%%%%%%%%%%%%%%%%%%%%%%%%%%%+++++++++++++++++++++++++++.......                                                            :::::::.......       ......:::::::.......                                                             ",
"                                                                                                                                                                               OOOOOOO%%%%%%%%%%%%%%%%%%%%%++++++++++++++++++++...............................................%%%%%%%%%%%%%%%%%%%%%%%%%%%%%%%%%%+++++++++++++++++++++++++++.......                                                            :::::::.......       ......:::::::.......                                                             ",
"                                                                                                                                                                               OOOOOOO%%%%%%%%%%%%%%%%%%%%%++++++++++++++++++++...............................................%%%%%%%%%%%%%%%%%%%%%%%%%%%%%%%%%%+++++++++++++++++++++++++++.......                                                            :::::::.......       ......:::::::.......                                                             ",
"                                                                                                                                                                               OOOOOOO%%%%%%%%%%%%%%%%%%%%%++++++++++++++++++++...............................................%%%%%%%%%%%%%%%%%%%%%%%%%%%%%%%%%%+++++++++++++++++++++++++++.......                                                            :::::::.......       ......:::::::.......                                                             ",
"                                                                                                                                                                               OOOOOOO%%%%%%%%%%%%%%%%%%%%%++++++++++++++++++++...............................................%%%%%%%%%%%%%%%%%%%%%%%%%%%%%%%%%%+++++++++++++++++++++++++++.......                                                            :::::::.......       ......:::::::.......                                                             ",
"                                                                                                                                                                               OOOOOOO%%%%%%%%%%%%%%%%%%%%%++++++++++++++++++++...............................................%%%%%%%%%%%%%%%%%%%%%%%%%%%%%%%%%%+++++++++++++++++++++++++++.......                                                            :::::::.......       ......:::::::.......                                                             ",
"                                                                                                                                                                               OOOOOOO%%%%%%%%%%%%%%%%%%%%%++++++++++++++++++++...............................................%%%%%%%%%%%%%%%%%%%%%%%%%%%%%%%%%%+++++++++++++++++++++++++++.......                                                            :::::::.......       ......:::::::.......                                                             ",
"                                                                                                                                                                               OOOOOOO%%%%%%%%%%%%%%%%%%%%%++++++OOOOOOOOOOOOOO+++++++&&&&&&&&&&&&&%%%%%%%%%%%%%%%%%%%%%%%%%%%%%%%%%%%%%%%%%%%%%%%%%%%%%%%%%%%%%++++++++++++++++++++++++++++++++++......                                                ....................OOOOOOO...........................                                                      ",
"                                                                                                                                                                               OOOOOOO%%%%%%%%%%%%%%%%%%%%%++++++OOOOOOOOOOOOOO+++++++&&&&&&&&&&&&&%%%%%%%%%%%%%%%%%%%%%%%%%%%%%%%%%%%%%%%%%%%%%%%%%%%%%%%%%%%%%++++++++++++++++++++++++++++++++++......                                                ....................OOOOOOO...........................                                                      ",
"                                                                                                                                                                               OOOOOOO%%%%%%%%%%%%%%%%%%%%%++++++OOOOOOOOOOOOOO+++++++&&&&&&&&&&&&&%%%%%%%%%%%%%%%%%%%%%%%%%%%%%%%%%%%%%%%%%%%%%%%%%%%%%%%%%%%%%++++++++++++++++++++++++++++++++++......                                                ....................OOOOOOO...........................                                                      ",
"                                                                                                                                                                               OOOOOOO%%%%%%%%%%%%%%%%%%%%%++++++OOOOOOOOOOOOOO+++++++&&&&&&&&&&&&&%%%%%%%%%%%%%%%%%%%%%%%%%%%%%%%%%%%%%%%%%%%%%%%%%%%%%%%%%%%%%++++++++++++++++++++++++++++++++++......                                                ....................OOOOOOO...........................                                                      ",
"                                                                                                                                                                               OOOOOOO%%%%%%%%%%%%%%%%%%%%%++++++OOOOOOOOOOOOOO+++++++&&&&&&&&&&&&&%%%%%%%%%%%%%%%%%%%%%%%%%%%%%%%%%%%%%%%%%%%%%%%%%%%%%%%%%%%%%++++++++++++++++++++++++++++++++++......                                                ....................OOOOOOO...........................                                                      ",
"                                                                                                                                                                               OOOOOOO%%%%%%%%%%%%%%%%%%%%%++++++OOOOOOOOOOOOOO+++++++&&&&&&&&&&&&&%%%%%%%%%%%%%%%%%%%%%%%%%%%%%%%%%%%%%%%%%%%%%%%%%%%%%%%%%%%%%++++++++++++++++++++++++++++++++++......                                                ....................OOOOOOO...........................                                                      ",
"                                                                                                                                                                               OOOOOOO%%%%%%%%%%%%%%%%%%%%%++++++OOOOOOOOOOOOOO+++++++&&&&&&&&&&&&&%%%%%%%%%%%%%%%%%%%%%%%%%%%%%%%%%%%%%%%%%%%%%%%%%%%%%%%%%%%%%++++++++++++++++++++++++++++++++++......                                                ....................OOOOOOO...........................                                                      ",
"                                                                                                                                                                               OOOOOOO%%%%%%%%%%%%%%+++++++++++++%%%%%%%&&&&&&&&&&&&&&&&&&&&&&&&&&&&&&&&&&%%%%%%%%%%%%%%%%%%%%%%%%%%%%%%%%%%%%%%%%%%%%%%%+++++++++++++++++++++++++++++++++++++++++++++++.......                           ...........................%%%%%%%%%%%%%%OOOOOO.......:::::::.......                                                      ",
"                                                                                                                                                                               OOOOOOO%%%%%%%%%%%%%%+++++++++++++%%%%%%%&&&&&&&&&&&&&&&&&&&&&&&&&&&&&&&&&&%%%%%%%%%%%%%%%%%%%%%%%%%%%%%%%%%%%%%%%%%%%%%%%+++++++++++++++++++++++++++++++++++++++++++++++.......                           ...........................%%%%%%%%%%%%%%OOOOOO.......:::::::.......                                                      ",
"                                                                                                                                                                               OOOOOOO%%%%%%%%%%%%%%+++++++++++++%%%%%%%&&&&&&&&&&&&&&&&&&&&&&&&&&&&&&&&&&%%%%%%%%%%%%%%%%%%%%%%%%%%%%%%%%%%%%%%%%%%%%%%%+++++++++++++++++++++++++++++++++++++++++++++++.......                           ...........................%%%%%%%%%%%%%%OOOOOO.......:::::::.......                                                      ",
"                                                                                                                                                                               OOOOOOO%%%%%%%%%%%%%%+++++++++++++%%%%%%%&&&&&&&&&&&&&&&&&&&&&&&&&&&&&&&&&&%%%%%%%%%%%%%%%%%%%%%%%%%%%%%%%%%%%%%%%%%%%%%%%+++++++++++++++++++++++++++++++++++++++++++++++.......                           ...........................%%%%%%%%%%%%%%OOOOOO.......:::::::.......                                                      ",
"                                                                                                                                                                               OOOOOOO%%%%%%%%%%%%%%+++++++++++++%%%%%%%&&&&&&&&&&&&&&&&&&&&&&&&&&&&&&&&&&%%%%%%%%%%%%%%%%%%%%%%%%%%%%%%%%%%%%%%%%%%%%%%%+++++++++++++++++++++++++++++++++++++++++++++++.......                           ...........................%%%%%%%%%%%%%%OOOOOO.......:::::::.......                                                      ",
"                                                                                                                                                                               OOOOOOO%%%%%%%%%%%%%%+++++++++++++%%%%%%%&&&&&&&&&&&&&&&&&&&&&&&&&&&&&&&&&&%%%%%%%%%%%%%%%%%%%%%%%%%%%%%%%%%%%%%%%%%%%%%%%+++++++++++++++++++++++++++++++++++++++++++++++.......                           ...........................%%%%%%%%%%%%%%OOOOOO.......:::::::.......                                                      ",
"                                                                                                                                                                               OOOOOOO%%%%%%%%%%%%%%+++++++++++++%%%%%%%&&&&&&&&&&&&&&&&&&&&&&&&&&&&&&&&&&%%%%%%%%%%%%%%%%%%%%%%%%%%%%%%%%%%%%%%%%%%%%%%%+++++++++++++++++++++++++++++++++++++++++++++++.......                           ...........................%%%%%%%%%%%%%%OOOOOO.......:::::::.......                                                      ",
"                                                                                                                                                                               OOOOOOO%%%%%%%+++++++%%%%%%%%%%%%%%%%%%%%%%%%%%%&&&&&&&&&&&&&&&&&&&&%%%%%%%%%%%%%%%%%%%%%%%%%%%++++++++++++++++++++++++++++++++++++++++++++++++++++++++++++++++++++++++++.......                           .......:::::::%%%%%%%%%%%%%%%%%%%%%%%%%%%%%%%%%..............OOOOOOO.......                                               ",
"                                                                                                                                                                               OOOOOOO%%%%%%%+++++++%%%%%%%%%%%%%%%%%%%%%%%%%%%&&&&&&&&&&&&&&&&&&&&%%%%%%%%%%%%%%%%%%%%%%%%%%%++++++++++++++++++++++++++++++++++++++++++++++++++++++++++++++++++++++++++.......                           .......:::::::%%%%%%%%%%%%%%%%%%%%%%%%%%%%%%%%%..............OOOOOOO.......                                               ",
"                                                                                                                                                                               OOOOOOO%%%%%%%+++++++%%%%%%%%%%%%%%%%%%%%%%%%%%%&&&&&&&&&&&&&&&&&&&&%%%%%%%%%%%%%%%%%%%%%%%%%%%++++++++++++++++++++++++++++++++++++++++++++++++++++++++++++++++++++++++++.......                           .......:::::::%%%%%%%%%%%%%%%%%%%%%%%%%%%%%%%%%..............OOOOOOO.......                                               ",
"                                                                                                                                                                               OOOOOOO%%%%%%%+++++++%%%%%%%%%%%%%%%%%%%%%%%%%%%&&&&&&&&&&&&&&&&&&&&%%%%%%%%%%%%%%%%%%%%%%%%%%%++++++++++++++++++++++++++++++++++++++++++++++++++++++++++++++++++++++++++.......                           .......:::::::%%%%%%%%%%%%%%%%%%%%%%%%%%%%%%%%%..............OOOOOOO.......                                               ",
"                                                                                                                                                                               OOOOOOO%%%%%%%+++++++%%%%%%%%%%%%%%%%%%%%%%%%%%%&&&&&&&&&&&&&&&&&&&&%%%%%%%%%%%%%%%%%%%%%%%%%%%++++++++++++++++++++++++++++++++++++++++++++++++++++++++++++++++++++++++++.......                           .......:::::::%%%%%%%%%%%%%%%%%%%%%%%%%%%%%%%%%..............OOOOOOO.......                                               ",
"                                                                                                                                                                               OOOOOOO%%%%%%%+++++++%%%%%%%%%%%%%%%%%%%%%%%%%%%&&&&&&&&&&&&&&&&&&&&%%%%%%%%%%%%%%%%%%%%%%%%%%%++++++++++++++++++++++++++++++++++++++++++++++++++++++++++++++++++++++++++.......                           .......:::::::%%%%%%%%%%%%%%%%%%%%%%%%%%%%%%%%%..............OOOOOOO.......                                               ",
"                                                                                                                   .............       .......                                 .......+++++++%%%%%%%+++++++++++++%%%%%%%%%%%%%%%%%%%%%%%%%%%%%%%%%%%%%%%%%%%%%%%%+++++++++++++-------*******OOOOOOOOOOOOO++++++++++++++++++++++++++++++++++++++++++++++++++++++.......                    .......%%%%%%%%%%%%%%%%%%%%%%%%%%%%%%%%%%++++++............................                                               ",
"                                                                                                                   .............       .......                                 .......+++++++%%%%%%%+++++++++++++%%%%%%%%%%%%%%%%%%%%%%%%%%%%%%%%%%%%%%%%%%%%%%%%+++++++++++++-------*******OOOOOOOOOOOOO++++++++++++++++++++++++++++++++++++++++++++++++++++++.......                    .......%%%%%%%%%%%%%%%%%%%%%%%%%%%%%%%%%%++++++............................                                               ",
"                                                                                                                   .............       .......                                 .......+++++++%%%%%%%+++++++++++++%%%%%%%%%%%%%%%%%%%%%%%%%%%%%%%%%%%%%%%%%%%%%%%%+++++++++++++-------*******OOOOOOOOOOOOO++++++++++++++++++++++++++++++++++++++++++++++++++++++.......                    .......%%%%%%%%%%%%%%%%%%%%%%%%%%%%%%%%%%++++++............................                                               ",
"                                                                                                                   .............       .......                                 .......+++++++%%%%%%%+++++++++++++%%%%%%%%%%%%%%%%%%%%%%%%%%%%%%%%%%%%%%%%%%%%%%%%+++++++++++++-------*******OOOOOOOOOOOOO++++++++++++++++++++++++++++++++++++++++++++++++++++++.......                    .......%%%%%%%%%%%%%%%%%%%%%%%%%%%%%%%%%%++++++............................                                               ",
"                                                                                                                   .............       .......                                 .......+++++++%%%%%%%+++++++++++++%%%%%%%%%%%%%%%%%%%%%%%%%%%%%%%%%%%%%%%%%%%%%%%%+++++++++++++-------*******OOOOOOOOOOOOO++++++++++++++++++++++++++++++++++++++++++++++++++++++.......                    .......%%%%%%%%%%%%%%%%%%%%%%%%%%%%%%%%%%++++++............................                                               ",
"                                                                                                                   .............       .......                                 .......+++++++%%%%%%%+++++++++++++%%%%%%%%%%%%%%%%%%%%%%%%%%%%%%%%%%%%%%%%%%%%%%%%+++++++++++++-------*******OOOOOOOOOOOOO++++++++++++++++++++++++++++++++++++++++++++++++++++++.......                    .......%%%%%%%%%%%%%%%%%%%%%%%%%%%%%%%%%%++++++............................                                               ",
"                                                                                                                   .............       .......                                 .......+++++++%%%%%%%+++++++++++++%%%%%%%%%%%%%%%%%%%%%%%%%%%%%%%%%%%%%%%%%%%%%%%%+++++++++++++-------*******OOOOOOOOOOOOO++++++++++++++++++++++++++++++++++++++++++++++++++++++.......                    .......%%%%%%%%%%%%%%%%%%%%%%%%%%%%%%%%%%++++++............................                                               ",
"                                                                                                                   ......:::::::       .............                           .......++++++++++++++-------******+++++++%%%%%%%%%%%%%%%%%%%%%%%%%%%%%%%%%%+++++++---------------------------------*******OOOOOOO+++++++++++++++++++++++++++++++++++++++++++++++.......                           %%%%%%%%%%%%%%%%%%%%%%%%%%%%%%%%%%+++++++++++++::::::::::::::OOOOOOO......                                         ",
"                                                                                                                   ......:::::::       .............                           .......++++++++++++++-------******+++++++%%%%%%%%%%%%%%%%%%%%%%%%%%%%%%%%%%+++++++---------------------------------*******OOOOOOO+++++++++++++++++++++++++++++++++++++++++++++++.......                           %%%%%%%%%%%%%%%%%%%%%%%%%%%%%%%%%%+++++++++++++::::::::::::::OOOOOOO......                                         ",
"                                                                                                                   ......:::::::       .............                           .......++++++++++++++-------******+++++++%%%%%%%%%%%%%%%%%%%%%%%%%%%%%%%%%%+++++++---------------------------------*******OOOOOOO+++++++++++++++++++++++++++++++++++++++++++++++.......                           %%%%%%%%%%%%%%%%%%%%%%%%%%%%%%%%%%+++++++++++++::::::::::::::OOOOOOO......                                         ",
"                                                                                                                   ......:::::::       .............                           .......++++++++++++++-------******+++++++%%%%%%%%%%%%%%%%%%%%%%%%%%%%%%%%%%+++++++---------------------------------*******OOOOOOO+++++++++++++++++++++++++++++++++++++++++++++++.......                           %%%%%%%%%%%%%%%%%%%%%%%%%%%%%%%%%%+++++++++++++::::::::::::::OOOOOOO......                                         ",
"                                                                                                                   ......:::::::       .............                           .......++++++++++++++-------******+++++++%%%%%%%%%%%%%%%%%%%%%%%%%%%%%%%%%%+++++++---------------------------------*******OOOOOOO+++++++++++++++++++++++++++++++++++++++++++++++.......                           %%%%%%%%%%%%%%%%%%%%%%%%%%%%%%%%%%+++++++++++++::::::::::::::OOOOOOO......                                         ",
"                                                                                                                   ......:::::::       .............                           .......++++++++++++++-------******+++++++%%%%%%%%%%%%%%%%%%%%%%%%%%%%%%%%%%+++++++---------------------------------*******OOOOOOO+++++++++++++++++++++++++++++++++++++++++++++++.......                           %%%%%%%%%%%%%%%%%%%%%%%%%%%%%%%%%%+++++++++++++::::::::::::::OOOOOOO......                                         ",
"                                                                                                                   ......:::::::       .............                           .......++++++++++++++-------******+++++++%%%%%%%%%%%%%%%%%%%%%%%%%%%%%%%%%%+++++++---------------------------------*******OOOOOOO+++++++++++++++++++++++++++++++++++++++++++++++.......                           %%%%%%%%%%%%%%%%%%%%%%%%%%%%%%%%%%+++++++++++++::::::::::::::OOOOOOO......                                         ",
"                                                                                                     ..............OOOOOO.......%%%%%%%.......::::::                     ......++++++++++++++---------------------------+++++++%%%%%%%%%%%%%%%%%%%%+++++++------------------------------------------------------OOOOOOO+++++++++++++++++++++++++++++++++++++++++++++++.......             %%%%%%%%%%%%%%%%%%%%%%%%%%%%%%%%%%%%%%%%%++++++..............+++++++.......                                               ",
"                                                                                                     ..............OOOOOO.......%%%%%%%.......::::::                     ......++++++++++++++---------------------------+++++++%%%%%%%%%%%%%%%%%%%%+++++++------------------------------------------------------OOOOOOO+++++++++++++++++++++++++++++++++++++++++++++++.......             %%%%%%%%%%%%%%%%%%%%%%%%%%%%%%%%%%%%%%%%%++++++..............+++++++.......                                               ",
"                                                                                                     ..............OOOOOO.......%%%%%%%.......::::::                     ......++++++++++++++---------------------------+++++++%%%%%%%%%%%%%%%%%%%%+++++++------------------------------------------------------OOOOOOO+++++++++++++++++++++++++++++++++++++++++++++++.......             %%%%%%%%%%%%%%%%%%%%%%%%%%%%%%%%%%%%%%%%%++++++..............+++++++.......                                               ",
"                                                                                                     ..............OOOOOO.......%%%%%%%.......::::::                     ......++++++++++++++---------------------------+++++++%%%%%%%%%%%%%%%%%%%%+++++++------------------------------------------------------OOOOOOO+++++++++++++++++++++++++++++++++++++++++++++++.......             %%%%%%%%%%%%%%%%%%%%%%%%%%%%%%%%%%%%%%%%%++++++..............+++++++.......                                               ",
"                                                                                                     ..............OOOOOO.......%%%%%%%.......::::::                     ......++++++++++++++---------------------------+++++++%%%%%%%%%%%%%%%%%%%%+++++++------------------------------------------------------OOOOOOO+++++++++++++++++++++++++++++++++++++++++++++++.......             %%%%%%%%%%%%%%%%%%%%%%%%%%%%%%%%%%%%%%%%%++++++..............+++++++.......                                               ",
"                                                                                                     ..............OOOOOO.......%%%%%%%.......::::::                     ......++++++++++++++---------------------------+++++++%%%%%%%%%%%%%%%%%%%%+++++++------------------------------------------------------OOOOOOO+++++++++++++++++++++++++++++++++++++++++++++++.......             %%%%%%%%%%%%%%%%%%%%%%%%%%%%%%%%%%%%%%%%%++++++..............+++++++.......                                               ",
"                                                                                                     ..............OOOOOO.......%%%%%%%.......::::::                     ......++++++++++++++---------------------------+++++++%%%%%%%%%%%%%%%%%%%%+++++++------------------------------------------------------OOOOOOO+++++++++++++++++++++++++++++++++++++++++++++++.......             %%%%%%%%%%%%%%%%%%%%%%%%%%%%%%%%%%%%%%%%%++++++..............+++++++.......                                               ",
"                                                                                              .......:::::::OOOOOOO%%%%%%%%%%%%%%%%%%%%%%%%%%%....................       ......+++++++*******----------------------------------+++++++++++++*******--------------------------------------------------------------------OOOOOO+++++++++++++++++++++++++++++++++++++++++.......      .......%%%%%%%%%%%%%%%%%%%%%%%%%%%%%%%%%%%%%%%%%++++++++++++++++++++++++++++++++++......                                         ",
"                                                                                              .......:::::::OOOOOOO%%%%%%%%%%%%%%%%%%%%%%%%%%%....................       ......+++++++*******----------------------------------+++++++++++++*******--------------------------------------------------------------------OOOOOO+++++++++++++++++++++++++++++++++++++++++.......      .......%%%%%%%%%%%%%%%%%%%%%%%%%%%%%%%%%%%%%%%%%++++++++++++++++++++++++++++++++++......                                         ",
"                                                                                              .......:::::::OOOOOOO%%%%%%%%%%%%%%%%%%%%%%%%%%%....................       ......+++++++*******----------------------------------+++++++++++++*******--------------------------------------------------------------------OOOOOO+++++++++++++++++++++++++++++++++++++++++.......      .......%%%%%%%%%%%%%%%%%%%%%%%%%%%%%%%%%%%%%%%%%++++++++++++++++++++++++++++++++++......                                         ",
"                                                                                              .......:::::::OOOOOOO%%%%%%%%%%%%%%%%%%%%%%%%%%%....................       ......+++++++*******----------------------------------+++++++++++++*******--------------------------------------------------------------------OOOOOO+++++++++++++++++++++++++++++++++++++++++.......      .......%%%%%%%%%%%%%%%%%%%%%%%%%%%%%%%%%%%%%%%%%++++++++++++++++++++++++++++++++++......                                         ",
"                                                                                              .......:::::::OOOOOOO%%%%%%%%%%%%%%%%%%%%%%%%%%%....................       ......+++++++*******----------------------------------+++++++++++++*******--------------------------------------------------------------------OOOOOO+++++++++++++++++++++++++++++++++++++++++.......      .......%%%%%%%%%%%%%%%%%%%%%%%%%%%%%%%%%%%%%%%%%++++++++++++++++++++++++++++++++++......                                         ",
"                                                                                              .......:::::::OOOOOOO%%%%%%%%%%%%%%%%%%%%%%%%%%%....................       ......+++++++*******----------------------------------+++++++++++++*******--------------------------------------------------------------------OOOOOO+++++++++++++++++++++++++++++++++++++++++.......      .......%%%%%%%%%%%%%%%%%%%%%%%%%%%%%%%%%%%%%%%%%++++++++++++++++++++++++++++++++++......                                         ",
"                                                                                              .......:::::::OOOOOOO%%%%%%%%%%%%%%%%%%%%%%%%%%%....................       ......+++++++*******----------------------------------+++++++++++++*******--------------------------------------------------------------------OOOOOO+++++++++++++++++++++++++++++++++++++++++.......      .......%%%%%%%%%%%%%%%%%%%%%%%%%%%%%%%%%%%%%%%%%++++++++++++++++++++++++++++++++++......                                         ",
"                                                                                              .......OOOOOOOOOOOOOO%%%%%%%%%%%%%%%%%%%%%%%%%%%%%%%%%:::::::.......       ......+++++++---------------------------------------------------------------------------------------------------------------------------------******OOOOOOO++++++++++++++++++++++++++++++++++.......      .......%%%%%%%%%%%%%%%%%%%%%%%%%%%%%%%%%%++++++++++++++++++++++++++++++++++.......                                               ",
"                                                                                              .......OOOOOOOOOOOOOO%%%%%%%%%%%%%%%%%%%%%%%%%%%%%%%%%:::::::.......       ......+++++++---------------------------------------------------------------------------------------------------------------------------------******OOOOOOO++++++++++++++++++++++++++++++++++.......      .......%%%%%%%%%%%%%%%%%%%%%%%%%%%%%%%%%%++++++++++++++++++++++++++++++++++.......                                               ",
"                                                                                              .......OOOOOOOOOOOOOO%%%%%%%%%%%%%%%%%%%%%%%%%%%%%%%%%:::::::.......       ......+++++++---------------------------------------------------------------------------------------------------------------------------------******OOOOOOO++++++++++++++++++++++++++++++++++.......      .......%%%%%%%%%%%%%%%%%%%%%%%%%%%%%%%%%%++++++++++++++++++++++++++++++++++.......                                               ",
"                                                                                              .......OOOOOOOOOOOOOO%%%%%%%%%%%%%%%%%%%%%%%%%%%%%%%%%:::::::.......       ......+++++++---------------------------------------------------------------------------------------------------------------------------------******OOOOOOO++++++++++++++++++++++++++++++++++.......      .......%%%%%%%%%%%%%%%%%%%%%%%%%%%%%%%%%%++++++++++++++++++++++++++++++++++.......                                               ",
"                                                                                              .......OOOOOOOOOOOOOO%%%%%%%%%%%%%%%%%%%%%%%%%%%%%%%%%:::::::.......       ......+++++++---------------------------------------------------------------------------------------------------------------------------------******OOOOOOO++++++++++++++++++++++++++++++++++.......      .......%%%%%%%%%%%%%%%%%%%%%%%%%%%%%%%%%%++++++++++++++++++++++++++++++++++.......                                               ",
"                                                                                              .......OOOOOOOOOOOOOO%%%%%%%%%%%%%%%%%%%%%%%%%%%%%%%%%:::::::.......       ......+++++++---------------------------------------------------------------------------------------------------------------------------------******OOOOOOO++++++++++++++++++++++++++++++++++.......      .......%%%%%%%%%%%%%%%%%%%%%%%%%%%%%%%%%%++++++++++++++++++++++++++++++++++.......                                               ",
"                                                                                        ......OOOOOOOOOOOOOO+++++++%%%%%%%%%%%%%%%%%%%%%%%%%%%.............              ......*******---------------------------------------------------------------------------------------------------------------------------------------OOOOOOO+++++++++++++++++++++++++++++++++++++++++......%%%%%%%%%%%%%%%%%%%%%%%%%%%%%%%%%%+++++++++++++++++++++++++++++++++++++++++.......                                               ",
"                                                                                        ......OOOOOOOOOOOOOO+++++++%%%%%%%%%%%%%%%%%%%%%%%%%%%.............              ......*******---------------------------------------------------------------------------------------------------------------------------------------OOOOOOO+++++++++++++++++++++++++++++++++++++++++......%%%%%%%%%%%%%%%%%%%%%%%%%%%%%%%%%%+++++++++++++++++++++++++++++++++++++++++.......                                               ",
"                                                                                        ......OOOOOOOOOOOOOO+++++++%%%%%%%%%%%%%%%%%%%%%%%%%%%.............              ......*******---------------------------------------------------------------------------------------------------------------------------------------OOOOOOO+++++++++++++++++++++++++++++++++++++++++......%%%%%%%%%%%%%%%%%%%%%%%%%%%%%%%%%%+++++++++++++++++++++++++++++++++++++++++.......                                               ",
"                                                                                        ......OOOOOOOOOOOOOO+++++++%%%%%%%%%%%%%%%%%%%%%%%%%%%.............              ......*******---------------------------------------------------------------------------------------------------------------------------------------OOOOOOO+++++++++++++++++++++++++++++++++++++++++......%%%%%%%%%%%%%%%%%%%%%%%%%%%%%%%%%%+++++++++++++++++++++++++++++++++++++++++.......                                               ",
"                                                                                        ......OOOOOOOOOOOOOO+++++++%%%%%%%%%%%%%%%%%%%%%%%%%%%.............              ......*******---------------------------------------------------------------------------------------------------------------------------------------OOOOOOO+++++++++++++++++++++++++++++++++++++++++......%%%%%%%%%%%%%%%%%%%%%%%%%%%%%%%%%%+++++++++++++++++++++++++++++++++++++++++.......                                               ",
"                                                                                        ......OOOOOOOOOOOOOO+++++++%%%%%%%%%%%%%%%%%%%%%%%%%%%.............              ......*******---------------------------------------------------------------------------------------------------------------------------------------OOOOOOO+++++++++++++++++++++++++++++++++++++++++......%%%%%%%%%%%%%%%%%%%%%%%%%%%%%%%%%%+++++++++++++++++++++++++++++++++++++++++.......                                               ",
"                                                                                        ......OOOOOOOOOOOOOO+++++++%%%%%%%%%%%%%%%%%%%%%%%%%%%.............              ......*******---------------------------------------------------------------------------------------------------------------------------------------OOOOOOO+++++++++++++++++++++++++++++++++++++++++......%%%%%%%%%%%%%%%%%%%%%%%%%%%%%%%%%%+++++++++++++++++++++++++++++++++++++++++.......                                               ",
"                                                                                              .......:::::::+++++++%%%%%%%%%%%%%%%%%%%%%%%%%%%%%%%%%%%%%%%%       .......++++++----------------------------------------------------------------------------------------..................................--------------------*******OOOOOOO+++++++++++++++++++++++++++.............%%%%%%%%%%%%%%%%%%%%%%%%%%%%%%%%%%%%%%%%%++++++++++++++++++++++++++++++++++.......                                               ",
"                                                                                              .......:::::::+++++++%%%%%%%%%%%%%%%%%%%%%%%%%%%%%%%%%%%%%%%%       .......++++++----------------------------------------------------------------------------------------..................................--------------------*******OOOOOOO+++++++++++++++++++++++++++.............%%%%%%%%%%%%%%%%%%%%%%%%%%%%%%%%%%%%%%%%%++++++++++++++++++++++++++++++++++.......                                               ",
"                                                                                              .......:::::::+++++++%%%%%%%%%%%%%%%%%%%%%%%%%%%%%%%%%%%%%%%%       .......++++++----------------------------------------------------------------------------------------..................................--------------------*******OOOOOOO+++++++++++++++++++++++++++.............%%%%%%%%%%%%%%%%%%%%%%%%%%%%%%%%%%%%%%%%%++++++++++++++++++++++++++++++++++.......                                               ",
"                                                                                              .......:::::::+++++++%%%%%%%%%%%%%%%%%%%%%%%%%%%%%%%%%%%%%%%%       .......++++++----------------------------------------------------------------------------------------..................................--------------------*******OOOOOOO+++++++++++++++++++++++++++.............%%%%%%%%%%%%%%%%%%%%%%%%%%%%%%%%%%%%%%%%%++++++++++++++++++++++++++++++++++.......                                               ",
"                                                                                              .......:::::::+++++++%%%%%%%%%%%%%%%%%%%%%%%%%%%%%%%%%%%%%%%%       .......++++++----------------------------------------------------------------------------------------..................................--------------------*******OOOOOOO+++++++++++++++++++++++++++.............%%%%%%%%%%%%%%%%%%%%%%%%%%%%%%%%%%%%%%%%%++++++++++++++++++++++++++++++++++.......                                               ",
"                                                                                              .......:::::::+++++++%%%%%%%%%%%%%%%%%%%%%%%%%%%%%%%%%%%%%%%%       .......++++++----------------------------------------------------------------------------------------..................................--------------------*******OOOOOOO+++++++++++++++++++++++++++.............%%%%%%%%%%%%%%%%%%%%%%%%%%%%%%%%%%%%%%%%%++++++++++++++++++++++++++++++++++.......                                               ",
"                                                                                              .......:::::::+++++++%%%%%%%%%%%%%%%%%%%%%%%%%%%%%%%%%%%%%%%%       .......++++++----------------------------------------------------------------------------------------..................................--------------------*******OOOOOOO+++++++++++++++++++++++++++.............%%%%%%%%%%%%%%%%%%%%%%%%%%%%%%%%%%%%%%%%%++++++++++++++++++++++++++++++++++.......                                               ",
"                                                                                        ......+++++++++++++++++++++++++++%%%%%%%%%%%%%%%%%%%%%%%%%%%%%%%%%%       .......++++++.....................------------------------------------------------------.............@@@@@@@------------------------------------------------------OOOOOOO++++++++++++++++++++++++++++++++++++++++%%%%%%%%%%%%%%%%%%%%%%%%%%%++++++++++++++++++++++++++++++++++++++++++++++++                                                      ",
"                                                                                        ......+++++++++++++++++++++++++++%%%%%%%%%%%%%%%%%%%%%%%%%%%%%%%%%%       .......++++++.....................------------------------------------------------------.............@@@@@@@------------------------------------------------------OOOOOOO++++++++++++++++++++++++++++++++++++++++%%%%%%%%%%%%%%%%%%%%%%%%%%%++++++++++++++++++++++++++++++++++++++++++++++++                                                      ",
"                                                                                        ......+++++++++++++++++++++++++++%%%%%%%%%%%%%%%%%%%%%%%%%%%%%%%%%%       .......++++++.....................------------------------------------------------------.............@@@@@@@------------------------------------------------------OOOOOOO++++++++++++++++++++++++++++++++++++++++%%%%%%%%%%%%%%%%%%%%%%%%%%%++++++++++++++++++++++++++++++++++++++++++++++++                                                      ",
"                                                                                        ......+++++++++++++++++++++++++++%%%%%%%%%%%%%%%%%%%%%%%%%%%%%%%%%%       .......++++++.....................------------------------------------------------------.............@@@@@@@------------------------------------------------------OOOOOOO++++++++++++++++++++++++++++++++++++++++%%%%%%%%%%%%%%%%%%%%%%%%%%%++++++++++++++++++++++++++++++++++++++++++++++++                                                      ",
"                                                                                        ......+++++++++++++++++++++++++++%%%%%%%%%%%%%%%%%%%%%%%%%%%%%%%%%%       .......++++++.....................------------------------------------------------------.............@@@@@@@------------------------------------------------------OOOOOOO++++++++++++++++++++++++++++++++++++++++%%%%%%%%%%%%%%%%%%%%%%%%%%%++++++++++++++++++++++++++++++++++++++++++++++++                                                      ",
"                                                                                        ......+++++++++++++++++++++++++++%%%%%%%%%%%%%%%%%%%%%%%%%%%%%%%%%%       .......++++++.....................------------------------------------------------------.............@@@@@@@------------------------------------------------------OOOOOOO++++++++++++++++++++++++++++++++++++++++%%%%%%%%%%%%%%%%%%%%%%%%%%%++++++++++++++++++++++++++++++++++++++++++++++++                                                      ",
"                                                                                        ......+++++++++++++++++++++++++++%%%%%%%%%%%%%%%%%%%%%%%%%%%%%%%%%%       .......++++++.....................------------------------------------------------------.............@@@@@@@------------------------------------------------------OOOOOOO++++++++++++++++++++++++++++++++++++++++%%%%%%%%%%%%%%%%%%%%%%%%%%%++++++++++++++++++++++++++++++++++++++++++++++++                                                      ",
"                                                                                              .......++++++++++++++++++++%%%%%%%%%%%%%%%%%%%%%%%%%%%%%%%%%%OOOOOOO.......++++++--------------@@@@@@@.............-------------------------------------------------------------------------------------------------------------------OOOOOOO+++++++++++++++++++++++++++++++++++++++++++++++++++++++++++++%%%%%%++++++++++++++++++++++++++++++++++++++++++++++++.......                                               ",
"                                                                                              .......++++++++++++++++++++%%%%%%%%%%%%%%%%%%%%%%%%%%%%%%%%%%OOOOOOO.......++++++--------------@@@@@@@.............-------------------------------------------------------------------------------------------------------------------OOOOOOO+++++++++++++++++++++++++++++++++++++++++++++++++++++++++++++%%%%%%++++++++++++++++++++++++++++++++++++++++++++++++.......                                               ",
"                                                                                              .......++++++++++++++++++++%%%%%%%%%%%%%%%%%%%%%%%%%%%%%%%%%%OOOOOOO.......++++++--------------@@@@@@@.............-------------------------------------------------------------------------------------------------------------------OOOOOOO+++++++++++++++++++++++++++++++++++++++++++++++++++++++++++++%%%%%%++++++++++++++++++++++++++++++++++++++++++++++++.......                                               ",
"                                                                                              .......++++++++++++++++++++%%%%%%%%%%%%%%%%%%%%%%%%%%%%%%%%%%OOOOOOO.......++++++--------------@@@@@@@.............-------------------------------------------------------------------------------------------------------------------OOOOOOO+++++++++++++++++++++++++++++++++++++++++++++++++++++++++++++%%%%%%++++++++++++++++++++++++++++++++++++++++++++++++.......                                               ",
"                                                                                              .......++++++++++++++++++++%%%%%%%%%%%%%%%%%%%%%%%%%%%%%%%%%%OOOOOOO.......++++++--------------@@@@@@@.............-------------------------------------------------------------------------------------------------------------------OOOOOOO+++++++++++++++++++++++++++++++++++++++++++++++++++++++++++++%%%%%%++++++++++++++++++++++++++++++++++++++++++++++++.......                                               ",
"                                                                                              .......++++++++++++++++++++%%%%%%%%%%%%%%%%%%%%%%%%%%%%%%%%%%OOOOOOO.......++++++--------------@@@@@@@.............-------------------------------------------------------------------------------------------------------------------OOOOOOO+++++++++++++++++++++++++++++++++++++++++++++++++++++++++++++%%%%%%++++++++++++++++++++++++++++++++++++++++++++++++.......                                               ",
"                                                                                        ......+++++++++++++++++++++++++++%%%%%%%%%%%%%%%%%%%%%%%%%%%%%%%%%%%%%%%%%.......++++++-----------------------------------------------------------------------------------------------------------------------------------------------------OOOOOOO+++++++++++++++++++++++++++.......+++++++++++++++++++++++++++++++++++++++++++++++++++++++++++++++++++++++++++++++++                                                      ",
"                                                                                        ......+++++++++++++++++++++++++++%%%%%%%%%%%%%%%%%%%%%%%%%%%%%%%%%%%%%%%%%.......++++++-----------------------------------------------------------------------------------------------------------------------------------------------------OOOOOOO+++++++++++++++++++++++++++.......+++++++++++++++++++++++++++++++++++++++++++++++++++++++++++++++++++++++++++++++++                                                      ",
"                                                                                        ......+++++++++++++++++++++++++++%%%%%%%%%%%%%%%%%%%%%%%%%%%%%%%%%%%%%%%%%.......++++++-----------------------------------------------------------------------------------------------------------------------------------------------------OOOOOOO+++++++++++++++++++++++++++.......+++++++++++++++++++++++++++++++++++++++++++++++++++++++++++++++++++++++++++++++++                                                      ",
"                                                                                        ......+++++++++++++++++++++++++++%%%%%%%%%%%%%%%%%%%%%%%%%%%%%%%%%%%%%%%%%.......++++++-----------------------------------------------------------------------------------------------------------------------------------------------------OOOOOOO+++++++++++++++++++++++++++.......+++++++++++++++++++++++++++++++++++++++++++++++++++++++++++++++++++++++++++++++++                                                      ",
"                                                                                        ......+++++++++++++++++++++++++++%%%%%%%%%%%%%%%%%%%%%%%%%%%%%%%%%%%%%%%%%.......++++++-----------------------------------------------------------------------------------------------------------------------------------------------------OOOOOOO+++++++++++++++++++++++++++.......+++++++++++++++++++++++++++++++++++++++++++++++++++++++++++++++++++++++++++++++++                                                      ",
"                                                                                        ......+++++++++++++++++++++++++++%%%%%%%%%%%%%%%%%%%%%%%%%%%%%%%%%%%%%%%%%.......++++++-----------------------------------------------------------------------------------------------------------------------------------------------------OOOOOOO+++++++++++++++++++++++++++.......+++++++++++++++++++++++++++++++++++++++++++++++++++++++++++++++++++++++++++++++++                                                      ",
"                                                                                        ......+++++++++++++++++++++++++++%%%%%%%%%%%%%%%%%%%%%%%%%%%%%%%%%%%%%%%%%.......++++++-----------------------------------------------------------------------------------------------------------------------------------------------------OOOOOOO+++++++++++++++++++++++++++.......+++++++++++++++++++++++++++++++++++++++++++++++++++++++++++++++++++++++++++++++++                                                      ",
"                                                                                        ......+++++++++++++++++++++++++++%%%%%%%%%%%%%%%%%%%%%%%%%%%%%%%%%%%%%%%%%.......++++++----------------------------------------------------------------------------------@@@@@@*******-----------------------------------------------*******OOOOOOO++++++++++++++++++++.......+++++++++++++++++++++++++++++++++++++++++++++++++++++++++++++++++++++++++++++++++..............                                               ",
"                                                                                        ......+++++++++++++++++++++++++++%%%%%%%%%%%%%%%%%%%%%%%%%%%%%%%%%%%%%%%%%.......++++++----------------------------------------------------------------------------------@@@@@@*******-----------------------------------------------*******OOOOOOO++++++++++++++++++++.......+++++++++++++++++++++++++++++++++++++++++++++++++++++++++++++++++++++++++++++++++..............                                               ",
"                                                                                        ......+++++++++++++++++++++++++++%%%%%%%%%%%%%%%%%%%%%%%%%%%%%%%%%%%%%%%%%.......++++++----------------------------------------------------------------------------------@@@@@@*******-----------------------------------------------*******OOOOOOO++++++++++++++++++++.......+++++++++++++++++++++++++++++++++++++++++++++++++++++++++++++++++++++++++++++++++..............                                               ",
"                                                                                        ......+++++++++++++++++++++++++++%%%%%%%%%%%%%%%%%%%%%%%%%%%%%%%%%%%%%%%%%.......++++++----------------------------------------------------------------------------------@@@@@@*******-----------------------------------------------*******OOOOOOO++++++++++++++++++++.......+++++++++++++++++++++++++++++++++++++++++++++++++++++++++++++++++++++++++++++++++..............                                               ",
"                                                                                        ......+++++++++++++++++++++++++++%%%%%%%%%%%%%%%%%%%%%%%%%%%%%%%%%%%%%%%%%.......++++++----------------------------------------------------------------------------------@@@@@@*******-----------------------------------------------*******OOOOOOO++++++++++++++++++++.......+++++++++++++++++++++++++++++++++++++++++++++++++++++++++++++++++++++++++++++++++..............                                               ",
"                                                                                        ......+++++++++++++++++++++++++++%%%%%%%%%%%%%%%%%%%%%%%%%%%%%%%%%%%%%%%%%.......++++++----------------------------------------------------------------------------------@@@@@@*******-----------------------------------------------*******OOOOOOO++++++++++++++++++++.......+++++++++++++++++++++++++++++++++++++++++++++++++++++++++++++++++++++++++++++++++..............                                               ",
"                                                                                        ......+++++++++++++++++++++++++++%%%%%%%%%%%%%%%%%%%%%%%%%%%%%%%%%%%%%%%%%.......++++++----------------------------------------------------------------------------------@@@@@@*******-----------------------------------------------*******OOOOOOO++++++++++++++++++++.......+++++++++++++++++++++++++++++++++++++++++++++++++++++++++++++++++++++++++++++++++..............                                               ",
"                                                                                              +++++++++++++++++++++++++++++++++++++++++%%%%%%%%%%%%%%%%%%%%%%%%%%%%%%%%%%......*******---------------------------@@@@@@@----------------------------------@@@@@@@::::::.......-----------------------------------------------OOOOOOO++++++++++++++++++++OOOOOOO++++++++++++++++++++++++++++++++++++++++++++++++++++++++++++++++++++++++++++++++++++++++.......                                                      ",
"                                                                                              +++++++++++++++++++++++++++++++++++++++++%%%%%%%%%%%%%%%%%%%%%%%%%%%%%%%%%%......*******---------------------------@@@@@@@----------------------------------@@@@@@@::::::.......-----------------------------------------------OOOOOOO++++++++++++++++++++OOOOOOO++++++++++++++++++++++++++++++++++++++++++++++++++++++++++++++++++++++++++++++++++++++++.......                                                      ",
"                                                                                              +++++++++++++++++++++++++++++++++++++++++%%%%%%%%%%%%%%%%%%%%%%%%%%%%%%%%%%......*******---------------------------@@@@@@@----------------------------------@@@@@@@::::::.......-----------------------------------------------OOOOOOO++++++++++++++++++++OOOOOOO++++++++++++++++++++++++++++++++++++++++++++++++++++++++++++++++++++++++++++++++++++++++.......                                                      ",
"                                                                                              +++++++++++++++++++++++++++++++++++++++++%%%%%%%%%%%%%%%%%%%%%%%%%%%%%%%%%%......*******---------------------------@@@@@@@----------------------------------@@@@@@@::::::.......-----------------------------------------------OOOOOOO++++++++++++++++++++OOOOOOO++++++++++++++++++++++++++++++++++++++++++++++++++++++++++++++++++++++++++++++++++++++++.......                                                      ",
"                                                                                              +++++++++++++++++++++++++++++++++++++++++%%%%%%%%%%%%%%%%%%%%%%%%%%%%%%%%%%......*******---------------------------@@@@@@@----------------------------------@@@@@@@::::::.......-----------------------------------------------OOOOOOO++++++++++++++++++++OOOOOOO++++++++++++++++++++++++++++++++++++++++++++++++++++++++++++++++++++++++++++++++++++++++.......                                                      ",
"                                                                                              +++++++++++++++++++++++++++++++++++++++++%%%%%%%%%%%%%%%%%%%%%%%%%%%%%%%%%%......*******---------------------------@@@@@@@----------------------------------@@@@@@@::::::.......-----------------------------------------------OOOOOOO++++++++++++++++++++OOOOOOO++++++++++++++++++++++++++++++++++++++++++++++++++++++++++++++++++++++++++++++++++++++++.......                                                      ",
"                                                                                              +++++++++++++++++++++++++++++++++++++++++%%%%%%%%%%%%%%%%%%%%%%%%%%%%%%%%%%......*******---------------------------@@@@@@@----------------------------------@@@@@@@::::::.......-----------------------------------------------OOOOOOO++++++++++++++++++++OOOOOOO++++++++++++++++++++++++++++++++++++++++++++++++++++++++++++++++++++++++++++++++++++++++.......                                                      ",
"                                                                                        .............+++++++++++++++++++++++++++%%%%%%%%%%%%%%%%%%%%%%%%%%%%%%%%%%%%%%%%%......+++++++---------------------@@@@@@:::::::@@@@@@@-------******.....................@@@@@@*******-----------------------------------------******OOOOOOO+++++++++++++++++++++++++++++++++++++++++++++++++++++++++++++++++++++++++++++++++++++++++++++++++++++++++++++++++++                                                             ",
"                                                                                        .............+++++++++++++++++++++++++++%%%%%%%%%%%%%%%%%%%%%%%%%%%%%%%%%%%%%%%%%......+++++++---------------------@@@@@@:::::::@@@@@@@-------******.....................@@@@@@*******-----------------------------------------******OOOOOOO+++++++++++++++++++++++++++++++++++++++++++++++++++++++++++++++++++++++++++++++++++++++++++++++++++++++++++++++++++                                                             ",
"                                                                                        .............+++++++++++++++++++++++++++%%%%%%%%%%%%%%%%%%%%%%%%%%%%%%%%%%%%%%%%%......+++++++---------------------@@@@@@:::::::@@@@@@@-------******.....................@@@@@@*******-----------------------------------------******OOOOOOO+++++++++++++++++++++++++++++++++++++++++++++++++++++++++++++++++++++++++++++++++++++++++++++++++++++++++++++++++++                                                             ",
"                                                                                        .............+++++++++++++++++++++++++++%%%%%%%%%%%%%%%%%%%%%%%%%%%%%%%%%%%%%%%%%......+++++++---------------------@@@@@@:::::::@@@@@@@-------******.....................@@@@@@*******-----------------------------------------******OOOOOOO+++++++++++++++++++++++++++++++++++++++++++++++++++++++++++++++++++++++++++++++++++++++++++++++++++++++++++++++++++                                                             ",
"                                                                                        .............+++++++++++++++++++++++++++%%%%%%%%%%%%%%%%%%%%%%%%%%%%%%%%%%%%%%%%%......+++++++---------------------@@@@@@:::::::@@@@@@@-------******.....................@@@@@@*******-----------------------------------------******OOOOOOO+++++++++++++++++++++++++++++++++++++++++++++++++++++++++++++++++++++++++++++++++++++++++++++++++++++++++++++++++++                                                             ",
"                                                                                        .............+++++++++++++++++++++++++++%%%%%%%%%%%%%%%%%%%%%%%%%%%%%%%%%%%%%%%%%......+++++++---------------------@@@@@@:::::::@@@@@@@-------******.....................@@@@@@*******-----------------------------------------******OOOOOOO+++++++++++++++++++++++++++++++++++++++++++++++++++++++++++++++++++++++++++++++++++++++++++++++++++++++++++++++++++                                                             ",
"                                                                                              .......++++++++++++++++++++++++++++++++++++++++++++++++++++++++++++++++++++++++++.......*******--------------@@@@@@...........................*******--------------------------------------------------------------------OOOOOO++++++++++++++++++++++++++++++++++++++++++++++++++++++++++++++++++++++++++++++++++++++++++++++++++++++++++++++++++++++++++                                                             ",
"                                                                                              .......++++++++++++++++++++++++++++++++++++++++++++++++++++++++++++++++++++++++++.......*******--------------@@@@@@...........................*******--------------------------------------------------------------------OOOOOO++++++++++++++++++++++++++++++++++++++++++++++++++++++++++++++++++++++++++++++++++++++++++++++++++++++++++++++++++++++++++                                                             ",
"                                                                                              .......++++++++++++++++++++++++++++++++++++++++++++++++++++++++++++++++++++++++++.......*******--------------@@@@@@...........................*******--------------------------------------------------------------------OOOOOO++++++++++++++++++++++++++++++++++++++++++++++++++++++++++++++++++++++++++++++++++++++++++++++++++++++++++++++++++++++++++                                                             ",
"                                                                                              .......++++++++++++++++++++++++++++++++++++++++++++++++++++++++++++++++++++++++++.......*******--------------@@@@@@...........................*******--------------------------------------------------------------------OOOOOO++++++++++++++++++++++++++++++++++++++++++++++++++++++++++++++++++++++++++++++++++++++++++++++++++++++++++++++++++++++++++                                                             ",
"                                                                                              .......++++++++++++++++++++++++++++++++++++++++++++++++++++++++++++++++++++++++++.......*******--------------@@@@@@...........................*******--------------------------------------------------------------------OOOOOO++++++++++++++++++++++++++++++++++++++++++++++++++++++++++++++++++++++++++++++++++++++++++++++++++++++++++++++++++++++++++                                                             ",
"                                                                                              .......++++++++++++++++++++++++++++++++++++++++++++++++++++++++++++++++++++++++++.......*******--------------@@@@@@...........................*******--------------------------------------------------------------------OOOOOO++++++++++++++++++++++++++++++++++++++++++++++++++++++++++++++++++++++++++++++++++++++++++++++++++++++++++++++++++++++++++                                                             ",
"                                                                                              .......++++++++++++++++++++++++++++++++++++++++++++++++++++++++++++++++++++++++++.......*******--------------@@@@@@...........................*******--------------------------------------------------------------------OOOOOO++++++++++++++++++++++++++++++++++++++++++++++++++++++++++++++++++++++++++++++++++++++++++++++++++++++++++++++++++++++++++                                                             ",
"                                                                                                     ++++++++++++++++++++++++++++++++++++++++++++++++++++++++++++++++++++++++++.......+++++++-------------------------------------------------------------------------------------------------------------------OOOOOOO+++++++++++++++++++++++++++++++++++++++++++++++++++++++++++++++++++++++++++++++++++++++++++++++++++++++++++++++++++++++++OOOOOOO                                                             ",
"                                                                                                     ++++++++++++++++++++++++++++++++++++++++++++++++++++++++++++++++++++++++++.......+++++++-------------------------------------------------------------------------------------------------------------------OOOOOOO+++++++++++++++++++++++++++++++++++++++++++++++++++++++++++++++++++++++++++++++++++++++++++++++++++++++++++++++++++++++++OOOOOOO                                                             ",
"                                                                                                     ++++++++++++++++++++++++++++++++++++++++++++++++++++++++++++++++++++++++++.......+++++++-------------------------------------------------------------------------------------------------------------------OOOOOOO+++++++++++++++++++++++++++++++++++++++++++++++++++++++++++++++++++++++++++++++++++++++++++++++++++++++++++++++++++++++++OOOOOOO                                                             ",
"                                                                                                     ++++++++++++++++++++++++++++++++++++++++++++++++++++++++++++++++++++++++++.......+++++++-------------------------------------------------------------------------------------------------------------------OOOOOOO+++++++++++++++++++++++++++++++++++++++++++++++++++++++++++++++++++++++++++++++++++++++++++++++++++++++++++++++++++++++++OOOOOOO                                                             ",
"                                                                                                     ++++++++++++++++++++++++++++++++++++++++++++++++++++++++++++++++++++++++++.......+++++++-------------------------------------------------------------------------------------------------------------------OOOOOOO+++++++++++++++++++++++++++++++++++++++++++++++++++++++++++++++++++++++++++++++++++++++++++++++++++++++++++++++++++++++++OOOOOOO                                                             ",
"                                                                                                     ++++++++++++++++++++++++++++++++++++++++++++++++++++++++++++++++++++++++++.......+++++++-------------------------------------------------------------------------------------------------------------------OOOOOOO+++++++++++++++++++++++++++++++++++++++++++++++++++++++++++++++++++++++++++++++++++++++++++++++++++++++++++++++++++++++++OOOOOOO                                                             ",
"                                                                                                     ++++++++++++++++++++++++++++++++++++++++++++++++++++++++++++++++++++++++++.......+++++++-------------------------------------------------------------------------------------------------------------------OOOOOOO+++++++++++++++++++++++++++++++++++++++++++++++++++++++++++++++++++++++++++++++++++++++++++++++++++++++++++++++++++++++++OOOOOOO                                                             ",
"                                                                                                     .......+++++++++++++++++++++++++++++++++++++++++++++++++++++++++++++++++++.......OOOOOOO-----------------------------------------------------------------------------------------------------OOOOOOO++++++++++++++++++++++++++++++++++++++++++++++++++++++++++++++++++++++++++++++++++++++++++++++++++++++++++++++++++++++++++++++++++++++++++++++                                                             ",
"                                                                                                     .......+++++++++++++++++++++++++++++++++++++++++++++++++++++++++++++++++++.......OOOOOOO-----------------------------------------------------------------------------------------------------OOOOOOO++++++++++++++++++++++++++++++++++++++++++++++++++++++++++++++++++++++++++++++++++++++++++++++++++++++++++++++++++++++++++++++++++++++++++++++                                                             ",
"                                                                                                     .......+++++++++++++++++++++++++++++++++++++++++++++++++++++++++++++++++++.......OOOOOOO-----------------------------------------------------------------------------------------------------OOOOOOO++++++++++++++++++++++++++++++++++++++++++++++++++++++++++++++++++++++++++++++++++++++++++++++++++++++++++++++++++++++++++++++++++++++++++++++                                                             ",
"                                                                                                     .......+++++++++++++++++++++++++++++++++++++++++++++++++++++++++++++++++++.......OOOOOOO-----------------------------------------------------------------------------------------------------OOOOOOO++++++++++++++++++++++++++++++++++++++++++++++++++++++++++++++++++++++++++++++++++++++++++++++++++++++++++++++++++++++++++++++++++++++++++++++                                                             ",
"                                                                                                     .......+++++++++++++++++++++++++++++++++++++++++++++++++++++++++++++++++++.......OOOOOOO-----------------------------------------------------------------------------------------------------OOOOOOO++++++++++++++++++++++++++++++++++++++++++++++++++++++++++++++++++++++++++++++++++++++++++++++++++++++++++++++++++++++++++++++++++++++++++++++                                                             ",
"                                                                                                     .......+++++++++++++++++++++++++++++++++++++++++++++++++++++++++++++++++++.......OOOOOOO-----------------------------------------------------------------------------------------------------OOOOOOO++++++++++++++++++++++++++++++++++++++++++++++++++++++++++++++++++++++++++++++++++++++++++++++++++++++++++++++++++++++++++++++++++++++++++++++                                                             ",
"                                                                                                     .......+++++++++++++++++++++++++++++++++++++++++++++++++++++++++++++++++++.......OOOOOOO-----------------------------------------------------------------------------------------------------OOOOOOO++++++++++++++++++++++++++++++++++++++++++++++++++++++++++++++++++++++++++++++++++++++++++++++++++++++++++++++++++++++++++++++++++++++++++++++                                                             ",
"                                                                                                     .......+++++++++++++++++++++++++++++++++++++++++++++++++++++++++++++++++++.......OOOOOOOOOOOOOO---------------------------------------------------------------------------------#######OOOOOO++++++++++++++--------------------OOOOOOOOOOOOOO++++++++++++++++++++OOOOOOO++++++OOOOOOO++++++++++++++++++++++++++++++++++++++++++++++++++++++                                                                    ",
"                                                                                                     .......+++++++++++++++++++++++++++++++++++++++++++++++++++++++++++++++++++.......OOOOOOOOOOOOOO---------------------------------------------------------------------------------#######OOOOOO++++++++++++++--------------------OOOOOOOOOOOOOO++++++++++++++++++++OOOOOOO++++++OOOOOOO++++++++++++++++++++++++++++++++++++++++++++++++++++++                                                                    ",
"                                                                                                     .......+++++++++++++++++++++++++++++++++++++++++++++++++++++++++++++++++++.......OOOOOOOOOOOOOO---------------------------------------------------------------------------------#######OOOOOO++++++++++++++--------------------OOOOOOOOOOOOOO++++++++++++++++++++OOOOOOO++++++OOOOOOO++++++++++++++++++++++++++++++++++++++++++++++++++++++                                                                    ",
"                                                                                                     .......+++++++++++++++++++++++++++++++++++++++++++++++++++++++++++++++++++.......OOOOOOOOOOOOOO---------------------------------------------------------------------------------#######OOOOOO++++++++++++++--------------------OOOOOOOOOOOOOO++++++++++++++++++++OOOOOOO++++++OOOOOOO++++++++++++++++++++++++++++++++++++++++++++++++++++++                                                                    ",
"                                                                                                     .......+++++++++++++++++++++++++++++++++++++++++++++++++++++++++++++++++++.......OOOOOOOOOOOOOO---------------------------------------------------------------------------------#######OOOOOO++++++++++++++--------------------OOOOOOOOOOOOOO++++++++++++++++++++OOOOOOO++++++OOOOOOO++++++++++++++++++++++++++++++++++++++++++++++++++++++                                                                    ",
"                                                                                                     .......+++++++++++++++++++++++++++++++++++++++++++++++++++++++++++++++++++.......OOOOOOOOOOOOOO---------------------------------------------------------------------------------#######OOOOOO++++++++++++++--------------------OOOOOOOOOOOOOO++++++++++++++++++++OOOOOOO++++++OOOOOOO++++++++++++++++++++++++++++++++++++++++++++++++++++++                                                                    ",
"                                                                                                            .......+++++++++++++++++++++++++++++++++++++++++++++++.............--------------OOOOOOOOOOOOOOOOOOOO#######========---------------------------======********************-------------------------------------------------------------OOOOOO+++++++++++++++++++++++++++++++++++++++++++++++++++++++++++++++++++++++++++++++++++++++++++++++                                                             ",
"                                                                                                            .......+++++++++++++++++++++++++++++++++++++++++++++++.............--------------OOOOOOOOOOOOOOOOOOOO#######=======----------------------------======********************-------------------------------------------------------------OOOOOO+++++++++++++++++++++++++++++++++++++++++++++++++++++++++++++++++++++++++++++++++++++++++++++++                                                             ",
"                                                                                                            .......+++++++++++++++++++++++++++++++++++++++++++++++.............--------------OOOOOOOOOOOOOOOOOOOO#######=======---------------------------=======********************-------------------------------------------------------------OOOOOO+++++++++++++++++++++++++++++++++++++++++++++++++++++++++++++++++++++++++++++++++++++++++++++++                                                             ",
"                                                                                                            .......+++++++++++++++++++++++++++++++++++++++++++++++.............--------------OOOOOOOOOOOOOOOOOOOO#######======----------------------------=======********************-------------------------------------------------------------OOOOOO+++++++++++++++++++++++++++++++++++++++++++++++++++++++++++++++++++++++++++++++++++++++++++++++                                                             ",
"                                                                                                            .......+++++++++++++++++++++++++++++++++++++++++++++++.............--------------OOOOOOOOOOOOOOOOOOOO#######======-----------------------------======********************-------------------------------------------------------------OOOOOO+++++++++++++++++++++++++++++++++++++++++++++++++++++++++++++++++++++++++++++++++++++++++++++++                                                             ",
"                                                                                                            .......+++++++++++++++++++++++++++++++++++++++++++++++.............--------------OOOOOOOOOOOOOOOOOOOO#######========---------------------------======********************-------------------------------------------------------------OOOOOO+++++++++++++++++++++++++++++++++++++++++++++++++++++++++++++++++++++++++++++++++++++++++++++++                                                             ",
"                                                                                                            .......+++++++++++++++++++++++++++++++++++++++++++++++.............--------------OOOOOOOOOOOOOOOOOOOO#######========---------------------------======********************-------------------------------------------------------------OOOOOO+++++++++++++++++++++++++++++++++++++++++++++++++++++++++++++++++++++++++++++++++++++++++++++++                                                             ",
"                                                                                                            .......++++++++++++++++++++++++++++++++++++++++.......------------------------------------------------======***********************************************======---------------------------------------------------------------------******OOOOOOOOOOOOOO+++++++++++++++++++++++++++++++++++++++++++++++++++++++++++++++++++++++++++++++++                                                             ",
"                                                                                                            .......++++++++++++++++++++++++++++++++++++++++.......-----------------------------------------------=======***********************************************-======--------------------------------------------------------------------******OOOOOOOOOOOOOO+++++++++++++++++++++++++++++++++++++++++++++++++++++++++++++++++++++++++++++++++                                                             ",
"                                                                                                            .......++++++++++++++++++++++++++++++++++++++++.......------------------------------------------------======***********************************************-======--------------------------------------------------------------------******OOOOOOOOOOOOOO+++++++++++++++++++++++++++++++++++++++++++++++++++++++++++++++++++++++++++++++++                                                             ",
"                                                                                                            .......++++++++++++++++++++++++++++++++++++++++.......------------------------------------------------======***********************************************======---------------------------------------------------------------------******OOOOOOOOOOOOOO+++++++++++++++++++++++++++++++++++++++++++++++++++++++++++++++++++++++++++++++++                                                             ",
"                                                                                                            .......++++++++++++++++++++++++++++++++++++++++.......-----------------------------------------------=======***********************************************=======--------------------------------------------------------------------******OOOOOOOOOOOOOO+++++++++++++++++++++++++++++++++++++++++++++++++++++++++++++++++++++++++++++++++                                                             ",
"                                                                                                            .......++++++++++++++++++++++++++++++++++++++++.......----------------------------------------------========***********************************************======---------------------------------------------------------------------******OOOOOOOOOOOOOO+++++++++++++++++++++++++++++++++++++++++++++++++++++++++++++++++++++++++++++++++                                                             ",
"                                                                                                            .......++++++++++++++++++++++++++++++++++++++++.......------------------------------------------------======***********************************************======---------------------------------------------------------------------******OOOOOOOOOOOOOO+++++++++++++++++++++++++++++++++++++++++++++++++++++++++++++++++++++++++++++++++                                                             ",
"                                                                                                            .............+++++++++++++++++++++.............--------------------------------------------------------------======***************************========----------------------------------------------------------------------------------------------------OOOOOOO+++++++++++++++++++++++++++++++++++++++++++++++++++++++++++++++++++++++++++++++++                                                      ",
"                                                                                                            .............+++++++++++++++++++++.............--------------------------------------------------------------======***************************======------------------------------------------------------------------------------------------------------OOOOOOO+++++++++++++++++++++++++++++++++++++++++++++++++++++++++++++++++++++++++++++++++                                                      ",
"                                                                                                            .............+++++++++++++++++++++.............-------------------------------------------------------------=======***************************=======-----------------------------------------------------------------------------------------------------OOOOOOO+++++++++++++++++++++++++++++++++++++++++++++++++++++++++++++++++++++++++++++++++                                                      ",
"                                                                                                            .............+++++++++++++++++++++.............--------------------------------------------------------------======***************************======------------------------------------------------------------------------------------------------------OOOOOOO+++++++++++++++++++++++++++++++++++++++++++++++++++++++++++++++++++++++++++++++++                                                      ",
"                                                                                                            .............+++++++++++++++++++++.............-------------------------------------------------------------=======***************************======------------------------------------------------------------------------------------------------------OOOOOOO+++++++++++++++++++++++++++++++++++++++++++++++++++++++++++++++++++++++++++++++++                                                      ",
"                                                                                                            .............+++++++++++++++++++++.............--------------------------------------------------------------======***************************-======-----------------------------------------------------------------------------------------------------OOOOOOO+++++++++++++++++++++++++++++++++++++++++++++++++++++++++++++++++++++++++++++++++                                                      ",
"                                                                                                            .............+++++++++++++++++++++.............-------------------------------------------------------------=======***************************======------------------------------------------------------------------------------------------------------OOOOOOO+++++++++++++++++++++++++++++++++++++++++++++++++++++++++++++++++++++++++++++++++                                                      ",
"                                                                                                                   ++++++++++++++++++++.......-------------------------------------------------------------------------------------------------------------------------------------------------------------------------------------------------------------------------------OOOOOO++++++++++++++++++++++++++++++++++++++++++++++++++++++++++++++++++++OOOOOOO.......                                               ",
"                                                                                                                   ++++++++++++++++++++.......-------------------------------------------------------------------------------------------------------------------------------------------------------------------------------------------------------------------------------OOOOOO++++++++++++++++++++++++++++++++++++++++++++++++++++++++++++++++++++OOOOOOO.......                                               ",
"                                                                                                                   ++++++++++++++++++++.......-------------------------------------------------------------------------------------------------------------------------------------------------------------------------------------------------------------------------------OOOOOO++++++++++++++++++++++++++++++++++++++++++++++++++++++++++++++++++++OOOOOOO.......                                               ",
"                                                                                                                   ++++++++++++++++++++.......-------------------------------------------------------------------------------------------------------------------------------------------------------------------------------------------------------------------------------OOOOOO++++++++++++++++++++++++++++++++++++++++++++++++++++++++++++++++++++OOOOOOO.......                                               ",
"                                                                                                                   ++++++++++++++++++++.......-------------------------------------------------------------------------------------------------------------------------------------------------------------------------------------------------------------------------------OOOOOO++++++++++++++++++++++++++++++++++++++++++++++++++++++++++++++++++++OOOOOOO.......                                               ",
"                                                                                                                   ++++++++++++++++++++.......-------------------------------------------------------------------------------------------------------------------------------------------------------------------------------------------------------------------------------OOOOOO++++++++++++++++++++++++++++++++++++++++++++++++++++++++++++++++++++OOOOOOO.......                                               ",
"                                                                                                                                .......--------------------------------------------------------------------------------------------------------------------------------------------------------------------------------------------------------------------------------------------OOOOOOO+++++++++++++++++++++++++++++++++++++++++++++++++++++++++++++++++++++++++++......                                         ",
"                                                                                                                                .......--------------------------------------------------------------------------------------------------------------------------------------------------------------------------------------------------------------------------------------------OOOOOOO+++++++++++++++++++++++++++++++++++++++++++++++++++++++++++++++++++++++++++......                                         ",
"                                                                                                                                .......--------------------------------------------------------------------------------------------------------------------------------------------------------------------------------------------------------------------------------------------OOOOOOO+++++++++++++++++++++++++++++++++++++++++++++++++++++++++++++++++++++++++++......                                         ",
"                                                                                                                                .......--------------------------------------------------------------------------------------------------------------------------------------------------------------------------------------------------------------------------------------------OOOOOOO+++++++++++++++++++++++++++++++++++++++++++++++++++++++++++++++++++++++++++......                                         ",
"                                                                                                                                .......--------------------------------------------------------------------------------------------------------------------------------------------------------------------------------------------------------------------------------------------OOOOOOO+++++++++++++++++++++++++++++++++++++++++++++++++++++++++++++++++++++++++++......                                         ",
"                                                                                                                                .......--------------------------------------------------------------------------------------------------------------------------------------------------------------------------------------------------------------------------------------------OOOOOOO+++++++++++++++++++++++++++++++++++++++++++++++++++++++++++++++++++++++++++......                                         ",
"                                                                                                                                .......--------------------------------------------------------------------------------------------------------------------------------------------------------------------------------------------------------------------------------------------OOOOOOO+++++++++++++++++++++++++++++++++++++++++++++++++++++++++++++++++++++++++++......                                         ",
"                                                                                                                         .......---------------------------------------------------------------------------------------------------------------------------------------------------------------------------------------------------------------------------------------------------OOOOOOO+++++++++++++++++++++++++++++++++++++++++++++++++++++++++++++++++++++++++++OOOOOO.......                                  ",
"                                                                                                                         .......---------------------------------------------------------------------------------------------------------------------------------------------------------------------------------------------------------------------------------------------------OOOOOOO+++++++++++++++++++++++++++++++++++++++++++++++++++++++++++++++++++++++++++OOOOOO.......                                  ",
"                                                                                                                         .......---------------------------------------------------------------------------------------------------------------------------------------------------------------------------------------------------------------------------------------------------OOOOOOO+++++++++++++++++++++++++++++++++++++++++++++++++++++++++++++++++++++++++++OOOOOO.......                                  ",
"                                                                                                                         .......---------------------------------------------------------------------------------------------------------------------------------------------------------------------------------------------------------------------------------------------------OOOOOOO+++++++++++++++++++++++++++++++++++++++++++++++++++++++++++++++++++++++++++OOOOOO.......                                  ",
"                                                                                                                         .......---------------------------------------------------------------------------------------------------------------------------------------------------------------------------------------------------------------------------------------------------OOOOOOO+++++++++++++++++++++++++++++++++++++++++++++++++++++++++++++++++++++++++++OOOOOO.......                                  ",
"                                                                                                                         .......---------------------------------------------------------------------------------------------------------------------------------------------------------------------------------------------------------------------------------------------------OOOOOOO+++++++++++++++++++++++++++++++++++++++++++++++++++++++++++++++++++++++++++OOOOOO.......                                  ",
"                                                                                                                         .......---------------------------------------------------------------------------------------------------------------------------------------------------------------------------------------------------------------------------------------------------OOOOOOO+++++++++++++++++++++++++++++++++++++++++++++++++++++++++++++++++++++++++++OOOOOO.......                                  ",
"                                                                                                                         .......----------------------------------------------------------------------------------------------------------------------------------------------------------------------------------------------------------------------------------------------------------OOOOOOO+++++++++++++++++++++++++++++++++++++++++++++++++++++++++++++OOOOOOO++++++.....................                    ",
"                                                                                                                         .......----------------------------------------------------------------------------------------------------------------------------------------------------------------------------------------------------------------------------------------------------------OOOOOOO+++++++++++++++++++++++++++++++++++++++++++++++++++++++++++++OOOOOOO++++++.....................                    ",
"                                                                                                                         .......----------------------------------------------------------------------------------------------------------------------------------------------------------------------------------------------------------------------------------------------------------OOOOOOO+++++++++++++++++++++++++++++++++++++++++++++++++++++++++++++OOOOOOO++++++.....................                    ",
"                                                                                                                         .......----------------------------------------------------------------------------------------------------------------------------------------------------------------------------------------------------------------------------------------------------------OOOOOOO+++++++++++++++++++++++++++++++++++++++++++++++++++++++++++++OOOOOOO++++++.....................                    ",
"                                                                                                                         .......----------------------------------------------------------------------------------------------------------------------------------------------------------------------------------------------------------------------------------------------------------OOOOOOO+++++++++++++++++++++++++++++++++++++++++++++++++++++++++++++OOOOOOO++++++.....................                    ",
"                                                                                                                         .......----------------------------------------------------------------------------------------------------------------------------------------------------------------------------------------------------------------------------------------------------------OOOOOOO+++++++++++++++++++++++++++++++++++++++++++++++++++++++++++++OOOOOOO++++++.....................                    ",
"                                                                                                                         .......----------------------------------------------------------------------------------------------------------------------------------------------------------------------------------------------------------------------------------------------------------OOOOOOO+++++++++++++++++++++++++++++++++++++++++++++++++++++++++++++OOOOOOO++++++.....................                    ",
"                                                                                                                   ......-----------------------------------------------------------------------------------------------------------------------------------------------------------------------------------------------------------------------------------------------------------------OOOOOOO++++++++++++++++++++++++++++++++++++++++++++++++++++++OOOOOOOOOOOOOO++++++OOOOOOO..............                    ",
"                                                                                                                   ......-----------------------------------------------------------------------------------------------------------------------------------------------------------------------------------------------------------------------------------------------------------------OOOOOOO++++++++++++++++++++++++++++++++++++++++++++++++++++++OOOOOOOOOOOOOO++++++OOOOOOO..............                    ",
"                                                                                                                   ......-----------------------------------------------------------------------------------------------------------------------------------------------------------------------------------------------------------------------------------------------------------------OOOOOOO++++++++++++++++++++++++++++++++++++++++++++++++++++++OOOOOOOOOOOOOO++++++OOOOOOO..............                    ",
"                                                                                                                   ......-----------------------------------------------------------------------------------------------------------------------------------------------------------------------------------------------------------------------------------------------------------------OOOOOOO++++++++++++++++++++++++++++++++++++++++++++++++++++++OOOOOOOOOOOOOO++++++OOOOOOO..............                    ",
"                                                                                                                   ......-----------------------------------------------------------------------------------------------------------------------------------------------------------------------------------------------------------------------------------------------------------------OOOOOOO++++++++++++++++++++++++++++++++++++++++++++++++++++++OOOOOOOOOOOOOO++++++OOOOOOO..............                    ",
"                                                                                                                   ......-----------------------------------------------------------------------------------------------------------------------------------------------------------------------------------------------------------------------------------------------------------------OOOOOOO++++++++++++++++++++++++++++++++++++++++++++++++++++++OOOOOOOOOOOOOO++++++OOOOOOO..............                    ",
"                                                                                                                   ......------------------------------------------------------------------------------------------------------------------------------------------------------------------------------------------------------------------------------------------------------------------======OOOOOOOOOOOOO+++++++++++++++++++++++++++OOOOOOOOOOOOOOOOOOOOOOOOOOOOOOOOOOOOOOOOOOOOOOOOOOOOOOO......              ",
"                                                                                                                   ......------------------------------------------------------------------------------------------------------------------------------------------------------------------------------------------------------------------------------------------------------------------======OOOOOOOOOOOOO+++++++++++++++++++++++++++OOOOOOOOOOOOOOOOOOOOOOOOOOOOOOOOOOOOOOOOOOOOOOOOOOOOOOO......              ",
"                                                                                                                   ......------------------------------------------------------------------------------------------------------------------------------------------------------------------------------------------------------------------------------------------------------------------======OOOOOOOOOOOOO+++++++++++++++++++++++++++OOOOOOOOOOOOOOOOOOOOOOOOOOOOOOOOOOOOOOOOOOOOOOOOOOOOOOO......              ",
"                                                                                                                   ......-----------------------------------------------------------------------------------------------------------------------------------------------------------------------------------------------------------------------------------------------------------------=======OOOOOOOOOOOOO+++++++++++++++++++++++++++OOOOOOOOOOOOOOOOOOOOOOOOOOOOOOOOOOOOOOOOOOOOOOOOOOOOOOO......              ",
"                                                                                                                   ......-----------------------------------------------------------------------------------------------------------------------------------------------------------------------------------------------------------------------------------------------------------------=======OOOOOOOOOOOOO+++++++++++++++++++++++++++OOOOOOOOOOOOOOOOOOOOOOOOOOOOOOOOOOOOOOOOOOOOOOOOOOOOOOO......              ",
"                                                                                                                   ......------------------------------------------------------------------------------------------------------------------------------------------------------------------------------------------------------------------------------------------------------------------======OOOOOOOOOOOOO+++++++++++++++++++++++++++OOOOOOOOOOOOOOOOOOOOOOOOOOOOOOOOOOOOOOOOOOOOOOOOOOOOOOO......              ",
"                                                                                                                   ......------------------------------------------------------------------------------------------------------------------------------------------------------------------------------------------------------------------------------------------------------------------======OOOOOOOOOOOOO+++++++++++++++++++++++++++OOOOOOOOOOOOOOOOOOOOOOOOOOOOOOOOOOOOOOOOOOOOOOOOOOOOOOO......              ",
"                                                                                                     ..............------------------------------------------------------------------------------------------------------------------------------------------------------------------------------------------------------------------------------------------------------------------------------OOOOOOOOOOOOO+++++++++++++++++++++OOOOOOOOOOOOOOOOOOOOOOOOOOOOOOOOOOOOOOOOOOOOOOOOOOOOOOOOOOOOO......              ",
"                                                                                                     ..............------------------------------------------------------------------------------------------------------------------------------------------------------------------------------------------------------------------------------------------------------------------------------OOOOOOOOOOOOO+++++++++++++++++++++OOOOOOOOOOOOOOOOOOOOOOOOOOOOOOOOOOOOOOOOOOOOOOOOOOOOOOOOOOOOO......              ",
"                                                                                                     ..............------------------------------------------------------------------------------------------------------------------------------------------------------------------------------------------------------------------------------------------------------------------------------OOOOOOOOOOOOO+++++++++++++++++++++OOOOOOOOOOOOOOOOOOOOOOOOOOOOOOOOOOOOOOOOOOOOOOOOOOOOOOOOOOOOO......              ",
"                                                                                                     ..............------------------------------------------------------------------------------------------------------------------------------------------------------------------------------------------------------------------------------------------------------------------------------OOOOOOOOOOOOO+++++++++++++++++++++OOOOOOOOOOOOOOOOOOOOOOOOOOOOOOOOOOOOOOOOOOOOOOOOOOOOOOOOOOOOO......              ",
"                                                                                                     ..............------------------------------------------------------------------------------------------------------------------------------------------------------------------------------------------------------------------------------------------------------------------------------OOOOOOOOOOOOO+++++++++++++++++++++OOOOOOOOOOOOOOOOOOOOOOOOOOOOOOOOOOOOOOOOOOOOOOOOOOOOOOOOOOOOO......              ",
"                                                                                                     ..............------------------------------------------------------------------------------------------------------------------------------------------------------------------------------------------------------------------------------------------------------------------------------OOOOOOOOOOOOO+++++++++++++++++++++OOOOOOOOOOOOOOOOOOOOOOOOOOOOOOOOOOOOOOOOOOOOOOOOOOOOOOOOOOOOO......              ",
"                                                                                                     ..............------------------------------------------------------------------------------------------------------------------------------------------------------------------------------------------------------------------------------------------------------------------------------OOOOOOOOOOOOO+++++++++++++++++++++OOOOOOOOOOOOOOOOOOOOOOOOOOOOOOOOOOOOOOOOOOOOOOOOOOOOOOOOOOOOO......              ",
"                                                                                                     ..............------------------------------------------------------------------------------------------------------------------------------------------------------------------------------------------------------------------------------------------------------------------------------OOOOOOOOOOOOO+++++++OOOOOOOOOOOOOOOOOOOOOOOOOOOOOOOOOOOOOOOOOOOOOOOOOOOOOOOOOOOOOOOOOOOOOOOOOOO......              ",
"                                                                                                     ..............------------------------------------------------------------------------------------------------------------------------------------------------------------------------------------------------------------------------------------------------------------------------------OOOOOOOOOOOOO+++++++OOOOOOOOOOOOOOOOOOOOOOOOOOOOOOOOOOOOOOOOOOOOOOOOOOOOOOOOOOOOOOOOOOOOOOOOOOO......              ",
"                                                                                                     ..............------------------------------------------------------------------------------------------------------------------------------------------------------------------------------------------------------------------------------------------------------------------------------OOOOOOOOOOOOO+++++++OOOOOOOOOOOOOOOOOOOOOOOOOOOOOOOOOOOOOOOOOOOOOOOOOOOOOOOOOOOOOOOOOOOOOOOOOOO......              ",
"                                                                                                     ..............------------------------------------------------------------------------------------------------------------------------------------------------------------------------------------------------------------------------------------------------------------------------------OOOOOOOOOOOOO+++++++OOOOOOOOOOOOOOOOOOOOOOOOOOOOOOOOOOOOOOOOOOOOOOOOOOOOOOOOOOOOOOOOOOOOOOOOOOO......              ",
"                                                                                                     ..............------------------------------------------------------------------------------------------------------------------------------------------------------------------------------------------------------------------------------------------------------------------------------OOOOOOOOOOOOO+++++++OOOOOOOOOOOOOOOOOOOOOOOOOOOOOOOOOOOOOOOOOOOOOOOOOOOOOOOOOOOOOOOOOOOOOOOOOOO......              ",
"                                                                                                     ..............------------------------------------------------------------------------------------------------------------------------------------------------------------------------------------------------------------------------------------------------------------------------------OOOOOOOOOOOOO+++++++OOOOOOOOOOOOOOOOOOOOOOOOOOOOOOOOOOOOOOOOOOOOOOOOOOOOOOOOOOOOOOOOOOOOOOOOOOO......              ",
"                                                                                                     ..............------------------------------------------------------------------------------------------------------------------------------------------------------------------------------------------------------------------------------------------------------------------------------OOOOOOOOOOOOO+++++++OOOOOOOOOOOOOOOOOOOOOOOOOOOOOOOOOOOOOOOOOOOOOOOOOOOOOOOOOOOOOOOOOOOOOOOOOOO......              ",
"                                                                                                     ..............-------------------------------------------------------------------------------------------------------------------------------------------------------------------------------------------------------------------------------------------------------------------------------------------OOOOOOOOOOOOOOOOOOOOOOOOOOOOOOOOOOOOOOOOOOOOOOOOOOOOOOOOOOOOOOOOOOOOOOOOOOOOOOOOOOOOOOOO.......       ",
"                                                                                                     ..............-------------------------------------------------------------------------------------------------------------------------------------------------------------------------------------------------------------------------------------------------------------------------------------------OOOOOOOOOOOOOOOOOOOOOOOOOOOOOOOOOOOOOOOOOOOOOOOOOOOOOOOOOOOOOOOOOOOOOOOOOOOOOOOOOOOOOOOO.......       ",
"                                                                                                     ..............-------------------------------------------------------------------------------------------------------------------------------------------------------------------------------------------------------------------------------------------------------------------------------------------OOOOOOOOOOOOOOOOOOOOOOOOOOOOOOOOOOOOOOOOOOOOOOOOOOOOOOOOOOOOOOOOOOOOOOOOOOOOOOOOOOOOOOOO.......       ",
"                                                                                                     ..............-------------------------------------------------------------------------------------------------------------------------------------------------------------------------------------------------------------------------------------------------------------------------------------------OOOOOOOOOOOOOOOOOOOOOOOOOOOOOOOOOOOOOOOOOOOOOOOOOOOOOOOOOOOOOOOOOOOOOOOOOOOOOOOOOOOOOOOO.......       ",
"                                                                                                     ..............-------------------------------------------------------------------------------------------------------------------------------------------------------------------------------------------------------------------------------------------------------------------------------------------OOOOOOOOOOOOOOOOOOOOOOOOOOOOOOOOOOOOOOOOOOOOOOOOOOOOOOOOOOOOOOOOOOOOOOOOOOOOOOOOOOOOOOOO.......       ",
"                                                                                                     ..............-------------------------------------------------------------------------------------------------------------------------------------------------------------------------------------------------------------------------------------------------------------------------------------------OOOOOOOOOOOOOOOOOOOOOOOOOOOOOOOOOOOOOOOOOOOOOOOOOOOOOOOOOOOOOOOOOOOOOOOOOOOOOOOOOOOOOOOO.......       ",
"                                                                                                     ..............-------------------------------------------------------------------------------------------------------------------------------------------------------------------------------------------------------------------------------------------------------------------------------------------OOOOOOOOOOOOOOOOOOOOOOOOOOOOOOOOOOOOOOOOOOOOOOOOOOOOOOOOOOOOOOOOOOOOOOOOOOOOOOOOOOOOOOOO.......       ",
"                                                                                              .......--------------------------------------------------------------------------------------------------------------------------------------------------------------------------------------------------------------------------------------------------------------------------------------------*************OOOOOOOOOOOOOOOOOOOOOOOOOOOOOOOOOOOOOOOOOOOOOOOOOOOOOOOOOOOOOOOOOOOOOOOOOOOOOOOOOOOOOOOO.......       ",
"                                                                                              .......--------------------------------------------------------------------------------------------------------------------------------------------------------------------------------------------------------------------------------------------------------------------------------------------*************OOOOOOOOOOOOOOOOOOOOOOOOOOOOOOOOOOOOOOOOOOOOOOOOOOOOOOOOOOOOOOOOOOOOOOOOOOOOOOOOOOOOOOOO.......       ",
"                                                                                              .......--------------------------------------------------------------------------------------------------------------------------------------------------------------------------------------------------------------------------------------------------------------------------------------------*************OOOOOOOOOOOOOOOOOOOOOOOOOOOOOOOOOOOOOOOOOOOOOOOOOOOOOOOOOOOOOOOOOOOOOOOOOOOOOOOOOOOOOOOO.......       ",
"                                                                                              .......--------------------------------------------------------------------------------------------------------------------------------------------------------------------------------------------------------------------------------------------------------------------------------------------*************OOOOOOOOOOOOOOOOOOOOOOOOOOOOOOOOOOOOOOOOOOOOOOOOOOOOOOOOOOOOOOOOOOOOOOOOOOOOOOOOOOOOOOOO.......       ",
"                                                                                              .......--------------------------------------------------------------------------------------------------------------------------------------------------------------------------------------------------------------------------------------------------------------------------------------------*************OOOOOOOOOOOOOOOOOOOOOOOOOOOOOOOOOOOOOOOOOOOOOOOOOOOOOOOOOOOOOOOOOOOOOOOOOOOOOOOOOOOOOOOO.......       ",
"                                                                                              .......--------------------------------------------------------------------------------------------------------------------------------------------------------------------------------------------------------------------------------------------------------------------------------------------*************OOOOOOOOOOOOOOOOOOOOOOOOOOOOOOOOOOOOOOOOOOOOOOOOOOOOOOOOOOOOOOOOOOOOOOOOOOOOOOOOOOOOOOOO.......       ",
"                                                                                              .......-------------------------------------------------------------------------------------------------------------------------------------------------------------------------------------------------------------------------------------------------------------------------------------***************************OOOOOOOOOOOOOOOOOOOOOOOOOOOOOOOOOOOOOOOOOOOOOOOOOOOOOOOOOOOOOOOOOOOOOOOOOOOOOOOOO.......       ",
"                                                                                              .......-------------------------------------------------------------------------------------------------------------------------------------------------------------------------------------------------------------------------------------------------------------------------------------***************************OOOOOOOOOOOOOOOOOOOOOOOOOOOOOOOOOOOOOOOOOOOOOOOOOOOOOOOOOOOOOOOOOOOOOOOOOOOOOOOOO.......       ",
"                                                                                              .......-------------------------------------------------------------------------------------------------------------------------------------------------------------------------------------------------------------------------------------------------------------------------------------***************************OOOOOOOOOOOOOOOOOOOOOOOOOOOOOOOOOOOOOOOOOOOOOOOOOOOOOOOOOOOOOOOOOOOOOOOOOOOOOOOOO.......       ",
"                                                                                              .......-------------------------------------------------------------------------------------------------------------------------------------------------------------------------------------------------------------------------------------------------------------------------------------***************************OOOOOOOOOOOOOOOOOOOOOOOOOOOOOOOOOOOOOOOOOOOOOOOOOOOOOOOOOOOOOOOOOOOOOOOOOOOOOOOOO.......       ",
"                                                                                              .......-------------------------------------------------------------------------------------------------------------------------------------------------------------------------------------------------------------------------------------------------------------------------------------***************************OOOOOOOOOOOOOOOOOOOOOOOOOOOOOOOOOOOOOOOOOOOOOOOOOOOOOOOOOOOOOOOOOOOOOOOOOOOOOOOOO.......       ",
"                                                                                              .......-------------------------------------------------------------------------------------------------------------------------------------------------------------------------------------------------------------------------------------------------------------------------------------***************************OOOOOOOOOOOOOOOOOOOOOOOOOOOOOOOOOOOOOOOOOOOOOOOOOOOOOOOOOOOOOOOOOOOOOOOOOOOOOOOOO.......       ",
"                                                                                              .......-------------------------------------------------------------------------------------------------------------------------------------------------------------------------------------------------------------------------------------------------------------------------------------***************************OOOOOOOOOOOOOOOOOOOOOOOOOOOOOOOOOOOOOOOOOOOOOOOOOOOOOOOOOOOOOOOOOOOOOOOOOOOOOOOOO.......       ",
"                                                                                              .......-======-======-----------------------------------------------------------------------------------------------------------------------------------------------------------------------------------------------------------------------------------------------------------------------***************************OOOOOOOOOOOOOOOOOOOOOOOOOOOOOOOOOOOOOOOOOOOOOOOOOOOOOOOOOOOOOOOOOOOOOOOOOOOOOOOOO.......       ",
"                                                                                              .......-=======-======----------------------------------------------------------------------------------------------------------------------------------------------------------------------------------------------------------------------------------------------------------------------***************************OOOOOOOOOOOOOOOOOOOOOOOOOOOOOOOOOOOOOOOOOOOOOOOOOOOOOOOOOOOOOOOOOOOOOOOOOOOOOOOOO.......       ",
"                                                                                              .......-======-=======----------------------------------------------------------------------------------------------------------------------------------------------------------------------------------------------------------------------------------------------------------------------***************************OOOOOOOOOOOOOOOOOOOOOOOOOOOOOOOOOOOOOOOOOOOOOOOOOOOOOOOOOOOOOOOOOOOOOOOOOOOOOOOOO.......       ",
"                                                                                              .......-========-=====----------------------------------------------------------------------------------------------------------------------------------------------------------------------------------------------------------------------------------------------------------------------***************************OOOOOOOOOOOOOOOOOOOOOOOOOOOOOOOOOOOOOOOOOOOOOOOOOOOOOOOOOOOOOOOOOOOOOOOOOOOOOOOOO.......       ",
"                                                                                              .......-=========-====----------------------------------------------------------------------------------------------------------------------------------------------------------------------------------------------------------------------------------------------------------------------***************************OOOOOOOOOOOOOOOOOOOOOOOOOOOOOOOOOOOOOOOOOOOOOOOOOOOOOOOOOOOOOOOOOOOOOOOOOOOOOOOOO.......       ",
"                                                                                              .......-==========-===----------------------------------------------------------------------------------------------------------------------------------------------------------------------------------------------------------------------------------------------------------------------***************************OOOOOOOOOOOOOOOOOOOOOOOOOOOOOOOOOOOOOOOOOOOOOOOOOOOOOOOOOOOOOOOOOOOOOOOOOOOOOOOOO.......       ",
"                                                                                              .......-=======-======----------------------------------------------------------------------------------------------------------------------------------------------------------------------------------------------------------------------------------------------------------------------***************************OOOOOOOOOOOOOOOOOOOOOOOOOOOOOOOOOOOOOOOOOOOOOOOOOOOOOOOOOOOOOOOOOOOOOOOOOOOOOOOOO.......       ",
"                                                                                              .......-======-=======---------------------------------------------------------------------------------------------------------------------------------------------------------------------------------------------------------------------------------------------------======-=====**********************************OOOOOOOOOOOOOOOOOOOOOOOOOOOOOOOOOOOOOOOOOOOOOOOOOOOOOOOOOOOOOOOOOOOOOOOOOOOOOOOOOOOOOOOO.......",
"                                                                                              .......-===========-==---------------------------------------------------------------------------------------------------------------------------------------------------------------------------------------------------------------------------------------------------======-=====**********************************OOOOOOOOOOOOOOOOOOOOOOOOOOOOOOOOOOOOOOOOOOOOOOOOOOOOOOOOOOOOOOOOOOOOOOOOOOOOOOOOOOOOOOOO.......",
"                                                                                              .......-============-----------------------------------------------------------------------------------------------------------------------------------------------------------------------------------------------------------------------------------------------------======-=====**********************************OOOOOOOOOOOOOOOOOOOOOOOOOOOOOOOOOOOOOOOOOOOOOOOOOOOOOOOOOOOOOOOOOOOOOOOOOOOOOOOOOOOOOOOO.......",
"                                                                                              .......-======-======----------------------------------------------------------------------------------------------------------------------------------------------------------------------------------------------------------------------------------------------------======-=====**********************************OOOOOOOOOOOOOOOOOOOOOOOOOOOOOOOOOOOOOOOOOOOOOOOOOOOOOOOOOOOOOOOOOOOOOOOOOOOOOOOOOOOOOOOO.......",
"                                                                                              .......-========-====----------------------------------------------------------------------------------------------------------------------------------------------------------------------------------------------------------------------------------------------------=======-====**********************************OOOOOOOOOOOOOOOOOOOOOOOOOOOOOOOOOOOOOOOOOOOOOOOOOOOOOOOOOOOOOOOOOOOOOOOOOOOOOOOOOOOOOOOO.......",
"                                                                                              .......-=========-====-------------------------------------------------------------------------------------------------------------------------------------------------------------------------------------------------------------------------------------------------===========-==**********************************OOOOOOOOOOOOOOOOOOOOOOOOOOOOOOOOOOOOOOOOOOOOOOOOOOOOOOOOOOOOOOOOOOOOOOOOOOOOOOOOOOOOOOOO.......",
"                                                                                              .......-==========-===-------------------------------------------------------------------------------------------------------------------------------------------------------------------------------------------------------------------------------------------------============-=**********************************OOOOOOOOOOOOOOOOOOOOOOOOOOOOOOOOOOOOOOOOOOOOOOOOOOOOOOOOOOOOOOOOOOOOOOOOOOOOOOOOOOOOOOOO.......",
"                                                                                        ......*******-======-======--------------------------------------------------------------------------------------------------------------------------------------------------------------------------------------------------------------------------------------======-======-======****************************************OOOOOOOOOOOOOOOOOOOOOOOOOOOOOOOOOOOOOOOOOOOOOOOOOOOOOOOOOOOOOOOOOOOOOOOOOOOOOOOOOOOOOOOO.......",
"                                                                                        ......*******-======-======--------------------------------------------------------------------------------------------------------------------------------------------------------------------------------------------------------------------------------------======-======-======****************************************OOOOOOOOOOOOOOOOOOOOOOOOOOOOOOOOOOOOOOOOOOOOOOOOOOOOOOOOOOOOOOOOOOOOOOOOOOOOOOOOOOOOOOOO.......",
"                                                                                        ......*******-======-======------------------------------------------------------------------------------------------------------------------------------------------------------------------------------------------------------------------------------------============-======-==****************************************OOOOOOOOOOOOOOOOOOOOOOOOOOOOOOOOOOOOOOOOOOOOOOOOOOOOOOOOOOOOOOOOOOOOOOOOOOOOOOOOOOOOOOOO.......",
"                                                                                        ......*******-======-======--------------------------------------------------------------------------------------------------------------------------------------------------------------------------------------------------------------------------------------=============-======****************************************OOOOOOOOOOOOOOOOOOOOOOOOOOOOOOOOOOOOOOOOOOOOOOOOOOOOOOOOOOOOOOOOOOOOOOOOOOOOOOOOOOOOOOOO.......",
"                                                                                        ......*******-=======-======-------------------------------------------------------------------------------------------------------------------------------------------------------------------------------------------------------------------------------------=======-======-=====****************************************OOOOOOOOOOOOOOOOOOOOOOOOOOOOOOOOOOOOOOOOOOOOOOOOOOOOOOOOOOOOOOOOOOOOOOOOOOOOOOOOOOOOOOOO.......",
"                                                                                        ......*******-======-======--------------------------------------------------------------------------------------------------------------------------------------------------------------------------------------------------------------------------------------======-======-======****************************************OOOOOOOOOOOOOOOOOOOOOOOOOOOOOOOOOOOOOOOOOOOOOOOOOOOOOOOOOOOOOOOOOOOOOOOOOOOOOOOOOOOOOOOO.......",
"                                                                                        ......*********************======--------------------------------------------------------------------------------------------------------------------------------------------------------------------------------------------------------------------------======-======-=====******************************************************OOOOOOOOOOOOOOOOOOOOOOOOOOOOOOOOOOOOOOOOOOOOOOOOOOOOOOOOOOOOOOOOOOOOOOOOOOOOOOOOO.......",
"                                                                                        ......*********************======--------------------------------------------------------------------------------------------------------------------------------------------------------------------------------------------------------------------------======-======-=====******************************************************OOOOOOOOOOOOOOOOOOOOOOOOOOOOOOOOOOOOOOOOOOOOOOOOOOOOOOOOOOOOOOOOOOOOOOOOOOOOOOOOO.......",
"                                                                                        ......*********************=======-------------------------------------------------------------------------------------------------------------------------------------------------------------------------------------------------------------------------======-======-=====******************************************************OOOOOOOOOOOOOOOOOOOOOOOOOOOOOOOOOOOOOOOOOOOOOOOOOOOOOOOOOOOOOOOOOOOOOOOOOOOOOOOOO.......",
"                                                                                        ......*********************======--------------------------------------------------------------------------------------------------------------------------------------------------------------------------------------------------------------------------=======-======-====******************************************************OOOOOOOOOOOOOOOOOOOOOOOOOOOOOOOOOOOOOOOOOOOOOOOOOOOOOOOOOOOOOOOOOOOOOOOOOOOOOOOOO.......",
"                                                                                        ......*********************=======-------------------------------------------------------------------------------------------------------------------------------------------------------------------------------------------------------------------------======-======-=====******************************************************OOOOOOOOOOOOOOOOOOOOOOOOOOOOOOOOOOOOOOOOOOOOOOOOOOOOOOOOOOOOOOOOOOOOOOOOOOOOOOOOO.......",
"                                                                                        ......*********************======--------------------------------------------------------------------------------------------------------------------------------------------------------------------------------------------------------------------------=======-======-====******************************************************OOOOOOOOOOOOOOOOOOOOOOOOOOOOOOOOOOOOOOOOOOOOOOOOOOOOOOOOOOOOOOOOOOOOOOOOOOOOOOOOO.......",
"                                                                                        ......*********************======--------------------------------------------------------------------------------------------------------------------------------------------------------------------------------------------------------------------------======-======-=====******************************************************OOOOOOOOOOOOOOOOOOOOOOOOOOOOOOOOOOOOOOOOOOOOOOOOOOOOOOOOOOOOOOOOOOOOOOOOOOOOOOOOO.......",
"                                                                                        ......***************************=======-----------------------------------------------------------------------------------------------------------------------------------------------------------------------------------------------------======-======-=====********************************************************************OOOOOOO......OOOOOOOOOOOOOOOOOOOOOOOOOOOOOOOOOOOOOOOOOOOOOOOOOOOOOOOOOOOOOOOOOOOO.......",
"                                                                                        ......***************************======------------------------------------------------------------------------------------------------------------------------------------------------------------------------------------------------------=======-======-====********************************************************************OOOOOOO......OOOOOOOOOOOOOOOOOOOOOOOOOOOOOOOOOOOOOOOOOOOOOOOOOOOOOOOOOOOOOOOOOOOO.......",
"                                                                                        ......***************************=======-----------------------------------------------------------------------------------------------------------------------------------------------------------------------------------------------------===================********************************************************************OOOOOOO......OOOOOOOOOOOOOOOOOOOOOOOOOOOOOOOOOOOOOOOOOOOOOOOOOOOOOOOOOOOOOOOOOOOO.......",
"                                                                                        ......***************************========----------------------------------------------------------------------------------------------------------------------------------------------------------------------------------------------------===================********************************************************************OOOOOOO......OOOOOOOOOOOOOOOOOOOOOOOOOOOOOOOOOOOOOOOOOOOOOOOOOOOOOOOOOOOOOOOOOOOO.......",
"                                                                                        ......***************************========---------------------------------------------------------------------------------------------------------------------------------------------------------------------------------------------------====================********************************************************************OOOOOOO......OOOOOOOOOOOOOOOOOOOOOOOOOOOOOOOOOOOOOOOOOOOOOOOOOOOOOOOOOOOOOOOOOOOO.......",
"                                                                                        ......***************************========---------------------------------------------------------------------------------------------------------------------------------------------------------------------------------------------------====================********************************************************************OOOOOOO......OOOOOOOOOOOOOOOOOOOOOOOOOOOOOOOOOOOOOOOOOOOOOOOOOOOOOOOOOOOOOOOOOOOO.......",
"                                                                                        ......***************************========----------------------------------------------------------------------------------------------------------------------------------------------------------------------------------------------------===================********************************************************************OOOOOOO......OOOOOOOOOOOOOOOOOOOOOOOOOOOOOOOOOOOOOOOOOOOOOOOOOOOOOOOOOOOOOOOOOOOO.......",
"                                               ..............                           ......**********************************==============-------------------------------------------------------------------------------------------------------------------------------------------------------------------==========================**************************************************************************.......:::::::......OOOOOOOOOOOOOOOOOOOOOOOOOOOOOOOOOOOOOOOOOOOOOOOOOOOOOOOOOOOOOOOOOOOO.......",
"                                               ..............                           ......**********************************==============-------------------------------------------------------------------------------------------------------------------------------------------------------------------==============-===========**************************************************************************.......:::::::......OOOOOOOOOOOOOOOOOOOOOOOOOOOOOOOOOOOOOOOOOOOOOOOOOOOOOOOOOOOOOOOOOOOO.......",
"                                               ..............                           ......**********************************==============-=-----------------------------------------------------------------------------------------------------------------------------------------------------------------==============-===========**************************************************************************.......:::::::......OOOOOOOOOOOOOOOOOOOOOOOOOOOOOOOOOOOOOOOOOOOOOOOOOOOOOOOOOOOOOOOOOOOO.......",
"                                               ..............                           ......**********************************==============-=-----------------------------------------------------------------------------------------------------------------------------------------------------------------==============-===========**************************************************************************.......:::::::......OOOOOOOOOOOOOOOOOOOOOOOOOOOOOOOOOOOOOOOOOOOOOOOOOOOOOOOOOOOOOOOOOOOO.......",
"                                               ..............                           ......**********************************==============-=-----------------------------------------------------------------------------------------------------------------------------------------------------------------==============-===========**************************************************************************.......:::::::......OOOOOOOOOOOOOOOOOOOOOOOOOOOOOOOOOOOOOOOOOOOOOOOOOOOOOOOOOOOOOOOOOOOO.......",
"                                               ..............                           ......**********************************==============-=-----------------------------------------------------------------------------------------------------------------------------------------------------------------==============-===========**************************************************************************.......:::::::......OOOOOOOOOOOOOOOOOOOOOOOOOOOOOOOOOOOOOOOOOOOOOOOOOOOOOOOOOOOOOOOOOOOO.......",
"                                               ..............                           ......**********************************===============------------------------------------------------------------------------------------------------------------------------------------------------------------------==============-===========**************************************************************************.......:::::::......OOOOOOOOOOOOOOOOOOOOOOOOOOOOOOOOOOOOOOOOOOOOOOOOOOOOOOOOOOOOOOOOOOOO.......",
"             ..............             .......:::::::;;;;;;;......                     ......*****************************************==============-=============--------------------------------------------------------------------------------------------------------------------------==============-=====================-==**************************************************************************..............:::::::......OOOOOOOOOOOOOOOOOOOOOOOOOOOOOOOOOO..............OOOOOOOOOOOOOOOOOOOO.......",
"             ..............             .......:::::::;;;;;;;......                     ......*****************************************==============-=============--------------------------------------------------------------------------------------------------------------------------==============-=======================-**************************************************************************..............:::::::......OOOOOOOOOOOOOOOOOOOOOOOOOOOOOOOOOO..............OOOOOOOOOOOOOOOOOOOO.......",
"             ..............             .......:::::::;;;;;;;......                     ......*****************************************==============-============---------------------------------------------------------------------------------------------------------------------------==============-========================**************************************************************************..............:::::::......OOOOOOOOOOOOOOOOOOOOOOOOOOOOOOOOOO..............OOOOOOOOOOOOOOOOOOOO.......",
"             ..............             .......:::::::;;;;;;;......                     ......*****************************************==============-============--------------------------------------------------------------------------------------------------------------------------===============-============-===========**************************************************************************..............:::::::......OOOOOOOOOOOOOOOOOOOOOOOOOOOOOOOOOO..............OOOOOOOOOOOOOOOOOOOO.......",
"             ..............             .......:::::::;;;;;;;......                     ......*****************************************================-===========--------------------------------------------------------------------------------------------------------------------------==============-============-===========**************************************************************************..............:::::::......OOOOOOOOOOOOOOOOOOOOOOOOOOOOOOOOOO..............OOOOOOOOOOOOOOOOOOOO.......",
"             ..............             .......:::::::;;;;;;;......                     ......*****************************************==============-============-=-------------------------------------------------------------------------------------------------------------------------==============-============-===========**************************************************************************..............:::::::......OOOOOOOOOOOOOOOOOOOOOOOOOOOOOOOOOO..............OOOOOOOOOOOOOOOOOOOO.......",
"             .......:::::::....................:::::::;;;;;;;;;;;;;;;;;;;;....................************************************************==============-============-=====-----------------------------------------------------------------------------------==============-============-==================**********************************************************************************************.......::::::::::::::::::::OOOOOOOOOOOOOOOOOOOOO.............;;;;;;;.......OOOOOOOOOOOOOOOOOOOO.......",
"             .......:::::::....................:::::::;;;;;;;;;;;;;;;;;;;;....................************************************************==============-============-=====----------------------------------------------------------------------------------===============-============-=====-============**********************************************************************************************.......::::::::::::::::::::OOOOOOOOOOOOOOOOOOOOO.............;;;;;;;.......OOOOOOOOOOOOOOOOOOOO.......",
"             .......:::::::....................:::::::;;;;;;;;;;;;;;;;;;;;....................************************************************===============-============-=====----------------------------------------------------------------------------------==============-============-=====-============**********************************************************************************************.......::::::::::::::::::::OOOOOOOOOOOOOOOOOOOOO.............;;;;;;;.......OOOOOOOOOOOOOOOOOOOO.......",
"             .......:::::::....................:::::::;;;;;;;;;;;;;;;;;;;;....................************************************************==============-============-=====-----------------------------------------------------------------------------------==============-============-=====-============**********************************************************************************************.......::::::::::::::::::::OOOOOOOOOOOOOOOOOOOOO.............;;;;;;;.......OOOOOOOOOOOOOOOOOOOO.......",
"             .......:::::::....................:::::::;;;;;;;;;;;;;;;;;;;;....................************************************************===============-============-=====----------------------------------------------------------------------------------==============-============-=====-============**********************************************************************************************.......::::::::::::::::::::OOOOOOOOOOOOOOOOOOOOO.............;;;;;;;.......OOOOOOOOOOOOOOOOOOOO.......",
"             .......:::::::....................:::::::;;;;;;;;;;;;;;;;;;;;....................************************************************================-============-====----------------------------------------------------------------------------------==============-============-=====-============**********************************************************************************************.......::::::::::::::::::::OOOOOOOOOOOOOOOOOOOOO.............;;;;;;;.......OOOOOOOOOOOOOOOOOOOO.......",
"             .......:::::::....................:::::::;;;;;;;;;;;;;;;;;;;;....................************************************************=================-============-===---------------------------------------------------------------------------------===============-============-=====-============**********************************************************************************************.......::::::::::::::::::::OOOOOOOOOOOOOOOOOOOOO.............;;;;;;;.......OOOOOOOOOOOOOOOOOOOO.......",
"                    .......:::::::::::::ooooooo.......:::::::;;;;;;ooooooo.......*******......********************************************************************==============-============-=====-====================-============-=====-=====================-============-=====-=======*****************************************************************************************************.......******;;;;;;;:::::::;;;;;;;....................::::::::::::::;;;;;;.......OOOOOOOOOOOOOOOOOOOOOOOOOOO.......",
"                    .......:::::::::::::ooooooo.......:::::::;;;;;;ooooooo.......*******......********************************************************************==============-============-=====-======================-============-=====-=======================-============-=====-===*****************************************************************************************************.......******;;;;;;;:::::::;;;;;;;....................::::::::::::::;;;;;;.......OOOOOOOOOOOOOOOOOOOOOOOOOOO.......",
"                    .......:::::::::::::ooooooo.......:::::::;;;;;;ooooooo.......*******......********************************************************************===============-============-=====-========================-============-=====-=========================-============-====*****************************************************************************************************.......******;;;;;;;:::::::;;;;;;;....................::::::::::::::;;;;;;.......OOOOOOOOOOOOOOOOOOOOOOOOOOO.......",
"                    .......:::::::::::::ooooooo.......:::::::;;;;;;ooooooo.......*******......********************************************************************==============-============-=====-==========================-============-=====-===========================-============-=*****************************************************************************************************.......******;;;;;;;:::::::;;;;;;;....................::::::::::::::;;;;;;.......OOOOOOOOOOOOOOOOOOOOOOOOOOO.......",
"                    .......:::::::::::::ooooooo.......:::::::;;;;;;ooooooo.......*******......********************************************************************==============-============-=====-============================-============-=====-=============================-==========*****************************************************************************************************.......******;;;;;;;:::::::;;;;;;;....................::::::::::::::;;;;;;.......OOOOOOOOOOOOOOOOOOOOOOOOOOO.......",
"                    .......:::::::::::::ooooooo.......:::::::;;;;;;ooooooo.......*******......********************************************************************==============-============-=====-==============================-============-=====-===============================-======*****************************************************************************************************.......******;;;;;;;:::::::;;;;;;;....................::::::::::::::;;;;;;.......OOOOOOOOOOOOOOOOOOOOOOOOOOO.......",
"                    .......:::::::::::::ooooooo.......:::::::;;;;;;ooooooo.......*******......********************************************************************==============-============-=====-================================-============-=====-=================================-==*****************************************************************************************************.......******;;;;;;;:::::::;;;;;;;....................::::::::::::::;;;;;;.......OOOOOOOOOOOOOOOOOOOOOOOOOOO.......",
"             ..............:::::::oooooo-------.......;;;;;;;oooooo.......--------------******.......*********************************************************************************================-============-=====-==================================-====******************************************************************************************************************..............-------------XXXXXXXXXXXXXXXXXXXXX------*******.......;;;;;;;:::::::;;;;;;.......OOOOOOOOOOOOOOOOOOOOOOOOOOO.......",
"             ..............:::::::oooooo-------.......;;;;;;;oooooo.......--------------******.......*********************************************************************************===============-============-=====-===================================-====******************************************************************************************************************..............-------------XXXXXXXXXXXXXXXXXXXXX------*******.......;;;;;;;:::::::;;;;;;.......OOOOOOOOOOOOOOOOOOOOOOOOOOO.......",
"             ..............:::::::oooooo-------.......;;;;;;;oooooo.......--------------******.......*********************************************************************************==============-============-=====-====================================-====******************************************************************************************************************..............-------------XXXXXXXXXXXXXXXXXXXXX------*******.......;;;;;;;:::::::;;;;;;.......OOOOOOOOOOOOOOOOOOOOOOOOOOO.......",
"             ..............:::::::oooooo-------.......;;;;;;;oooooo.......--------------******.......*********************************************************************************==============-============-=====-=====================================-===******************************************************************************************************************..............-------------XXXXXXXXXXXXXXXXXXXXX------*******.......;;;;;;;:::::::;;;;;;.......OOOOOOOOOOOOOOOOOOOOOOOOOOO.......",
"             ..............:::::::oooooo-------.......;;;;;;;oooooo.......--------------******.......*********************************************************************************==============-============-=====-======================================-==******************************************************************************************************************..............-------------XXXXXXXXXXXXXXXXXXXXX------*******.......;;;;;;;:::::::;;;;;;.......OOOOOOOOOOOOOOOOOOOOOOOOOOO.......",
"             ..............:::::::oooooo-------.......;;;;;;;oooooo.......--------------******.......*********************************************************************************=================-============-=====-======================================******************************************************************************************************************..............-------------XXXXXXXXXXXXXXXXXXXXX------*******.......;;;;;;;:::::::;;;;;;.......OOOOOOOOOOOOOOOOOOOOOOOOOOO.......",
"             ..............:::::::oooooo-------.......;;;;;;;oooooo.......--------------******.......*********************************************************************************==============-============-=====-========================================-******************************************************************************************************************..............-------------XXXXXXXXXXXXXXXXXXXXX------*******.......;;;;;;;:::::::;;;;;;.......OOOOOOOOOOOOOOOOOOOOOOOOOOO.......",
".............:::::::;;;;;;;ooooooo--------------------ooooooo---------------------------------*******.......OOOOOOO**********************************************************************************************************************************************************************************************************************************************************......-------------------------------------------------------------*******.......;;;;;;;;;;;;;..............OOOOOOO....................",
".............:::::::;;;;;;;ooooooo--------------------ooooooo---------------------------------*******.......OOOOOOO**********************************************************************************************************************************************************************************************************************************************************......-------------------------------------------------------------*******.......;;;;;;;;;;;;;..............OOOOOOO....................",
".............:::::::;;;;;;;ooooooo--------------------ooooooo---------------------------------*******.......OOOOOOO**********************************************************************************************************************************************************************************************************************************************************......-------------------------------------------------------------*******.......;;;;;;;;;;;;;..............OOOOOOO....................",
".............:::::::;;;;;;;ooooooo--------------------ooooooo---------------------------------*******.......OOOOOOO**********************************************************************************************************************************************************************************************************************************************************......-------------------------------------------------------------*******.......;;;;;;;;;;;;;..............OOOOOOO....................",
".............:::::::;;;;;;;ooooooo--------------------ooooooo---------------------------------*******.......OOOOOOO**********************************************************************************************************************************************************************************************************************************************************......-------------------------------------------------------------*******.......;;;;;;;;;;;;;..............OOOOOOO....................",
".............:::::::;;;;;;;ooooooo--------------------ooooooo---------------------------------*******.......OOOOOOO**********************************************************************************************************************************************************************************************************************************************************......-------------------------------------------------------------*******.......;;;;;;;;;;;;;..............OOOOOOO....................",
"       ......::::::::::::::.......--------------------------------------------------------------------======*******......*********************************************************************************************************************************************************************************************************************************************.......------------------------------------------------======---------------------======.............*******..............::::::.......       ",
"       ......::::::::::::::.......--------------------------------------------------------------------======*******......*********************************************************************************************************************************************************************************************************************************************.......------------------------------------------------======---------------------======.............*******..............::::::.......       ",
"       ......::::::::::::::.......--------------------------------------------------------------------======*******......*********************************************************************************************************************************************************************************************************************************************.......------------------------------------------------=====----------------------======.............*******..............::::::.......       ",
"       ......::::::::::::::.......--------------------------------------------------------------------======*******......*********************************************************************************************************************************************************************************************************************************************.......------------------------------------------------=====---------------------=======.............*******..............::::::.......       ",
"       ......::::::::::::::.......--------------------------------------------------------------------======*******......*********************************************************************************************************************************************************************************************************************************************.......------------------------------------------------======--------------------=======.............*******..............::::::.......       ",
"       ......::::::::::::::.......-------------------------------------------------------------------=======*******......*********************************************************************************************************************************************************************************************************************************************.......------------------------------------------------=======--------------------======.............*******..............::::::.......       ",
"       ......::::::::::::::.......--------------------------------------------------------------------======*******......*********************************************************************************************************************************************************************************************************************************************.......------------------------------------------------======---------------------======.............*******..............::::::.......       ",
"             .......;;;;;;;.......-------===============-====******======----------------------=============*******......**************************************************************************************************************************************************************************************************************************************.......*******----------------------------===============-===*******=============*******=======*************.......::::::::::::::.............       ",
"             .......;;;;;;;.......-------==============-=====******========--------------------=============*******......**************************************************************************************************************************************************************************************************************************************.......*******=---------------------------==============-====*******=============*******=======*************.......::::::::::::::.............       ",
"             .......;;;;;;;.......-------===============-====******=======---------------------=============*******......**************************************************************************************************************************************************************************************************************************************.......*******----------------------------================-==*******=============*******=======*************.......::::::::::::::.............       ",
"             .......;;;;;;;.......-------================-===******========-------------------==============*******......**************************************************************************************************************************************************************************************************************************************.......*******=---------------------------===============-===*******=============*******=======*************.......::::::::::::::.............       ",
"             .......;;;;;;;.......-------==============-=====******======----------------------=============*******......**************************************************************************************************************************************************************************************************************************************.......*******----------------------------================-==*******=============*******=======*************.......::::::::::::::.............       ",
"             .......;;;;;;;.......-------===============-====******========------------------===============*******......**************************************************************************************************************************************************************************************************************************************.......*******--------------------------=================-===*******=============*******=======*************.......::::::::::::::.............       ",
"             .......;;;;;;;.......-------=================-==******========-------------------==============*******......**************************************************************************************************************************************************************************************************************************************.......*******---------------------------==================-=*******=============*******=======*************.......::::::::::::::.............       ",
"             ..............-------======**********************************========-------============********************.......*******************************************************************************************************************************************************************************************************************************.......----------------------------======**************************************************************************;;;;;;;:::::::.............       ",
"             ..............-------======**********************************========-------============********************.......*******************************************************************************************************************************************************************************************************************************.......----------------------------======**************************************************************************;;;;;;;:::::::.............       ",
"             ..............-------======**********************************======--------=============********************.......*******************************************************************************************************************************************************************************************************************************.......----------------------------======**************************************************************************;;;;;;;:::::::.............       ",
"             ..............-------======**********************************======---------============********************.......*******************************************************************************************************************************************************************************************************************************.......---------------------------=======**************************************************************************;;;;;;;:::::::.............       ",
"             ..............--------=====**********************************=======--------============********************.......*******************************************************************************************************************************************************************************************************************************.......----------------------------======**************************************************************************;;;;;;;:::::::.............       ",
"             ..............--------=====**********************************=======-------=============********************.......*******************************************************************************************************************************************************************************************************************************.......----------------------------======**************************************************************************;;;;;;;:::::::.............       ",
"             ..............--------=====**********************************========-------============********************.......*******************************************************************************************************************************************************************************************************************************.......---------------------------=======**************************************************************************;;;;;;;:::::::.............       ",
"                           .......-============*****************************************======**********************************.......************************************************************************************************************************************************************************************************************************.......--------------------=======*********************************************************************************....................              ",
"                           .......-============*****************************************======**********************************.......************************************************************************************************************************************************************************************************************************.......---------------------======*********************************************************************************....................              ",
"                           .......-============*****************************************======**********************************.......************************************************************************************************************************************************************************************************************************.......--------------------=======*********************************************************************************....................              ",
"                           .......-============*****************************************======**********************************.......************************************************************************************************************************************************************************************************************************.......-------------------========*********************************************************************************....................              ",
"                           .......-============*****************************************======**********************************.......************************************************************************************************************************************************************************************************************************.......---------------------======*********************************************************************************....................              ",
"                           .......-============*****************************************======**********************************.......************************************************************************************************************************************************************************************************************************.......--------------------=======*********************************************************************************....................              ",
"                           .......-=====****************************************************************************************.......OOOOOOO**********************************************************************************************************************************************************************************************************.......-------------------========********************XXXXXXXXXXXXXXXXXXXXXXXXXXXXXXXXXX*****************************************.............              ",
"                           .......-=====****************************************************************************************.......OOOOOOO**********************************************************************************************************************************************************************************************************.......--------------------=======********************XXXXXXXXXXXXXXXXXXXXXXXXXXXXXXXXXX*****************************************.............              ",
"                           .......-=====****************************************************************************************.......OOOOOOO**********************************************************************************************************************************************************************************************************.......---------------------======********************XXXXXXXXXXXXXXXXXXXXXXXXXXXXXXXXXX*****************************************.............              ",
"                           .......-=====****************************************************************************************.......OOOOOOO**********************************************************************************************************************************************************************************************************.......---------------------======********************XXXXXXXXXXXXXXXXXXXXXXXXXXXXXXXXXX*****************************************.............              ",
"                           .......-=====****************************************************************************************.......OOOOOOO**********************************************************************************************************************************************************************************************************.......---------------------======********************XXXXXXXXXXXXXXXXXXXXXXXXXXXXXXXXXX*****************************************.............              ",
"                           .......-=====****************************************************************************************.......OOOOOOO**********************************************************************************************************************************************************************************************************.......---------------------======********************XXXXXXXXXXXXXXXXXXXXXXXXXXXXXXXXXX*****************************************.............              ",
"                           .......-=====****************************************************************************************.......OOOOOOO**********************************************************************************************************************************************************************************************************.......-------------------========********************XXXXXXXXXXXXXXXXXXXXXXXXXXXXXXXXXX*****************************************.............              ",
"                           .......*************XXXXXXXXXXXXXXXXXXXXXXXXXXX******************************************************.......OOOOOOOOOOOOOOOOOOOO*********************************************************************************************************************************************************************************************.......---------------============**************XXXXXX##################################XXXXXXX**********************************.......                    ",
"                           .......*************XXXXXXXXXXXXXXXXXXXXXXXXXXX******************************************************.......OOOOOOOOOOOOOOOOOOOO*********************************************************************************************************************************************************************************************.......---------------============**************XXXXXX##################################XXXXXXX**********************************.......                    ",
"                           .......*************XXXXXXXXXXXXXXXXXXXXXXXXXXX******************************************************.......OOOOOOOOOOOOOOOOOOOO*********************************************************************************************************************************************************************************************.......---------------============**************XXXXXX##################################XXXXXXX**********************************.......                    ",
"                           .......*************XXXXXXXXXXXXXXXXXXXXXXXXXXX******************************************************.......OOOOOOOOOOOOOOOOOOOO*********************************************************************************************************************************************************************************************.......---------------============**************XXXXXX##################################XXXXXXX**********************************.......                    ",
"                           .......*************XXXXXXXXXXXXXXXXXXXXXXXXXXX******************************************************.......OOOOOOOOOOOOOOOOOOOO*********************************************************************************************************************************************************************************************.......--------------=============**************XXXXXX##################################XXXXXXX**********************************.......                    ",
"                           .......*************XXXXXXXXXXXXXXXXXXXXXXXXXXX******************************************************.......OOOOOOOOOOOOOOOOOOOO*********************************************************************************************************************************************************************************************.......--------------=============**************XXXXXX##################################XXXXXXX**********************************.......                    ",
"                           .......*************XXXXXXXXXXXXXXXXXXXXXXXXXXX******************************************************.......OOOOOOOOOOOOOOOOOOOO*********************************************************************************************************************************************************************************************.......---------------============**************XXXXXX##################################XXXXXXX**********************************.......                    ",
"                                  ......*******###########################XXXXXXXXXXXXXX***********************************************.......OOOOOOOOOOOOOOOOOOOO*********************************************************************************************************************************************************************************************.......--------=====**************XXXXXXXXXXXXX#########################################**********************************.......                    ",
"                                  ......*******###########################XXXXXXXXXXXXXX***********************************************.......OOOOOOOOOOOOOOOOOOOO*********************************************************************************************************************************************************************************************.......--------=====**************XXXXXXXXXXXXX#########################################**********************************.......                    ",
"                                  ......*******###########################XXXXXXXXXXXXXX***********************************************.......OOOOOOOOOOOOOOOOOOOO*********************************************************************************************************************************************************************************************.......--------=====**************XXXXXXXXXXXXX#########################################**********************************.......                    ",
"                                  ......*******###########################XXXXXXXXXXXXXX***********************************************.......OOOOOOOOOOOOOOOOOOOO*********************************************************************************************************************************************************************************************.......-------======**************XXXXXXXXXXXXX#########################################**********************************.......                    ",
"                                  ......*******###########################XXXXXXXXXXXXXX***********************************************.......OOOOOOOOOOOOOOOOOOOO*********************************************************************************************************************************************************************************************.......--------=====**************XXXXXXXXXXXXX#########################################**********************************.......                    ",
"                                  ......*******###########################XXXXXXXXXXXXXX***********************************************.......OOOOOOOOOOOOOOOOOOOO*********************************************************************************************************************************************************************************************.......--------=====**************XXXXXXXXXXXXX#########################################**********************************.......                    ",
"                                  ......*******###########################XXXXXXXXXXXXXX***********************************************.......OOOOOOOOOOOOOOOOOOOO*********************************************************************************************************************************************************************************************.......-------======**************XXXXXXXXXXXXX#########################################**********************************.......                    ",
"                                        ..............###########################XXXXXXX****************************************.......OOOOOOOOOOOOOOOOOOOOOOOOOOOOOOOOOO*******************************************************************************************************************************************************************************.......--------======*************XXXXXXX###############################################XXXXXXX********************.......                                  ",
"                                        ..............###########################XXXXXXX****************************************.......OOOOOOOOOOOOOOOOOOOOOOOOOOOOOOOOOO*******************************************************************************************************************************************************************************.......--------======*************XXXXXXX###############################################XXXXXXX********************.......                                  ",
"                                        ..............###########################XXXXXXX****************************************.......OOOOOOOOOOOOOOOOOOOOOOOOOOOOOOOOOO*******************************************************************************************************************************************************************************.......--------======*************XXXXXXX###############################################XXXXXXX********************.......                                  ",
"                                        ..............###########################XXXXXXX****************************************.......OOOOOOOOOOOOOOOOOOOOOOOOOOOOOOOOOO*******************************************************************************************************************************************************************************.......--------======*************XXXXXXX###############################################XXXXXXX********************.......                                  ",
"                                        ..............###########################XXXXXXX****************************************.......OOOOOOOOOOOOOOOOOOOOOOOOOOOOOOOOOO*******************************************************************************************************************************************************************************.......--------======*************XXXXXXX###############################################XXXXXXX********************.......                                  ",
"                                        ..............###########################XXXXXXX****************************************.......OOOOOOOOOOOOOOOOOOOOOOOOOOOOOOOOOO*******************************************************************************************************************************************************************************.......--------======*************XXXXXXX###############################################XXXXXXX********************.......                                  ",
"                                               .......##################################XXXXXX**********************************.......OOOOOOOOOOOOOOOOOOOO...........................$$$$$$$$$$$$$$***************************-------------*******=------*******=-----**************-------******=------*****************************************OOOOOOOOOOOOO.......***************************XXXXXXX########################################XXXXXXX********************.......                                  ",
"                                               .......##################################XXXXXX**********************************.......OOOOOOOOOOOOOOOOOOOO...........................$$$$$$$$$$$$$$***************************-------------*******=------*******=-----**************-------******=------*****************************************OOOOOOOOOOOOO.......***************************XXXXXXX########################################XXXXXXX********************.......                                  ",
"                                               .......##################################XXXXXX**********************************.......OOOOOOOOOOOOOOOOOOOO...........................$$$$$$$$$$$$$$***************************-------------*******=------*******------**************=------******=------*****************************************OOOOOOOOOOOOO.......***************************XXXXXXX########################################XXXXXXX********************.......                                  ",
"                                               .......##################################XXXXXX**********************************.......OOOOOOOOOOOOOOOOOOOO...........................$$$$$$$$$$$$$$***************************-------------*******=------*******=-----**************-------******-------*****************************************OOOOOOOOOOOOO.......***************************XXXXXXX########################################XXXXXXX********************.......                                  ",
"                                               .......##################################XXXXXX**********************************.......OOOOOOOOOOOOOOOOOOOO...........................$$$$$$$$$$$$$$***************************-------------*******=------*******=-----**************-------******=------*****************************************OOOOOOOOOOOOO.......***************************XXXXXXX########################################XXXXXXX********************.......                                  ",
"                                               .......##################################XXXXXX**********************************.......OOOOOOOOOOOOOOOOOOOO...........................$$$$$$$$$$$$$$***************************-------------*******=------*******=-----**************-------******-------*****************************************OOOOOOOOOOOOO.......***************************XXXXXXX########################################XXXXXXX********************.......                                  ",
"                                               .......##################################XXXXXX**********************************.......OOOOOOOOOOOOOOOOOOOO...........................$$$$$$$$$$$$$$***************************-------------*******=------*******=-----**************-------******=------*****************************************OOOOOOOOOOOOO.......***************************XXXXXXX########################################XXXXXXX********************.......                                  ",
"                                                      .......#################################XXXXXXX********************..................................                           .........................................$$$$$$$$$$$$$-------*******=------******=-------------*******=-----*******....................................................................***************************#################################XXXXXXXXXXXXXX**************.............                                  ",
"                                                      .......#################################XXXXXXX********************..................................                           .........................................$$$$$$$$$$$$$-------*******=------******=-------------*******=-----*******....................................................................***************************#################################XXXXXXXXXXXXXX**************.............                                  ",
"                                                      .......#################################XXXXXXX********************..................................                           .........................................$$$$$$$$$$$$$-------*******=------******=-------------*******=-----*******....................................................................***************************#################################XXXXXXXXXXXXXX**************.............                                  ",
"                                                      .......#################################XXXXXXX********************..................................                           .........................................$$$$$$$$$$$$$-------*******=------******=-------------*******=-----*******....................................................................***************************#################################XXXXXXXXXXXXXX**************.............                                  ",
"                                                      .......#################################XXXXXXX********************..................................                           .........................................$$$$$$$$$$$$$-------*******-------******--------------*******=-----*******....................................................................***************************#################################XXXXXXXXXXXXXX**************.............                                  ",
"                                                      .......#################################XXXXXXX********************..................................                           .........................................$$$$$$$$$$$$$-------*******=------******=-------------*******=-----*******....................................................................***************************#################################XXXXXXXXXXXXXX**************.............                                  ",
"                                                      .......#################################XXXXXXX********************..................................                           .........................................$$$$$$$$$$$$$-------*******=------******=-------------*******=-----*******....................................................................***************************#################################XXXXXXXXXXXXXX**************.............                                  ",
"                                                                   ..............#############XXXXXXX********************                                                                                                      ..........................................................................                                                             .......********************XXXXXXXXXXXXXXXXXXXXXXXXXXX#######XXXXXX****************************......                                         ",
"                                                                   ..............#############XXXXXXX********************                                                                                                      ..........................................................................                                                             .......********************XXXXXXXXXXXXXXXXXXXXXXXXXXX#######XXXXXX****************************......                                         ",
"                                                                   ..............#############XXXXXXX********************                                                                                                      ..........................................................................                                                             .......********************XXXXXXXXXXXXXXXXXXXXXXXXXXX#######XXXXXX****************************......                                         ",
"                                                                   ..............#############XXXXXXX********************                                                                                                      ..........................................................................                                                             .......********************XXXXXXXXXXXXXXXXXXXXXXXXXXX#######XXXXXX****************************......                                         ",
"                                                                   ..............#############XXXXXXX********************                                                                                                      ..........................................................................                                                             .......********************XXXXXXXXXXXXXXXXXXXXXXXXXXX#######XXXXXX****************************......                                         ",
"                                                                   ..............#############XXXXXXX********************                                                                                                      ..........................................................................                                                             .......********************XXXXXXXXXXXXXXXXXXXXXXXXXXX#######XXXXXX****************************......                                         ",
"                                                                   ..............#############XXXXXXX********************                                                                                                      ..........................................................................                                                             .......********************XXXXXXXXXXXXXXXXXXXXXXXXXXX#######XXXXXX****************************......                                         ",
"                                                                                 ........................................                                                                                                                                                                                                                                                    ......**********************************XXXXXXX***************************.......                                                      ",
"                                                                                 ........................................                                                                                                                                                                                                                                                    ......**********************************XXXXXXX***************************.......                                                      ",
"                                                                                 ........................................                                                                                                                                                                                                                                                    ......**********************************XXXXXXX***************************.......                                                      ",
"                                                                                 ........................................                                                                                                                                                                                                                                                    ......**********************************XXXXXXX***************************.......                                                      ",
"                                                                                 ........................................                                                                                                                                                                                                                                                    ......**********************************XXXXXXX***************************.......                                                      ",
"                                                                                 ........................................                                                                                                                                                                                                                                                    ......**********************************XXXXXXX***************************.......                                                      ",
"                                                                                 ........................................                                                                                                                                                                                                                                                    ......**********************************XXXXXXX***************************.......                                                      ",
"                                                                                              .......                                                                                                                                                                                                                                                                              ..............********************.......*******....................                                                             ",
"                                                                                              .......                                                                                                                                                                                                                                                                              ..............********************.......*******....................                                                             ",
"                                                                                              .......                                                                                                                                                                                                                                                                              ..............********************.......*******....................                                                             ",
"                                                                                              .......                                                                                                                                                                                                                                                                              ..............********************.......*******....................                                                             ",
"                                                                                              .......                                                                                                                                                                                                                                                                              ..............********************.......*******....................                                                             ",
"                                                                                              .......                                                                                                                                                                                                                                                                              ..............********************.......*******....................                                                             ",
"                                                                                                                                                                                                                                                                                                                                                                                                 ..................................                                                                                 ",
"                                                                                                                                                                                                                                                                                                                                                                                                 ..................................                                                                                 ",
"                                                                                                                                                                                                                                                                                                                                                                                                 ..................................                                                                                 ",
"                                                                                                                                                                                                                                                                                                                                                                                                 ..................................                                                                                 ",
"                                                                                                                                                                                                                                                                                                                                                                                                 ..................................                                                                                 ",
"                                                                                                                                                                                                                                                                                                                                                                                                 ..................................                                                                                 ",
"                                                                                                                                                                                                                                                                                                                                                                                                 ..................................                                                                                 ",
"                                                                                                                                                                                                                                                                                                                                                                                                 ..................................                                                                                 ",
"                                                                                                                                                                                                                                                                                                                                                                                                                                                                                                                    ",
"                                                                                                                                                                                                                                                                                                                                                                                                                                                                                                                    "
};
