/* XPM */
static char *out[] = {
/* columns rows colors chars-per-pixel */
"500 503 16 1 ",
"  c #FF00FF",
". c black",
"X c #634221",
"o c #735A21",
"O c #103942",
"+ c #315A7B",
"@ c gray45",
"# c #A57352",
"$ c #C69C5A",
"% c #528CAD",
"& c #73A5BD",
"* c #E7C6AD",
"= c #F7D6BD",
"- c #F7E7BD",
"; c #CECECE",
": c white",
/* pixels */
"                                                                                                                                                                                                                                                                                                                                                                                                                                                                                                                    ",
"                                                                                                                                                                                                                                                                                                                                                                                                                                                                                                                    ",
"                                                                                                                                                                                                                                                                                                                                                                                                                                                                                                                    ",
"                                                                                                                                                                                                                                                                                                                                                                                                                                                                                                                    ",
"                                                                                                                                                                                                                                                                                                                                                                                                                                                                                                                    ",
"                                                                                                                                                                                                                                                                                                                                                                                                                                                                                                                    ",
"                                                                                                                                                                                                                                                                                                                                                                                                                                                                                                                    ",
"                                                                                                                                                                                                                                                                                                                                                                                                                                                                                                                    ",
"                                                                                                                                                                                                                                                                                                                                                                                                                                                                                                                    ",
"                                                                                                                                                                                                                                                                                                                                                                                                                                                                                                                    ",
"                                                                                                                                                                                                                                                                                                                                                                                                                                                                                                                    ",
"                                                                                                                                                                                                                                                                                                                                                                                                                                                                                                                    ",
"                                                                                                                                                                                                                                                                                                                                                                                                                                                                                                                    ",
"                                                                                                                                                                                                                                                                                                                                                                                                                                                                                                                    ",
"                                                                                                                                                                                                                                                                                                                                                                                                                                                                                                                    ",
"                                                                                                                                                                                                                                                                                                                                                                                                                                                                                                                    ",
"                                                                                                                                                                                                                                                                                                                                                                                                                                                                                                                    ",
"                                                                                                                                                                                                                                                                                                                                                                                                                                                                                                                    ",
"                                                                                                                                                                                                                                                                                                                                                                                                                                                                                                                    ",
"                                                                                                                                                                                                                                                                                                                                                                                                                                                                                                                    ",
"                                                                                                                                                                                                                                                                                                                                                                                                                                                                                                                    ",
"                                                                                                                                                                                                                                                                                                                                                                                                                                                                                                                    ",
"                                                                                                                                                                                                                                                                                                                                                                                                                                                                                                                    ",
"                                                                                                                                                                                                                                                                                                                                                                                                                                                                                                                    ",
"                                                                                                                                                                                                                                                                                                                                                                                                                                                                                                                    ",
"                                                                                                                                                                                                                                                                                                                                                                                                                                                                                                                    ",
"                                                                                                                                                                                                                                                                                                                                                                                                                                                                                                                    ",
"                                                                                                                                                                                                                                                                                                                                                                                                                                                                                                                    ",
"                                                                                                                                                                                                                                                                                                                                                                                                                                                                                                                    ",
"                                                                                                                                                                                                                                                                                                                                                                                                                                                                                                                    ",
"                                                                                                                                                                                                                                                                                                                                                                                                                                                                                                                    ",
"                                                                                                                                                                                                                                                                                                                                                                                                                                                                                                                    ",
"                                                                                                                                                                                                                                                                                                                                                                                                                                                                                                                    ",
"                                                                                                                                                                                                                                                                                                                                                                                                                                                                                                                    ",
"                                                                                                                                                                                                                                                                                                                                                                                                                                                                                                                    ",
"                                                                                                                                                                                                                                                                                                                                                                                                                                                                                                                    ",
"                                                                                                                                                                                                                                                                                                                                                                                                                                                                                                                    ",
"                                                                                                                                                                                                                                                                                                                                                                                                                                                                                                                    ",
"                                                                                                                                                                                                                                                                                                                                                                                                                                                                                                                    ",
"                                                                                                                                                                                                                                                                                                                                                                                                                                                                                                                    ",
"                                                                                                                                                                                                                                                                                                                                                                                                                                                                                                                    ",
"                                                                                                                                                                                                                                                                                                                                                                                                                                                                                                                    ",
"                                                                                                                                                                                                                                                                                                                                                                                                                                                                                                                    ",
"                                                                                                                                                                                                                                                                                                                                                                                                                                                                                                                    ",
"                                                                                                                                                                                                                                                                                                                                                                                                                                                                                                                    ",
"                                                                                                                                                                                                                                                                                                                                                                                                                                                                                                                    ",
"                                                                                                                                                                                                                                                                                                                                                                                                                                                                                                                    ",
"                                                                                                                                                                                                                                                                                                                                                                                                                                                                                                                    ",
"                                                                                                                                                                                                                                                                                                                                                                                                                                                                                                                    ",
"                                                                                                                                                                                                                                                                                                                                                                                                                                                                                                                    ",
"                                                                                                                                                                                                                                                                                                                                                                                                                                                                                                                    ",
"                                                                                                                                                                                                                                                                                                                                                                                                                                                                                                                    ",
"                                                                                                                                                                                                                                                                                                                                                                                                                                                                                                                    ",
"                                                                                                                                                                                                                                                                                                                                                                                                                                                                                                                    ",
"                                                                                                                                                                                                                                                                                                                                                                                                                                                                                                                    ",
"                                                                                                                                                                                                                                                                                                                                                                                                                                                                                                                    ",
"                                                                                                                                                                                                                                                                                                                                                                                                                                                                                                                    ",
"                                                                                                                                                                                                                                                                                                                                                                                                                                                                                                                    ",
"                                                                                                                                                                                                                                                                                                                                                                                                                                                                                                                    ",
"                                                                                                                                                                                                                                                                                                                                                                                                                                                                                                                    ",
"                                                                                                                                                                                                                                                                                                         ....................                                                                                                                                                                                       ",
"                                                                                                                                                                                                                                                                                                         ....................                                                                                                                                                                                       ",
"                                                                                                                                                                                                                                                                                                         ....................                                                                                                                                                                                       ",
"                                                                                                                                                                                                                                                                                                         ....................                                                                                                                                                                                       ",
"                                                                                                                                                                                                                                                                                                         ....................                                                                                                                                                                                       ",
"                                                                                                                                                                                                                                                                                                         ....................                                                                                                                                                                                       ",
"                                                                                                                                                                                                                                                                                                         ....................                                                                                                                                                                                       ",
"                                                                                                                                                                                                                                                                                                  OOOOOOO%%%%%%%+++++++++++++.......                                                                                                                                                                                ",
"                                                                                                                                                                                                                                                                                                  OOOOOOO%%%%%%%+++++++++++++.......                                                                                                                                                                                ",
"                                                                                                                                                                                                                                                                                                  OOOOOOO%%%%%%%+++++++++++++.......                                                                                                                                                                                ",
"                                                                                                                                                                                                                                                                                                  OOOOOOO%%%%%%%+++++++++++++.......                                                                                                                                                                                ",
"                                                                                                                                                                                                                                                                                                  OOOOOOO%%%%%%%+++++++++++++.......                                                                                                                                                                                ",
"                                                                                                                                                                                                                                                                                                  OOOOOOO%%%%%%%+++++++++++++.......                                                                                                                                                                                ",
"                                                                                                                                                                                                                                                                                                  OOOOOOO%%%%%%%+++++++++++++.......                                                                                                                                                                                ",
"                                                                                                                                                                                             ..............                                                                                 OOOOOO%%%%%%%%%%%%%%%%%%%%%++++++.......                                                                                                                                                                                ",
"                                                                                                                                                                                             ..............                                                                                 OOOOOO%%%%%%%%%%%%%%%%%%%%%++++++.......                                                                                                                                                                                ",
"                                                                                                                                                                                             ..............                                                                                 OOOOOO%%%%%%%%%%%%%%%%%%%%%++++++.......                                                                                                                                                                                ",
"                                                                                                                                                                                             ..............                                                                                 OOOOOO%%%%%%%%%%%%%%%%%%%%%++++++.......                                                                                                                                                                                ",
"                                                                                                                                                                                             ..............                                                                                 OOOOOO%%%%%%%%%%%%%%%%%%%%%++++++.......                                                                                                                                                                                ",
"                                                                                                                                                                                             ..............                                                                                 OOOOOO%%%%%%%%%%%%%%%%%%%%%++++++.......                                                                                                                                                                                ",
"                                                                                                                                                                                             ..............                                                                                 OOOOOO%%%%%%%%%%%%%%%%%%%%%++++++.......                                                                                                                                                                                ",
"                                                                                                                                                                                      OOOOOOO%%%%%%%+++++++.............                                                             OOOOOOO%%%%%%%%%%%%%%%%%%%%%%%%%%%+++++++++++++.......                                                                                                                                                                         ",
"                                                                                                                                                                                      OOOOOOO%%%%%%%+++++++.............                                                             OOOOOOO%%%%%%%%%%%%%%%%%%%%%%%%%%%+++++++++++++.......                                                                                                                                                                         ",
"                                                                                                                                                                                      OOOOOOO%%%%%%%+++++++.............                                                             OOOOOOO%%%%%%%%%%%%%%%%%%%%%%%%%%%+++++++++++++.......                                                                                                                                                                         ",
"                                                                                                                                                                                      OOOOOOO%%%%%%%+++++++.............                                                             OOOOOOO%%%%%%%%%%%%%%%%%%%%%%%%%%%+++++++++++++.......                                                                                                                                                                         ",
"                                                                                                                                                                                      OOOOOOO%%%%%%%+++++++.............                                                             OOOOOOO%%%%%%%%%%%%%%%%%%%%%%%%%%%+++++++++++++.......                                                                                                                                                                         ",
"                                                                                                                                                                                      OOOOOOO%%%%%%%+++++++.............                                                             OOOOOOO%%%%%%%%%%%%%%%%%%%%%%%%%%%+++++++++++++.......                                                                                                                                                                         ",
"                                                                                                                                                                                      OOOOOOO%%%%%%%+++++++.............                                                             OOOOOOO%%%%%%%%%%%%%%%%%%%%%%%%%%%+++++++++++++.......                                                                                                                                                                         ",
"                                                                                                                                                                                      OOOOOOO%%%%%%%++++++++++++++++++++.......                                               OOOOOOO%%%%%%%%%%%%%%%%%%%%%%%%%%%%%%%%%%+++++++++++++.......                                                                                                                                                                         ",
"                                                                                                                                                                                      OOOOOOO%%%%%%%++++++++++++++++++++.......                                               OOOOOOO%%%%%%%%%%%%%%%%%%%%%%%%%%%%%%%%%%+++++++++++++.......                                                                                                                                                                         ",
"                                                                                                                                                                                      OOOOOOO%%%%%%%++++++++++++++++++++.......                                               OOOOOOO%%%%%%%%%%%%%%%%%%%%%%%%%%%%%%%%%%+++++++++++++.......                                                                                                                                                                         ",
"                                                                                                                                                                                      OOOOOOO%%%%%%%++++++++++++++++++++.......                                               OOOOOOO%%%%%%%%%%%%%%%%%%%%%%%%%%%%%%%%%%+++++++++++++.......                                                                                                                                                                         ",
"                                                                                                                                                                                      OOOOOOO%%%%%%%++++++++++++++++++++.......                                               OOOOOOO%%%%%%%%%%%%%%%%%%%%%%%%%%%%%%%%%%+++++++++++++.......                                                                                                                                                                         ",
"                                                                                                                                                                                      OOOOOOO%%%%%%%++++++++++++++++++++.......                                               OOOOOOO%%%%%%%%%%%%%%%%%%%%%%%%%%%%%%%%%%+++++++++++++.......                                                                                                                                                                         ",
"                                                                                                                                                                               OOOOOOO%%%%%%%%%%%%%%%%%%%%%++++++++++++++++++++...............................................%%%%%%%%%%%%%%%%%%%%%%%%%%%%%%%%%%+++++++++++++++++++++++++++.......                                                                                                                                                                  ",
"                                                                                                                                                                               OOOOOOO%%%%%%%%%%%%%%%%%%%%%++++++++++++++++++++...............................................%%%%%%%%%%%%%%%%%%%%%%%%%%%%%%%%%%+++++++++++++++++++++++++++.......                                                                                                                                                                  ",
"                                                                                                                                                                               OOOOOOO%%%%%%%%%%%%%%%%%%%%%++++++++++++++++++++...............................................%%%%%%%%%%%%%%%%%%%%%%%%%%%%%%%%%%+++++++++++++++++++++++++++.......                                                                                                                                                                  ",
"                                                                                                                                                                               OOOOOOO%%%%%%%%%%%%%%%%%%%%%++++++++++++++++++++...............................................%%%%%%%%%%%%%%%%%%%%%%%%%%%%%%%%%%+++++++++++++++++++++++++++.......                                                                                                                                                                  ",
"                                                                                                                                                                               OOOOOOO%%%%%%%%%%%%%%%%%%%%%++++++++++++++++++++...............................................%%%%%%%%%%%%%%%%%%%%%%%%%%%%%%%%%%+++++++++++++++++++++++++++.......                                                                                                                                                                  ",
"                                                                                                                                                                               OOOOOOO%%%%%%%%%%%%%%%%%%%%%++++++++++++++++++++...............................................%%%%%%%%%%%%%%%%%%%%%%%%%%%%%%%%%%+++++++++++++++++++++++++++.......                                                                                                                                                                  ",
"                                                                                                                                                                               OOOOOOO%%%%%%%%%%%%%%%%%%%%%++++++++++++++++++++...............................................%%%%%%%%%%%%%%%%%%%%%%%%%%%%%%%%%%+++++++++++++++++++++++++++.......                                                                                                                                                                  ",
"                                                                                                                                                                               OOOOOOO%%%%%%%%%%%%%%%%%%%%%++++++OOOOOOOOOOOOOO+++++++&&&&&&&&&&&&&%%%%%%%%%%%%%%%%%%%%%%%%%%%%%%%%%%%%%%%%%%%%%%%%%%%%%%%%%%%%%++++++++++++++++++++++++++++++++++......                                                                                                                                                            ",
"                                                                                                                                                                               OOOOOOO%%%%%%%%%%%%%%%%%%%%%++++++OOOOOOOOOOOOOO+++++++&&&&&&&&&&&&&%%%%%%%%%%%%%%%%%%%%%%%%%%%%%%%%%%%%%%%%%%%%%%%%%%%%%%%%%%%%%++++++++++++++++++++++++++++++++++......                                                                                                                                                            ",
"                                                                                                                                                                               OOOOOOO%%%%%%%%%%%%%%%%%%%%%++++++OOOOOOOOOOOOOO+++++++&&&&&&&&&&&&&%%%%%%%%%%%%%%%%%%%%%%%%%%%%%%%%%%%%%%%%%%%%%%%%%%%%%%%%%%%%%++++++++++++++++++++++++++++++++++......                                                                                                                                                            ",
"                                                                                                                                                                               OOOOOOO%%%%%%%%%%%%%%%%%%%%%++++++OOOOOOOOOOOOOO+++++++&&&&&&&&&&&&&%%%%%%%%%%%%%%%%%%%%%%%%%%%%%%%%%%%%%%%%%%%%%%%%%%%%%%%%%%%%%++++++++++++++++++++++++++++++++++......                                                                                                                                                            ",
"                                                                                                                                                                               OOOOOOO%%%%%%%%%%%%%%%%%%%%%++++++OOOOOOOOOOOOOO+++++++&&&&&&&&&&&&&%%%%%%%%%%%%%%%%%%%%%%%%%%%%%%%%%%%%%%%%%%%%%%%%%%%%%%%%%%%%%++++++++++++++++++++++++++++++++++......                                                                                                                                                            ",
"                                                                                                                                                                               OOOOOOO%%%%%%%%%%%%%%%%%%%%%++++++OOOOOOOOOOOOOO+++++++&&&&&&&&&&&&&%%%%%%%%%%%%%%%%%%%%%%%%%%%%%%%%%%%%%%%%%%%%%%%%%%%%%%%%%%%%%++++++++++++++++++++++++++++++++++......                                                                                                                                                            ",
"                                                                                                                                                                               OOOOOOO%%%%%%%%%%%%%%%%%%%%%++++++OOOOOOOOOOOOOO+++++++&&&&&&&&&&&&&%%%%%%%%%%%%%%%%%%%%%%%%%%%%%%%%%%%%%%%%%%%%%%%%%%%%%%%%%%%%%++++++++++++++++++++++++++++++++++......                                                                                                                                                            ",
"                                                                                                                                                                               OOOOOOO%%%%%%%%%%%%%%+++++++++++++%%%%%%%&&&&&&&&&&&&&&&&&&&&&&&&&&&&&&&&&&%%%%%%%%%%%%%%%%%%%%%%%%%%%%%%%%%%%%%%%%%%%%%%%+++++++++++++++++++++++++++++++++++++++++++++++.......                                                                                                                                                     ",
"                                                                                                                                                                               OOOOOOO%%%%%%%%%%%%%%+++++++++++++%%%%%%%&&&&&&&&&&&&&&&&&&&&&&&&&&&&&&&&&&%%%%%%%%%%%%%%%%%%%%%%%%%%%%%%%%%%%%%%%%%%%%%%%+++++++++++++++++++++++++++++++++++++++++++++++.......                                                                                                                                                     ",
"                                                                                                                                                                               OOOOOOO%%%%%%%%%%%%%%+++++++++++++%%%%%%%&&&&&&&&&&&&&&&&&&&&&&&&&&&&&&&&&&%%%%%%%%%%%%%%%%%%%%%%%%%%%%%%%%%%%%%%%%%%%%%%%+++++++++++++++++++++++++++++++++++++++++++++++.......                                                                                                                                                     ",
"                                                                                                                                                                               OOOOOOO%%%%%%%%%%%%%%+++++++++++++%%%%%%%&&&&&&&&&&&&&&&&&&&&&&&&&&&&&&&&&&%%%%%%%%%%%%%%%%%%%%%%%%%%%%%%%%%%%%%%%%%%%%%%%+++++++++++++++++++++++++++++++++++++++++++++++.......                                                                                                                                                     ",
"                                                                                                                                                                               OOOOOOO%%%%%%%%%%%%%%+++++++++++++%%%%%%%&&&&&&&&&&&&&&&&&&&&&&&&&&&&&&&&&&%%%%%%%%%%%%%%%%%%%%%%%%%%%%%%%%%%%%%%%%%%%%%%%+++++++++++++++++++++++++++++++++++++++++++++++.......                                                                                                                                                     ",
"                                                                                                                                                                               OOOOOOO%%%%%%%%%%%%%%+++++++++++++%%%%%%%&&&&&&&&&&&&&&&&&&&&&&&&&&&&&&&&&&%%%%%%%%%%%%%%%%%%%%%%%%%%%%%%%%%%%%%%%%%%%%%%%+++++++++++++++++++++++++++++++++++++++++++++++.......                                                                                                                                                     ",
"                                                                                                                                                                               OOOOOOO%%%%%%%%%%%%%%+++++++++++++%%%%%%%&&&&&&&&&&&&&&&&&&&&&&&&&&&&&&&&&&%%%%%%%%%%%%%%%%%%%%%%%%%%%%%%%%%%%%%%%%%%%%%%%+++++++++++++++++++++++++++++++++++++++++++++++.......                                                                                                                                                     ",
"                                                                                                                                                                               OOOOOOO%%%%%%%+++++++%%%%%%%%%%%%%%%%%%%%%%%%%%%&&&&&&&&&&&&&&&&&&&&%%%%%%%%%%%%%%%%%%%%%%%%%%%++++++++++++++++++++++++++++++++++++++++++++++++++++++++++++++++++++++++++.......                                                                                                                                                     ",
"                                                                                                                                                                               OOOOOOO%%%%%%%+++++++%%%%%%%%%%%%%%%%%%%%%%%%%%%&&&&&&&&&&&&&&&&&&&&%%%%%%%%%%%%%%%%%%%%%%%%%%%++++++++++++++++++++++++++++++++++++++++++++++++++++++++++++++++++++++++++.......                                                                                                                                                     ",
"                                                                                                                                                                               OOOOOOO%%%%%%%+++++++%%%%%%%%%%%%%%%%%%%%%%%%%%%&&&&&&&&&&&&&&&&&&&&%%%%%%%%%%%%%%%%%%%%%%%%%%%++++++++++++++++++++++++++++++++++++++++++++++++++++++++++++++++++++++++++.......                                                                                                                                                     ",
"                                                                                                                                                                               OOOOOOO%%%%%%%+++++++%%%%%%%%%%%%%%%%%%%%%%%%%%%&&&&&&&&&&&&&&&&&&&&%%%%%%%%%%%%%%%%%%%%%%%%%%%++++++++++++++++++++++++++++++++++++++++++++++++++++++++++++++++++++++++++.......                                                                                                                                                     ",
"                                                                                                                                                                               OOOOOOO%%%%%%%+++++++%%%%%%%%%%%%%%%%%%%%%%%%%%%&&&&&&&&&&&&&&&&&&&&%%%%%%%%%%%%%%%%%%%%%%%%%%%++++++++++++++++++++++++++++++++++++++++++++++++++++++++++++++++++++++++++.......                                                                                                                                                     ",
"                                                                                                                                                                               OOOOOOO%%%%%%%+++++++%%%%%%%%%%%%%%%%%%%%%%%%%%%&&&&&&&&&&&&&&&&&&&&%%%%%%%%%%%%%%%%%%%%%%%%%%%++++++++++++++++++++++++++++++++++++++++++++++++++++++++++++++++++++++++++.......                                                                                                                                                     ",
"                                                                                                                                                                               .......+++++++%%%%%%%+++++++++++++%%%%%%%%%%%%%%%%%%%%%%%%%%%%%%%%%%%%%%%%%%%%%%%%+++++++++++++-------*******OOOOOOOOOOOOO++++++++++++++++++++++++++++++++++++++++++++++++++++++.......                                                                                                                                              ",
"                                                                                                                                                                               .......+++++++%%%%%%%+++++++++++++%%%%%%%%%%%%%%%%%%%%%%%%%%%%%%%%%%%%%%%%%%%%%%%%+++++++++++++-------*******OOOOOOOOOOOOO++++++++++++++++++++++++++++++++++++++++++++++++++++++.......                                                                                                                                              ",
"                                                                                                                                                                               .......+++++++%%%%%%%+++++++++++++%%%%%%%%%%%%%%%%%%%%%%%%%%%%%%%%%%%%%%%%%%%%%%%%+++++++++++++-------*******OOOOOOOOOOOOO++++++++++++++++++++++++++++++++++++++++++++++++++++++.......                                                                                                                                              ",
"                                                                                                                                                                               .......+++++++%%%%%%%+++++++++++++%%%%%%%%%%%%%%%%%%%%%%%%%%%%%%%%%%%%%%%%%%%%%%%%+++++++++++++-------*******OOOOOOOOOOOOO++++++++++++++++++++++++++++++++++++++++++++++++++++++.......                                                                                                                                              ",
"                                                                                                                                                                               .......+++++++%%%%%%%+++++++++++++%%%%%%%%%%%%%%%%%%%%%%%%%%%%%%%%%%%%%%%%%%%%%%%%+++++++++++++-------*******OOOOOOOOOOOOO++++++++++++++++++++++++++++++++++++++++++++++++++++++.......                                                                                                                                              ",
"                                                                                                                                                                               .......+++++++%%%%%%%+++++++++++++%%%%%%%%%%%%%%%%%%%%%%%%%%%%%%%%%%%%%%%%%%%%%%%%+++++++++++++-------*******OOOOOOOOOOOOO++++++++++++++++++++++++++++++++++++++++++++++++++++++.......                                                                                                                                              ",
"                                                                                                                                                                               .......+++++++%%%%%%%+++++++++++++%%%%%%%%%%%%%%%%%%%%%%%%%%%%%%%%%%%%%%%%%%%%%%%%+++++++++++++-------*******OOOOOOOOOOOOO++++++++++++++++++++++++++++++++++++++++++++++++++++++.......                                                                                                                                              ",
"                                                                                                                                                                               .......++++++++++++++-------******+++++++%%%%%%%%%%%%%%%%%%%%%%%%%%%%%%%%%%+++++++---------------------------------*******OOOOOOO+++++++++++++++++++++++++++++++++++++++++++++++.......                                                                                                                                              ",
"                                                                                                                                                                               .......++++++++++++++-------******+++++++%%%%%%%%%%%%%%%%%%%%%%%%%%%%%%%%%%+++++++---------------------------------*******OOOOOOO+++++++++++++++++++++++++++++++++++++++++++++++.......                                                                                                                                              ",
"                                                                                                                                                                               .......++++++++++++++-------******+++++++%%%%%%%%%%%%%%%%%%%%%%%%%%%%%%%%%%+++++++---------------------------------*******OOOOOOO+++++++++++++++++++++++++++++++++++++++++++++++.......                                                                                                                                              ",
"                                                                                                                                                                               .......++++++++++++++-------******+++++++%%%%%%%%%%%%%%%%%%%%%%%%%%%%%%%%%%+++++++---------------------------------*******OOOOOOO+++++++++++++++++++++++++++++++++++++++++++++++.......                                                                                                                                              ",
"                                                                                                                                                                               .......++++++++++++++-------******+++++++%%%%%%%%%%%%%%%%%%%%%%%%%%%%%%%%%%+++++++---------------------------------*******OOOOOOO+++++++++++++++++++++++++++++++++++++++++++++++.......                                                                                                                                              ",
"                                                                                                                                                                               .......++++++++++++++-------******+++++++%%%%%%%%%%%%%%%%%%%%%%%%%%%%%%%%%%+++++++---------------------------------*******OOOOOOO+++++++++++++++++++++++++++++++++++++++++++++++.......                                                                                                                                              ",
"                                                                                                                                                                               .......++++++++++++++-------******+++++++%%%%%%%%%%%%%%%%%%%%%%%%%%%%%%%%%%+++++++---------------------------------*******OOOOOOO+++++++++++++++++++++++++++++++++++++++++++++++.......                                                                                                                                              ",
"                                                                                                                                                                         ......++++++++++++++---------------------------+++++++%%%%%%%%%%%%%%%%%%%%+++++++------------------------------------------------------OOOOOOO+++++++++++++++++++++++++++++++++++++++++++++++.......                                                                                                                                       ",
"                                                                                                                                                                         ......++++++++++++++---------------------------+++++++%%%%%%%%%%%%%%%%%%%%+++++++------------------------------------------------------OOOOOOO+++++++++++++++++++++++++++++++++++++++++++++++.......                                                                                                                                       ",
"                                                                                                                                                                         ......++++++++++++++---------------------------+++++++%%%%%%%%%%%%%%%%%%%%+++++++------------------------------------------------------OOOOOOO+++++++++++++++++++++++++++++++++++++++++++++++.......                                                                                                                                       ",
"                                                                                                                                                                         ......++++++++++++++---------------------------+++++++%%%%%%%%%%%%%%%%%%%%+++++++------------------------------------------------------OOOOOOO+++++++++++++++++++++++++++++++++++++++++++++++.......                                                                                                                                       ",
"                                                                                                                                                                         ......++++++++++++++---------------------------+++++++%%%%%%%%%%%%%%%%%%%%+++++++------------------------------------------------------OOOOOOO+++++++++++++++++++++++++++++++++++++++++++++++.......                                                                                                                                       ",
"                                                                                                                                                                         ......++++++++++++++---------------------------+++++++%%%%%%%%%%%%%%%%%%%%+++++++------------------------------------------------------OOOOOOO+++++++++++++++++++++++++++++++++++++++++++++++.......                                                                                                                                       ",
"                                                                                                                                                                         ......++++++++++++++---------------------------+++++++%%%%%%%%%%%%%%%%%%%%+++++++------------------------------------------------------OOOOOOO+++++++++++++++++++++++++++++++++++++++++++++++.......                                                                                                                                       ",
"                                                                                                                                                                         ......+++++++*******----------------------------------+++++++++++++*******--------------------------------------------------------------------OOOOOO+++++++++++++++++++++++++++++++++++++++++.......                                                                          .......                    .......                           ",
"                                                                                                                                                                         ......+++++++*******----------------------------------+++++++++++++*******--------------------------------------------------------------------OOOOOO+++++++++++++++++++++++++++++++++++++++++.......                                                                          .......                    .......                           ",
"                                                                                                                                                                         ......+++++++*******----------------------------------+++++++++++++*******--------------------------------------------------------------------OOOOOO+++++++++++++++++++++++++++++++++++++++++.......                                                                          .......                    .......                           ",
"                                                                                                                                                                         ......+++++++*******----------------------------------+++++++++++++*******--------------------------------------------------------------------OOOOOO+++++++++++++++++++++++++++++++++++++++++.......                                                                          .......                    .......                           ",
"                                                                                                                                                                         ......+++++++*******----------------------------------+++++++++++++*******--------------------------------------------------------------------OOOOOO+++++++++++++++++++++++++++++++++++++++++.......                                                                          .......                    .......                           ",
"                                                                                                                                                                         ......+++++++*******----------------------------------+++++++++++++*******--------------------------------------------------------------------OOOOOO+++++++++++++++++++++++++++++++++++++++++.......                                                                          .......                    .......                           ",
"                                                                                                                                                                         ......+++++++*******----------------------------------+++++++++++++*******--------------------------------------------------------------------OOOOOO+++++++++++++++++++++++++++++++++++++++++.......                                                                          .......                    .......                           ",
"                                                                                                                                                                         ......+++++++---------------------------------------------------------------------------------------------------------------------------------******OOOOOOO++++++++++++++++++++++++++++++++++.......                                                                   ..............       ......:::::::.......                           ",
"                                                                                                                                                                         ......+++++++---------------------------------------------------------------------------------------------------------------------------------******OOOOOOO++++++++++++++++++++++++++++++++++.......                                                                   ..............       ......:::::::.......                           ",
"                                                                                                                                                                         ......+++++++---------------------------------------------------------------------------------------------------------------------------------******OOOOOOO++++++++++++++++++++++++++++++++++.......                                                                   ..............       ......:::::::.......                           ",
"                                                                                                                                                                         ......+++++++---------------------------------------------------------------------------------------------------------------------------------******OOOOOOO++++++++++++++++++++++++++++++++++.......                                                                   ..............       ......:::::::.......                           ",
"                                                                                                                                                                         ......+++++++---------------------------------------------------------------------------------------------------------------------------------******OOOOOOO++++++++++++++++++++++++++++++++++.......                                                                   ..............       ......:::::::.......                           ",
"                                                                                                                                                                         ......+++++++---------------------------------------------------------------------------------------------------------------------------------******OOOOOOO++++++++++++++++++++++++++++++++++.......                                                                   ..............       ......:::::::.......                           ",
"                                                                                                                                                                         ......*******---------------------------------------------------------------------------------------------------------------------------------------OOOOOOO+++++++++++++++++++++++++++++++++++++++++......                                                             .......%%%%%%%...........................                           ",
"                                                                                                                                                                         ......*******---------------------------------------------------------------------------------------------------------------------------------------OOOOOOO+++++++++++++++++++++++++++++++++++++++++......                                                             .......%%%%%%%...........................                           ",
"                                                                                                                                                                         ......*******---------------------------------------------------------------------------------------------------------------------------------------OOOOOOO+++++++++++++++++++++++++++++++++++++++++......                                                             .......%%%%%%%...........................                           ",
"                                                                                                                                                                         ......*******---------------------------------------------------------------------------------------------------------------------------------------OOOOOOO+++++++++++++++++++++++++++++++++++++++++......                                                             .......%%%%%%%...........................                           ",
"                                                                                                                                                                         ......*******---------------------------------------------------------------------------------------------------------------------------------------OOOOOOO+++++++++++++++++++++++++++++++++++++++++......                                                             .......%%%%%%%...........................                           ",
"                                                                                                                                                                         ......*******---------------------------------------------------------------------------------------------------------------------------------------OOOOOOO+++++++++++++++++++++++++++++++++++++++++......                                                             .......%%%%%%%...........................                           ",
"                                                                                                                                                                         ......*******---------------------------------------------------------------------------------------------------------------------------------------OOOOOOO+++++++++++++++++++++++++++++++++++++++++......                                                             .......%%%%%%%...........................                           ",
"                                                                                                                                                                  .......++++++----------------------------------------------------------------------------------------..................................--------------------*******OOOOOOO++++++++++++++++++++++++++++++++++......                                                      .......%%%%%%%%%%%%%%%%%%%%%%%%%%%%%%%%%%OOOOOOO       ..............      ",
"                                                                                                                                                                  .......++++++----------------------------------------------------------------------------------------..................................--------------------*******OOOOOOO++++++++++++++++++++++++++++++++++......                                                      .......%%%%%%%%%%%%%%%%%%%%%%%%%%%%%%%%%%OOOOOOO       ..............      ",
"                                                                                                                                                                  .......++++++----------------------------------------------------------------------------------------..................................--------------------*******OOOOOOO++++++++++++++++++++++++++++++++++......                                                      .......%%%%%%%%%%%%%%%%%%%%%%%%%%%%%%%%%%OOOOOOO       ..............      ",
"                                                                                                                                                                  .......++++++----------------------------------------------------------------------------------------..................................--------------------*******OOOOOOO++++++++++++++++++++++++++++++++++......                                                      .......%%%%%%%%%%%%%%%%%%%%%%%%%%%%%%%%%%OOOOOOO       ..............      ",
"                                                                                                                                                                  .......++++++----------------------------------------------------------------------------------------..................................--------------------*******OOOOOOO++++++++++++++++++++++++++++++++++......                                                      .......%%%%%%%%%%%%%%%%%%%%%%%%%%%%%%%%%%OOOOOOO       ..............      ",
"                                                                                                                                                                  .......++++++----------------------------------------------------------------------------------------..................................--------------------*******OOOOOOO++++++++++++++++++++++++++++++++++......                                                      .......%%%%%%%%%%%%%%%%%%%%%%%%%%%%%%%%%%OOOOOOO       ..............      ",
"                                                                                                                                                                  .......++++++----------------------------------------------------------------------------------------..................................--------------------*******OOOOOOO++++++++++++++++++++++++++++++++++......                                                      .......%%%%%%%%%%%%%%%%%%%%%%%%%%%%%%%%%%OOOOOOO       ..............      ",
"                                                                                                                                                                  .......++++++.....................------------------------------------------------------.............@@@@@@@------------------------------------------------------OOOOOOO++++++++++++++++++++++++++++++++++......                                  ..............%%%%%%%%%%%%%%%%%%%%%%%%%%%%%%%%%%%%%%%%%%%%%%%%%%%%%%.......::::::........      ",
"                                                                                                                                                                  .......++++++.....................------------------------------------------------------.............@@@@@@@------------------------------------------------------OOOOOOO++++++++++++++++++++++++++++++++++......                                  ..............%%%%%%%%%%%%%%%%%%%%%%%%%%%%%%%%%%%%%%%%%%%%%%%%%%%%%%.......::::::........      ",
"                                                                                                                                                                  .......++++++.....................------------------------------------------------------.............@@@@@@@------------------------------------------------------OOOOOOO++++++++++++++++++++++++++++++++++......                                  ..............%%%%%%%%%%%%%%%%%%%%%%%%%%%%%%%%%%%%%%%%%%%%%%%%%%%%%%.......::::::........      ",
"                                                                                                                                                                  .......++++++.....................------------------------------------------------------.............@@@@@@@------------------------------------------------------OOOOOOO++++++++++++++++++++++++++++++++++......                                  ..............%%%%%%%%%%%%%%%%%%%%%%%%%%%%%%%%%%%%%%%%%%%%%%%%%%%%%%.......::::::........      ",
"                                                                                                                                                                  .......++++++.....................------------------------------------------------------.............@@@@@@@------------------------------------------------------OOOOOOO++++++++++++++++++++++++++++++++++......                                  ..............%%%%%%%%%%%%%%%%%%%%%%%%%%%%%%%%%%%%%%%%%%%%%%%%%%%%%%.......::::::........      ",
"                                                                                                                                                                  .......++++++.....................------------------------------------------------------.............@@@@@@@------------------------------------------------------OOOOOOO++++++++++++++++++++++++++++++++++......                                  ..............%%%%%%%%%%%%%%%%%%%%%%%%%%%%%%%%%%%%%%%%%%%%%%%%%%%%%%.......::::::........      ",
"                                                                                                                                                                  .......++++++.....................------------------------------------------------------.............@@@@@@@------------------------------------------------------OOOOOOO++++++++++++++++++++++++++++++++++......                                  ..............%%%%%%%%%%%%%%%%%%%%%%%%%%%%%%%%%%%%%%%%%%%%%%%%%%%%%%.......::::::........      ",
"                                                                                 ..................................                                               .......++++++--------------@@@@@@@.............-------------------------------------------------------------------------------------------------------------------OOOOOOO++++++++++++++++++++++++++++++++++......                     .............%%%%%%%%%%%%%%%%%%%%%%%%%%%%%%%%%%%%%%%%%%%%%%%%%%%%%%%%%%%%%OOOOOOO.............              ",
"                                                                                 ..................................                                               .......++++++--------------@@@@@@@.............-------------------------------------------------------------------------------------------------------------------OOOOOOO++++++++++++++++++++++++++++++++++......                     .............%%%%%%%%%%%%%%%%%%%%%%%%%%%%%%%%%%%%%%%%%%%%%%%%%%%%%%%%%%%%%OOOOOOO.............              ",
"                                                                                 ..................................                                               .......++++++--------------@@@@@@@.............-------------------------------------------------------------------------------------------------------------------OOOOOOO++++++++++++++++++++++++++++++++++......                     .............%%%%%%%%%%%%%%%%%%%%%%%%%%%%%%%%%%%%%%%%%%%%%%%%%%%%%%%%%%%%%OOOOOOO.............              ",
"                                                                                 ..................................                                               .......++++++--------------@@@@@@@.............-------------------------------------------------------------------------------------------------------------------OOOOOOO++++++++++++++++++++++++++++++++++......                     .............%%%%%%%%%%%%%%%%%%%%%%%%%%%%%%%%%%%%%%%%%%%%%%%%%%%%%%%%%%%%%OOOOOOO.............              ",
"                                                                                 ..................................                                               .......++++++--------------@@@@@@@.............-------------------------------------------------------------------------------------------------------------------OOOOOOO++++++++++++++++++++++++++++++++++......                     .............%%%%%%%%%%%%%%%%%%%%%%%%%%%%%%%%%%%%%%%%%%%%%%%%%%%%%%%%%%%%%OOOOOOO.............              ",
"                                                                                 ..................................                                               .......++++++--------------@@@@@@@.............-------------------------------------------------------------------------------------------------------------------OOOOOOO++++++++++++++++++++++++++++++++++......                     .............%%%%%%%%%%%%%%%%%%%%%%%%%%%%%%%%%%%%%%%%%%%%%%%%%%%%%%%%%%%%%OOOOOOO.............              ",
"                                                                   .......       .......::::::.......:::::::.......                                               .......++++++-----------------------------------------------------------------------------------------------------------------------------------------------------OOOOOOO+++++++++++++++++++++++++++OOOOOOOOOOOOO.....................++++++%%%%%%%%%%%%%%%%%%%%%%%%%%%%%%%%%%%%%%%%%%%%%%%%%%%%%%%%%%%%%+++++++OOOOOOO:::::::......              ",
"                                                                   .......       .......::::::.......:::::::.......                                               .......++++++-----------------------------------------------------------------------------------------------------------------------------------------------------OOOOOOO+++++++++++++++++++++++++++OOOOOOOOOOOOO.....................++++++%%%%%%%%%%%%%%%%%%%%%%%%%%%%%%%%%%%%%%%%%%%%%%%%%%%%%%%%%%%%%+++++++OOOOOOO:::::::......              ",
"                                                                   .......       .......::::::.......:::::::.......                                               .......++++++-----------------------------------------------------------------------------------------------------------------------------------------------------OOOOOOO+++++++++++++++++++++++++++OOOOOOOOOOOOO.....................++++++%%%%%%%%%%%%%%%%%%%%%%%%%%%%%%%%%%%%%%%%%%%%%%%%%%%%%%%%%%%%%+++++++OOOOOOO:::::::......              ",
"                                                                   .......       .......::::::.......:::::::.......                                               .......++++++-----------------------------------------------------------------------------------------------------------------------------------------------------OOOOOOO+++++++++++++++++++++++++++OOOOOOOOOOOOO.....................++++++%%%%%%%%%%%%%%%%%%%%%%%%%%%%%%%%%%%%%%%%%%%%%%%%%%%%%%%%%%%%%+++++++OOOOOOO:::::::......              ",
"                                                                   .......       .......::::::.......:::::::.......                                               .......++++++-----------------------------------------------------------------------------------------------------------------------------------------------------OOOOOOO+++++++++++++++++++++++++++OOOOOOOOOOOOO.....................++++++%%%%%%%%%%%%%%%%%%%%%%%%%%%%%%%%%%%%%%%%%%%%%%%%%%%%%%%%%%%%%+++++++OOOOOOO:::::::......              ",
"                                                                   .......       .......::::::.......:::::::.......                                               .......++++++-----------------------------------------------------------------------------------------------------------------------------------------------------OOOOOOO+++++++++++++++++++++++++++OOOOOOOOOOOOO.....................++++++%%%%%%%%%%%%%%%%%%%%%%%%%%%%%%%%%%%%%%%%%%%%%%%%%%%%%%%%%%%%%+++++++OOOOOOO:::::::......              ",
"                                                                   .......       .......::::::.......:::::::.......                                               .......++++++-----------------------------------------------------------------------------------------------------------------------------------------------------OOOOOOO+++++++++++++++++++++++++++OOOOOOOOOOOOO.....................++++++%%%%%%%%%%%%%%%%%%%%%%%%%%%%%%%%%%%%%%%%%%%%%%%%%%%%%%%%%%%%%+++++++OOOOOOO:::::::......              ",
"                                                                   .......:::::::.......%%%%%%%%%%%%%%%%%%%%.............                                         .......++++++----------------------------------------------------------------------------------@@@@@@*******-----------------------------------------------*******OOOOOOO+++++++++++++++++++++++++++OOOOOOOOOOOOO.......++++++++++++++++++++%%%%%%%%%%%%%%%%%%%%%%%%%%%%%%%%%%%%%%%%%%%%%%%%%%%%%%%+++++++++++++....................              ",
"                                                                   .......:::::::.......%%%%%%%%%%%%%%%%%%%%.............                                         .......++++++----------------------------------------------------------------------------------@@@@@@*******-----------------------------------------------*******OOOOOOO+++++++++++++++++++++++++++OOOOOOOOOOOOO.......++++++++++++++++++++%%%%%%%%%%%%%%%%%%%%%%%%%%%%%%%%%%%%%%%%%%%%%%%%%%%%%%%+++++++++++++....................              ",
"                                                                   .......:::::::.......%%%%%%%%%%%%%%%%%%%%.............                                         .......++++++----------------------------------------------------------------------------------@@@@@@*******-----------------------------------------------*******OOOOOOO+++++++++++++++++++++++++++OOOOOOOOOOOOO.......++++++++++++++++++++%%%%%%%%%%%%%%%%%%%%%%%%%%%%%%%%%%%%%%%%%%%%%%%%%%%%%%%+++++++++++++....................              ",
"                                                                   .......:::::::.......%%%%%%%%%%%%%%%%%%%%.............                                         .......++++++----------------------------------------------------------------------------------@@@@@@*******-----------------------------------------------*******OOOOOOO+++++++++++++++++++++++++++OOOOOOOOOOOOO.......++++++++++++++++++++%%%%%%%%%%%%%%%%%%%%%%%%%%%%%%%%%%%%%%%%%%%%%%%%%%%%%%%+++++++++++++....................              ",
"                                                                   .......:::::::.......%%%%%%%%%%%%%%%%%%%%.............                                         .......++++++----------------------------------------------------------------------------------@@@@@@*******-----------------------------------------------*******OOOOOOO+++++++++++++++++++++++++++OOOOOOOOOOOOO.......++++++++++++++++++++%%%%%%%%%%%%%%%%%%%%%%%%%%%%%%%%%%%%%%%%%%%%%%%%%%%%%%%+++++++++++++....................              ",
"                                                                   .......:::::::.......%%%%%%%%%%%%%%%%%%%%.............                                         .......++++++----------------------------------------------------------------------------------@@@@@@*******-----------------------------------------------*******OOOOOOO+++++++++++++++++++++++++++OOOOOOOOOOOOO.......++++++++++++++++++++%%%%%%%%%%%%%%%%%%%%%%%%%%%%%%%%%%%%%%%%%%%%%%%%%%%%%%%+++++++++++++....................              ",
"                                                                   .......:::::::.......%%%%%%%%%%%%%%%%%%%%.............                                         .......++++++----------------------------------------------------------------------------------@@@@@@*******-----------------------------------------------*******OOOOOOO+++++++++++++++++++++++++++OOOOOOOOOOOOO.......++++++++++++++++++++%%%%%%%%%%%%%%%%%%%%%%%%%%%%%%%%%%%%%%%%%%%%%%%%%%%%%%%+++++++++++++....................              ",
"                                                                   .......OOOOOOO%%%%%%%%%%%%%%%%%%%%%%%%%%%%%%%%%%%%%%%%OOOOOOOOOOOOOOOOOOOOO                           ......*******---------------------------@@@@@@@----------------------------------@@@@@@@::::::.......-----------------------------------------------OOOOOOO++++++++++++++++++++++++++++++++++++++++++++++++++++++++++++++++++++++++++%%%%%%%%%%%%%%%%%%%%%%%%%%%%%%%%%%%%%%%%%%%%%%%%+++++++++++++.......:::::::OOOOOOO......              ",
"                                                                   .......OOOOOOO%%%%%%%%%%%%%%%%%%%%%%%%%%%%%%%%%%%%%%%%OOOOOOOOOOOOOOOOOOOOO                           ......*******---------------------------@@@@@@@----------------------------------@@@@@@@::::::.......-----------------------------------------------OOOOOOO++++++++++++++++++++++++++++++++++++++++++++++++++++++++++++++++++++++++++%%%%%%%%%%%%%%%%%%%%%%%%%%%%%%%%%%%%%%%%%%%%%%%%+++++++++++++.......:::::::OOOOOOO......              ",
"                                                                   .......OOOOOOO%%%%%%%%%%%%%%%%%%%%%%%%%%%%%%%%%%%%%%%%OOOOOOOOOOOOOOOOOOOOO                           ......*******---------------------------@@@@@@@----------------------------------@@@@@@@::::::.......-----------------------------------------------OOOOOOO++++++++++++++++++++++++++++++++++++++++++++++++++++++++++++++++++++++++++%%%%%%%%%%%%%%%%%%%%%%%%%%%%%%%%%%%%%%%%%%%%%%%%+++++++++++++.......:::::::OOOOOOO......              ",
"                                                                   .......OOOOOOO%%%%%%%%%%%%%%%%%%%%%%%%%%%%%%%%%%%%%%%%OOOOOOOOOOOOOOOOOOOOO                           ......*******---------------------------@@@@@@@----------------------------------@@@@@@@::::::.......-----------------------------------------------OOOOOOO++++++++++++++++++++++++++++++++++++++++++++++++++++++++++++++++++++++++++%%%%%%%%%%%%%%%%%%%%%%%%%%%%%%%%%%%%%%%%%%%%%%%%+++++++++++++.......:::::::OOOOOOO......              ",
"                                                                   .......OOOOOOO%%%%%%%%%%%%%%%%%%%%%%%%%%%%%%%%%%%%%%%%OOOOOOOOOOOOOOOOOOOOO                           ......*******---------------------------@@@@@@@----------------------------------@@@@@@@::::::.......-----------------------------------------------OOOOOOO++++++++++++++++++++++++++++++++++++++++++++++++++++++++++++++++++++++++++%%%%%%%%%%%%%%%%%%%%%%%%%%%%%%%%%%%%%%%%%%%%%%%%+++++++++++++.......:::::::OOOOOOO......              ",
"                                                                   .......OOOOOOO%%%%%%%%%%%%%%%%%%%%%%%%%%%%%%%%%%%%%%%%OOOOOOOOOOOOOOOOOOOOO                           ......*******---------------------------@@@@@@@----------------------------------@@@@@@@::::::.......-----------------------------------------------OOOOOOO++++++++++++++++++++++++++++++++++++++++++++++++++++++++++++++++++++++++++%%%%%%%%%%%%%%%%%%%%%%%%%%%%%%%%%%%%%%%%%%%%%%%%+++++++++++++.......:::::::OOOOOOO......              ",
"                                                                   .......OOOOOOO%%%%%%%%%%%%%%%%%%%%%%%%%%%%%%%%%%%%%%%%OOOOOOOOOOOOOOOOOOOOO                           ......*******---------------------------@@@@@@@----------------------------------@@@@@@@::::::.......-----------------------------------------------OOOOOOO++++++++++++++++++++++++++++++++++++++++++++++++++++++++++++++++++++++++++%%%%%%%%%%%%%%%%%%%%%%%%%%%%%%%%%%%%%%%%%%%%%%%%+++++++++++++.......:::::::OOOOOOO......              ",
"                                                                   .......OOOOOOO%%%%%%%%%%%%%%%%%%%%%%%%%%%%%%%%%%%%%%%%%%%%%%%%%%%%%%%%%%%%%OOOOOOOOOOOOO....................+++++++---------------------@@@@@@:::::::@@@@@@@-------******.....................@@@@@@*******-----------------------------------------******OOOOOOO+++++++++++++++++++++++++++++++++++++++++++++++++++++++++++++++++++++++++++++++++%%%%%%%%%%%%%%%%%%%%%%%%%%%++++++++++++++++++++++++++++++++++....................              ",
"                                                                   .......OOOOOOO%%%%%%%%%%%%%%%%%%%%%%%%%%%%%%%%%%%%%%%%%%%%%%%%%%%%%%%%%%%%%OOOOOOOOOOOOO....................+++++++---------------------@@@@@@:::::::@@@@@@@-------******.....................@@@@@@*******-----------------------------------------******OOOOOOO+++++++++++++++++++++++++++++++++++++++++++++++++++++++++++++++++++++++++++++++++%%%%%%%%%%%%%%%%%%%%%%%%%%%++++++++++++++++++++++++++++++++++....................              ",
"                                                                   .......OOOOOOO%%%%%%%%%%%%%%%%%%%%%%%%%%%%%%%%%%%%%%%%%%%%%%%%%%%%%%%%%%%%%OOOOOOOOOOOOO....................+++++++---------------------@@@@@@:::::::@@@@@@@-------******.....................@@@@@@*******-----------------------------------------******OOOOOOO+++++++++++++++++++++++++++++++++++++++++++++++++++++++++++++++++++++++++++++++++%%%%%%%%%%%%%%%%%%%%%%%%%%%++++++++++++++++++++++++++++++++++....................              ",
"                                                                   .......OOOOOOO%%%%%%%%%%%%%%%%%%%%%%%%%%%%%%%%%%%%%%%%%%%%%%%%%%%%%%%%%%%%%OOOOOOOOOOOOO....................+++++++---------------------@@@@@@:::::::@@@@@@@-------******.....................@@@@@@*******-----------------------------------------******OOOOOOO+++++++++++++++++++++++++++++++++++++++++++++++++++++++++++++++++++++++++++++++++%%%%%%%%%%%%%%%%%%%%%%%%%%%++++++++++++++++++++++++++++++++++....................              ",
"                                                                   .......OOOOOOO%%%%%%%%%%%%%%%%%%%%%%%%%%%%%%%%%%%%%%%%%%%%%%%%%%%%%%%%%%%%%OOOOOOOOOOOOO....................+++++++---------------------@@@@@@:::::::@@@@@@@-------******.....................@@@@@@*******-----------------------------------------******OOOOOOO+++++++++++++++++++++++++++++++++++++++++++++++++++++++++++++++++++++++++++++++++%%%%%%%%%%%%%%%%%%%%%%%%%%%++++++++++++++++++++++++++++++++++....................              ",
"                                                                   .......OOOOOOO%%%%%%%%%%%%%%%%%%%%%%%%%%%%%%%%%%%%%%%%%%%%%%%%%%%%%%%%%%%%%OOOOOOOOOOOOO....................+++++++---------------------@@@@@@:::::::@@@@@@@-------******.....................@@@@@@*******-----------------------------------------******OOOOOOO+++++++++++++++++++++++++++++++++++++++++++++++++++++++++++++++++++++++++++++++++%%%%%%%%%%%%%%%%%%%%%%%%%%%++++++++++++++++++++++++++++++++++....................              ",
"                                                             .............OOOOOOO%%%%%%%%%%%%%%%%%%%%%%%%%%%%%%%%%%%%%%%%%%%%%%%%%%%%%%%%%%%%%%%%%%%%%%%%%%++++++++++++++++++++.......*******--------------@@@@@@...........................*******--------------------------------------------------------------------OOOOOO+++++++++++++++++++++++++++++++++++++++++++++++++++++++++++++++++++++++++++++++++++++++++++++++++++++++++++++++++++++++++++++++++++++++++++++++++++++OOOOOOO.......                    ",
"                                                             .............OOOOOOO%%%%%%%%%%%%%%%%%%%%%%%%%%%%%%%%%%%%%%%%%%%%%%%%%%%%%%%%%%%%%%%%%%%%%%%%%%++++++++++++++++++++.......*******--------------@@@@@@...........................*******--------------------------------------------------------------------OOOOOO+++++++++++++++++++++++++++++++++++++++++++++++++++++++++++++++++++++++++++++++++++++++++++++++++++++++++++++++++++++++++++++++++++++++++++++++++++++OOOOOOO.......                    ",
"                                                             .............OOOOOOO%%%%%%%%%%%%%%%%%%%%%%%%%%%%%%%%%%%%%%%%%%%%%%%%%%%%%%%%%%%%%%%%%%%%%%%%%%++++++++++++++++++++.......*******--------------@@@@@@...........................*******--------------------------------------------------------------------OOOOOO+++++++++++++++++++++++++++++++++++++++++++++++++++++++++++++++++++++++++++++++++++++++++++++++++++++++++++++++++++++++++++++++++++++++++++++++++++++OOOOOOO.......                    ",
"                                                             .............OOOOOOO%%%%%%%%%%%%%%%%%%%%%%%%%%%%%%%%%%%%%%%%%%%%%%%%%%%%%%%%%%%%%%%%%%%%%%%%%%++++++++++++++++++++.......*******--------------@@@@@@...........................*******--------------------------------------------------------------------OOOOOO+++++++++++++++++++++++++++++++++++++++++++++++++++++++++++++++++++++++++++++++++++++++++++++++++++++++++++++++++++++++++++++++++++++++++++++++++++++OOOOOOO.......                    ",
"                                                             .............OOOOOOO%%%%%%%%%%%%%%%%%%%%%%%%%%%%%%%%%%%%%%%%%%%%%%%%%%%%%%%%%%%%%%%%%%%%%%%%%%++++++++++++++++++++.......*******--------------@@@@@@...........................*******--------------------------------------------------------------------OOOOOO+++++++++++++++++++++++++++++++++++++++++++++++++++++++++++++++++++++++++++++++++++++++++++++++++++++++++++++++++++++++++++++++++++++++++++++++++++++OOOOOOO.......                    ",
"                                                             .............OOOOOOO%%%%%%%%%%%%%%%%%%%%%%%%%%%%%%%%%%%%%%%%%%%%%%%%%%%%%%%%%%%%%%%%%%%%%%%%%%++++++++++++++++++++.......*******--------------@@@@@@...........................*******--------------------------------------------------------------------OOOOOO+++++++++++++++++++++++++++++++++++++++++++++++++++++++++++++++++++++++++++++++++++++++++++++++++++++++++++++++++++++++++++++++++++++++++++++++++++++OOOOOOO.......                    ",
"                                                             .............OOOOOOO%%%%%%%%%%%%%%%%%%%%%%%%%%%%%%%%%%%%%%%%%%%%%%%%%%%%%%%%%%%%%%%%%%%%%%%%%%++++++++++++++++++++.......*******--------------@@@@@@...........................*******--------------------------------------------------------------------OOOOOO+++++++++++++++++++++++++++++++++++++++++++++++++++++++++++++++++++++++++++++++++++++++++++++++++++++++++++++++++++++++++++++++++++++++++++++++++++++OOOOOOO.......                    ",
"                                                                   .......OOOOOOOOOOOOOO++++++%%%%%%%%%%%%%%%%%%%%%%%%%%%%%%%%%%%%%%%%%%%%%%%%%%%%%%%%%%%%%%%%%%%%+++++++++++++.......+++++++-------------------------------------------------------------------------------------------------------------------OOOOOOO+++++++++++++++++++++++++++++++++++++++++++++++++++++++++++++++++++++++++++++++++++++++++++++++++++++++++++++++++++++++++++++++++++++++++++++++++++++++++++.......                           ",
"                                                                   .......OOOOOOOOOOOOOO++++++%%%%%%%%%%%%%%%%%%%%%%%%%%%%%%%%%%%%%%%%%%%%%%%%%%%%%%%%%%%%%%%%%%%%+++++++++++++.......+++++++-------------------------------------------------------------------------------------------------------------------OOOOOOO+++++++++++++++++++++++++++++++++++++++++++++++++++++++++++++++++++++++++++++++++++++++++++++++++++++++++++++++++++++++++++++++++++++++++++++++++++++++++++.......                           ",
"                                                                   .......OOOOOOOOOOOOOO++++++%%%%%%%%%%%%%%%%%%%%%%%%%%%%%%%%%%%%%%%%%%%%%%%%%%%%%%%%%%%%%%%%%%%%+++++++++++++.......+++++++-------------------------------------------------------------------------------------------------------------------OOOOOOO+++++++++++++++++++++++++++++++++++++++++++++++++++++++++++++++++++++++++++++++++++++++++++++++++++++++++++++++++++++++++++++++++++++++++++++++++++++++++++.......                           ",
"                                                                   .......OOOOOOOOOOOOOO++++++%%%%%%%%%%%%%%%%%%%%%%%%%%%%%%%%%%%%%%%%%%%%%%%%%%%%%%%%%%%%%%%%%%%%+++++++++++++.......+++++++-------------------------------------------------------------------------------------------------------------------OOOOOOO+++++++++++++++++++++++++++++++++++++++++++++++++++++++++++++++++++++++++++++++++++++++++++++++++++++++++++++++++++++++++++++++++++++++++++++++++++++++++++.......                           ",
"                                                                   .......OOOOOOOOOOOOOO++++++%%%%%%%%%%%%%%%%%%%%%%%%%%%%%%%%%%%%%%%%%%%%%%%%%%%%%%%%%%%%%%%%%%%%+++++++++++++.......+++++++-------------------------------------------------------------------------------------------------------------------OOOOOOO+++++++++++++++++++++++++++++++++++++++++++++++++++++++++++++++++++++++++++++++++++++++++++++++++++++++++++++++++++++++++++++++++++++++++++++++++++++++++++.......                           ",
"                                                                   .......OOOOOOOOOOOOOO++++++%%%%%%%%%%%%%%%%%%%%%%%%%%%%%%%%%%%%%%%%%%%%%%%%%%%%%%%%%%%%%%%%%%%%+++++++++++++.......+++++++-------------------------------------------------------------------------------------------------------------------OOOOOOO+++++++++++++++++++++++++++++++++++++++++++++++++++++++++++++++++++++++++++++++++++++++++++++++++++++++++++++++++++++++++++++++++++++++++++++++++++++++++++.......                           ",
"                                                                   .......OOOOOOOOOOOOOO++++++%%%%%%%%%%%%%%%%%%%%%%%%%%%%%%%%%%%%%%%%%%%%%%%%%%%%%%%%%%%%%%%%%%%%+++++++++++++.......+++++++-------------------------------------------------------------------------------------------------------------------OOOOOOO+++++++++++++++++++++++++++++++++++++++++++++++++++++++++++++++++++++++++++++++++++++++++++++++++++++++++++++++++++++++++++++++++++++++++++++++++++++++++++.......                           ",
"                                                                   .......OOOOOOO:::::::++++++++++++++++++++%%%%%%%%%%%%%%%%%%%%%%%%%%%%%%%%%%%%%%%%%%%%%%%+++++++++++++++++++++++++++.......OOOOOOO-----------------------------------------------------------------------------------------------------OOOOOOO+++++++++++++++++++++++++++++++++++++++++++++++++++++++++++++++++++++++++++++++++++++++++++++++++++++++++++++++++++++++++++++++++++++++++++++++++++++++++++.......                                  ",
"                                                                   .......OOOOOOO:::::::++++++++++++++++++++%%%%%%%%%%%%%%%%%%%%%%%%%%%%%%%%%%%%%%%%%%%%%%%+++++++++++++++++++++++++++.......OOOOOOO-----------------------------------------------------------------------------------------------------OOOOOOO+++++++++++++++++++++++++++++++++++++++++++++++++++++++++++++++++++++++++++++++++++++++++++++++++++++++++++++++++++++++++++++++++++++++++++++++++++++++++++.......                                  ",
"                                                                   .......OOOOOOO:::::::++++++++++++++++++++%%%%%%%%%%%%%%%%%%%%%%%%%%%%%%%%%%%%%%%%%%%%%%%+++++++++++++++++++++++++++.......OOOOOOO-----------------------------------------------------------------------------------------------------OOOOOOO+++++++++++++++++++++++++++++++++++++++++++++++++++++++++++++++++++++++++++++++++++++++++++++++++++++++++++++++++++++++++++++++++++++++++++++++++++++++++++.......                                  ",
"                                                                   .......OOOOOOO:::::::++++++++++++++++++++%%%%%%%%%%%%%%%%%%%%%%%%%%%%%%%%%%%%%%%%%%%%%%%+++++++++++++++++++++++++++.......OOOOOOO-----------------------------------------------------------------------------------------------------OOOOOOO+++++++++++++++++++++++++++++++++++++++++++++++++++++++++++++++++++++++++++++++++++++++++++++++++++++++++++++++++++++++++++++++++++++++++++++++++++++++++++.......                                  ",
"                                                                   .......OOOOOOO:::::::++++++++++++++++++++%%%%%%%%%%%%%%%%%%%%%%%%%%%%%%%%%%%%%%%%%%%%%%%+++++++++++++++++++++++++++.......OOOOOOO-----------------------------------------------------------------------------------------------------OOOOOOO+++++++++++++++++++++++++++++++++++++++++++++++++++++++++++++++++++++++++++++++++++++++++++++++++++++++++++++++++++++++++++++++++++++++++++++++++++++++++++.......                                  ",
"                                                                   .......OOOOOOO:::::::++++++++++++++++++++%%%%%%%%%%%%%%%%%%%%%%%%%%%%%%%%%%%%%%%%%%%%%%%+++++++++++++++++++++++++++.......OOOOOOO-----------------------------------------------------------------------------------------------------OOOOOOO+++++++++++++++++++++++++++++++++++++++++++++++++++++++++++++++++++++++++++++++++++++++++++++++++++++++++++++++++++++++++++++++++++++++++++++++++++++++++++.......                                  ",
"                                                                   .......OOOOOOO:::::::++++++++++++++++++++%%%%%%%%%%%%%%%%%%%%%%%%%%%%%%%%%%%%%%%%%%%%%%%+++++++++++++++++++++++++++.......OOOOOOO-----------------------------------------------------------------------------------------------------OOOOOOO+++++++++++++++++++++++++++++++++++++++++++++++++++++++++++++++++++++++++++++++++++++++++++++++++++++++++++++++++++++++++++++++++++++++++++++++++++++++++++.......                                  ",
"                                                                   ..............++++++++++++++++++++++++++++++++++%%%%%%%%%%%%%%%%%%%%%%%%%%%+++++++++++++++++++++++++++++++++++++++++++++++OOOOOOOOOOOOOO---------------------------------------------------------------------------------######OOOOOOO++++++++++++++-------------OOOOOOOOOOOOOO+++++++++++++++++++++++++++++++++++++++++++++++++++++++++++++++++++++++++++++++++++++++++++++++++++++++++++++++++++++++++.......                                  ",
"                                                                   ..............++++++++++++++++++++++++++++++++++%%%%%%%%%%%%%%%%%%%%%%%%%%%+++++++++++++++++++++++++++++++++++++++++++++++OOOOOOOOOOOOOO---------------------------------------------------------------------------------######OOOOOOO++++++++++++++-------------OOOOOOOOOOOOOO+++++++++++++++++++++++++++++++++++++++++++++++++++++++++++++++++++++++++++++++++++++++++++++++++++++++++++++++++++++++++.......                                  ",
"                                                                   ..............++++++++++++++++++++++++++++++++++%%%%%%%%%%%%%%%%%%%%%%%%%%%+++++++++++++++++++++++++++++++++++++++++++++++OOOOOOOOOOOOOO---------------------------------------------------------------------------------######OOOOOOO++++++++++++++-------------OOOOOOOOOOOOOO+++++++++++++++++++++++++++++++++++++++++++++++++++++++++++++++++++++++++++++++++++++++++++++++++++++++++++++++++++++++++.......                                  ",
"                                                                   ..............++++++++++++++++++++++++++++++++++%%%%%%%%%%%%%%%%%%%%%%%%%%%+++++++++++++++++++++++++++++++++++++++++++++++OOOOOOOOOOOOOO---------------------------------------------------------------------------------######OOOOOOO++++++++++++++-------------OOOOOOOOOOOOOO+++++++++++++++++++++++++++++++++++++++++++++++++++++++++++++++++++++++++++++++++++++++++++++++++++++++++++++++++++++++++.......                                  ",
"                                                                   ..............++++++++++++++++++++++++++++++++++%%%%%%%%%%%%%%%%%%%%%%%%%%%+++++++++++++++++++++++++++++++++++++++++++++++OOOOOOOOOOOOOO---------------------------------------------------------------------------------######OOOOOOO++++++++++++++-------------OOOOOOOOOOOOOO+++++++++++++++++++++++++++++++++++++++++++++++++++++++++++++++++++++++++++++++++++++++++++++++++++++++++++++++++++++++++.......                                  ",
"                                                                   ..............++++++++++++++++++++++++++++++++++%%%%%%%%%%%%%%%%%%%%%%%%%%%+++++++++++++++++++++++++++++++++++++++++++++++OOOOOOOOOOOOOO---------------------------------------------------------------------------------######OOOOOOO++++++++++++++-------------OOOOOOOOOOOOOO+++++++++++++++++++++++++++++++++++++++++++++++++++++++++++++++++++++++++++++++++++++++++++++++++++++++++++++++++++++++++.......                                  ",
"                                                                          .......+++++++++++++++++++++++++++++++++++++++++++++++%%%%%%%++++++++++++++++++++++++++++++++++++++++..............-------OOOOOOOOOOOOOOOOOOOO#######========---------------------------=====*********************------------------------------------------------------OOOOOO++++++++++++++++++++++++++++++++++++++++++++++++++++++++++++++++++++++++++++++++++++++++++++++++++++++.......                                               ",
"                                                                          .......+++++++++++++++++++++++++++++++++++++++++++++++%%%%%%%++++++++++++++++++++++++++++++++++++++++..............-------OOOOOOOOOOOOOOOOOOOO#######=======----------------------------=====*********************------------------------------------------------------OOOOOO++++++++++++++++++++++++++++++++++++++++++++++++++++++++++++++++++++++++++++++++++++++++++++++++++++++.......                                               ",
"                                                                          .......+++++++++++++++++++++++++++++++++++++++++++++++%%%%%%%++++++++++++++++++++++++++++++++++++++++..............-------OOOOOOOOOOOOOOOOOOOO#######========---------------------------=====*********************------------------------------------------------------OOOOOO++++++++++++++++++++++++++++++++++++++++++++++++++++++++++++++++++++++++++++++++++++++++++++++++++++++.......                                               ",
"                                                                          .......+++++++++++++++++++++++++++++++++++++++++++++++%%%%%%%++++++++++++++++++++++++++++++++++++++++..............-------OOOOOOOOOOOOOOOOOOOO#######========---------------------------=====*********************------------------------------------------------------OOOOOO++++++++++++++++++++++++++++++++++++++++++++++++++++++++++++++++++++++++++++++++++++++++++++++++++++++.......                                               ",
"                                                                          .......+++++++++++++++++++++++++++++++++++++++++++++++%%%%%%%++++++++++++++++++++++++++++++++++++++++..............-------OOOOOOOOOOOOOOOOOOOO#######========--------------------------======*********************------------------------------------------------------OOOOOO++++++++++++++++++++++++++++++++++++++++++++++++++++++++++++++++++++++++++++++++++++++++++++++++++++++.......                                               ",
"                                                                          .......+++++++++++++++++++++++++++++++++++++++++++++++%%%%%%%++++++++++++++++++++++++++++++++++++++++..............-------OOOOOOOOOOOOOOOOOOOO#######========---------------------------=====*********************------------------------------------------------------OOOOOO++++++++++++++++++++++++++++++++++++++++++++++++++++++++++++++++++++++++++++++++++++++++++++++++++++++.......                                               ",
"                                                                          .......+++++++++++++++++++++++++++++++++++++++++++++++%%%%%%%++++++++++++++++++++++++++++++++++++++++..............-------OOOOOOOOOOOOOOOOOOOO#######========---------------------------=====*********************------------------------------------------------------OOOOOO++++++++++++++++++++++++++++++++++++++++++++++++++++++++++++++++++++++++++++++++++++++++++++++++++++++.......                                               ",
"                                                                                        ......+++++++++++++++++++++++++++++++++++++++++++++++++++++++++++++++++++++++++++......------------------------------------------======***********************************************=======-------------------------------------------------------------******OOOOOOO++++++++++++++++++++++++++++++++++++++++++++++++++++++++++++++++++++++++++++++++++++++++.......                                                      ",
"                                                                                        ......+++++++++++++++++++++++++++++++++++++++++++++++++++++++++++++++++++++++++++......------------------------------------------======***********************************************-=======------------------------------------------------------------******OOOOOOO++++++++++++++++++++++++++++++++++++++++++++++++++++++++++++++++++++++++++++++++++++++++.......                                                      ",
"                                                                                        ......+++++++++++++++++++++++++++++++++++++++++++++++++++++++++++++++++++++++++++......------------------------------------------======***********************************************-=======------------------------------------------------------------******OOOOOOO++++++++++++++++++++++++++++++++++++++++++++++++++++++++++++++++++++++++++++++++++++++++.......                                                      ",
"                                                                                        ......+++++++++++++++++++++++++++++++++++++++++++++++++++++++++++++++++++++++++++......------------------------------------------======***********************************************=======-------------------------------------------------------------******OOOOOOO++++++++++++++++++++++++++++++++++++++++++++++++++++++++++++++++++++++++++++++++++++++++.......                                                      ",
"                                                                                        ......+++++++++++++++++++++++++++++++++++++++++++++++++++++++++++++++++++++++++++......------------------------------------------======***********************************************=======-------------------------------------------------------------******OOOOOOO++++++++++++++++++++++++++++++++++++++++++++++++++++++++++++++++++++++++++++++++++++++++.......                                                      ",
"                                                                                        ......+++++++++++++++++++++++++++++++++++++++++++++++++++++++++++++++++++++++++++......------------------------------------------======***********************************************=======-------------------------------------------------------------******OOOOOOO++++++++++++++++++++++++++++++++++++++++++++++++++++++++++++++++++++++++++++++++++++++++.......                                                      ",
"                                                                                        ......+++++++++++++++++++++++++++++++++++++++++++++++++++++++++++++++++++++++++++......-----------------------------------------=======***********************************************========------------------------------------------------------------******OOOOOOO++++++++++++++++++++++++++++++++++++++++++++++++++++++++++++++++++++++++++++++++++++++++.......                                                      ",
"                                                                                        ......++++++++++++++++++++++++++++++++++++++++++++++++++++++++++++++++++++.......-------------------------------------------------------======***************************=======---------------------------------------------------------------------------------------OOOOOOO++++++++++++++++++++++++++++++++++++++++++++++++++++++++++++++++++++++++++..............                                                      ",
"                                                                                        ......++++++++++++++++++++++++++++++++++++++++++++++++++++++++++++++++++++.......-------------------------------------------------------======***************************=======---------------------------------------------------------------------------------------OOOOOOO++++++++++++++++++++++++++++++++++++++++++++++++++++++++++++++++++++++++++..............                                                      ",
"                                                                                        ......++++++++++++++++++++++++++++++++++++++++++++++++++++++++++++++++++++.......-------------------------------------------------------======***************************=======---------------------------------------------------------------------------------------OOOOOOO++++++++++++++++++++++++++++++++++++++++++++++++++++++++++++++++++++++++++..............                                                      ",
"                                                                                        ......++++++++++++++++++++++++++++++++++++++++++++++++++++++++++++++++++++.......------------------------------------------------------=======***************************=======---------------------------------------------------------------------------------------OOOOOOO++++++++++++++++++++++++++++++++++++++++++++++++++++++++++++++++++++++++++..............                                                      ",
"                                                                                        ......++++++++++++++++++++++++++++++++++++++++++++++++++++++++++++++++++++.......-------------------------------------------------------======***************************=======---------------------------------------------------------------------------------------OOOOOOO++++++++++++++++++++++++++++++++++++++++++++++++++++++++++++++++++++++++++..............                                                      ",
"                                                                                        ......++++++++++++++++++++++++++++++++++++++++++++++++++++++++++++++++++++.......-------------------------------------------------------======***************************=======---------------------------------------------------------------------------------------OOOOOOO++++++++++++++++++++++++++++++++++++++++++++++++++++++++++++++++++++++++++..............                                                      ",
"                                                                                        ......++++++++++++++++++++++++++++++++++++++++++++++++++++++++++++++++++++.......-------------------------------------------------------======***************************=======---------------------------------------------------------------------------------------OOOOOOO++++++++++++++++++++++++++++++++++++++++++++++++++++++++++++++++++++++++++..............                                                      ",
"                                                                                              .......+++++++++++++++++++++++++++++++++++++++++++++++..............----------------------------------------------------------------------------------------------------------------------------------------------------------------------------------------------------OOOOOOO++++++++++++++++++++++++++++++++++++++++++++++++++++++++++++.......OOOOOOO.......                                                      ",
"                                                                                              .......+++++++++++++++++++++++++++++++++++++++++++++++..............----------------------------------------------------------------------------------------------------------------------------------------------------------------------------------------------------OOOOOOO++++++++++++++++++++++++++++++++++++++++++++++++++++++++++++.......OOOOOOO.......                                                      ",
"                                                                                              .......+++++++++++++++++++++++++++++++++++++++++++++++..............----------------------------------------------------------------------------------------------------------------------------------------------------------------------------------------------------OOOOOOO++++++++++++++++++++++++++++++++++++++++++++++++++++++++++++.......OOOOOOO.......                                                      ",
"                                                                                              .......+++++++++++++++++++++++++++++++++++++++++++++++..............----------------------------------------------------------------------------------------------------------------------------------------------------------------------------------------------------OOOOOOO++++++++++++++++++++++++++++++++++++++++++++++++++++++++++++.......OOOOOOO.......                                                      ",
"                                                                                              .......+++++++++++++++++++++++++++++++++++++++++++++++..............----------------------------------------------------------------------------------------------------------------------------------------------------------------------------------------------------OOOOOOO++++++++++++++++++++++++++++++++++++++++++++++++++++++++++++.......OOOOOOO.......                                                      ",
"                                                                                              .......+++++++++++++++++++++++++++++++++++++++++++++++..............----------------------------------------------------------------------------------------------------------------------------------------------------------------------------------------------------OOOOOOO++++++++++++++++++++++++++++++++++++++++++++++++++++++++++++.......OOOOOOO.......                                                      ",
"                                                                                                     ..............+++++++++++++++++++++++++++......-------------------------------------------------------------------------------------------------------------------------------------------------------------------------------------------------------------------------------++++++++++++++++++++++++++++++++++OOOOOOOOOOOOOO+++++++++++++++++++++++++++.......                                               ",
"                                                                                                     ..............+++++++++++++++++++++++++++......-------------------------------------------------------------------------------------------------------------------------------------------------------------------------------------------------------------------------------++++++++++++++++++++++++++++++++++OOOOOOOOOOOOOO+++++++++++++++++++++++++++.......                                               ",
"                                                                                                     ..............+++++++++++++++++++++++++++......-------------------------------------------------------------------------------------------------------------------------------------------------------------------------------------------------------------------------------++++++++++++++++++++++++++++++++++OOOOOOOOOOOOOO+++++++++++++++++++++++++++.......                                               ",
"                                                                                                     ..............+++++++++++++++++++++++++++......-------------------------------------------------------------------------------------------------------------------------------------------------------------------------------------------------------------------------------++++++++++++++++++++++++++++++++++OOOOOOOOOOOOOO+++++++++++++++++++++++++++.......                                               ",
"                                                                                                     ..............+++++++++++++++++++++++++++......-------------------------------------------------------------------------------------------------------------------------------------------------------------------------------------------------------------------------------++++++++++++++++++++++++++++++++++OOOOOOOOOOOOOO+++++++++++++++++++++++++++.......                                               ",
"                                                                                                     ..............+++++++++++++++++++++++++++......-------------------------------------------------------------------------------------------------------------------------------------------------------------------------------------------------------------------------------++++++++++++++++++++++++++++++++++OOOOOOOOOOOOOO+++++++++++++++++++++++++++.......                                               ",
"                                                                                                     ..............+++++++++++++++++++++++++++......-------------------------------------------------------------------------------------------------------------------------------------------------------------------------------------------------------------------------------++++++++++++++++++++++++++++++++++OOOOOOOOOOOOOO+++++++++++++++++++++++++++.......                                               ",
"                                                                                                                         .......+++++++.......-------------------------------------------------------------------------------------------------------------------------------------------------------------------------------------------------------------------------------------OOOOOOO++++++++++++++++++++++++++++++++++++++++++++++++++++++++++++++++++++OOOOOOO......                                         ",
"                                                                                                                         .......+++++++.......-------------------------------------------------------------------------------------------------------------------------------------------------------------------------------------------------------------------------------------OOOOOOO++++++++++++++++++++++++++++++++++++++++++++++++++++++++++++++++++++OOOOOOO......                                         ",
"                                                                                                                         .......+++++++.......-------------------------------------------------------------------------------------------------------------------------------------------------------------------------------------------------------------------------------------OOOOOOO++++++++++++++++++++++++++++++++++++++++++++++++++++++++++++++++++++OOOOOOO......                                         ",
"                                                                                                                         .......+++++++.......-------------------------------------------------------------------------------------------------------------------------------------------------------------------------------------------------------------------------------------OOOOOOO++++++++++++++++++++++++++++++++++++++++++++++++++++++++++++++++++++OOOOOOO......                                         ",
"                                                                                                                         .......+++++++.......-------------------------------------------------------------------------------------------------------------------------------------------------------------------------------------------------------------------------------------OOOOOOO++++++++++++++++++++++++++++++++++++++++++++++++++++++++++++++++++++OOOOOOO......                                         ",
"                                                                                                                         .......+++++++.......-------------------------------------------------------------------------------------------------------------------------------------------------------------------------------------------------------------------------------------OOOOOOO++++++++++++++++++++++++++++++++++++++++++++++++++++++++++++++++++++OOOOOOO......                                         ",
"                                                                                                                         .......+++++++.......-------------------------------------------------------------------------------------------------------------------------------------------------------------------------------------------------------------------------------------OOOOOOO++++++++++++++++++++++++++++++++++++++++++++++++++++++++++++++++++++OOOOOOO......                                         ",
"                                                                                                                                ..............--------------------------------------------------------------------------------------------------------------------------------------------------------------------------------------------------------------------------------------------OOOOOOO++++++++++++++++++++++++++++++++++++++++++++++++++++++OOOOOOO+++++++.............                                  ",
"                                                                                                                                ..............--------------------------------------------------------------------------------------------------------------------------------------------------------------------------------------------------------------------------------------------OOOOOOO++++++++++++++++++++++++++++++++++++++++++++++++++++++OOOOOOO+++++++.............                                  ",
"                                                                                                                                ..............--------------------------------------------------------------------------------------------------------------------------------------------------------------------------------------------------------------------------------------------OOOOOOO++++++++++++++++++++++++++++++++++++++++++++++++++++++OOOOOOO+++++++.............                                  ",
"                                                                                                                                ..............--------------------------------------------------------------------------------------------------------------------------------------------------------------------------------------------------------------------------------------------OOOOOOO++++++++++++++++++++++++++++++++++++++++++++++++++++++OOOOOOO+++++++.............                                  ",
"                                                                                                                                ..............--------------------------------------------------------------------------------------------------------------------------------------------------------------------------------------------------------------------------------------------OOOOOOO++++++++++++++++++++++++++++++++++++++++++++++++++++++OOOOOOO+++++++.............                                  ",
"                                                                                                                                ..............--------------------------------------------------------------------------------------------------------------------------------------------------------------------------------------------------------------------------------------------OOOOOOO++++++++++++++++++++++++++++++++++++++++++++++++++++++OOOOOOO+++++++.............                                  ",
"                                                                                                                                ..............--------------------------------------------------------------------------------------------------------------------------------------------------------------------------------------------------------------------------------------------OOOOOOO++++++++++++++++++++++++++++++++++++++++++++++++++++++OOOOOOO+++++++.............                                  ",
"                                                                                                                                .......---------------------------------------------------------------------------------------------------------------------------------------------------------------------------------------------------------------------------------------------------OOOOOOO++++++++++++++++++++++++++++++++++++++++OOOOOOOOOOOOOOOOOOOOO+++++++OOOOOO.......                                  ",
"                                                                                                                                .......---------------------------------------------------------------------------------------------------------------------------------------------------------------------------------------------------------------------------------------------------OOOOOOO++++++++++++++++++++++++++++++++++++++++OOOOOOOOOOOOOOOOOOOOO+++++++OOOOOO.......                                  ",
"                                                                                                                                .......---------------------------------------------------------------------------------------------------------------------------------------------------------------------------------------------------------------------------------------------------OOOOOOO++++++++++++++++++++++++++++++++++++++++OOOOOOOOOOOOOOOOOOOOO+++++++OOOOOO.......                                  ",
"                                                                                                                                .......---------------------------------------------------------------------------------------------------------------------------------------------------------------------------------------------------------------------------------------------------OOOOOOO++++++++++++++++++++++++++++++++++++++++OOOOOOOOOOOOOOOOOOOOO+++++++OOOOOO.......                                  ",
"                                                                                                                                .......---------------------------------------------------------------------------------------------------------------------------------------------------------------------------------------------------------------------------------------------------OOOOOOO++++++++++++++++++++++++++++++++++++++++OOOOOOOOOOOOOOOOOOOOO+++++++OOOOOO.......                                  ",
"                                                                                                                                .......---------------------------------------------------------------------------------------------------------------------------------------------------------------------------------------------------------------------------------------------------OOOOOOO++++++++++++++++++++++++++++++++++++++++OOOOOOOOOOOOOOOOOOOOO+++++++OOOOOO.......                                  ",
"                                                                                                                                .......----------------------------------------------------------------------------------------------------------------------------------------------------------------------------------------------------------------------------------------------------======OOOOOOO+++++++++++++++++++++++++++OOOOOOOOOOOOOOOOOOOOOOOOOOOOOOOOOOOOOOOOOOOOOOO.......                           ",
"                                                                                                                                .......----------------------------------------------------------------------------------------------------------------------------------------------------------------------------------------------------------------------------------------------------======OOOOOOO+++++++++++++++++++++++++++OOOOOOOOOOOOOOOOOOOOOOOOOOOOOOOOOOOOOOOOOOOOOOO.......                           ",
"                                                                                                                                .......----------------------------------------------------------------------------------------------------------------------------------------------------------------------------------------------------------------------------------------------------======OOOOOOO+++++++++++++++++++++++++++OOOOOOOOOOOOOOOOOOOOOOOOOOOOOOOOOOOOOOOOOOOOOOO.......                           ",
"                                                                                                                                .......----------------------------------------------------------------------------------------------------------------------------------------------------------------------------------------------------------------------------------------------------======OOOOOOO+++++++++++++++++++++++++++OOOOOOOOOOOOOOOOOOOOOOOOOOOOOOOOOOOOOOOOOOOOOOO.......                           ",
"                                                                                                                                .......----------------------------------------------------------------------------------------------------------------------------------------------------------------------------------------------------------------------------------------------------======OOOOOOO+++++++++++++++++++++++++++OOOOOOOOOOOOOOOOOOOOOOOOOOOOOOOOOOOOOOOOOOOOOOO.......                           ",
"                                                                                                                                .......----------------------------------------------------------------------------------------------------------------------------------------------------------------------------------------------------------------------------------------------------======OOOOOOO+++++++++++++++++++++++++++OOOOOOOOOOOOOOOOOOOOOOOOOOOOOOOOOOOOOOOOOOOOOOO.......                           ",
"                                                                                                                                .......----------------------------------------------------------------------------------------------------------------------------------------------------------------------------------------------------------------------------------------------------======OOOOOOO+++++++++++++++++++++++++++OOOOOOOOOOOOOOOOOOOOOOOOOOOOOOOOOOOOOOOOOOOOOOO.......                           ",
"                                                                                                                         .......-----------------------------------------------------------------------------------------------------------------------------------------------------------------------------------------------------------------------------------------------------------------OOOOOOO++++++++++++++++++++OOOOOOOOOOOOOOOOOOOOOOOOOOOOOOOOOOOOOOOOOOOOOOOOOOOOOO.......                           ",
"                                                                                                                         .......-----------------------------------------------------------------------------------------------------------------------------------------------------------------------------------------------------------------------------------------------------------------OOOOOOO++++++++++++++++++++OOOOOOOOOOOOOOOOOOOOOOOOOOOOOOOOOOOOOOOOOOOOOOOOOOOOOO.......                           ",
"                                                                                                                         .......-----------------------------------------------------------------------------------------------------------------------------------------------------------------------------------------------------------------------------------------------------------------OOOOOOO++++++++++++++++++++OOOOOOOOOOOOOOOOOOOOOOOOOOOOOOOOOOOOOOOOOOOOOOOOOOOOOO.......                           ",
"                                                                                                                         .......-----------------------------------------------------------------------------------------------------------------------------------------------------------------------------------------------------------------------------------------------------------------OOOOOOO++++++++++++++++++++OOOOOOOOOOOOOOOOOOOOOOOOOOOOOOOOOOOOOOOOOOOOOOOOOOOOOO.......                           ",
"                                                                                                                         .......-----------------------------------------------------------------------------------------------------------------------------------------------------------------------------------------------------------------------------------------------------------------OOOOOOO++++++++++++++++++++OOOOOOOOOOOOOOOOOOOOOOOOOOOOOOOOOOOOOOOOOOOOOOOOOOOOOO.......                           ",
"                                                                                                                         .......-----------------------------------------------------------------------------------------------------------------------------------------------------------------------------------------------------------------------------------------------------------------OOOOOOO++++++++++++++++++++OOOOOOOOOOOOOOOOOOOOOOOOOOOOOOOOOOOOOOOOOOOOOOOOOOOOOO.......                           ",
"                                                                                                                         .......-----------------------------------------------------------------------------------------------------------------------------------------------------------------------------------------------------------------------------------------------------------------OOOOOOO++++++++++++++++++++OOOOOOOOOOOOOOOOOOOOOOOOOOOOOOOOOOOOOOOOOOOOOOOOOOOOOO.......                           ",
"                                                                                                                         .......-----------------------------------------------------------------------------------------------------------------------------------------------------------------------------------------------------------------------------------------------------------------OOOOOOO++++++OOOOOOOOOOOOOOOOOOOOOOOOOOOOOOOOOOOOOOOOOOOOOOOOOOOOOOOOOOOOOOOOOOOO.......                           ",
"                                                                                                                         .......-----------------------------------------------------------------------------------------------------------------------------------------------------------------------------------------------------------------------------------------------------------------OOOOOOO++++++OOOOOOOOOOOOOOOOOOOOOOOOOOOOOOOOOOOOOOOOOOOOOOOOOOOOOOOOOOOOOOOOOOOO.......                           ",
"                                                                                                                         .......-----------------------------------------------------------------------------------------------------------------------------------------------------------------------------------------------------------------------------------------------------------------OOOOOOO++++++OOOOOOOOOOOOOOOOOOOOOOOOOOOOOOOOOOOOOOOOOOOOOOOOOOOOOOOOOOOOOOOOOOOO.......                           ",
"                                                                                                                         .......-----------------------------------------------------------------------------------------------------------------------------------------------------------------------------------------------------------------------------------------------------------------OOOOOOO++++++OOOOOOOOOOOOOOOOOOOOOOOOOOOOOOOOOOOOOOOOOOOOOOOOOOOOOOOOOOOOOOOOOOOO.......                           ",
"                                                                                                                         .......-----------------------------------------------------------------------------------------------------------------------------------------------------------------------------------------------------------------------------------------------------------------OOOOOOO++++++OOOOOOOOOOOOOOOOOOOOOOOOOOOOOOOOOOOOOOOOOOOOOOOOOOOOOOOOOOOOOOOOOOOO.......                           ",
"                                                                                                                         .......-----------------------------------------------------------------------------------------------------------------------------------------------------------------------------------------------------------------------------------------------------------------OOOOOOO++++++OOOOOOOOOOOOOOOOOOOOOOOOOOOOOOOOOOOOOOOOOOOOOOOOOOOOOOOOOOOOOOOOOOOO.......                           ",
"                                                                                                                         .......-----------------------------------------------------------------------------------------------------------------------------------------------------------------------------------------------------------------------------------------------------------------OOOOOOO++++++OOOOOOOOOOOOOOOOOOOOOOOOOOOOOOOOOOOOOOOOOOOOOOOOOOOOOOOOOOOOOOOOOOOO.......                           ",
"                                                                                                                         .......------------------------------------------------------------------------------------------------------------------------------------------------------------------------------------------------------------------------------------------------------------------------OOOOOOOOOOOOOOOOOOOOOOOOOOOOOOOOOOOOOOOOOOOOOOOOOOOOOOOOOOOOOOOOOOOOOOOOOOOOOOOOO.......                    ",
"                                                                                                                         .......------------------------------------------------------------------------------------------------------------------------------------------------------------------------------------------------------------------------------------------------------------------------OOOOOOOOOOOOOOOOOOOOOOOOOOOOOOOOOOOOOOOOOOOOOOOOOOOOOOOOOOOOOOOOOOOOOOOOOOOOOOOOO.......                    ",
"                                                                                                                         .......------------------------------------------------------------------------------------------------------------------------------------------------------------------------------------------------------------------------------------------------------------------------OOOOOOOOOOOOOOOOOOOOOOOOOOOOOOOOOOOOOOOOOOOOOOOOOOOOOOOOOOOOOOOOOOOOOOOOOOOOOOOOO.......                    ",
"                                                                                                                         .......------------------------------------------------------------------------------------------------------------------------------------------------------------------------------------------------------------------------------------------------------------------------OOOOOOOOOOOOOOOOOOOOOOOOOOOOOOOOOOOOOOOOOOOOOOOOOOOOOOOOOOOOOOOOOOOOOOOOOOOOOOOOO.......                    ",
"                                                                                                                         .......------------------------------------------------------------------------------------------------------------------------------------------------------------------------------------------------------------------------------------------------------------------------OOOOOOOOOOOOOOOOOOOOOOOOOOOOOOOOOOOOOOOOOOOOOOOOOOOOOOOOOOOOOOOOOOOOOOOOOOOOOOOOO.......                    ",
"                                                                                                                         .......------------------------------------------------------------------------------------------------------------------------------------------------------------------------------------------------------------------------------------------------------------------------OOOOOOOOOOOOOOOOOOOOOOOOOOOOOOOOOOOOOOOOOOOOOOOOOOOOOOOOOOOOOOOOOOOOOOOOOOOOOOOOO.......                    ",
"                                                                                                                         .......------------------------------------------------------------------------------------------------------------------------------------------------------------------------------------------------------------------------------------------------------------------------OOOOOOOOOOOOOOOOOOOOOOOOOOOOOOOOOOOOOOOOOOOOOOOOOOOOOOOOOOOOOOOOOOOOOOOOOOOOOOOOO.......                    ",
"                                                                                                                   ......------------------------------------------------------------------------------------------------------------------------------------------------------------------------------------------------------------------------------------------------------------------------*******OOOOOOOOOOOOOOOOOOOOOOOOOOOOOOOOOOOOOOOOOOOOOOOOOOOOOOOOOOOOOOOOOOOOOOOOOOOOOOOOO.......                    ",
"                                                                                                                   ......------------------------------------------------------------------------------------------------------------------------------------------------------------------------------------------------------------------------------------------------------------------------*******OOOOOOOOOOOOOOOOOOOOOOOOOOOOOOOOOOOOOOOOOOOOOOOOOOOOOOOOOOOOOOOOOOOOOOOOOOOOOOOOO.......                    ",
"                                                                                                                   ......------------------------------------------------------------------------------------------------------------------------------------------------------------------------------------------------------------------------------------------------------------------------*******OOOOOOOOOOOOOOOOOOOOOOOOOOOOOOOOOOOOOOOOOOOOOOOOOOOOOOOOOOOOOOOOOOOOOOOOOOOOOOOOO.......                    ",
"                                                                                                                   ......------------------------------------------------------------------------------------------------------------------------------------------------------------------------------------------------------------------------------------------------------------------------*******OOOOOOOOOOOOOOOOOOOOOOOOOOOOOOOOOOOOOOOOOOOOOOOOOOOOOOOOOOOOOOOOOOOOOOOOOOOOOOOOO.......                    ",
"                                                                                                                   ......------------------------------------------------------------------------------------------------------------------------------------------------------------------------------------------------------------------------------------------------------------------------*******OOOOOOOOOOOOOOOOOOOOOOOOOOOOOOOOOOOOOOOOOOOOOOOOOOOOOOOOOOOOOOOOOOOOOOOOOOOOOOOOO.......                    ",
"                                                                                                                   ......------------------------------------------------------------------------------------------------------------------------------------------------------------------------------------------------------------------------------------------------------------------------*******OOOOOOOOOOOOOOOOOOOOOOOOOOOOOOOOOOOOOOOOOOOOOOOOOOOOOOOOOOOOOOOOOOOOOOOOOOOOOOOOO.......                    ",
"                                                                                                                   ......-----------------------------------------------------------------------------------------------------------------------------------------------------------------------------------------------------------------------------------------------------------------********************OOOOOOOOOOOOOOOOOOOOOOOOOOOOOOOOOOOOOOOOOOOOOOOOOOOOOOOOOOOOOOOOOOOOOOOOOOO.......                    ",
"                                                                                                                   ......-----------------------------------------------------------------------------------------------------------------------------------------------------------------------------------------------------------------------------------------------------------------********************OOOOOOOOOOOOOOOOOOOOOOOOOOOOOOOOOOOOOOOOOOOOOOOOOOOOOOOOOOOOOOOOOOOOOOOOOOO.......                    ",
"                                                                                                                   ......-----------------------------------------------------------------------------------------------------------------------------------------------------------------------------------------------------------------------------------------------------------------********************OOOOOOOOOOOOOOOOOOOOOOOOOOOOOOOOOOOOOOOOOOOOOOOOOOOOOOOOOOOOOOOOOOOOOOOOOOO.......                    ",
"                                                                                                                   ......-----------------------------------------------------------------------------------------------------------------------------------------------------------------------------------------------------------------------------------------------------------------********************OOOOOOOOOOOOOOOOOOOOOOOOOOOOOOOOOOOOOOOOOOOOOOOOOOOOOOOOOOOOOOOOOOOOOOOOOOO.......                    ",
"                                                                                                                   ......-----------------------------------------------------------------------------------------------------------------------------------------------------------------------------------------------------------------------------------------------------------------********************OOOOOOOOOOOOOOOOOOOOOOOOOOOOOOOOOOOOOOOOOOOOOOOOOOOOOOOOOOOOOOOOOOOOOOOOOOO.......                    ",
"                                                                                                                   ......-----------------------------------------------------------------------------------------------------------------------------------------------------------------------------------------------------------------------------------------------------------------********************OOOOOOOOOOOOOOOOOOOOOOOOOOOOOOOOOOOOOOOOOOOOOOOOOOOOOOOOOOOOOOOOOOOOOOOOOOO.......                    ",
"                                                                                                                   ......-----------------------------------------------------------------------------------------------------------------------------------------------------------------------------------------------------------------------------------------------------------------********************OOOOOOOOOOOOOOOOOOOOOOOOOOOOOOOOOOOOOOOOOOOOOOOOOOOOOOOOOOOOOOOOOOOOOOOOOOO.......                    ",
"                                                                                                                   ......-=======---------------------------------------------------------------------------------------------------------------------------------------------------------------------------------------------------------------------------------------------------------********************OOOOOOOOOOOOOOOOOOOOOOOOOOOOOOOOOOOOOOOOOOOOOOOOOOOOOOOOOOOOOOOOOOOOOOOOOOO.......                    ",
"                                                                                                                   ......-=======---------------------------------------------------------------------------------------------------------------------------------------------------------------------------------------------------------------------------------------------------------********************OOOOOOOOOOOOOOOOOOOOOOOOOOOOOOOOOOOOOOOOOOOOOOOOOOOOOOOOOOOOOOOOOOOOOOOOOOO.......                    ",
"                                                                                                                   ......-=======---------------------------------------------------------------------------------------------------------------------------------------------------------------------------------------------------------------------------------------------------------********************OOOOOOOOOOOOOOOOOOOOOOOOOOOOOOOOOOOOOOOOOOOOOOOOOOOOOOOOOOOOOOOOOOOOOOOOOOO.......                    ",
"                                                                                                                   ......-=======---------------------------------------------------------------------------------------------------------------------------------------------------------------------------------------------------------------------------------------------------------********************OOOOOOOOOOOOOOOOOOOOOOOOOOOOOOOOOOOOOOOOOOOOOOOOOOOOOOOOOOOOOOOOOOOOOOOOOOO.......                    ",
"                                                                                                                   ......-=======---------------------------------------------------------------------------------------------------------------------------------------------------------------------------------------------------------------------------------------------------------********************OOOOOOOOOOOOOOOOOOOOOOOOOOOOOOOOOOOOOOOOOOOOOOOOOOOOOOOOOOOOOOOOOOOOOOOOOOO.......                    ",
"                                                                                                                   ......-=======---------------------------------------------------------------------------------------------------------------------------------------------------------------------------------------------------------------------------------------------------------********************OOOOOOOOOOOOOOOOOOOOOOOOOOOOOOOOOOOOOOOOOOOOOOOOOOOOOOOOOOOOOOOOOOOOOOOOOOO.......                    ",
"                                                                                                                   ......-=======---------------------------------------------------------------------------------------------------------------------------------------------------------------------------------------------------------------------------------------------------------********************OOOOOOOOOOOOOOOOOOOOOOOOOOOOOOOOOOOOOOOOOOOOOOOOOOOOOOOOOOOOOOOOOOOOOOOOOOO.......                    ",
"                                                                                                                   ......-=======-------------------------------------------------------------------------------------------------------------------------------------------------------------------------------------------------------------------------------=======-=======-===***************************OOOOOOOOOOOOOOOOOOOOOOOOOOOOOOOOOOOOOOOOOOOOOOOOOOOOOOOOOOOOOOOOOOOOOOOOOOOOOOOOOO......              ",
"                                                                                                                   ......-=======-------------------------------------------------------------------------------------------------------------------------------------------------------------------------------------------------------------------------------========-=========-***************************OOOOOOOOOOOOOOOOOOOOOOOOOOOOOOOOOOOOOOOOOOOOOOOOOOOOOOOOOOOOOOOOOOOOOOOOOOOOOOOOOO......              ",
"                                                                                                                   ......-=======-------------------------------------------------------------------------------------------------------------------------------------------------------------------------------------------------------------------------------=======-==========-***************************OOOOOOOOOOOOOOOOOOOOOOOOOOOOOOOOOOOOOOOOOOOOOOOOOOOOOOOOOOOOOOOOOOOOOOOOOOOOOOOOOO......              ",
"                                                                                                                   ......-=======-------------------------------------------------------------------------------------------------------------------------------------------------------------------------------------------------------------------------------=======-===========***************************OOOOOOOOOOOOOOOOOOOOOOOOOOOOOOOOOOOOOOOOOOOOOOOOOOOOOOOOOOOOOOOOOOOOOOOOOOOOOOOOOO......              ",
"                                                                                                                   ......-=======-------------------------------------------------------------------------------------------------------------------------------------------------------------------------------------------------------------------------------========-==========***************************OOOOOOOOOOOOOOOOOOOOOOOOOOOOOOOOOOOOOOOOOOOOOOOOOOOOOOOOOOOOOOOOOOOOOOOOOOOOOOOOOO......              ",
"                                                                                                                   ......-=====---------------------------------------------------------------------------------------------------------------------------------------------------------------------------------------------------------------------------------=======-===========***************************OOOOOOOOOOOOOOOOOOOOOOOOOOOOOOOOOOOOOOOOOOOOOOOOOOOOOOOOOOOOOOOOOOOOOOOOOOOOOOOOOO......              ",
"                                                                                                                   ......-======--------------------------------------------------------------------------------------------------------------------------------------------------------------------------------------------------------------------------------=======-===========***************************OOOOOOOOOOOOOOOOOOOOOOOOOOOOOOOOOOOOOOOOOOOOOOOOOOOOOOOOOOOOOOOOOOOOOOOOOOOOOOOOOO......              ",
"                                                                                                            .......******-=======------------------------------------------------------------------------------------------------------------------------------------------------------------------------------------------------------------------------=======-=====****************************************OOOOOOOOOOOOOOOOOOOOOOOOOOOOOOOOOOOOOOOOOOOOOOOOOOOOOOOOOOOOOOOOOOOOOOOOOOOOOOOOOO......              ",
"                                                                                                            .......******-=======------------------------------------------------------------------------------------------------------------------------------------------------------------------------------------------------------------------------=======-=====****************************************OOOOOOOOOOOOOOOOOOOOOOOOOOOOOOOOOOOOOOOOOOOOOOOOOOOOOOOOOOOOOOOOOOOOOOOOOOOOOOOOOO......              ",
"                                                                                                            .......******=======-------------------------------------------------------------------------------------------------------------------------------------------------------------------------------------------------------------------------=======-=====****************************************OOOOOOOOOOOOOOOOOOOOOOOOOOOOOOOOOOOOOOOOOOOOOOOOOOOOOOOOOOOOOOOOOOOOOOOOOOOOOOOOOO......              ",
"                                                                                                            .......******========-----------------------------------------------------------------------------------------------------------------------------------------------------------------------------------------------------------------------=======-======****************************************OOOOOOOOOOOOOOOOOOOOOOOOOOOOOOOOOOOOOOOOOOOOOOOOOOOOOOOOOOOOOOOOOOOOOOOOOOOOOOOOOO......              ",
"                                                                                                            .......******========---------------------------------------------------------------------------------------------------------------------------------------------------------------------------------------------------------=--------------=======-=====****************************************OOOOOOOOOOOOOOOOOOOOOOOOOOOOOOOOOOOOOOOOOOOOOOOOOOOOOOOOOOOOOOOOOOOOOOOOOOOOOOOOOO......              ",
"                                                                                                            .......******========-------------------------------------------------------------------------------------------------------------------------------------------------------------------------------------------------------=---------------========-=====****************************************OOOOOOOOOOOOOOOOOOOOOOOOOOOOOOOOOOOOOOOOOOOOOOOOOOOOOOOOOOOOOOOOOOOOOOOOOOOOOOOOOO......              ",
"                                                                                                            .......*************=======------------------------------------------------------------------------------------------------------------------------------------------------------------------------------------------------------------=======-====******************************************************OOOOOOOOOOOOOOOOOOOOOOOOOOOOOOOOOOOOOOOOOOOOOOOOOOOOOOOOOOOOOOOOOOOOOOOOOOO......              ",
"                                                                                                            .......*************-=======----------------------------------------------------------------------------------------------------------------------------------------------------------------------------------------------------------=-=======-===******************************************************OOOOOOOOOOOOOOOOOOOOOOOOOOOOOOOOOOOOOOOOOOOOOOOOOOOOOOOOOOOOOOOOOOOOOOOOOOO......              ",
"                                                                                                            .......*************=======------------------------------------------------------------------------------------------------------------------------------------------------------------------------------------------------------------=======-====******************************************************OOOOOOOOOOOOOOOOOOOOOOOOOOOOOOOOOOOOOOOOOOOOOOOOOOOOOOOOOOOOOOOOOOOOOOOOOOO......              ",
"                                                                                                            .......*************-=======-----------------------------------------------------------------------------------------------------------------------------------------------------------------------------------------------------------=======-====******************************************************OOOOOOOOOOOOOOOOOOOOOOOOOOOOOOOOOOOOOOOOOOOOOOOOOOOOOOOOOOOOOOOOOOOOOOOOOOO......              ",
"                                                                                                            .......*************-=======-----------------------------------------------------------------------------------------------------------------------------------------------------------------------------------------------------------=======-====******************************************************OOOOOOOOOOOOOOOOOOOOOOOOOOOOOOOOOOOOOOOOOOOOOOOOOOOOOOOOOOOOOOOOOOOOOOOOOOO......              ",
"                                                                                                            .......*************-=======-----------------------------------------------------------------------------------------------------------------------------------------------------------------------------------------------------------=======-====******************************************************OOOOOOOOOOOOOOOOOOOOOOOOOOOOOOOOOOOOOOOOOOOOOOOOOOOOOOOOOOOOOOOOOOOOOOOOOOO......              ",
"                                                                                                            .......*************=======------------------------------------------------------------------------------------------------------------------------------------------------------------------------------------------------------------========-===******************************************************OOOOOOOOOOOOOOOOOOOOOOOOOOOOOOOOOOOOOOOOOOOOOOOOOOOOOOOOOOOOOOOOOOOOOOOOOOO......              ",
"                                                                                                            .......********************========--------------------------------------------------------------------------------------------------------------------------------------------------------------------------------------=======-===========*************************************************************OOOOOOO.......OOOOOOOOOOOOOOOOOOOOOOOOOOOOOOOOOOOOOOOOOOOOOOOOOOOOOOOOOOOOO......              ",
"                                                                                                            .......********************=======---------------------------------------------------------------------------------------------------------------------------------------------------------------------------------------========-==========*************************************************************OOOOOOO.......OOOOOOOOOOOOOOOOOOOOOOOOOOOOOOOOOOOOOOOOOOOOOOOOOOOOOOOOOOOOO......              ",
"                                                                                                            .......********************========--------------------------------------------------------------------------------------------------------------------------------------------------------------------------------------=======-===========*************************************************************OOOOOOO.......OOOOOOOOOOOOOOOOOOOOOOOOOOOOOOOOOOOOOOOOOOOOOOOOOOOOOOOOOOOOO......              ",
"                                                                                                            .......********************========--------------------------------------------------------------------------------------------------------------------------------------------------------------------------------------=======-===========*************************************************************OOOOOOO.......OOOOOOOOOOOOOOOOOOOOOOOOOOOOOOOOOOOOOOOOOOOOOOOOOOOOOOOOOOOOO......              ",
"                                                                                                            .......********************========--------------------------------------------------------------------------------------------------------------------------------------------------------------------------------------=======-===========*************************************************************OOOOOOO.......OOOOOOOOOOOOOOOOOOOOOOOOOOOOOOOOOOOOOOOOOOOOOOOOOOOOOOOOOOOOO......              ",
"                                                                                                            .......********************========--------------------------------------------------------------------------------------------------------------------------------------------------------------------------------------=======-===========*************************************************************OOOOOOO.......OOOOOOOOOOOOOOOOOOOOOOOOOOOOOOOOOOOOOOOOOOOOOOOOOOOOOOOOOOOOO......              ",
"                                                                                                            .......********************========--------------------------------------------------------------------------------------------------------------------------------------------------------------------------------------=======-===========*************************************************************OOOOOOO.......OOOOOOOOOOOOOOOOOOOOOOOOOOOOOOOOOOOOOOOOOOOOOOOOOOOOOOOOOOOOO......              ",
"                                               .......                                                      .......***************************=======-=============-----------------------------------------------------------------------------------------------------------------------------------------------------=======-===========**************************************************************************.......:::::::......OOOOOOOOOOOOOOOOOOOOOOOOOOOOOOOOOOOOOOOOOOOOOOOOOOOOOOO......              ",
"                                               .......                                                      .......***************************=======-============------------------------------------------------------------------------------------------------------------------------------------------------------========-==========**************************************************************************.......:::::::......OOOOOOOOOOOOOOOOOOOOOOOOOOOOOOOOOOOOOOOOOOOOOOOOOOOOOOO......              ",
"                                               .......                                                      .......***************************=========-===========-----------------------------------------------------------------------------------------------------------------------------------------------------========-==========**************************************************************************.......:::::::......OOOOOOOOOOOOOOOOOOOOOOOOOOOOOOOOOOOOOOOOOOOOOOOOOOOOOOO......              ",
"                                               .......                                                      .......***************************=======-============------------------------------------------------------------------------------------------------------------------------------------------------------=========-=========**************************************************************************.......:::::::......OOOOOOOOOOOOOOOOOOOOOOOOOOOOOOOOOOOOOOOOOOOOOOOOOOOOOOO......              ",
"                                               .......                                                      .......***************************========-============-----------------------------------------------------------------------------------------------------------------------------------------------------=======-===========**************************************************************************.......:::::::......OOOOOOOOOOOOOOOOOOOOOOOOOOOOOOOOOOOOOOOOOOOOOOOOOOOOOOO......              ",
"                                               .......                                                      .......***************************=======-============------------------------------------------------------------------------------------------------------------------------------------------------------========-==========**************************************************************************.......:::::::......OOOOOOOOOOOOOOOOOOOOOOOOOOOOOOOOOOOOOOOOOOOOOOOOOOOOOOO......              ",
"                                               .......                                                      .......***************************========-============----------------------------------------------------------------------------------------------------------------------------------------------------========-===========**************************************************************************.......:::::::......OOOOOOOOOOOOOOOOOOOOOOOOOOOOOOOOOOOOOOOOOOOOOOOOOOOOOOO......              ",
"                                               :::::::....................                                  .......*********************************============================-------------------------------------------------------------------------------------------------------------=======-=======-========-=========-====********************************************************************.............:::::::.......OOOOOOOOOOOOOOOOOOOOOOOOOOOOOOOOOOOOOOOOOOOOOOOOOOOOOOOOOOOOO......              ",
"                                               :::::::....................                                  .......*********************************=======-===========-========-------------------------------------------------------------------------------------------------------------========-=============-==============-=********************************************************************.............:::::::.......OOOOOOOOOOOOOOOOOOOOOOOOOOOOOOOOOOOOOOOOOOOOOOOOOOOOOOOOOOOOO......              ",
"                                               :::::::....................                                  .......*********************************=======-===============-====-------------------------------------------------------------------------------------------------------------=======-================-==============********************************************************************.............:::::::.......OOOOOOOOOOOOOOOOOOOOOOOOOOOOOOOOOOOOOOOOOOOOOOOOOOOOOOOOOOOOO......              ",
"                                               :::::::....................                                  .......*********************************=======-==================-=-------------------------------------------------------------------------------------------------------------=======-===================-===========********************************************************************.............:::::::.......OOOOOOOOOOOOOOOOOOOOOOOOOOOOOOOOOOOOOOOOOOOOOOOOOOOOOOOOOOOOO......              ",
"                                               :::::::....................                                  .......*********************************========-===================-------------------------------------------------------------------------------------------------------------========-=====================-========********************************************************************.............:::::::.......OOOOOOOOOOOOOOOOOOOOOOOOOOOOOOOOOOOOOOOOOOOOOOOOOOOOOOOOOOOOO......              ",
"                                               :::::::....................                                  .......*********************************=========-==================-------------------------------------------------------------------------------------------------------------=======-=======================-=======********************************************************************.............:::::::.......OOOOOOOOOOOOOOOOOOOOOOOOOOOOOOOOOOOOOOOOOOOOOOOOOOOOOOOOOOOOO......              ",
"                    .......:::::::......       .......:::::::;;;;;;;;;;;;;.......                           .......***********************************************=======-====================-------------------------------------------------------------------------=======-=========================-==============*********************************************************************************......:::::::::::::::::::::OOOOOOOOOOOOOOOOOOOOOOOOOOO.......;;;;;;.......OOOOOOOOOOOOOO......              ",
"                    .......:::::::......       .......:::::::;;;;;;;;;;;;;.......                           .......***********************************************=======-===================------------------------------------=------------------------------------=-=======-===================-=======-===========*********************************************************************************......:::::::::::::::::::::OOOOOOOOOOOOOOOOOOOOOOOOOOO.......;;;;;;.......OOOOOOOOOOOOOO......              ",
"                    .......:::::::......       .......:::::::;;;;;;;;;;;;;.......                           .......***********************************************=======-===================-=------------------------------------=------------------------------------=======-===================-========-==========*********************************************************************************......:::::::::::::::::::::OOOOOOOOOOOOOOOOOOOOOOOOOOO.......;;;;;;.......OOOOOOOOOOOOOO......              ",
"                    .......:::::::......       .......:::::::;;;;;;;;;;;;;.......                           .......***********************************************========-===================-------------------------------------=------------------------------------=======-===================-=========-=========*********************************************************************************......:::::::::::::::::::::OOOOOOOOOOOOOOOOOOOOOOOOOOO.......;;;;;;.......OOOOOOOOOOOOOO......              ",
"                    .......:::::::......       .......:::::::;;;;;;;;;;;;;.......                           .......***********************************************=======-===================-=-------------------------------------=-----------------------------------=======-===================-==========-========*********************************************************************************......:::::::::::::::::::::OOOOOOOOOOOOOOOOOOOOOOOOOOO.......;;;;;;.......OOOOOOOOOOOOOO......              ",
"                    .......:::::::......       .......:::::::;;;;;;;;;;;;;.......                           .......***********************************************========-===================--------------------------------------=-----------------------------------=======-===================-===========-=======*********************************************************************************......:::::::::::::::::::::OOOOOOOOOOOOOOOOOOOOOOOOOOO.......;;;;;;.......OOOOOOOOOOOOOO......              ",
"                    .......:::::::......       .......:::::::;;;;;;;;;;;;;.......                           .......***********************************************=======-===================-=--------------------------------------=----------------------------------=======-===================-============-======*********************************************************************************......:::::::::::::::::::::OOOOOOOOOOOOOOOOOOOOOOOOOOO.......;;;;;;.......OOOOOOOOOOOOOO......              ",
"                    .......:::::::::::::..............:::::::;;;;;;;;;;;;;ooooooo.......******.......       OOOOOOO************************************************************========-===================-=============-===================-==============-===================-===========**********************************************************************************************..............******;;;;;;;:::::::;;;;;;;...........................:::::::;;;;;;.......OOOOOOOOOOOOOO......              ",
"                    .......:::::::::::::..............:::::::;;;;;;;;;;;;;ooooooo.......******.......       OOOOOOO************************************************************=======-===================-================-===================-=================-===================-======**********************************************************************************************..............******;;;;;;;:::::::;;;;;;;...........................:::::::;;;;;;.......OOOOOOOOOOOOOO......              ",
"                    .......:::::::::::::..............:::::::;;;;;;;;;;;;;ooooooo.......******.......       OOOOOOO************************************************************========-===================-==================-===================-===================-===================-=**********************************************************************************************..............******;;;;;;;:::::::;;;;;;;...........................:::::::;;;;;;.......OOOOOOOOOOOOOO......              ",
"                    .......:::::::::::::..............:::::::;;;;;;;;;;;;;ooooooo.......******.......       OOOOOOO************************************************************==========-===================-====================-===================-=====================-===============**********************************************************************************************..............******;;;;;;;:::::::;;;;;;;...........................:::::::;;;;;;.......OOOOOOOOOOOOOO......              ",
"                    .......:::::::::::::..............:::::::;;;;;;;;;;;;;ooooooo.......******.......       OOOOOOO************************************************************=======-===================-======================-===================-=======================-==============**********************************************************************************************..............******;;;;;;;:::::::;;;;;;;...........................:::::::;;;;;;.......OOOOOOOOOOOOOO......              ",
"                    .......:::::::::::::..............:::::::;;;;;;;;;;;;;ooooooo.......******.......       OOOOOOO************************************************************=========-===================-========================-===================-=========================-========**********************************************************************************************..............******;;;;;;;:::::::;;;;;;;...........................:::::::;;;;;;.......OOOOOOOOOOOOOO......              ",
"                    .......:::::::::::::..............:::::::;;;;;;;;;;;;;ooooooo.......******.......       OOOOOOO************************************************************=======-===================-==========================-===================-===========================-======**********************************************************************************************..............******;;;;;;;:::::::;;;;;;;...........................:::::::;;;;;;.......OOOOOOOOOOOOOO......              ",
"                    .......:::::::::::::ooooooo.......;;;;;;;;;;;;;ooooooo.......-------------*******..............OOOOOO***************************************************************************=======-===================-============================-==========******************************************************************************************************......---------------------------XXXXXXXXXXXXXX-------*************.......::::::::::::::;;;;;;.......OOOOOOOOOOOOOO......              ",
"                    .......:::::::::::::ooooooo.......;;;;;;;;;;;;;ooooooo.......-------------*******..............OOOOOO***************************************************************************========-===================-=============================-========******************************************************************************************************......---------------------------XXXXXXXXXXXXXX-------*************.......::::::::::::::;;;;;;.......OOOOOOOOOOOOOO......              ",
"                    .......:::::::::::::ooooooo.......;;;;;;;;;;;;;ooooooo.......-------------*******..............OOOOOO***************************************************************************=========-===================-==============================-======******************************************************************************************************......---------------------------XXXXXXXXXXXXXX-------*************.......::::::::::::::;;;;;;.......OOOOOOOOOOOOOO......              ",
"                    .......:::::::::::::ooooooo.......;;;;;;;;;;;;;ooooooo.......-------------*******..............OOOOOO***************************************************************************=======-===================-===============================-=======******************************************************************************************************......---------------------------XXXXXXXXXXXXXX-------*************.......::::::::::::::;;;;;;.......OOOOOOOOOOOOOO......              ",
"                    .......:::::::::::::ooooooo.......;;;;;;;;;;;;;ooooooo.......-------------*******..............OOOOOO***************************************************************************==========-===================-================================-===******************************************************************************************************......---------------------------XXXXXXXXXXXXXX-------*************.......::::::::::::::;;;;;;.......OOOOOOOOOOOOOO......              ",
"                    .......:::::::::::::ooooooo.......;;;;;;;;;;;;;ooooooo.......-------------*******..............OOOOOO***************************************************************************=======-===================-=================================-=====******************************************************************************************************......---------------------------XXXXXXXXXXXXXX-------*************.......::::::::::::::;;;;;;.......OOOOOOOOOOOOOO......              ",
"                    .......:::::::::::::ooooooo.......;;;;;;;;;;;;;ooooooo.......-------------*******..............OOOOOO***************************************************************************===========-===================-==================================-******************************************************************************************************......---------------------------XXXXXXXXXXXXXX-------*************.......::::::::::::::;;;;;;.......OOOOOOOOOOOOOO......              ",
"             .....................ooooooooooooo--------------oooooo----------------------------------*******.......OOOOOOOOOOOOO**************************************************************************************************************************************************************************************************************************************.......--------------------------------------=---------------------*******.......;;;;;;;;;;;;;;......OOOOOOOOOOOOOOOOOOOOO......              ",
"             .....................ooooooooooooo--------------oooooo----------------------------------*******.......OOOOOOOOOOOOO**************************************************************************************************************************************************************************************************************************************.......---------------------------------------=--------------------*******.......;;;;;;;;;;;;;;......OOOOOOOOOOOOOOOOOOOOO......              ",
"             .....................ooooooooooooo--------------oooooo----------------------------------*******.......OOOOOOOOOOOOO**************************************************************************************************************************************************************************************************************************************.......----------------------------------------=-------------------*******.......;;;;;;;;;;;;;;......OOOOOOOOOOOOOOOOOOOOO......              ",
"             .....................ooooooooooooo--------------oooooo----------------------------------*******.......OOOOOOOOOOOOO**************************************************************************************************************************************************************************************************************************************.......-----------------------------------------=------------------*******.......;;;;;;;;;;;;;;......OOOOOOOOOOOOOOOOOOOOO......              ",
"             .....................ooooooooooooo--------------oooooo----------------------------------*******.......OOOOOOOOOOOOO**************************************************************************************************************************************************************************************************************************************.......------------------------------------------=-----------------*******.......;;;;;;;;;;;;;;......OOOOOOOOOOOOOOOOOOOOO......              ",
"             .....................ooooooooooooo--------------oooooo----------------------------------*******.......OOOOOOOOOOOOO**************************************************************************************************************************************************************************************************************************************.......-------------------------------------------=----------------*******.......;;;;;;;;;;;;;;......OOOOOOOOOOOOOOOOOOOOO......              ",
"      .......::::::::::::::;;;;;;;------------------------------------=--------------------------------------======******.......-======************************************************************************************************************************************************************************************************************************..............------------------------------------=-----------=======-------------======..............******...........................              ",
"      .......::::::::::::::;;;;;;;------------------------------------=--------------------------------------======******.......-======************************************************************************************************************************************************************************************************************************..............-------------------------------------=----------=======-------------======..............******...........................              ",
"      .......::::::::::::::;;;;;;;-------------------------------------=-------------------------------------======******.......-======************************************************************************************************************************************************************************************************************************..............------------------------------------=-----------=======-------------======..............******...........................              ",
"      .......::::::::::::::;;;;;;;------------------------------------=--------------------------------------======******.......-======************************************************************************************************************************************************************************************************************************..............------------------------------------=-----------=====---------------======..............******...........................              ",
"      .......::::::::::::::;;;;;;;------------------------------------=--------------------------------------======******.......-======************************************************************************************************************************************************************************************************************************..............-------------------------------------=----------=======-------------======..............******...........................              ",
"      .......::::::::::::::;;;;;;;------------------------------------=------------------------------------========******.......-======************************************************************************************************************************************************************************************************************************..............--------------------------------------=---------=======------------=======..............******...........................              ",
"      .......::::::::::::::;;;;;;;-------------------------------------=-------------------------------------======******.......-======************************************************************************************************************************************************************************************************************************..............--------------------------------------=---------=======------------=======..............******...........................              ",
"             ..............:::::::......---------------=======-===================--------------------=======-=====******.......OOOOOOO*****************************************************************************************************************************************************************************************************************.......----------------------------------========-===========*******=========-===================-====*************.......::::::::::::::......              ",
"             ..............:::::::......---------------==========-================-------------------===========-==******.......OOOOOOO*****************************************************************************************************************************************************************************************************************.......----------------------------------========-===========*******===========-===================-==*************.......::::::::::::::......              ",
"             ..............:::::::......---------------===========-===============-------------------============-=******.......OOOOOOO*****************************************************************************************************************************************************************************************************************.......----------------------------------========-===========*******============-===================-=*************.......::::::::::::::......              ",
"             ..............:::::::......-------------============-================--------------------=============******.......OOOOOOO*****************************************************************************************************************************************************************************************************************.......-----------------------------------=========-=========*******========-===================-=====*************.......::::::::::::::......              ",
"             ..............:::::::......-=------------=============-==============-------------------==============******.......OOOOOOO*****************************************************************************************************************************************************************************************************************.......-----------------------------------========-==========*******==========-===================-===*************.......::::::::::::::......              ",
"             ..............:::::::......-=-------------==============-============-------------------==============******.......OOOOOOO*****************************************************************************************************************************************************************************************************************.......----------------------------------=========-==========*******============-===================-=*************.......::::::::::::::......              ",
"             ..............:::::::......-=------------===============-============--------------------=============******.......OOOOOOO*****************************************************************************************************************************************************************************************************************.......-----------------------------------=========-=========*******===========-===================-==*************.......::::::::::::::......              ",
"                    .......;;;;;;;------=========-====***************************=======-------========-====********************.......OOOOOOO**********************************************************************************************************************************************************************************************************.......---------------------------=======********************************************************************......;;;;;;;:::::::.......                    ",
"                    .......;;;;;;;-------=======-=====***************************=======-------=======-=====********************.......OOOOOOO**********************************************************************************************************************************************************************************************************.......----------------------------======********************************************************************......;;;;;;;:::::::.......                    ",
"                    .......;;;;;;;-------========-====***************************========------=======-=====********************.......OOOOOOO**********************************************************************************************************************************************************************************************************.......--------------------------========********************************************************************......;;;;;;;:::::::.......                    ",
"                    .......;;;;;;;-------=========-===***************************=======------========-=====********************.......OOOOOOO**********************************************************************************************************************************************************************************************************.......--------------------------========********************************************************************......;;;;;;;:::::::.......                    ",
"                    .......;;;;;;;-----==========-====***************************=======------=========-====********************.......OOOOOOO**********************************************************************************************************************************************************************************************************.......---------------------------=======********************************************************************......;;;;;;;:::::::.......                    ",
"                    .......;;;;;;;-----===========-===***************************========------========-====********************.......OOOOOOO**********************************************************************************************************************************************************************************************************.......----------------------------======********************************************************************......;;;;;;;:::::::.......                    ",
"                    .......;;;;;;;------============-=***************************======--------=============********************.......OOOOOOO**********************************************************************************************************************************************************************************************************.......---------------------------=======********************************************************************......;;;;;;;:::::::.......                    ",
"                           .......-=========-==****************************************************************************************.......OOOOOO**********************************************************************************************************************************************************************************************......---------------------======**********************************XXXXXXX***********************************************.....................                    ",
"                           .......-==========-=****************************************************************************************.......OOOOOO**********************************************************************************************************************************************************************************************......----------------------=====**********************************XXXXXXX***********************************************.....................                    ",
"                           .......-===========-****************************************************************************************.......OOOOOO**********************************************************************************************************************************************************************************************......---------------------======**********************************XXXXXXX***********************************************.....................                    ",
"                           .......-============****************************************************************************************.......OOOOOO**********************************************************************************************************************************************************************************************......----------------------=====**********************************XXXXXXX***********************************************.....................                    ",
"                           .......-=======-====****************************************************************************************.......OOOOOO**********************************************************************************************************************************************************************************************......---------------------======**********************************XXXXXXX***********************************************.....................                    ",
"                           .......-========-===****************************************************************************************.......OOOOOO**********************************************************************************************************************************************************************************************......----------------------=====**********************************XXXXXXX***********************************************.....................                    ",
"                                  ......-======****************************************************************************************.......OOOOOOOOOOOOOOOOOOOO********************************************************************************************************************************************************************************......----------------------=====**************XXXXXXXXXXXXXXXXXXXX#######XXXXXXXXXXXXXXXXXXXX*****************************************.......                    ",
"                                  ......-======****************************************************************************************.......OOOOOOOOOOOOOOOOOOOO********************************************************************************************************************************************************************************......---------------------======**************XXXXXXXXXXXXXXXXXXXX#######XXXXXXXXXXXXXXXXXXXX*****************************************.......                    ",
"                                  ......-======****************************************************************************************.......OOOOOOOOOOOOOOOOOOOO********************************************************************************************************************************************************************************......---------------------======**************XXXXXXXXXXXXXXXXXXXX#######XXXXXXXXXXXXXXXXXXXX*****************************************.......                    ",
"                                  ......-======****************************************************************************************.......OOOOOOOOOOOOOOOOOOOO********************************************************************************************************************************************************************************......----------------------=====**************XXXXXXXXXXXXXXXXXXXX#######XXXXXXXXXXXXXXXXXXXX*****************************************.......                    ",
"                                  ......-======****************************************************************************************.......OOOOOOOOOOOOOOOOOOOO********************************************************************************************************************************************************************************......--------------------=======**************XXXXXXXXXXXXXXXXXXXX#######XXXXXXXXXXXXXXXXXXXX*****************************************.......                    ",
"                                  ......-======****************************************************************************************.......OOOOOOOOOOOOOOOOOOOO********************************************************************************************************************************************************************************......----------------------=====**************XXXXXXXXXXXXXXXXXXXX#######XXXXXXXXXXXXXXXXXXXX*****************************************.......                    ",
"                                  ......-======****************************************************************************************.......OOOOOOOOOOOOOOOOOOOO********************************************************************************************************************************************************************************......--------------------=======**************XXXXXXXXXXXXXXXXXXXX#######XXXXXXXXXXXXXXXXXXXX*****************************************.......                    ",
"                                  ......*********************XXXXXXXXXXXXX********************************************************************......OOOOOOOOOOOOOOOOOOOOO*******************************************************************************************************************************************************************************.......--------======********************XXXXXXX#################################*****************************************.......                           ",
"                                  ......*********************XXXXXXXXXXXXX********************************************************************......OOOOOOOOOOOOOOOOOOOOO*******************************************************************************************************************************************************************************.......--------======********************XXXXXXX#################################*****************************************.......                           ",
"                                  ......*********************XXXXXXXXXXXXX********************************************************************......OOOOOOOOOOOOOOOOOOOOO*******************************************************************************************************************************************************************************.......--------======********************XXXXXXX#################################*****************************************.......                           ",
"                                  ......*********************XXXXXXXXXXXXX********************************************************************......OOOOOOOOOOOOOOOOOOOOO*******************************************************************************************************************************************************************************.......-------=======********************XXXXXXX#################################*****************************************.......                           ",
"                                  ......*********************XXXXXXXXXXXXX********************************************************************......OOOOOOOOOOOOOOOOOOOOO*******************************************************************************************************************************************************************************.......--------======********************XXXXXXX#################################*****************************************.......                           ",
"                                  ......*********************XXXXXXXXXXXXX********************************************************************......OOOOOOOOOOOOOOOOOOOOO*******************************************************************************************************************************************************************************.......-=------======********************XXXXXXX#################################*****************************************.......                           ",
"                                  ......*********************XXXXXXXXXXXXX********************************************************************......OOOOOOOOOOOOOOOOOOOOO*******************************************************************************************************************************************************************************.......-=-----=======********************XXXXXXX#################################*****************************************.......                           ",
"                                  .............*******XXXXXXX#############XXXXXXXXXXXXXXXXXXXX************************************************OOOOOOOOOOOOOOOOOOOOOOOOOOOOOOOOO*******************************************************************************************************************************************************************......--------======*************XXXXXXX###############################################XXXXXXX**********************************.......                           ",
"                                  .............*******XXXXXXX#############XXXXXXXXXXXXXXXXXXXX************************************************OOOOOOOOOOOOOOOOOOOOOOOOOOOOOOOOO*******************************************************************************************************************************************************************......--------======*************XXXXXXX###############################################XXXXXXX**********************************.......                           ",
"                                  .............*******XXXXXXX#############XXXXXXXXXXXXXXXXXXXX************************************************OOOOOOOOOOOOOOOOOOOOOOOOOOOOOOOOO*******************************************************************************************************************************************************************......--------======*************XXXXXXX###############################################XXXXXXX**********************************.......                           ",
"                                  .............*******XXXXXXX#############XXXXXXXXXXXXXXXXXXXX************************************************OOOOOOOOOOOOOOOOOOOOOOOOOOOOOOOOO*******************************************************************************************************************************************************************......--------======*************XXXXXXX###############################################XXXXXXX**********************************.......                           ",
"                                  .............*******XXXXXXX#############XXXXXXXXXXXXXXXXXXXX************************************************OOOOOOOOOOOOOOOOOOOOOOOOOOOOOOOOO*******************************************************************************************************************************************************************......--------======*************XXXXXXX###############################################XXXXXXX**********************************.......                           ",
"                                  .............*******XXXXXXX#############XXXXXXXXXXXXXXXXXXXX************************************************OOOOOOOOOOOOOOOOOOOOOOOOOOOOOOOOO*******************************************************************************************************************************************************************......--------======*************XXXXXXX###############################################XXXXXXX**********************************.......                           ",
"                                  .............*******XXXXXXX#############XXXXXXXXXXXXXXXXXXXX************************************************OOOOOOOOOOOOOOOOOOOOOOOOOOOOOOOOO*******************************************************************************************************************************************************************......--------======*************XXXXXXX###############################################XXXXXXX**********************************.......                           ",
"                                               .......XXXXXXX###########################XXXXXX*****************************************.......OOOOOOOOOOOOOOOOOOOOOOOOOOOOOOOOOOOOOOOO******************************************************************************************************************************************************************.......-======*************XXXXXXX######################################################XXXXXXX********************..............                           ",
"                                               .......XXXXXXX###########################XXXXXX*****************************************.......OOOOOOOOOOOOOOOOOOOOOOOOOOOOOOOOOOOOOOOO******************************************************************************************************************************************************************.......-======*************XXXXXXX######################################################XXXXXXX********************..............                           ",
"                                               .......XXXXXXX###########################XXXXXX*****************************************.......OOOOOOOOOOOOOOOOOOOOOOOOOOOOOOOOOOOOOOOO******************************************************************************************************************************************************************.......-======*************XXXXXXX######################################################XXXXXXX********************..............                           ",
"                                               .......XXXXXXX###########################XXXXXX*****************************************.......OOOOOOOOOOOOOOOOOOOOOOOOOOOOOOOOOOOOOOOO******************************************************************************************************************************************************************.......-======*************XXXXXXX######################################################XXXXXXX********************..............                           ",
"                                               .......XXXXXXX###########################XXXXXX*****************************************.......OOOOOOOOOOOOOOOOOOOOOOOOOOOOOOOOOOOOOOOO******************************************************************************************************************************************************************.......-======*************XXXXXXX######################################################XXXXXXX********************..............                           ",
"                                               .......XXXXXXX###########################XXXXXX*****************************************.......OOOOOOOOOOOOOOOOOOOOOOOOOOOOOOOOOOOOOOOO******************************************************************************************************************************************************************.......=======*************XXXXXXX######################################################XXXXXXX********************..............                           ",
"                                                      .......########################################XXXXXXX**********************************OOOOOOOOOOOOOOOOOOOOOOOOOOO...........................$$$$$$$*********************************-------*******=------******=------*******=------*************-------**********************************OOOOOO.......***************************XXXXXXX########################################XXXXXXX*********************......                                         ",
"                                                      .......########################################XXXXXXX**********************************OOOOOOOOOOOOOOOOOOOOOOOOOOO...........................$$$$$$$*********************************-------*******=------******=------*******=------*************=------**********************************OOOOOO.......***************************XXXXXXX########################################XXXXXXX*********************......                                         ",
"                                                      .......########################################XXXXXXX**********************************OOOOOOOOOOOOOOOOOOOOOOOOOOO...........................$$$$$$$*********************************-------*******=------******=------*******-------*************=------**********************************OOOOOO.......***************************XXXXXXX########################################XXXXXXX*********************......                                         ",
"                                                      .......########################################XXXXXXX**********************************OOOOOOOOOOOOOOOOOOOOOOOOOOO...........................$$$$$$$*********************************-------*******-------******-------*******-------*************=------**********************************OOOOOO.......***************************XXXXXXX########################################XXXXXXX*********************......                                         ",
"                                                      .......########################################XXXXXXX**********************************OOOOOOOOOOOOOOOOOOOOOOOOOOO...........................$$$$$$$*********************************-------*******=------******=------*******-------*************=------**********************************OOOOOO.......***************************XXXXXXX########################################XXXXXXX*********************......                                         ",
"                                                      .......########################################XXXXXXX**********************************OOOOOOOOOOOOOOOOOOOOOOOOOOO...........................$$$$$$$*********************************-------*******-------******-------*******-------*************=------**********************************OOOOOO.......***************************XXXXXXX########################################XXXXXXX*********************......                                         ",
"                                                      .......########################################XXXXXXX**********************************OOOOOOOOOOOOOOOOOOOOOOOOOOO...........................$$$$$$$*********************************-------*******-------******=------*******-------*************=------**********************************OOOOOO.......***************************XXXXXXX########################################XXXXXXX*********************......                                         ",
"                                                      .............##################################XXXXXXX********************.........................................                           ........................................$$$$$$$-------*******------*******=------*******-------------*******...............................................***************************XXXXXXX##################################XXXXXXXXXXXXX*********************......                                         ",
"                                                      .............##################################XXXXXXX********************.........................................                           ........................................$$$$$$$-------*******------*******=------*******-------------*******...............................................***************************XXXXXXX##################################XXXXXXXXXXXXX*********************......                                         ",
"                                                      .............##################################XXXXXXX********************.........................................                           ........................................$$$$$$$-------*******------*******-------*******-------------*******...............................................***************************XXXXXXX##################################XXXXXXXXXXXXX*********************......                                         ",
"                                                      .............##################################XXXXXXX********************.........................................                           ........................................$$$$$$$-------*******------*******=------*******=------------*******...............................................***************************XXXXXXX##################################XXXXXXXXXXXXX*********************......                                         ",
"                                                      .............##################################XXXXXXX********************.........................................                           ........................................$$$$$$$-------*******------*******-------*******=------------*******...............................................***************************XXXXXXX##################################XXXXXXXXXXXXX*********************......                                         ",
"                                                      .............##################################XXXXXXX********************.........................................                           ........................................$$$$$$$-------*******=-----*******=------*******-------------*******...............................................***************************XXXXXXX##################################XXXXXXXXXXXXX*********************......                                         ",
"                                                      .............##################################XXXXXXX********************.........................................                           ........................................$$$$$$$-------*******=-----*******=------*******=------------*******...............................................***************************XXXXXXX##################################XXXXXXXXXXXXX*********************......                                         ",
"                                                                          .......####################XXXXXXX*************.......                                                                                                            ....................................................................                                               ..............********************XXXXXXXXXXXXX#######XXXXXXX***************************.......                                                      ",
"                                                                          .......####################XXXXXXX*************.......                                                                                                            ....................................................................                                               ..............********************XXXXXXXXXXXXX#######XXXXXXX***************************.......                                                      ",
"                                                                          .......####################XXXXXXX*************.......                                                                                                            ....................................................................                                               ..............********************XXXXXXXXXXXXX#######XXXXXXX***************************.......                                                      ",
"                                                                          .......####################XXXXXXX*************.......                                                                                                            ....................................................................                                               ..............********************XXXXXXXXXXXXX#######XXXXXXX***************************.......                                                      ",
"                                                                          .......####################XXXXXXX*************.......                                                                                                            ....................................................................                                               ..............********************XXXXXXXXXXXXX#######XXXXXXX***************************.......                                                      ",
"                                                                          .......####################XXXXXXX*************.......                                                                                                            ....................................................................                                               ..............********************XXXXXXXXXXXXX#######XXXXXXX***************************.......                                                      ",
"                                                                          .......####################XXXXXXX*************.......                                                                                                            ....................................................................                                               ..............********************XXXXXXXXXXXXX#######XXXXXXX***************************.......                                                      ",
"                                                                                 ....................*******....................                                                                                                                                                                                                                                             *******************************************************************..............                                                      ",
"                                                                                 ....................*******....................                                                                                                                                                                                                                                             *******************************************************************..............                                                      ",
"                                                                                 ....................*******....................                                                                                                                                                                                                                                             *******************************************************************..............                                                      ",
"                                                                                 ....................*******....................                                                                                                                                                                                                                                             *******************************************************************..............                                                      ",
"                                                                                 ....................*******....................                                                                                                                                                                                                                                             *******************************************************************..............                                                      ",
"                                                                                 ....................*******....................                                                                                                                                                                                                                                             *******************************************************************..............                                                      ",
"                                                                                 ....................*******....................                                                                                                                                                                                                                                             *******************************************************************..............                                                      ",
"                                                                                                                                                                                                                                                                                                                                                                      ....................**********************************.......******.......                                                                    ",
"                                                                                                                                                                                                                                                                                                                                                                      ....................**********************************.......******.......                                                                    ",
"                                                                                                                                                                                                                                                                                                                                                                      ....................**********************************.......******.......                                                                    ",
"                                                                                                                                                                                                                                                                                                                                                                      ....................**********************************.......******.......                                                                    ",
"                                                                                                                                                                                                                                                                                                                                                                      ....................**********************************.......******.......                                                                    ",
"                                                                                                                                                                                                                                                                                                                                                                      ....................**********************************.......******.......                                                                    ",
"                                                                                                                                                                                                                                                                                                                                                                                          ..............      .......                                                                                               ",
"                                                                                                                                                                                                                                                                                                                                                                                          ..............      .......                                                                                               ",
"                                                                                                                                                                                                                                                                                                                                                                                          ..............      .......                                                                                               ",
"                                                                                                                                                                                                                                                                                                                                                                                          ..............      .......                                                                                               ",
"                                                                                                                                                                                                                                                                                                                                                                                          ..............      .......                                                                                               ",
"                                                                                                                                                                                                                                                                                                                                                                                          ..............      .......                                                                                               ",
"                                                                                                                                                                                                                                                                                                                                                                                          ..............      .......                                                                                               ",
"                                                                                                                                                                                                                                                                                                                                                                                          ..............      .......                                                                                               ",
"                                                                                                                                                                                                                                                                                                                                                                                                                                                                                                                    ",
"                                                                                                                                                                                                                                                                                                                                                                                                                                                                                                                    "
};
