/* XPM */
static char *out[] = {
/* columns rows colors chars-per-pixel */
"500 503 16 1 ",
"  c #FF00FF",
". c black",
"X c #634221",
"o c #735A21",
"O c #103942",
"+ c #315A7B",
"@ c gray45",
"# c #A57352",
"$ c #C69C5A",
"% c #528CAD",
"& c #73A5BD",
"* c #E7C6AD",
"= c #F7D6BD",
"- c #F7E7BD",
"; c #CECECE",
": c white",
/* pixels */
"                                                                                                                                                                                                                                                                                                                                                                                                                                                                                                                    ",
"                                                                                                                                                                                                                                                                                                                                                                                                                                                                                                                    ",
"                                                                                                                                                                                                                                                                                                                                                                                                                                                                                                                    ",
"                                                                                                                                                                                                                                                                                                                                                                                                                                                                                                                    ",
"                                                                                                                                                                                                                                                                                                                                                                                                                                                                                                                    ",
"                                                                                                                                                                                                                                                                                                                                                                                                                                                                                                                    ",
"                                                                                                                                                                                                                                                                                                                                                                                                                                                                                                                    ",
"                                                                                                                                                                                                                                                                                                                                                                                                                                                                                                                    ",
"                                                                                                                                                                                                                                                                                                                                                                                                                                                                                                                    ",
"                                                                                                                                                                                                                                                                                                                                                                                                                                                                                                                    ",
"                                                                                                                                                                                                                                                                                                                                                                                                                                                                                                                    ",
"                                                                                                                                                                                                                                                                                                                                                                                                                                                                                                                    ",
"                                                                                                                                                                                                                                                                                                                                                                                                                                                                                                                    ",
"                                                                                                                                                                                                                                                                                                                                                                                                                                                                                                                    ",
"                                                                                                                                                                                                                                                                                                                                                                                                                                                                                                                    ",
"                                                                                                                                                                                                                                                                                                                                                                                                                                                                                                                    ",
"                                                                                                                                                                                                                                                                                                                                                                                                                                                                                                                    ",
"                                                                                                                                                                                                                                                                                                                                                                                                                                                                                                                    ",
"                                                                                                                                                                                                                                                                                                                                                                                                                                                                                                                    ",
"                                                                                                                                                                                                                                                                                                                                                                                                                                                                                                                    ",
"                                                                                                                                                                                                                                                                                                                                                                                                                                                                                                                    ",
"                                                                                                                                                                                                                                                                                                                                                                                                                                                                                                                    ",
"                                                                                                                                                                                                                                                                                                                                                                                                                                                                                                                    ",
"                                                                                                                                                                                                                                                                                                                                                                                                                                                                                                                    ",
"                                                                                                                                                                                                                                                                                                                                                                                                                                                                                                                    ",
"                                                                                                                                                                                                                                                                                                                                                                                                                                                                                                                    ",
"                                                                                                                                                                                                                                                                                                                                                                                                                                                                                                                    ",
"                                                                                                                                                                                                                                                                                                                                                                                                                                                                                                                    ",
"                                                                                                                                                                                                                                                                                                                                                                                                                                                                                                                    ",
"                                                                                                                                                                                                                                                                                                                                                                                                                                                                                                                    ",
"                                                                                                                                                                                                                                                                                                                                                                                                                                                                                                                    ",
"                                                                                                                                                                                                                                                                                                                                                                                                                                                                                                                    ",
"                                                                                                                                                                                                                                                                                                                                                                                                                                                                                                                    ",
"                                                                                                                                                                                                                                                                                                                                                                                                                                                                                                                    ",
"                                                                                                                                                                                                                                                                                                                                                                                                                                                                                                                    ",
"                                                                                                                                                                                                                                                                                                                                                                                                                                                                                                                    ",
"                                                                                                                                                                                                                                                                                                                                                                                                                                                                                                                    ",
"                                                                                                                                                                                                                                                                                                                                                                                                                                                                                                                    ",
"                                                                                                                                                                                                                                                                                                                                                                                                                                                                                                                    ",
"                                                                                                                                                                                                                                                                                                                                                                                                                                                                                                                    ",
"                                                                                                                                                                                                                                                                                                                                                                                                                                                                                                                    ",
"                                                                                                                                                                                                                                                                                                                                                                                                                                                                                                                    ",
"                                                                                                                                                                                                                                                                                                                                                                                                                                                                                                                    ",
"                                                                                                                                                                                                                                                                                                                                                                                                                                                                                                                    ",
"                                                                                                                                                                                                                                                                                                                                                                                                                                                                                                                    ",
"                                                                                                                                                                                                                                                                                                                                                                                                                                                                                                                    ",
"                                                                                                                                                                                                                                                                                                                                                                                                                                                                                                                    ",
"                                                                                                                                                                                                                                                                                                                       .............                                                                                                                                                                                ",
"                                                                                                                                                                                                                                                                                                                       .............                                                                                                                                                                                ",
"                                                                                                                                                                                                                                                                                                                       .............                                                                                                                                                                                ",
"                                                                                                                                                                                                                                                                                                                       .............                                                                                                                                                                                ",
"                                                                                                                                                                                                                                                                                                                       .............                                                                                                                                                                                ",
"                                                                                                                                                                                                                                                                                                                       .............                                                                                                                                                                                ",
"                                                                                                                                                                                                                                                                                                                       .............                                                                                                                                                                                ",
"                                                                                                                                                                                                    .............                                                                                        OOOOOOO%%%%%%%++++++.......                                                                                                                                                                                ",
"                                                                                                                                                                                                    .............                                                                                        OOOOOOO%%%%%%%++++++.......                                                                                                                                                                                ",
"                                                                                                                                                                                                    .............                                                                                        OOOOOOO%%%%%%%++++++.......                                                                                                                                                                                ",
"                                                                                                                                                                                                    .............                                                                                        OOOOOOO%%%%%%%++++++.......                                                                                                                                                                                ",
"                                                                                                                                                                                                    .............                                                                                        OOOOOOO%%%%%%%++++++.......                                                                                                                                                                                ",
"                                                                                                                                                                                                    .............                                                                                        OOOOOOO%%%%%%%++++++.......                                                                                                                                                                                ",
"                                                                                                                                                                                                    .............                                                                                        OOOOOOO%%%%%%%++++++.......                                                                                                                                                                                ",
"                                                                                                                                                                                             OOOOOOO%%%%%%%++++++..............                                                                   OOOOOOO%%%%%%%%%%%%%%%%%%%%+++++++.......                                                                                                                                                                         ",
"                                                                                                                                                                                             OOOOOOO%%%%%%%++++++..............                                                                   OOOOOOO%%%%%%%%%%%%%%%%%%%%+++++++.......                                                                                                                                                                         ",
"                                                                                                                                                                                             OOOOOOO%%%%%%%++++++..............                                                                   OOOOOOO%%%%%%%%%%%%%%%%%%%%+++++++.......                                                                                                                                                                         ",
"                                                                                                                                                                                             OOOOOOO%%%%%%%++++++..............                                                                   OOOOOOO%%%%%%%%%%%%%%%%%%%%+++++++.......                                                                                                                                                                         ",
"                                                                                                                                                                                             OOOOOOO%%%%%%%++++++..............                                                                   OOOOOOO%%%%%%%%%%%%%%%%%%%%+++++++.......                                                                                                                                                                         ",
"                                                                                                                                                                                             OOOOOOO%%%%%%%++++++..............                                                                   OOOOOOO%%%%%%%%%%%%%%%%%%%%+++++++.......                                                                                                                                                                         ",
"                                                                                                                                                                                             OOOOOOO%%%%%%%++++++++++++++++++++.......                                                      OOOOOO%%%%%%%%%%%%%%%%%%%%%%%%%%%+++++++.......                                                                                                                                                                         ",
"                                                                                                                                                                                             OOOOOOO%%%%%%%++++++++++++++++++++.......                                                      OOOOOO%%%%%%%%%%%%%%%%%%%%%%%%%%%+++++++.......                                                                                                                                                                         ",
"                                                                                                                                                                                             OOOOOOO%%%%%%%++++++++++++++++++++.......                                                      OOOOOO%%%%%%%%%%%%%%%%%%%%%%%%%%%+++++++.......                                                                                                                                                                         ",
"                                                                                                                                                                                             OOOOOOO%%%%%%%++++++++++++++++++++.......                                                      OOOOOO%%%%%%%%%%%%%%%%%%%%%%%%%%%+++++++.......                                                                                                                                                                         ",
"                                                                                                                                                                                             OOOOOOO%%%%%%%++++++++++++++++++++.......                                                      OOOOOO%%%%%%%%%%%%%%%%%%%%%%%%%%%+++++++.......                                                                                                                                                                         ",
"                                                                                                                                                                                             OOOOOOO%%%%%%%++++++++++++++++++++.......                                                      OOOOOO%%%%%%%%%%%%%%%%%%%%%%%%%%%+++++++.......                                                                                                                                                                         ",
"                                                                                                                                                                                             OOOOOOO%%%%%%%++++++++++++++++++++.......                                                      OOOOOO%%%%%%%%%%%%%%%%%%%%%%%%%%%+++++++.......                                                                                                                                                                         ",
"                                                                                                                                                                                      OOOOOOO%%%%%%%%%%%%%%%%%%%%+++++++++++++++++++++......                                         OOOOOOO%%%%%%%%%%%%%%%%%%%%%%%%%%%%%%%%%++++++++++++++.......                                                                                                                                                                  ",
"                                                                                                                                                                                      OOOOOOO%%%%%%%%%%%%%%%%%%%%+++++++++++++++++++++......                                         OOOOOOO%%%%%%%%%%%%%%%%%%%%%%%%%%%%%%%%%++++++++++++++.......                                                                                                                                                                  ",
"                                                                                                                                                                                      OOOOOOO%%%%%%%%%%%%%%%%%%%%+++++++++++++++++++++......                                         OOOOOOO%%%%%%%%%%%%%%%%%%%%%%%%%%%%%%%%%++++++++++++++.......                                                                                                                                                                  ",
"                                                                                                                                                                                      OOOOOOO%%%%%%%%%%%%%%%%%%%%+++++++++++++++++++++......                                         OOOOOOO%%%%%%%%%%%%%%%%%%%%%%%%%%%%%%%%%++++++++++++++.......                                                                                                                                                                  ",
"                                                                                                                                                                                      OOOOOOO%%%%%%%%%%%%%%%%%%%%+++++++++++++++++++++......                                         OOOOOOO%%%%%%%%%%%%%%%%%%%%%%%%%%%%%%%%%++++++++++++++.......                                                                                                                                                                  ",
"                                                                                                                                                                                      OOOOOOO%%%%%%%%%%%%%%%%%%%%+++++++++++++++++++++......                                         OOOOOOO%%%%%%%%%%%%%%%%%%%%%%%%%%%%%%%%%++++++++++++++.......                                                                                                                                                                  ",
"                                                                                                                                                                                      OOOOOOO%%%%%%%%%%%%%%%%%%%%+++++++++++++++++++++......                                         OOOOOOO%%%%%%%%%%%%%%%%%%%%%%%%%%%%%%%%%++++++++++++++.......                                                                                                                                                                  ",
"                                                                                                                                                                                      OOOOOOO%%%%%%%%%%%%%%%%%%%%+++++++OOOOOOOOOOOOOO++++++.........................................%%%%%%%%%%%%%%%%%%%%%%%%%%%%%%%%%%++++++++++++++++++++.......                                                                                                                                                                  ",
"                                                                                                                                                                                      OOOOOOO%%%%%%%%%%%%%%%%%%%%+++++++OOOOOOOOOOOOOO++++++.........................................%%%%%%%%%%%%%%%%%%%%%%%%%%%%%%%%%%++++++++++++++++++++.......                                                                                                                                                                  ",
"                                                                                                                                                                                      OOOOOOO%%%%%%%%%%%%%%%%%%%%+++++++OOOOOOOOOOOOOO++++++.........................................%%%%%%%%%%%%%%%%%%%%%%%%%%%%%%%%%%++++++++++++++++++++.......                                                                                                                                                                  ",
"                                                                                                                                                                                      OOOOOOO%%%%%%%%%%%%%%%%%%%%+++++++OOOOOOOOOOOOOO++++++.........................................%%%%%%%%%%%%%%%%%%%%%%%%%%%%%%%%%%++++++++++++++++++++.......                                                                                                                                                                  ",
"                                                                                                                                                                                      OOOOOOO%%%%%%%%%%%%%%%%%%%%+++++++OOOOOOOOOOOOOO++++++.........................................%%%%%%%%%%%%%%%%%%%%%%%%%%%%%%%%%%++++++++++++++++++++.......                                                                                                                                                                  ",
"                                                                                                                                                                                      OOOOOOO%%%%%%%%%%%%%%%%%%%%+++++++OOOOOOOOOOOOOO++++++.........................................%%%%%%%%%%%%%%%%%%%%%%%%%%%%%%%%%%++++++++++++++++++++.......                                                                                                                                                                  ",
"                                                                                                                                                                                      OOOOOOO%%%%%%%%%%%%%%%%%%%%+++++++OOOOOOOOOOOOOO++++++.........................................%%%%%%%%%%%%%%%%%%%%%%%%%%%%%%%%%%++++++++++++++++++++.......                                                                                                                                                                  ",
"                                                                                                                                                                                      OOOOOOO%%%%%%%%%%%%%%+++++++++++++%%%%%%%&&&&&&&&&&&&&&&&&&&&&&&&&&&%%%%%%%%%%%%%%%%%%%%%%%%%%%%%%%%%%%%%%%%%%%%%%%%%%%%%%%%%%%%%+++++++++++++++++++++++++++......                                                                                                                                                            ",
"                                                                                                                                                                                      OOOOOOO%%%%%%%%%%%%%%+++++++++++++%%%%%%%&&&&&&&&&&&&&&&&&&&&&&&&&&&%%%%%%%%%%%%%%%%%%%%%%%%%%%%%%%%%%%%%%%%%%%%%%%%%%%%%%%%%%%%%+++++++++++++++++++++++++++......                                                                                                                                                            ",
"                                                                                                                                                                                      OOOOOOO%%%%%%%%%%%%%%+++++++++++++%%%%%%%&&&&&&&&&&&&&&&&&&&&&&&&&&&%%%%%%%%%%%%%%%%%%%%%%%%%%%%%%%%%%%%%%%%%%%%%%%%%%%%%%%%%%%%%+++++++++++++++++++++++++++......                                                                                                                                                            ",
"                                                                                                                                                                                      OOOOOOO%%%%%%%%%%%%%%+++++++++++++%%%%%%%&&&&&&&&&&&&&&&&&&&&&&&&&&&%%%%%%%%%%%%%%%%%%%%%%%%%%%%%%%%%%%%%%%%%%%%%%%%%%%%%%%%%%%%%+++++++++++++++++++++++++++......                                                                                                                                                            ",
"                                                                                                                                                                                      OOOOOOO%%%%%%%%%%%%%%+++++++++++++%%%%%%%&&&&&&&&&&&&&&&&&&&&&&&&&&&%%%%%%%%%%%%%%%%%%%%%%%%%%%%%%%%%%%%%%%%%%%%%%%%%%%%%%%%%%%%%+++++++++++++++++++++++++++......                                                                                                                                                            ",
"                                                                                                                                                                                      OOOOOOO%%%%%%%%%%%%%%+++++++++++++%%%%%%%&&&&&&&&&&&&&&&&&&&&&&&&&&&%%%%%%%%%%%%%%%%%%%%%%%%%%%%%%%%%%%%%%%%%%%%%%%%%%%%%%%%%%%%%+++++++++++++++++++++++++++......                                                                                                                                                            ",
"                                                                                                                                                                                      OOOOOOO%%%%%%%+++++++%%%%%%%%%%%%%%%%%%%%%%%%%%%&&&&&&&&&&&&&&&&&&&&&&&&&&&%%%%%%%%%%%%%%%%%%%%%%%%%%%%%%%%%%%%%%%%%%%%%%%++++++++++++++++++++++++++++++++++++++++.......                                                                                                                                                     ",
"                                                                                                                                                                                      OOOOOOO%%%%%%%+++++++%%%%%%%%%%%%%%%%%%%%%%%%%%%&&&&&&&&&&&&&&&&&&&&&&&&&&&%%%%%%%%%%%%%%%%%%%%%%%%%%%%%%%%%%%%%%%%%%%%%%%++++++++++++++++++++++++++++++++++++++++.......                                                                                                                                                     ",
"                                                                                                                                                                                      OOOOOOO%%%%%%%+++++++%%%%%%%%%%%%%%%%%%%%%%%%%%%&&&&&&&&&&&&&&&&&&&&&&&&&&&%%%%%%%%%%%%%%%%%%%%%%%%%%%%%%%%%%%%%%%%%%%%%%%++++++++++++++++++++++++++++++++++++++++.......                                                                                                                                                     ",
"                                                                                                                                                                                      OOOOOOO%%%%%%%+++++++%%%%%%%%%%%%%%%%%%%%%%%%%%%&&&&&&&&&&&&&&&&&&&&&&&&&&&%%%%%%%%%%%%%%%%%%%%%%%%%%%%%%%%%%%%%%%%%%%%%%%++++++++++++++++++++++++++++++++++++++++.......                                                                                                                                                     ",
"                                                                                                                                                                                      OOOOOOO%%%%%%%+++++++%%%%%%%%%%%%%%%%%%%%%%%%%%%&&&&&&&&&&&&&&&&&&&&&&&&&&&%%%%%%%%%%%%%%%%%%%%%%%%%%%%%%%%%%%%%%%%%%%%%%%++++++++++++++++++++++++++++++++++++++++.......                                                                                                                                                     ",
"                                                                                                                                                                                      OOOOOOO%%%%%%%+++++++%%%%%%%%%%%%%%%%%%%%%%%%%%%&&&&&&&&&&&&&&&&&&&&&&&&&&&%%%%%%%%%%%%%%%%%%%%%%%%%%%%%%%%%%%%%%%%%%%%%%%++++++++++++++++++++++++++++++++++++++++.......                                                                                                                                                     ",
"                                                                                                                                                                                      OOOOOOO%%%%%%%+++++++%%%%%%%%%%%%%%%%%%%%%%%%%%%&&&&&&&&&&&&&&&&&&&&&&&&&&&%%%%%%%%%%%%%%%%%%%%%%%%%%%%%%%%%%%%%%%%%%%%%%%++++++++++++++++++++++++++++++++++++++++.......                                                                                                                                                     ",
"                                                                                                                                                                                      .......+++++++%%%%%%%+++++++++++++%%%%%%%%%%%%%%%%%%%%&&&&&&&&&&&&&&%%%%%%%%%%%%%%%%%%%%%%%%%%%++++++++++++++++++++++++++++++++++++++++++++++++++++++++++++++++++++++++++.......                                                                                                                                              ",
"                                                                                                                                                                                      .......+++++++%%%%%%%+++++++++++++%%%%%%%%%%%%%%%%%%%%&&&&&&&&&&&&&&%%%%%%%%%%%%%%%%%%%%%%%%%%%++++++++++++++++++++++++++++++++++++++++++++++++++++++++++++++++++++++++++.......                                                                                                                                              ",
"                                                                                                                                                                                      .......+++++++%%%%%%%+++++++++++++%%%%%%%%%%%%%%%%%%%%&&&&&&&&&&&&&&%%%%%%%%%%%%%%%%%%%%%%%%%%%++++++++++++++++++++++++++++++++++++++++++++++++++++++++++++++++++++++++++.......                                                                                                                                              ",
"                                                                                                                                                                                      .......+++++++%%%%%%%+++++++++++++%%%%%%%%%%%%%%%%%%%%&&&&&&&&&&&&&&%%%%%%%%%%%%%%%%%%%%%%%%%%%++++++++++++++++++++++++++++++++++++++++++++++++++++++++++++++++++++++++++.......                                                                                                                                              ",
"                                                                                                                                                                                      .......+++++++%%%%%%%+++++++++++++%%%%%%%%%%%%%%%%%%%%&&&&&&&&&&&&&&%%%%%%%%%%%%%%%%%%%%%%%%%%%++++++++++++++++++++++++++++++++++++++++++++++++++++++++++++++++++++++++++.......                                                                                                                                              ",
"                                                                                                                                                                                      .......+++++++%%%%%%%+++++++++++++%%%%%%%%%%%%%%%%%%%%&&&&&&&&&&&&&&%%%%%%%%%%%%%%%%%%%%%%%%%%%++++++++++++++++++++++++++++++++++++++++++++++++++++++++++++++++++++++++++.......                                                                                                                                              ",
"                                                                                                                                                                                      .......+++++++%%%%%%%+++++++++++++%%%%%%%%%%%%%%%%%%%%&&&&&&&&&&&&&&%%%%%%%%%%%%%%%%%%%%%%%%%%%++++++++++++++++++++++++++++++++++++++++++++++++++++++++++++++++++++++++++.......                                                                                                                                              ",
"                                                                                                                                                                                      .......++++++++++++++------*******+++++++%%%%%%%%%%%%%%%%%%%%%%%%%%%%%%%%%%%%%%%%++++++++++++++-------******OOOOOOOOOOOOOO+++++++++++++++++++++++++++++++++++++++++++++++.......                                               ..............                                                                                 ",
"                                                                                                                                                                                      .......++++++++++++++------*******+++++++%%%%%%%%%%%%%%%%%%%%%%%%%%%%%%%%%%%%%%%%++++++++++++++-------******OOOOOOOOOOOOOO+++++++++++++++++++++++++++++++++++++++++++++++.......                                               ..............                                                                                 ",
"                                                                                                                                                                                      .......++++++++++++++------*******+++++++%%%%%%%%%%%%%%%%%%%%%%%%%%%%%%%%%%%%%%%%++++++++++++++-------******OOOOOOOOOOOOOO+++++++++++++++++++++++++++++++++++++++++++++++.......                                               ..............                                                                                 ",
"                                                                                                                                                                                      .......++++++++++++++------*******+++++++%%%%%%%%%%%%%%%%%%%%%%%%%%%%%%%%%%%%%%%%++++++++++++++-------******OOOOOOOOOOOOOO+++++++++++++++++++++++++++++++++++++++++++++++.......                                               ..............                                                                                 ",
"                                                                                                                                                                                      .......++++++++++++++------*******+++++++%%%%%%%%%%%%%%%%%%%%%%%%%%%%%%%%%%%%%%%%++++++++++++++-------******OOOOOOOOOOOOOO+++++++++++++++++++++++++++++++++++++++++++++++.......                                               ..............                                                                                 ",
"                                                                                                                                                                                      .......++++++++++++++------*******+++++++%%%%%%%%%%%%%%%%%%%%%%%%%%%%%%%%%%%%%%%%++++++++++++++-------******OOOOOOOOOOOOOO+++++++++++++++++++++++++++++++++++++++++++++++.......                                               ..............                                                                                 ",
"                                                                                                                                                                                      .......++++++++++++++------*******+++++++%%%%%%%%%%%%%%%%%%%%%%%%%%%%%%%%%%%%%%%%++++++++++++++-------******OOOOOOOOOOOOOO+++++++++++++++++++++++++++++++++++++++++++++++.......                                               ..............                                                                                 ",
"                                                                                                                                                                               .......++++++++++++++---------------------------+++++++%%%%%%%%%%%%%%%%%%%%%%%%%%%++++++----------------------------------*******OOOOOOO+++++++++++++++++++++++++++++++++++++++++++++++.......                                        :::::::.......      ..............                                                             ",
"                                                                                                                                                                               .......++++++++++++++---------------------------+++++++%%%%%%%%%%%%%%%%%%%%%%%%%%%++++++----------------------------------*******OOOOOOO+++++++++++++++++++++++++++++++++++++++++++++++.......                                        :::::::.......      ..............                                                             ",
"                                                                                                                                                                               .......++++++++++++++---------------------------+++++++%%%%%%%%%%%%%%%%%%%%%%%%%%%++++++----------------------------------*******OOOOOOO+++++++++++++++++++++++++++++++++++++++++++++++.......                                        :::::::.......      ..............                                                             ",
"                                                                                                                                                                               .......++++++++++++++---------------------------+++++++%%%%%%%%%%%%%%%%%%%%%%%%%%%++++++----------------------------------*******OOOOOOO+++++++++++++++++++++++++++++++++++++++++++++++.......                                        :::::::.......      ..............                                                             ",
"                                                                                                                                                                               .......++++++++++++++---------------------------+++++++%%%%%%%%%%%%%%%%%%%%%%%%%%%++++++----------------------------------*******OOOOOOO+++++++++++++++++++++++++++++++++++++++++++++++.......                                        :::::::.......      ..............                                                             ",
"                                                                                                                                                                               .......++++++++++++++---------------------------+++++++%%%%%%%%%%%%%%%%%%%%%%%%%%%++++++----------------------------------*******OOOOOOO+++++++++++++++++++++++++++++++++++++++++++++++.......                                        :::::::.......      ..............                                                             ",
"                                                                                                                                                                               .......+++++++*******----------------------------------%%%%%%%%%%%%%%%%%%%%+++++++------------------------------------------------------+++++++++++++++++++++++++++++++++++++++++++++++.......                    .......      .....................      :::::::.......                                                             ",
"                                                                                                                                                                               .......+++++++*******----------------------------------%%%%%%%%%%%%%%%%%%%%+++++++------------------------------------------------------+++++++++++++++++++++++++++++++++++++++++++++++.......                    .......      .....................      :::::::.......                                                             ",
"                                                                                                                                                                               .......+++++++*******----------------------------------%%%%%%%%%%%%%%%%%%%%+++++++------------------------------------------------------+++++++++++++++++++++++++++++++++++++++++++++++.......                    .......      .....................      :::::::.......                                                             ",
"                                                                                                                                                                               .......+++++++*******----------------------------------%%%%%%%%%%%%%%%%%%%%+++++++------------------------------------------------------+++++++++++++++++++++++++++++++++++++++++++++++.......                    .......      .....................      :::::::.......                                                             ",
"                                                                                                                                                                               .......+++++++*******----------------------------------%%%%%%%%%%%%%%%%%%%%+++++++------------------------------------------------------+++++++++++++++++++++++++++++++++++++++++++++++.......                    .......      .....................      :::::::.......                                                             ",
"                                                                                                                                                                               .......+++++++*******----------------------------------%%%%%%%%%%%%%%%%%%%%+++++++------------------------------------------------------+++++++++++++++++++++++++++++++++++++++++++++++.......                    .......      .....................      :::::::.......                                                             ",
"                                                                                                                                                                               .......+++++++*******----------------------------------%%%%%%%%%%%%%%%%%%%%+++++++------------------------------------------------------+++++++++++++++++++++++++++++++++++++++++++++++.......                    .......      .....................      :::::::.......                                                             ",
"                                                                                                                                                                               .......+++++++-----------------------------------------+++++++++++++*******-------------------------------------------------------------OOOOOO++++++++++++++++++++++++++++++++++++++++++++++++......              .......::::::.......%%%%%%%%%%%%%%OOOOOOOOOOOOO..............                                                      ",
"                                                                                                                                                                               .......+++++++-----------------------------------------+++++++++++++*******-------------------------------------------------------------OOOOOO++++++++++++++++++++++++++++++++++++++++++++++++......              .......::::::.......%%%%%%%%%%%%%%OOOOOOOOOOOOO..............                                                      ",
"                                                                                                                                                                               .......+++++++-----------------------------------------+++++++++++++*******-------------------------------------------------------------OOOOOO++++++++++++++++++++++++++++++++++++++++++++++++......              .......::::::.......%%%%%%%%%%%%%%OOOOOOOOOOOOO..............                                                      ",
"                                                                                                                                                                               .......+++++++-----------------------------------------+++++++++++++*******-------------------------------------------------------------OOOOOO++++++++++++++++++++++++++++++++++++++++++++++++......              .......::::::.......%%%%%%%%%%%%%%OOOOOOOOOOOOO..............                                                      ",
"                                                                                                                                                                               .......+++++++-----------------------------------------+++++++++++++*******-------------------------------------------------------------OOOOOO++++++++++++++++++++++++++++++++++++++++++++++++......              .......::::::.......%%%%%%%%%%%%%%OOOOOOOOOOOOO..............                                                      ",
"                                                                                                                                                                               .......+++++++-----------------------------------------+++++++++++++*******-------------------------------------------------------------OOOOOO++++++++++++++++++++++++++++++++++++++++++++++++......              .......::::::.......%%%%%%%%%%%%%%OOOOOOOOOOOOO..............                                                      ",
"                                                                                                                                                                               .......+++++++-----------------------------------------+++++++++++++*******-------------------------------------------------------------OOOOOO++++++++++++++++++++++++++++++++++++++++++++++++......              .......::::::.......%%%%%%%%%%%%%%OOOOOOOOOOOOO..............                                                      ",
"                                                                                                                                                                         ......*******---------------------------------------------------------------------------------------------------------------------------------OOOOOO+++++++++++++++++++++++++++++++++++++++++.......                    .......%%%%%%%%%%%%%%%%%%%%%%%%%%%%%%%%%.......:::::::.......                                                      ",
"                                                                                                                                                                         ......*******---------------------------------------------------------------------------------------------------------------------------------OOOOOO+++++++++++++++++++++++++++++++++++++++++.......                    .......%%%%%%%%%%%%%%%%%%%%%%%%%%%%%%%%%.......:::::::.......                                                      ",
"                                                                                                                                                                         ......*******---------------------------------------------------------------------------------------------------------------------------------OOOOOO+++++++++++++++++++++++++++++++++++++++++.......                    .......%%%%%%%%%%%%%%%%%%%%%%%%%%%%%%%%%.......:::::::.......                                                      ",
"                                                                                                                                                                         ......*******---------------------------------------------------------------------------------------------------------------------------------OOOOOO+++++++++++++++++++++++++++++++++++++++++.......                    .......%%%%%%%%%%%%%%%%%%%%%%%%%%%%%%%%%.......:::::::.......                                                      ",
"                                                                                                                                                                         ......*******---------------------------------------------------------------------------------------------------------------------------------OOOOOO+++++++++++++++++++++++++++++++++++++++++.......                    .......%%%%%%%%%%%%%%%%%%%%%%%%%%%%%%%%%.......:::::::.......                                                      ",
"                                                                                                                                                                         ......*******---------------------------------------------------------------------------------------------------------------------------------OOOOOO+++++++++++++++++++++++++++++++++++++++++.......                    .......%%%%%%%%%%%%%%%%%%%%%%%%%%%%%%%%%.......:::::::.......                                                      ",
"                                                                                                                                                                         ......*******---------------------------------------------------------------------------------------------------------------------------------OOOOOO+++++++++++++++++++++++++++++++++++++++++.......                    .......%%%%%%%%%%%%%%%%%%%%%%%%%%%%%%%%%.......:::::::.......                                                      ",
"                                                                                                                                                                  .......++++++----------------------------------------------------------------------------------------------------------------------------------------******OOOOOOO++++++++++++++++++++++++++++++++++.......                    .......%%%%%%%%%%%%%%%%%%%%%%%%%%%%%%%%%OOOOOOO..............                                                      ",
"                                                                                                                                                                  .......++++++----------------------------------------------------------------------------------------------------------------------------------------******OOOOOOO++++++++++++++++++++++++++++++++++.......                    .......%%%%%%%%%%%%%%%%%%%%%%%%%%%%%%%%%OOOOOOO..............                                                      ",
"                                                                                                                                                                  .......++++++----------------------------------------------------------------------------------------------------------------------------------------******OOOOOOO++++++++++++++++++++++++++++++++++.......                    .......%%%%%%%%%%%%%%%%%%%%%%%%%%%%%%%%%OOOOOOO..............                                                      ",
"                                                                                                                                                                  .......++++++----------------------------------------------------------------------------------------------------------------------------------------******OOOOOOO++++++++++++++++++++++++++++++++++.......                    .......%%%%%%%%%%%%%%%%%%%%%%%%%%%%%%%%%OOOOOOO..............                                                      ",
"                                                                                                                                                                  .......++++++----------------------------------------------------------------------------------------------------------------------------------------******OOOOOOO++++++++++++++++++++++++++++++++++.......                    .......%%%%%%%%%%%%%%%%%%%%%%%%%%%%%%%%%OOOOOOO..............                                                      ",
"                                                                                                                                                                  .......++++++----------------------------------------------------------------------------------------------------------------------------------------******OOOOOOO++++++++++++++++++++++++++++++++++.......                    .......%%%%%%%%%%%%%%%%%%%%%%%%%%%%%%%%%OOOOOOO..............                                                      ",
"                                                                                                                                                                  .......++++++----------------------------------------------------------------------------------------------------------------------------------------******OOOOOOO++++++++++++++++++++++++++++++++++.......                    .......%%%%%%%%%%%%%%%%%%%%%%%%%%%%%%%%%OOOOOOO..............                                                      ",
"                                                                                                                   ......              .......                    .......++++++.....................-------------------------------------------------------------------..................................--------------------OOOOOOO+++++++++++++++++++++++++++++++++++++++++......       ..............%%%%%%%%%%%%%%%%%%%%%%%%%%%%%%%%%+++++++.......OOOOOOO.......                                               ",
"                                                                                                                   ......              .......                    .......++++++.....................-------------------------------------------------------------------..................................--------------------OOOOOOO+++++++++++++++++++++++++++++++++++++++++......       ..............%%%%%%%%%%%%%%%%%%%%%%%%%%%%%%%%%+++++++.......OOOOOOO.......                                               ",
"                                                                                                                   ......              .......                    .......++++++.....................-------------------------------------------------------------------..................................--------------------OOOOOOO+++++++++++++++++++++++++++++++++++++++++......       ..............%%%%%%%%%%%%%%%%%%%%%%%%%%%%%%%%%+++++++.......OOOOOOO.......                                               ",
"                                                                                                                   ......              .......                    .......++++++.....................-------------------------------------------------------------------..................................--------------------OOOOOOO+++++++++++++++++++++++++++++++++++++++++......       ..............%%%%%%%%%%%%%%%%%%%%%%%%%%%%%%%%%+++++++.......OOOOOOO.......                                               ",
"                                                                                                                   ......              .......                    .......++++++.....................-------------------------------------------------------------------..................................--------------------OOOOOOO+++++++++++++++++++++++++++++++++++++++++......       ..............%%%%%%%%%%%%%%%%%%%%%%%%%%%%%%%%%+++++++.......OOOOOOO.......                                               ",
"                                                                                                                   ......              .......                    .......++++++.....................-------------------------------------------------------------------..................................--------------------OOOOOOO+++++++++++++++++++++++++++++++++++++++++......       ..............%%%%%%%%%%%%%%%%%%%%%%%%%%%%%%%%%+++++++.......OOOOOOO.......                                               ",
"                                                                                                                   .............       .............              .......++++++--------------@@@@@@@.............-----------------------------------------.............@@@@@@@-----------------------------------------------*******OOOOOOO++++++++++++++++++++++++++++++++++......       .......%%%%%%%%%%%%%%%%%%%%%%%%%%%%%%%%%%+++++++++++++:::::::..............                                               ",
"                                                                                                                   .............       .............              .......++++++--------------@@@@@@@.............-----------------------------------------.............@@@@@@@-----------------------------------------------*******OOOOOOO++++++++++++++++++++++++++++++++++......       .......%%%%%%%%%%%%%%%%%%%%%%%%%%%%%%%%%%+++++++++++++:::::::..............                                               ",
"                                                                                                                   .............       .............              .......++++++--------------@@@@@@@.............-----------------------------------------.............@@@@@@@-----------------------------------------------*******OOOOOOO++++++++++++++++++++++++++++++++++......       .......%%%%%%%%%%%%%%%%%%%%%%%%%%%%%%%%%%+++++++++++++:::::::..............                                               ",
"                                                                                                                   .............       .............              .......++++++--------------@@@@@@@.............-----------------------------------------.............@@@@@@@-----------------------------------------------*******OOOOOOO++++++++++++++++++++++++++++++++++......       .......%%%%%%%%%%%%%%%%%%%%%%%%%%%%%%%%%%+++++++++++++:::::::..............                                               ",
"                                                                                                                   .............       .............              .......++++++--------------@@@@@@@.............-----------------------------------------.............@@@@@@@-----------------------------------------------*******OOOOOOO++++++++++++++++++++++++++++++++++......       .......%%%%%%%%%%%%%%%%%%%%%%%%%%%%%%%%%%+++++++++++++:::::::..............                                               ",
"                                                                                                                   .............       .............              .......++++++--------------@@@@@@@.............-----------------------------------------.............@@@@@@@-----------------------------------------------*******OOOOOOO++++++++++++++++++++++++++++++++++......       .......%%%%%%%%%%%%%%%%%%%%%%%%%%%%%%%%%%+++++++++++++:::::::..............                                               ",
"                                                                                                                   .............       .............              .......++++++--------------@@@@@@@.............-----------------------------------------.............@@@@@@@-----------------------------------------------*******OOOOOOO++++++++++++++++++++++++++++++++++......       .......%%%%%%%%%%%%%%%%%%%%%%%%%%%%%%%%%%+++++++++++++:::::::..............                                               ",
"                                                                                                                   ......:::::::.......%%%%%%%::::::.....................++++++-----------------------------------------------------------------------------------------------------------------------------------------------------OOOOOOO++++++++++++++++++++++++++++++++++.............%%%%%%%%%%%%%%%%%%%%%%%%%%%%%%%%%%+++++++++++++..............OOOOOOO.......                                               ",
"                                                                                                                   ......:::::::.......%%%%%%%::::::.....................++++++-----------------------------------------------------------------------------------------------------------------------------------------------------OOOOOOO++++++++++++++++++++++++++++++++++.............%%%%%%%%%%%%%%%%%%%%%%%%%%%%%%%%%%+++++++++++++..............OOOOOOO.......                                               ",
"                                                                                                                   ......:::::::.......%%%%%%%::::::.....................++++++-----------------------------------------------------------------------------------------------------------------------------------------------------OOOOOOO++++++++++++++++++++++++++++++++++.............%%%%%%%%%%%%%%%%%%%%%%%%%%%%%%%%%%+++++++++++++..............OOOOOOO.......                                               ",
"                                                                                                                   ......:::::::.......%%%%%%%::::::.....................++++++-----------------------------------------------------------------------------------------------------------------------------------------------------OOOOOOO++++++++++++++++++++++++++++++++++.............%%%%%%%%%%%%%%%%%%%%%%%%%%%%%%%%%%+++++++++++++..............OOOOOOO.......                                               ",
"                                                                                                                   ......:::::::.......%%%%%%%::::::.....................++++++-----------------------------------------------------------------------------------------------------------------------------------------------------OOOOOOO++++++++++++++++++++++++++++++++++.............%%%%%%%%%%%%%%%%%%%%%%%%%%%%%%%%%%+++++++++++++..............OOOOOOO.......                                               ",
"                                                                                                                   ......:::::::.......%%%%%%%::::::.....................++++++-----------------------------------------------------------------------------------------------------------------------------------------------------OOOOOOO++++++++++++++++++++++++++++++++++.............%%%%%%%%%%%%%%%%%%%%%%%%%%%%%%%%%%+++++++++++++..............OOOOOOO.......                                               ",
"                                                                                                                   ......:::::::.......%%%%%%%::::::.....................++++++-----------------------------------------------------------------------------------------------------------------------------------------------------OOOOOOO++++++++++++++++++++++++++++++++++.............%%%%%%%%%%%%%%%%%%%%%%%%%%%%%%%%%%+++++++++++++..............OOOOOOO.......                                               ",
"                                                                                                     ..............OOOOOO%%%%%%%%%%%%%%%%%%%%%......:::::::..............++++++-----------------------------------------------------------------------------------------------------------------------------------------------------OOOOOOO++++++++++++++++++++++++++++++++++.............%%%%%%%%%%%%%%%%%%%%%%%%%%%%%%%%%%++++++++++++++++++++++++++++++++++.......                                               ",
"                                                                                                     ..............OOOOOO%%%%%%%%%%%%%%%%%%%%%......:::::::..............++++++-----------------------------------------------------------------------------------------------------------------------------------------------------OOOOOOO++++++++++++++++++++++++++++++++++.............%%%%%%%%%%%%%%%%%%%%%%%%%%%%%%%%%%++++++++++++++++++++++++++++++++++.......                                               ",
"                                                                                                     ..............OOOOOO%%%%%%%%%%%%%%%%%%%%%......:::::::..............++++++-----------------------------------------------------------------------------------------------------------------------------------------------------OOOOOOO++++++++++++++++++++++++++++++++++.............%%%%%%%%%%%%%%%%%%%%%%%%%%%%%%%%%%++++++++++++++++++++++++++++++++++.......                                               ",
"                                                                                                     ..............OOOOOO%%%%%%%%%%%%%%%%%%%%%......:::::::..............++++++-----------------------------------------------------------------------------------------------------------------------------------------------------OOOOOOO++++++++++++++++++++++++++++++++++.............%%%%%%%%%%%%%%%%%%%%%%%%%%%%%%%%%%++++++++++++++++++++++++++++++++++.......                                               ",
"                                                                                                     ..............OOOOOO%%%%%%%%%%%%%%%%%%%%%......:::::::..............++++++-----------------------------------------------------------------------------------------------------------------------------------------------------OOOOOOO++++++++++++++++++++++++++++++++++.............%%%%%%%%%%%%%%%%%%%%%%%%%%%%%%%%%%++++++++++++++++++++++++++++++++++.......                                               ",
"                                                                                                     ..............OOOOOO%%%%%%%%%%%%%%%%%%%%%......:::::::..............++++++-----------------------------------------------------------------------------------------------------------------------------------------------------OOOOOOO++++++++++++++++++++++++++++++++++.............%%%%%%%%%%%%%%%%%%%%%%%%%%%%%%%%%%++++++++++++++++++++++++++++++++++.......                                               ",
"                                                                                                     ..............OOOOOO%%%%%%%%%%%%%%%%%%%%%......:::::::..............++++++-----------------------------------------------------------------------------------------------------------------------------------------------------OOOOOOO++++++++++++++++++++++++++++++++++.............%%%%%%%%%%%%%%%%%%%%%%%%%%%%%%%%%%++++++++++++++++++++++++++++++++++.......                                               ",
"                                                                                                     .......:::::::OOOOOO%%%%%%%%%%%%%%%%%%%%%%%%%%%..............       ......*******---------------------------@@@@@@@-----------------------------------------@@@@@@*******------------------------------------------------------OOOOOOO+++++++++++++++++++++++++++OOOOOOO.............%%%%%%%%%%%%%%%%%%%%%%%%%%%%%%%%%%++++++++++++++++++++++++++++++++++.......                                               ",
"                                                                                                     .......:::::::OOOOOO%%%%%%%%%%%%%%%%%%%%%%%%%%%..............       ......*******---------------------------@@@@@@@-----------------------------------------@@@@@@*******------------------------------------------------------OOOOOOO+++++++++++++++++++++++++++OOOOOOO.............%%%%%%%%%%%%%%%%%%%%%%%%%%%%%%%%%%++++++++++++++++++++++++++++++++++.......                                               ",
"                                                                                                     .......:::::::OOOOOO%%%%%%%%%%%%%%%%%%%%%%%%%%%..............       ......*******---------------------------@@@@@@@-----------------------------------------@@@@@@*******------------------------------------------------------OOOOOOO+++++++++++++++++++++++++++OOOOOOO.............%%%%%%%%%%%%%%%%%%%%%%%%%%%%%%%%%%++++++++++++++++++++++++++++++++++.......                                               ",
"                                                                                                     .......:::::::OOOOOO%%%%%%%%%%%%%%%%%%%%%%%%%%%..............       ......*******---------------------------@@@@@@@-----------------------------------------@@@@@@*******------------------------------------------------------OOOOOOO+++++++++++++++++++++++++++OOOOOOO.............%%%%%%%%%%%%%%%%%%%%%%%%%%%%%%%%%%++++++++++++++++++++++++++++++++++.......                                               ",
"                                                                                                     .......:::::::OOOOOO%%%%%%%%%%%%%%%%%%%%%%%%%%%..............       ......*******---------------------------@@@@@@@-----------------------------------------@@@@@@*******------------------------------------------------------OOOOOOO+++++++++++++++++++++++++++OOOOOOO.............%%%%%%%%%%%%%%%%%%%%%%%%%%%%%%%%%%++++++++++++++++++++++++++++++++++.......                                               ",
"                                                                                                     .......:::::::OOOOOO%%%%%%%%%%%%%%%%%%%%%%%%%%%..............       ......*******---------------------------@@@@@@@-----------------------------------------@@@@@@*******------------------------------------------------------OOOOOOO+++++++++++++++++++++++++++OOOOOOO.............%%%%%%%%%%%%%%%%%%%%%%%%%%%%%%%%%%++++++++++++++++++++++++++++++++++.......                                               ",
"                                                                                                     .......OOOOOOOOOOOOO%%%%%%%%%%%%%%%%%%%%%%%%%%%%%%%%%%%%%%%%%       ......+++++++---------------------@@@@@@:::::::@@@@@@@---------------------------@@@@@@@::::::.......-----------------------------------------------*******OOOOOOO+++++++++++++++++++++++++++.......++++++%%%%%%%%%%%%%%%%%%%%%%%%%%%%%%%%%%%%%%%%%++++++++++++++++++++++++++++++++++.......                                               ",
"                                                                                                     .......OOOOOOOOOOOOO%%%%%%%%%%%%%%%%%%%%%%%%%%%%%%%%%%%%%%%%%       ......+++++++---------------------@@@@@@:::::::@@@@@@@---------------------------@@@@@@@::::::.......-----------------------------------------------*******OOOOOOO+++++++++++++++++++++++++++.......++++++%%%%%%%%%%%%%%%%%%%%%%%%%%%%%%%%%%%%%%%%%++++++++++++++++++++++++++++++++++.......                                               ",
"                                                                                                     .......OOOOOOOOOOOOO%%%%%%%%%%%%%%%%%%%%%%%%%%%%%%%%%%%%%%%%%       ......+++++++---------------------@@@@@@:::::::@@@@@@@---------------------------@@@@@@@::::::.......-----------------------------------------------*******OOOOOOO+++++++++++++++++++++++++++.......++++++%%%%%%%%%%%%%%%%%%%%%%%%%%%%%%%%%%%%%%%%%++++++++++++++++++++++++++++++++++.......                                               ",
"                                                                                                     .......OOOOOOOOOOOOO%%%%%%%%%%%%%%%%%%%%%%%%%%%%%%%%%%%%%%%%%       ......+++++++---------------------@@@@@@:::::::@@@@@@@---------------------------@@@@@@@::::::.......-----------------------------------------------*******OOOOOOO+++++++++++++++++++++++++++.......++++++%%%%%%%%%%%%%%%%%%%%%%%%%%%%%%%%%%%%%%%%%++++++++++++++++++++++++++++++++++.......                                               ",
"                                                                                                     .......OOOOOOOOOOOOO%%%%%%%%%%%%%%%%%%%%%%%%%%%%%%%%%%%%%%%%%       ......+++++++---------------------@@@@@@:::::::@@@@@@@---------------------------@@@@@@@::::::.......-----------------------------------------------*******OOOOOOO+++++++++++++++++++++++++++.......++++++%%%%%%%%%%%%%%%%%%%%%%%%%%%%%%%%%%%%%%%%%++++++++++++++++++++++++++++++++++.......                                               ",
"                                                                                                     .......OOOOOOOOOOOOO%%%%%%%%%%%%%%%%%%%%%%%%%%%%%%%%%%%%%%%%%       ......+++++++---------------------@@@@@@:::::::@@@@@@@---------------------------@@@@@@@::::::.......-----------------------------------------------*******OOOOOOO+++++++++++++++++++++++++++.......++++++%%%%%%%%%%%%%%%%%%%%%%%%%%%%%%%%%%%%%%%%%++++++++++++++++++++++++++++++++++.......                                               ",
"                                                                                                     .......OOOOOOOOOOOOO%%%%%%%%%%%%%%%%%%%%%%%%%%%%%%%%%%%%%%%%%       ......+++++++---------------------@@@@@@:::::::@@@@@@@---------------------------@@@@@@@::::::.......-----------------------------------------------*******OOOOOOO+++++++++++++++++++++++++++.......++++++%%%%%%%%%%%%%%%%%%%%%%%%%%%%%%%%%%%%%%%%%++++++++++++++++++++++++++++++++++.......                                               ",
"                                                                                              .......OOOOOOO:::::::++++++%%%%%%%%%%%%%%%%%%%%%%%%%%%%%%%%%%OOOOOOO             .......*******--------------@@@@@@.....................******.....................@@@@@@*******-----------------------------------------------OOOOOOO+++++++++++++++++++++++++++OOOOOOO+++++++++++++%%%%%%%%%%%%%%%%%%%%%%%%%%%++++++++++++++++++++++++++++++++++++++++++++++++.......                                               ",
"                                                                                              .......OOOOOOO:::::::++++++%%%%%%%%%%%%%%%%%%%%%%%%%%%%%%%%%%OOOOOOO             .......*******--------------@@@@@@.....................******.....................@@@@@@*******-----------------------------------------------OOOOOOO+++++++++++++++++++++++++++OOOOOOO+++++++++++++%%%%%%%%%%%%%%%%%%%%%%%%%%%++++++++++++++++++++++++++++++++++++++++++++++++.......                                               ",
"                                                                                              .......OOOOOOO:::::::++++++%%%%%%%%%%%%%%%%%%%%%%%%%%%%%%%%%%OOOOOOO             .......*******--------------@@@@@@.....................******.....................@@@@@@*******-----------------------------------------------OOOOOOO+++++++++++++++++++++++++++OOOOOOO+++++++++++++%%%%%%%%%%%%%%%%%%%%%%%%%%%++++++++++++++++++++++++++++++++++++++++++++++++.......                                               ",
"                                                                                              .......OOOOOOO:::::::++++++%%%%%%%%%%%%%%%%%%%%%%%%%%%%%%%%%%OOOOOOO             .......*******--------------@@@@@@.....................******.....................@@@@@@*******-----------------------------------------------OOOOOOO+++++++++++++++++++++++++++OOOOOOO+++++++++++++%%%%%%%%%%%%%%%%%%%%%%%%%%%++++++++++++++++++++++++++++++++++++++++++++++++.......                                               ",
"                                                                                              .......OOOOOOO:::::::++++++%%%%%%%%%%%%%%%%%%%%%%%%%%%%%%%%%%OOOOOOO             .......*******--------------@@@@@@.....................******.....................@@@@@@*******-----------------------------------------------OOOOOOO+++++++++++++++++++++++++++OOOOOOO+++++++++++++%%%%%%%%%%%%%%%%%%%%%%%%%%%++++++++++++++++++++++++++++++++++++++++++++++++.......                                               ",
"                                                                                              .......OOOOOOO:::::::++++++%%%%%%%%%%%%%%%%%%%%%%%%%%%%%%%%%%OOOOOOO             .......*******--------------@@@@@@.....................******.....................@@@@@@*******-----------------------------------------------OOOOOOO+++++++++++++++++++++++++++OOOOOOO+++++++++++++%%%%%%%%%%%%%%%%%%%%%%%%%%%++++++++++++++++++++++++++++++++++++++++++++++++.......                                               ",
"                                                                                              .......OOOOOOO:::::::++++++%%%%%%%%%%%%%%%%%%%%%%%%%%%%%%%%%%OOOOOOO             .......*******--------------@@@@@@.....................******.....................@@@@@@*******-----------------------------------------------OOOOOOO+++++++++++++++++++++++++++OOOOOOO+++++++++++++%%%%%%%%%%%%%%%%%%%%%%%%%%%++++++++++++++++++++++++++++++++++++++++++++++++.......                                               ",
"                                                                                                     .......++++++++++++++++++++%%%%%%%%%%%%%%%%%%%%%%%%%%%%%%%%%%OOOOOOOOOOOOO.......+++++++-----------------------------------------......*******--------------------------------------------------------------------******OOOOOOO+++++++++++++++++++++++++++OOOOOOO.......+++++++++++++++++++++++++++%%%%%%+++++++++++++++++++++++++++++++++++++++++.......                                                      ",
"                                                                                                     .......++++++++++++++++++++%%%%%%%%%%%%%%%%%%%%%%%%%%%%%%%%%%OOOOOOOOOOOOO.......+++++++-----------------------------------------......*******--------------------------------------------------------------------******OOOOOOO+++++++++++++++++++++++++++OOOOOOO.......+++++++++++++++++++++++++++%%%%%%+++++++++++++++++++++++++++++++++++++++++.......                                                      ",
"                                                                                                     .......++++++++++++++++++++%%%%%%%%%%%%%%%%%%%%%%%%%%%%%%%%%%OOOOOOOOOOOOO.......+++++++-----------------------------------------......*******--------------------------------------------------------------------******OOOOOOO+++++++++++++++++++++++++++OOOOOOO.......+++++++++++++++++++++++++++%%%%%%+++++++++++++++++++++++++++++++++++++++++.......                                                      ",
"                                                                                                     .......++++++++++++++++++++%%%%%%%%%%%%%%%%%%%%%%%%%%%%%%%%%%OOOOOOOOOOOOO.......+++++++-----------------------------------------......*******--------------------------------------------------------------------******OOOOOOO+++++++++++++++++++++++++++OOOOOOO.......+++++++++++++++++++++++++++%%%%%%+++++++++++++++++++++++++++++++++++++++++.......                                                      ",
"                                                                                                     .......++++++++++++++++++++%%%%%%%%%%%%%%%%%%%%%%%%%%%%%%%%%%OOOOOOOOOOOOO.......+++++++-----------------------------------------......*******--------------------------------------------------------------------******OOOOOOO+++++++++++++++++++++++++++OOOOOOO.......+++++++++++++++++++++++++++%%%%%%+++++++++++++++++++++++++++++++++++++++++.......                                                      ",
"                                                                                                     .......++++++++++++++++++++%%%%%%%%%%%%%%%%%%%%%%%%%%%%%%%%%%OOOOOOOOOOOOO.......+++++++-----------------------------------------......*******--------------------------------------------------------------------******OOOOOOO+++++++++++++++++++++++++++OOOOOOO.......+++++++++++++++++++++++++++%%%%%%+++++++++++++++++++++++++++++++++++++++++.......                                                      ",
"                                                                                                     .......++++++++++++++++++++%%%%%%%%%%%%%%%%%%%%%%%%%%%%%%%%%%OOOOOOOOOOOOO.......+++++++-----------------------------------------......*******--------------------------------------------------------------------******OOOOOOO+++++++++++++++++++++++++++OOOOOOO.......+++++++++++++++++++++++++++%%%%%%+++++++++++++++++++++++++++++++++++++++++.......                                                      ",
"                                                                                                     .......+++++++++++++++++++++++++++%%%%%%%%%%%%%%%%%%%%%%%%%%%%%%%%%%%%%%%%       .......OOOOOOO-------------------------------------------------------------------------------------------------------------------OOOOOO+++++++++++++++++++++++++++OOOOOOO.......++++++++++++++++++++++++++++++++++++++++++++++++++++++++++++++++++++++++++++++++++++++++                                                      ",
"                                                                                                     .......+++++++++++++++++++++++++++%%%%%%%%%%%%%%%%%%%%%%%%%%%%%%%%%%%%%%%%       .......OOOOOOO-------------------------------------------------------------------------------------------------------------------OOOOOO+++++++++++++++++++++++++++OOOOOOO.......++++++++++++++++++++++++++++++++++++++++++++++++++++++++++++++++++++++++++++++++++++++++                                                      ",
"                                                                                                     .......+++++++++++++++++++++++++++%%%%%%%%%%%%%%%%%%%%%%%%%%%%%%%%%%%%%%%%       .......OOOOOOO-------------------------------------------------------------------------------------------------------------------OOOOOO+++++++++++++++++++++++++++OOOOOOO.......++++++++++++++++++++++++++++++++++++++++++++++++++++++++++++++++++++++++++++++++++++++++                                                      ",
"                                                                                                     .......+++++++++++++++++++++++++++%%%%%%%%%%%%%%%%%%%%%%%%%%%%%%%%%%%%%%%%       .......OOOOOOO-------------------------------------------------------------------------------------------------------------------OOOOOO+++++++++++++++++++++++++++OOOOOOO.......++++++++++++++++++++++++++++++++++++++++++++++++++++++++++++++++++++++++++++++++++++++++                                                      ",
"                                                                                                     .......+++++++++++++++++++++++++++%%%%%%%%%%%%%%%%%%%%%%%%%%%%%%%%%%%%%%%%       .......OOOOOOO-------------------------------------------------------------------------------------------------------------------OOOOOO+++++++++++++++++++++++++++OOOOOOO.......++++++++++++++++++++++++++++++++++++++++++++++++++++++++++++++++++++++++++++++++++++++++                                                      ",
"                                                                                                     .......+++++++++++++++++++++++++++%%%%%%%%%%%%%%%%%%%%%%%%%%%%%%%%%%%%%%%%       .......OOOOOOO-------------------------------------------------------------------------------------------------------------------OOOOOO+++++++++++++++++++++++++++OOOOOOO.......++++++++++++++++++++++++++++++++++++++++++++++++++++++++++++++++++++++++++++++++++++++++                                                      ",
"                                                                                                     .......+++++++++++++++++++++++++++%%%%%%%%%%%%%%%%%%%%%%%%%%%%%%%%%%%%%%%%OOOOOOOOOOOOOOOOOOOOO----------------------------------------------------------------------------------------------OOOOOOOOOOOOOO+++++++++++++++++++++++++++++++++++++++++++++++++++++++++++++++++++++++++++++++++++++++++++++++++++++++++++++++++++++++++++++++++++++++.......                                                      ",
"                                                                                                     .......+++++++++++++++++++++++++++%%%%%%%%%%%%%%%%%%%%%%%%%%%%%%%%%%%%%%%%OOOOOOOOOOOOOOOOOOOOO----------------------------------------------------------------------------------------------OOOOOOOOOOOOOO+++++++++++++++++++++++++++++++++++++++++++++++++++++++++++++++++++++++++++++++++++++++++++++++++++++++++++++++++++++++++++++++++++++++.......                                                      ",
"                                                                                                     .......+++++++++++++++++++++++++++%%%%%%%%%%%%%%%%%%%%%%%%%%%%%%%%%%%%%%%%OOOOOOOOOOOOOOOOOOOOO----------------------------------------------------------------------------------------------OOOOOOOOOOOOOO+++++++++++++++++++++++++++++++++++++++++++++++++++++++++++++++++++++++++++++++++++++++++++++++++++++++++++++++++++++++++++++++++++++++.......                                                      ",
"                                                                                                     .......+++++++++++++++++++++++++++%%%%%%%%%%%%%%%%%%%%%%%%%%%%%%%%%%%%%%%%OOOOOOOOOOOOOOOOOOOOO----------------------------------------------------------------------------------------------OOOOOOOOOOOOOO+++++++++++++++++++++++++++++++++++++++++++++++++++++++++++++++++++++++++++++++++++++++++++++++++++++++++++++++++++++++++++++++++++++++.......                                                      ",
"                                                                                                     .......+++++++++++++++++++++++++++%%%%%%%%%%%%%%%%%%%%%%%%%%%%%%%%%%%%%%%%OOOOOOOOOOOOOOOOOOOOO----------------------------------------------------------------------------------------------OOOOOOOOOOOOOO+++++++++++++++++++++++++++++++++++++++++++++++++++++++++++++++++++++++++++++++++++++++++++++++++++++++++++++++++++++++++++++++++++++++.......                                                      ",
"                                                                                                     .......+++++++++++++++++++++++++++%%%%%%%%%%%%%%%%%%%%%%%%%%%%%%%%%%%%%%%%OOOOOOOOOOOOOOOOOOOOO----------------------------------------------------------------------------------------------OOOOOOOOOOOOOO+++++++++++++++++++++++++++++++++++++++++++++++++++++++++++++++++++++++++++++++++++++++++++++++++++++++++++++++++++++++++++++++++++++++.......                                                      ",
"                                                                                                     .......+++++++++++++++++++++++++++%%%%%%%%%%%%%%%%%%%%%%%%%%%%%%%%%%%%%%%%OOOOOOOOOOOOOOOOOOOOO----------------------------------------------------------------------------------------------OOOOOOOOOOOOOO+++++++++++++++++++++++++++++++++++++++++++++++++++++++++++++++++++++++++++++++++++++++++++++++++++++++++++++++++++++++++++++++++++++++.......                                                      ",
"                                                                                                     .......+++++++++++++++++++++++++++%%%%%%%%%%%%%%%%%%%%%%%%%%%%%%%%%%%%%%%%%%%%%%%.......OOOOOOOOOOOOOOOOOOOO#######-------------------------------------------------------------#######OOOOOO+++++++++++++++++++++++++++++++++++++++++++++++++++++++++++++++++++++++++++++++++++++++++++++++++++++++++++++++++++++++++++++++++++++++++++++++++++++.......                                                      ",
"                                                                                                     .......+++++++++++++++++++++++++++%%%%%%%%%%%%%%%%%%%%%%%%%%%%%%%%%%%%%%%%%%%%%%%.......OOOOOOOOOOOOOOOOOOOO#######-------------------------------------------------------------#######OOOOOO+++++++++++++++++++++++++++++++++++++++++++++++++++++++++++++++++++++++++++++++++++++++++++++++++++++++++++++++++++++++++++++++++++++++++++++++++++++.......                                                      ",
"                                                                                                     .......+++++++++++++++++++++++++++%%%%%%%%%%%%%%%%%%%%%%%%%%%%%%%%%%%%%%%%%%%%%%%.......OOOOOOOOOOOOOOOOOOOO#######-------------------------------------------------------------#######OOOOOO+++++++++++++++++++++++++++++++++++++++++++++++++++++++++++++++++++++++++++++++++++++++++++++++++++++++++++++++++++++++++++++++++++++++++++++++++++++.......                                                      ",
"                                                                                                     .......+++++++++++++++++++++++++++%%%%%%%%%%%%%%%%%%%%%%%%%%%%%%%%%%%%%%%%%%%%%%%.......OOOOOOOOOOOOOOOOOOOO#######-------------------------------------------------------------#######OOOOOO+++++++++++++++++++++++++++++++++++++++++++++++++++++++++++++++++++++++++++++++++++++++++++++++++++++++++++++++++++++++++++++++++++++++++++++++++++++.......                                                      ",
"                                                                                                     .......+++++++++++++++++++++++++++%%%%%%%%%%%%%%%%%%%%%%%%%%%%%%%%%%%%%%%%%%%%%%%.......OOOOOOOOOOOOOOOOOOOO#######-------------------------------------------------------------#######OOOOOO+++++++++++++++++++++++++++++++++++++++++++++++++++++++++++++++++++++++++++++++++++++++++++++++++++++++++++++++++++++++++++++++++++++++++++++++++++++.......                                                      ",
"                                                                                                     .......+++++++++++++++++++++++++++%%%%%%%%%%%%%%%%%%%%%%%%%%%%%%%%%%%%%%%%%%%%%%%.......OOOOOOOOOOOOOOOOOOOO#######-------------------------------------------------------------#######OOOOOO+++++++++++++++++++++++++++++++++++++++++++++++++++++++++++++++++++++++++++++++++++++++++++++++++++++++++++++++++++++++++++++++++++++++++++++++++++++.......                                                      ",
"                                                                                                     .......+++++++++++++++++++++++++++%%%%%%%%%%%%%%%%%%%%%%%%%%%%%%%%%%%%%%%%%%%%%%%.......OOOOOOOOOOOOOOOOOOOO#######-------------------------------------------------------------#######OOOOOO+++++++++++++++++++++++++++++++++++++++++++++++++++++++++++++++++++++++++++++++++++++++++++++++++++++++++++++++++++++++++++++++++++++++++++++++++++++.......                                                      ",
"                                                                                                            .......+++++++++++++++++++++++++++++++++%%%%%%%%%%%%%%%%%%%%%%%%%%%%%%%%%%+++++++..............-------==============---------------------------======********************--------------------+++++++OOOOOOOOOOOOO++++++++++++++++++++++++++++++++++++++++++++++++++++++++++++++++++++++++++++++++++++++++++++++++++++++++++++++++++++++++++.......                                                      ",
"                                                                                                            .......+++++++++++++++++++++++++++++++++%%%%%%%%%%%%%%%%%%%%%%%%%%%%%%%%%%+++++++..............-------=============---------------------------=======********************--------------------+++++++OOOOOOOOOOOOO++++++++++++++++++++++++++++++++++++++++++++++++++++++++++++++++++++++++++++++++++++++++++++++++++++++++++++++++++++++++++.......                                                      ",
"                                                                                                            .......+++++++++++++++++++++++++++++++++%%%%%%%%%%%%%%%%%%%%%%%%%%%%%%%%%%+++++++..............------========-======---------------------------======********************--------------------+++++++OOOOOOOOOOOOO++++++++++++++++++++++++++++++++++++++++++++++++++++++++++++++++++++++++++++++++++++++++++++++++++++++++++++++++++++++++++.......                                                      ",
"                                                                                                            .......+++++++++++++++++++++++++++++++++%%%%%%%%%%%%%%%%%%%%%%%%%%%%%%%%%%+++++++..............-------=======-=====----------------------------======********************--------------------+++++++OOOOOOOOOOOOO++++++++++++++++++++++++++++++++++++++++++++++++++++++++++++++++++++++++++++++++++++++++++++++++++++++++++++++++++++++++++.......                                                      ",
"                                                                                                            .......+++++++++++++++++++++++++++++++++%%%%%%%%%%%%%%%%%%%%%%%%%%%%%%%%%%+++++++..............-------=======-======---------------------------======********************--------------------+++++++OOOOOOOOOOOOO++++++++++++++++++++++++++++++++++++++++++++++++++++++++++++++++++++++++++++++++++++++++++++++++++++++++++++++++++++++++++.......                                                      ",
"                                                                                                            .......+++++++++++++++++++++++++++++++++%%%%%%%%%%%%%%%%%%%%%%%%%%%%%%%%%%+++++++..............-------=========-===---------------------------=======********************--------------------+++++++OOOOOOOOOOOOO++++++++++++++++++++++++++++++++++++++++++++++++++++++++++++++++++++++++++++++++++++++++++++++++++++++++++++++++++++++++++.......                                                      ",
"                                                                                                            .......+++++++++++++++++++++++++++++++++%%%%%%%%%%%%%%%%%%%%%%%%%%%%%%%%%%+++++++..............-------========-=====---------------------------======********************--------------------+++++++OOOOOOOOOOOOO++++++++++++++++++++++++++++++++++++++++++++++++++++++++++++++++++++++++++++++++++++++++++++++++++++++++++++++++++++++++++.......                                                      ",
"                                                                                                            ++++++++++++++++++++++++++++++++++++++++%%%%%%%++++++++++++++%%%%%%++++++++++++++..............-------------***********************************************=======-=---------------------------------------------OOOOOOOOOOOOOOOOOOOOO++++++++++++++++++++++++++++++++++++++++++++++++++++++++++++++++++++++++++++++++++++++++++++++.......                                                             ",
"                                                                                                            ++++++++++++++++++++++++++++++++++++++++%%%%%%%++++++++++++++%%%%%%++++++++++++++..............-------------***********************************************-=======----------------------------------------------OOOOOOOOOOOOOOOOOOOOO++++++++++++++++++++++++++++++++++++++++++++++++++++++++++++++++++++++++++++++++++++++++++++++.......                                                             ",
"                                                                                                            ++++++++++++++++++++++++++++++++++++++++%%%%%%%++++++++++++++%%%%%%++++++++++++++..............-------------***********************************************-=======----------------------------------------------OOOOOOOOOOOOOOOOOOOOO++++++++++++++++++++++++++++++++++++++++++++++++++++++++++++++++++++++++++++++++++++++++++++++.......                                                             ",
"                                                                                                            ++++++++++++++++++++++++++++++++++++++++%%%%%%%++++++++++++++%%%%%%++++++++++++++..............-------------***********************************************-=======----------------------------------------------OOOOOOOOOOOOOOOOOOOOO++++++++++++++++++++++++++++++++++++++++++++++++++++++++++++++++++++++++++++++++++++++++++++++.......                                                             ",
"                                                                                                            ++++++++++++++++++++++++++++++++++++++++%%%%%%%++++++++++++++%%%%%%++++++++++++++..............-------------***********************************************=======-----------------------------------------------OOOOOOOOOOOOOOOOOOOOO++++++++++++++++++++++++++++++++++++++++++++++++++++++++++++++++++++++++++++++++++++++++++++++.......                                                             ",
"                                                                                                            ++++++++++++++++++++++++++++++++++++++++%%%%%%%++++++++++++++%%%%%%++++++++++++++..............-------------***********************************************=======-----------------------------------------------OOOOOOOOOOOOOOOOOOOOO++++++++++++++++++++++++++++++++++++++++++++++++++++++++++++++++++++++++++++++++++++++++++++++.......                                                             ",
"                                                                                                            .......++++++++++++++++++++++++++++++++++++++++++++++++++++++++++++..............----------------------------======***************************-=======--------------------------------------------------------------------------------OOOOOO+++++++++++++++++++++++++++++++++++++++++++++++++++++++++++++++++++++++++++++++++OOOOOOO                                                                    ",
"                                                                                                            .......++++++++++++++++++++++++++++++++++++++++++++++++++++++++++++..............----------------------------======***************************=======---------------------------------------------------------------------------------OOOOOO+++++++++++++++++++++++++++++++++++++++++++++++++++++++++++++++++++++++++++++++++OOOOOOO                                                                    ",
"                                                                                                            .......++++++++++++++++++++++++++++++++++++++++++++++++++++++++++++..............----------------------------======***************************=======---------------------------------------------------------------------------------OOOOOO+++++++++++++++++++++++++++++++++++++++++++++++++++++++++++++++++++++++++++++++++OOOOOOO                                                                    ",
"                                                                                                            .......++++++++++++++++++++++++++++++++++++++++++++++++++++++++++++..............---------------------------=======***************************========--------------------------------------------------------------------------------OOOOOO+++++++++++++++++++++++++++++++++++++++++++++++++++++++++++++++++++++++++++++++++OOOOOOO                                                                    ",
"                                                                                                            .......++++++++++++++++++++++++++++++++++++++++++++++++++++++++++++..............---------------------------=======***************************=======---------------------------------------------------------------------------------OOOOOO+++++++++++++++++++++++++++++++++++++++++++++++++++++++++++++++++++++++++++++++++OOOOOOO                                                                    ",
"                                                                                                            .......++++++++++++++++++++++++++++++++++++++++++++++++++++++++++++..............----------------------------======***************************=======---------------------------------------------------------------------------------OOOOOO+++++++++++++++++++++++++++++++++++++++++++++++++++++++++++++++++++++++++++++++++OOOOOOO                                                                    ",
"                                                                                                            .......++++++++++++++++++++++++++++++++++++++++++++++++++++++++++++..............----------------------------======***************************======----------------------------------------------------------------------------------OOOOOO+++++++++++++++++++++++++++++++++++++++++++++++++++++++++++++++++++++++++++++++++OOOOOOO                                                                    ",
"                                                                                                            .......+++++++++++++++++++++++++++++++++++++++++++++++.............-------------------------------------------------------------------------------------------------------------------------------------------------------------------******OOOOOOO+++++++++++++++++++++++++++++++++++++++++++++++++++++++++++++++++++++++++++++++++                                                                    ",
"                                                                                                            .......+++++++++++++++++++++++++++++++++++++++++++++++.............-------------------------------------------------------------------------------------------------------------------------------------------------------------------******OOOOOOO+++++++++++++++++++++++++++++++++++++++++++++++++++++++++++++++++++++++++++++++++                                                                    ",
"                                                                                                            .......+++++++++++++++++++++++++++++++++++++++++++++++.............-------------------------------------------------------------------------------------------------------------------------------------------------------------------******OOOOOOO+++++++++++++++++++++++++++++++++++++++++++++++++++++++++++++++++++++++++++++++++                                                                    ",
"                                                                                                            .......+++++++++++++++++++++++++++++++++++++++++++++++.............-------------------------------------------------------------------------------------------------------------------------------------------------------------------******OOOOOOO+++++++++++++++++++++++++++++++++++++++++++++++++++++++++++++++++++++++++++++++++                                                                    ",
"                                                                                                            .......+++++++++++++++++++++++++++++++++++++++++++++++.............-------------------------------------------------------------------------------------------------------------------------------------------------------------------******OOOOOOO+++++++++++++++++++++++++++++++++++++++++++++++++++++++++++++++++++++++++++++++++                                                                    ",
"                                                                                                            .......+++++++++++++++++++++++++++++++++++++++++++++++.............-------------------------------------------------------------------------------------------------------------------------------------------------------------------******OOOOOOO+++++++++++++++++++++++++++++++++++++++++++++++++++++++++++++++++++++++++++++++++                                                                    ",
"                                                                                                            .......+++++++++++++++++++++++++++++++++++++++++++++++.............-------------------------------------------------------------------------------------------------------------------------------------------------------------------******OOOOOOO+++++++++++++++++++++++++++++++++++++++++++++++++++++++++++++++++++++++++++++++++                                                                    ",
"                                                                                                                   ......++++++++++++++++++++++++++++++++++.......---------------------------------------------------------------------------------------------------------------------------------------------------------------------------------------------OOOOOOO+++++++++++++++++++++++++++++++++++++++++++++++++++++++++++++++++++OOOOOOO                                                                    ",
"                                                                                                                   ......++++++++++++++++++++++++++++++++++.......---------------------------------------------------------------------------------------------------------------------------------------------------------------------------------------------OOOOOOO+++++++++++++++++++++++++++++++++++++++++++++++++++++++++++++++++++OOOOOOO                                                                    ",
"                                                                                                                   ......++++++++++++++++++++++++++++++++++.......---------------------------------------------------------------------------------------------------------------------------------------------------------------------------------------------OOOOOOO+++++++++++++++++++++++++++++++++++++++++++++++++++++++++++++++++++OOOOOOO                                                                    ",
"                                                                                                                   ......++++++++++++++++++++++++++++++++++.......---------------------------------------------------------------------------------------------------------------------------------------------------------------------------------------------OOOOOOO+++++++++++++++++++++++++++++++++++++++++++++++++++++++++++++++++++OOOOOOO                                                                    ",
"                                                                                                                   ......++++++++++++++++++++++++++++++++++.......---------------------------------------------------------------------------------------------------------------------------------------------------------------------------------------------OOOOOOO+++++++++++++++++++++++++++++++++++++++++++++++++++++++++++++++++++OOOOOOO                                                                    ",
"                                                                                                                   ......++++++++++++++++++++++++++++++++++.......---------------------------------------------------------------------------------------------------------------------------------------------------------------------------------------------OOOOOOO+++++++++++++++++++++++++++++++++++++++++++++++++++++++++++++++++++OOOOOOO                                                                    ",
"                                                                                                                   ......++++++++++++++++++++++++++++++++++.......---------------------------------------------------------------------------------------------------------------------------------------------------------------------------------------------OOOOOOO+++++++++++++++++++++++++++++++++++++++++++++++++++++++++++++++++++OOOOOOO                                                                    ",
"                                                                                                                         .......++++++++++++++++++++.......-----------------------------------------------------------------------------------------------------------------------------------------------------------------------------------------------------------OOOOOOO+++++++++++++++++++++++++++++++++++++++++++++++++++++++++++++++++++.......                                                             ",
"                                                                                                                         .......++++++++++++++++++++.......-----------------------------------------------------------------------------------------------------------------------------------------------------------------------------------------------------------OOOOOOO+++++++++++++++++++++++++++++++++++++++++++++++++++++++++++++++++++.......                                                             ",
"                                                                                                                         .......++++++++++++++++++++.......-----------------------------------------------------------------------------------------------------------------------------------------------------------------------------------------------------------OOOOOOO+++++++++++++++++++++++++++++++++++++++++++++++++++++++++++++++++++.......                                                             ",
"                                                                                                                         .......++++++++++++++++++++.......-----------------------------------------------------------------------------------------------------------------------------------------------------------------------------------------------------------OOOOOOO+++++++++++++++++++++++++++++++++++++++++++++++++++++++++++++++++++.......                                                             ",
"                                                                                                                         .......++++++++++++++++++++.......-----------------------------------------------------------------------------------------------------------------------------------------------------------------------------------------------------------OOOOOOO+++++++++++++++++++++++++++++++++++++++++++++++++++++++++++++++++++.......                                                             ",
"                                                                                                                         .......++++++++++++++++++++.......-----------------------------------------------------------------------------------------------------------------------------------------------------------------------------------------------------------OOOOOOO+++++++++++++++++++++++++++++++++++++++++++++++++++++++++++++++++++.......                                                             ",
"                                                                                                                         .......++++++++++++++......-------------------------------------------------------------------------------------------------------------------------------------------------------------------------------------------------------------------------OOOOOO++++++++++++++++++++++++++++++++++++++++++++++++++++++++++++++++++++.......                                                      ",
"                                                                                                                         .......++++++++++++++......-------------------------------------------------------------------------------------------------------------------------------------------------------------------------------------------------------------------------OOOOOO++++++++++++++++++++++++++++++++++++++++++++++++++++++++++++++++++++.......                                                      ",
"                                                                                                                         .......++++++++++++++......-------------------------------------------------------------------------------------------------------------------------------------------------------------------------------------------------------------------------OOOOOO++++++++++++++++++++++++++++++++++++++++++++++++++++++++++++++++++++.......                                                      ",
"                                                                                                                         .......++++++++++++++......-------------------------------------------------------------------------------------------------------------------------------------------------------------------------------------------------------------------------OOOOOO++++++++++++++++++++++++++++++++++++++++++++++++++++++++++++++++++++.......                                                      ",
"                                                                                                                         .......++++++++++++++......-------------------------------------------------------------------------------------------------------------------------------------------------------------------------------------------------------------------------OOOOOO++++++++++++++++++++++++++++++++++++++++++++++++++++++++++++++++++++.......                                                      ",
"                                                                                                                         .......++++++++++++++......-------------------------------------------------------------------------------------------------------------------------------------------------------------------------------------------------------------------------OOOOOO++++++++++++++++++++++++++++++++++++++++++++++++++++++++++++++++++++.......                                                      ",
"                                                                                                                         .......++++++++++++++......-------------------------------------------------------------------------------------------------------------------------------------------------------------------------------------------------------------------------OOOOOO++++++++++++++++++++++++++++++++++++++++++++++++++++++++++++++++++++.......                                                      ",
"                                                                                                                                ..............-------------------------------------------------------------------------------------------------------------------------------------------------------------------------------------------------------------------------------OOOOOO++++++++++++++++++++++++++++++++++++++++++++++++++++++++++++++++++++OOOOOOO.......                                               ",
"                                                                                                                                ..............-------------------------------------------------------------------------------------------------------------------------------------------------------------------------------------------------------------------------------OOOOOO++++++++++++++++++++++++++++++++++++++++++++++++++++++++++++++++++++OOOOOOO.......                                               ",
"                                                                                                                                ..............-------------------------------------------------------------------------------------------------------------------------------------------------------------------------------------------------------------------------------OOOOOO++++++++++++++++++++++++++++++++++++++++++++++++++++++++++++++++++++OOOOOOO.......                                               ",
"                                                                                                                                ..............-------------------------------------------------------------------------------------------------------------------------------------------------------------------------------------------------------------------------------OOOOOO++++++++++++++++++++++++++++++++++++++++++++++++++++++++++++++++++++OOOOOOO.......                                               ",
"                                                                                                                                ..............-------------------------------------------------------------------------------------------------------------------------------------------------------------------------------------------------------------------------------OOOOOO++++++++++++++++++++++++++++++++++++++++++++++++++++++++++++++++++++OOOOOOO.......                                               ",
"                                                                                                                                ..............-------------------------------------------------------------------------------------------------------------------------------------------------------------------------------------------------------------------------------OOOOOO++++++++++++++++++++++++++++++++++++++++++++++++++++++++++++++++++++OOOOOOO.......                                               ",
"                                                                                                                                ..............-------------------------------------------------------------------------------------------------------------------------------------------------------------------------------------------------------------------------------OOOOOO++++++++++++++++++++++++++++++++++++++++++++++++++++++++++++++++++++OOOOOOO.......                                               ",
"                                                                                                                                       .......-------------------------------------------------------------------------------------------------------------------------------------------------------------------------------------------------------------------------------------OOOOOOO++++++++++++++++++++++++++++++++++++++++++++++++++++++OOOOOOO+++++++.............                                         ",
"                                                                                                                                       .......-------------------------------------------------------------------------------------------------------------------------------------------------------------------------------------------------------------------------------------OOOOOOO++++++++++++++++++++++++++++++++++++++++++++++++++++++OOOOOOO+++++++.............                                         ",
"                                                                                                                                       .......-------------------------------------------------------------------------------------------------------------------------------------------------------------------------------------------------------------------------------------OOOOOOO++++++++++++++++++++++++++++++++++++++++++++++++++++++OOOOOOO+++++++.............                                         ",
"                                                                                                                                       .......-------------------------------------------------------------------------------------------------------------------------------------------------------------------------------------------------------------------------------------OOOOOOO++++++++++++++++++++++++++++++++++++++++++++++++++++++OOOOOOO+++++++.............                                         ",
"                                                                                                                                       .......-------------------------------------------------------------------------------------------------------------------------------------------------------------------------------------------------------------------------------------OOOOOOO++++++++++++++++++++++++++++++++++++++++++++++++++++++OOOOOOO+++++++.............                                         ",
"                                                                                                                                       .......-------------------------------------------------------------------------------------------------------------------------------------------------------------------------------------------------------------------------------------OOOOOOO++++++++++++++++++++++++++++++++++++++++++++++++++++++OOOOOOO+++++++.............                                         ",
"                                                                                                                                       .......-------------------------------------------------------------------------------------------------------------------------------------------------------------------------------------------------------------------------------------OOOOOOO++++++++++++++++++++++++++++++++++++++++++++++++++++++OOOOOOO+++++++.............                                         ",
"                                                                                                                                .......--------------------------------------------------------------------------------------------------------------------------------------------------------------------------------------------------------------------------------------------OOOOOOO+++++++++++++++++++++++++++++++++++++++++++++++OOOOOOOOOOOOOO+++++++OOOOOOO......                                         ",
"                                                                                                                                .......--------------------------------------------------------------------------------------------------------------------------------------------------------------------------------------------------------------------------------------------OOOOOOO+++++++++++++++++++++++++++++++++++++++++++++++OOOOOOOOOOOOOO+++++++OOOOOOO......                                         ",
"                                                                                                                                .......--------------------------------------------------------------------------------------------------------------------------------------------------------------------------------------------------------------------------------------------OOOOOOO+++++++++++++++++++++++++++++++++++++++++++++++OOOOOOOOOOOOOO+++++++OOOOOOO......                                         ",
"                                                                                                                                .......--------------------------------------------------------------------------------------------------------------------------------------------------------------------------------------------------------------------------------------------OOOOOOO+++++++++++++++++++++++++++++++++++++++++++++++OOOOOOOOOOOOOO+++++++OOOOOOO......                                         ",
"                                                                                                                                .......--------------------------------------------------------------------------------------------------------------------------------------------------------------------------------------------------------------------------------------------OOOOOOO+++++++++++++++++++++++++++++++++++++++++++++++OOOOOOOOOOOOOO+++++++OOOOOOO......                                         ",
"                                                                                                                                .......--------------------------------------------------------------------------------------------------------------------------------------------------------------------------------------------------------------------------------------------OOOOOOO+++++++++++++++++++++++++++++++++++++++++++++++OOOOOOOOOOOOOO+++++++OOOOOOO......                                         ",
"                                                                                                                                .......---------------------------------------------------------------------------------------------------------------------------------------------------------------------------------------------------------------------------------------------======OOOOOOO++++++++++++++++++++++++++++++++++OOOOOOOOOOOOOOOOOOOOOOOOOOOOOOOOOOOOOOOO.......                                  ",
"                                                                                                                                .......---------------------------------------------------------------------------------------------------------------------------------------------------------------------------------------------------------------------------------------------======OOOOOOO++++++++++++++++++++++++++++++++++OOOOOOOOOOOOOOOOOOOOOOOOOOOOOOOOOOOOOOOO.......                                  ",
"                                                                                                                                .......---------------------------------------------------------------------------------------------------------------------------------------------------------------------------------------------------------------------------------------------======OOOOOOO++++++++++++++++++++++++++++++++++OOOOOOOOOOOOOOOOOOOOOOOOOOOOOOOOOOOOOOOO.......                                  ",
"                                                                                                                                .......---------------------------------------------------------------------------------------------------------------------------------------------------------------------------------------------------------------------------------------------======OOOOOOO++++++++++++++++++++++++++++++++++OOOOOOOOOOOOOOOOOOOOOOOOOOOOOOOOOOOOOOOO.......                                  ",
"                                                                                                                                .......---------------------------------------------------------------------------------------------------------------------------------------------------------------------------------------------------------------------------------------------======OOOOOOO++++++++++++++++++++++++++++++++++OOOOOOOOOOOOOOOOOOOOOOOOOOOOOOOOOOOOOOOO.......                                  ",
"                                                                                                                                .......---------------------------------------------------------------------------------------------------------------------------------------------------------------------------------------------------------------------------------------------======OOOOOOO++++++++++++++++++++++++++++++++++OOOOOOOOOOOOOOOOOOOOOOOOOOOOOOOOOOOOOOOO.......                                  ",
"                                                                                                                                .......--------------------------------------------------------------------------------------------------------------------------------------------------------------------------------------------------------------------------------------------=======OOOOOOO++++++++++++++++++++++++++++++++++OOOOOOOOOOOOOOOOOOOOOOOOOOOOOOOOOOOOOOOO.......                                  ",
"                                                                                                                         .......----------------------------------------------------------------------------------------------------------------------------------------------------------------------------------------------------------------------------------------------------------OOOOOOO++++++++++++++++++++OOOOOOOOOOOOOOOOOOOOOOOOOOOOOOOOOOOOOOOOOOOOOOOOOOOOOO.......                                  ",
"                                                                                                                         .......----------------------------------------------------------------------------------------------------------------------------------------------------------------------------------------------------------------------------------------------------------OOOOOOO++++++++++++++++++++OOOOOOOOOOOOOOOOOOOOOOOOOOOOOOOOOOOOOOOOOOOOOOOOOOOOOO.......                                  ",
"                                                                                                                         .......----------------------------------------------------------------------------------------------------------------------------------------------------------------------------------------------------------------------------------------------------------OOOOOOO++++++++++++++++++++OOOOOOOOOOOOOOOOOOOOOOOOOOOOOOOOOOOOOOOOOOOOOOOOOOOOOO.......                                  ",
"                                                                                                                         .......----------------------------------------------------------------------------------------------------------------------------------------------------------------------------------------------------------------------------------------------------------OOOOOOO++++++++++++++++++++OOOOOOOOOOOOOOOOOOOOOOOOOOOOOOOOOOOOOOOOOOOOOOOOOOOOOO.......                                  ",
"                                                                                                                         .......----------------------------------------------------------------------------------------------------------------------------------------------------------------------------------------------------------------------------------------------------------OOOOOOO++++++++++++++++++++OOOOOOOOOOOOOOOOOOOOOOOOOOOOOOOOOOOOOOOOOOOOOOOOOOOOOO.......                                  ",
"                                                                                                                         .......----------------------------------------------------------------------------------------------------------------------------------------------------------------------------------------------------------------------------------------------------------OOOOOOO++++++++++++++++++++OOOOOOOOOOOOOOOOOOOOOOOOOOOOOOOOOOOOOOOOOOOOOOOOOOOOOO.......                                  ",
"                                                                                                                         .......----------------------------------------------------------------------------------------------------------------------------------------------------------------------------------------------------------------------------------------------------------OOOOOOO++++++++++++++++++++OOOOOOOOOOOOOOOOOOOOOOOOOOOOOOOOOOOOOOOOOOOOOOOOOOOOOO.......                                  ",
"                                                                                                                         .......----------------------------------------------------------------------------------------------------------------------------------------------------------------------------------------------------------------------------------------------------------OOOOOOO+++++++OOOOOOOOOOOOOOOOOOOOOOOOOOOOOOOOOOOOOOOOOOOOOOOOOOOOOOOOOOOOOOOOOOO.......                                  ",
"                                                                                                                         .......----------------------------------------------------------------------------------------------------------------------------------------------------------------------------------------------------------------------------------------------------------OOOOOOO+++++++OOOOOOOOOOOOOOOOOOOOOOOOOOOOOOOOOOOOOOOOOOOOOOOOOOOOOOOOOOOOOOOOOOO.......                                  ",
"                                                                                                                         .......----------------------------------------------------------------------------------------------------------------------------------------------------------------------------------------------------------------------------------------------------------OOOOOOO+++++++OOOOOOOOOOOOOOOOOOOOOOOOOOOOOOOOOOOOOOOOOOOOOOOOOOOOOOOOOOOOOOOOOOO.......                                  ",
"                                                                                                                         .......----------------------------------------------------------------------------------------------------------------------------------------------------------------------------------------------------------------------------------------------------------OOOOOOO+++++++OOOOOOOOOOOOOOOOOOOOOOOOOOOOOOOOOOOOOOOOOOOOOOOOOOOOOOOOOOOOOOOOOOO.......                                  ",
"                                                                                                                         .......----------------------------------------------------------------------------------------------------------------------------------------------------------------------------------------------------------------------------------------------------------OOOOOOO+++++++OOOOOOOOOOOOOOOOOOOOOOOOOOOOOOOOOOOOOOOOOOOOOOOOOOOOOOOOOOOOOOOOOOO.......                                  ",
"                                                                                                                         .......----------------------------------------------------------------------------------------------------------------------------------------------------------------------------------------------------------------------------------------------------------OOOOOOO+++++++OOOOOOOOOOOOOOOOOOOOOOOOOOOOOOOOOOOOOOOOOOOOOOOOOOOOOOOOOOOOOOOOOOO.......                                  ",
"                                                                                                                         .......----------------------------------------------------------------------------------------------------------------------------------------------------------------------------------------------------------------------------------------------------------OOOOOOO+++++++OOOOOOOOOOOOOOOOOOOOOOOOOOOOOOOOOOOOOOOOOOOOOOOOOOOOOOOOOOOOOOOOOOO.......                                  ",
"                                                                                                                         .......-----------------------------------------------------------------------------------------------------------------------------------------------------------------------------------------------------------------------------------------------------------------OOOOOOOOOOOOOOOOOOOOOOOOOOOOOOOOOOOOOOOOOOOOOOOOOOOOOOOOOOOOOOOOOOOOOOOOOOOOOOOOO.......                           ",
"                                                                                                                         .......-----------------------------------------------------------------------------------------------------------------------------------------------------------------------------------------------------------------------------------------------------------------OOOOOOOOOOOOOOOOOOOOOOOOOOOOOOOOOOOOOOOOOOOOOOOOOOOOOOOOOOOOOOOOOOOOOOOOOOOOOOOOO.......                           ",
"                                                                                                                         .......-----------------------------------------------------------------------------------------------------------------------------------------------------------------------------------------------------------------------------------------------------------------OOOOOOOOOOOOOOOOOOOOOOOOOOOOOOOOOOOOOOOOOOOOOOOOOOOOOOOOOOOOOOOOOOOOOOOOOOOOOOOOO.......                           ",
"                                                                                                                         .......-----------------------------------------------------------------------------------------------------------------------------------------------------------------------------------------------------------------------------------------------------------------OOOOOOOOOOOOOOOOOOOOOOOOOOOOOOOOOOOOOOOOOOOOOOOOOOOOOOOOOOOOOOOOOOOOOOOOOOOOOOOOO.......                           ",
"                                                                                                                         .......-----------------------------------------------------------------------------------------------------------------------------------------------------------------------------------------------------------------------------------------------------------------OOOOOOOOOOOOOOOOOOOOOOOOOOOOOOOOOOOOOOOOOOOOOOOOOOOOOOOOOOOOOOOOOOOOOOOOOOOOOOOOO.......                           ",
"                                                                                                                         .......-----------------------------------------------------------------------------------------------------------------------------------------------------------------------------------------------------------------------------------------------------------------OOOOOOOOOOOOOOOOOOOOOOOOOOOOOOOOOOOOOOOOOOOOOOOOOOOOOOOOOOOOOOOOOOOOOOOOOOOOOOOOO.......                           ",
"                                                                                                                         .......-----------------------------------------------------------------------------------------------------------------------------------------------------------------------------------------------------------------------------------------------------------------OOOOOOOOOOOOOOOOOOOOOOOOOOOOOOOOOOOOOOOOOOOOOOOOOOOOOOOOOOOOOOOOOOOOOOOOOOOOOOOOO.......                           ",
"                                                                                                                   ......-----------------------------------------------------------------------------------------------------------------------------------------------------------------------------------------------------------------------------------------------------------------*******OOOOOOOOOOOOOOOOOOOOOOOOOOOOOOOOOOOOOOOOOOOOOOOOOOOOOOOOOOOOOOOOOOOOOOOOOOOOOOOOO.......                           ",
"                                                                                                                   ......-----------------------------------------------------------------------------------------------------------------------------------------------------------------------------------------------------------------------------------------------------------------*******OOOOOOOOOOOOOOOOOOOOOOOOOOOOOOOOOOOOOOOOOOOOOOOOOOOOOOOOOOOOOOOOOOOOOOOOOOOOOOOOO.......                           ",
"                                                                                                                   ......-----------------------------------------------------------------------------------------------------------------------------------------------------------------------------------------------------------------------------------------------------------------*******OOOOOOOOOOOOOOOOOOOOOOOOOOOOOOOOOOOOOOOOOOOOOOOOOOOOOOOOOOOOOOOOOOOOOOOOOOOOOOOOO.......                           ",
"                                                                                                                   ......-----------------------------------------------------------------------------------------------------------------------------------------------------------------------------------------------------------------------------------------------------------------*******OOOOOOOOOOOOOOOOOOOOOOOOOOOOOOOOOOOOOOOOOOOOOOOOOOOOOOOOOOOOOOOOOOOOOOOOOOOOOOOOO.......                           ",
"                                                                                                                   ......-----------------------------------------------------------------------------------------------------------------------------------------------------------------------------------------------------------------------------------------------------------------*******OOOOOOOOOOOOOOOOOOOOOOOOOOOOOOOOOOOOOOOOOOOOOOOOOOOOOOOOOOOOOOOOOOOOOOOOOOOOOOOOO.......                           ",
"                                                                                                                   ......-----------------------------------------------------------------------------------------------------------------------------------------------------------------------------------------------------------------------------------------------------------------*******OOOOOOOOOOOOOOOOOOOOOOOOOOOOOOOOOOOOOOOOOOOOOOOOOOOOOOOOOOOOOOOOOOOOOOOOOOOOOOOOO.......                           ",
"                                                                                                                   ......----------------------------------------------------------------------------------------------------------------------------------------------------------------------------------------------------------------------------------------------------------*********************OOOOOOOOOOOOOOOOOOOOOOOOOOOOOOOOOOOOOOOOOOOOOOOOOOOOOOOOOOOOOOOOOOOOOOOOOO.......                           ",
"                                                                                                                   ......----------------------------------------------------------------------------------------------------------------------------------------------------------------------------------------------------------------------------------------------------------*********************OOOOOOOOOOOOOOOOOOOOOOOOOOOOOOOOOOOOOOOOOOOOOOOOOOOOOOOOOOOOOOOOOOOOOOOOOO.......                           ",
"                                                                                                                   ......----------------------------------------------------------------------------------------------------------------------------------------------------------------------------------------------------------------------------------------------------------*********************OOOOOOOOOOOOOOOOOOOOOOOOOOOOOOOOOOOOOOOOOOOOOOOOOOOOOOOOOOOOOOOOOOOOOOOOOO.......                           ",
"                                                                                                                   ......----------------------------------------------------------------------------------------------------------------------------------------------------------------------------------------------------------------------------------------------------------*********************OOOOOOOOOOOOOOOOOOOOOOOOOOOOOOOOOOOOOOOOOOOOOOOOOOOOOOOOOOOOOOOOOOOOOOOOOO.......                           ",
"                                                                                                                   ......----------------------------------------------------------------------------------------------------------------------------------------------------------------------------------------------------------------------------------------------------------*********************OOOOOOOOOOOOOOOOOOOOOOOOOOOOOOOOOOOOOOOOOOOOOOOOOOOOOOOOOOOOOOOOOOOOOOOOOO.......                           ",
"                                                                                                                   ......----------------------------------------------------------------------------------------------------------------------------------------------------------------------------------------------------------------------------------------------------------*********************OOOOOOOOOOOOOOOOOOOOOOOOOOOOOOOOOOOOOOOOOOOOOOOOOOOOOOOOOOOOOOOOOOOOOOOOOO.......                           ",
"                                                                                                                   ......----------------------------------------------------------------------------------------------------------------------------------------------------------------------------------------------------------------------------------------------------------*********************OOOOOOOOOOOOOOOOOOOOOOOOOOOOOOOOOOOOOOOOOOOOOOOOOOOOOOOOOOOOOOOOOOOOOOOOOO.......                           ",
"                                                                                                                   ......-=======--------------------------------------------------------------------------------------------------------------------------------------------------------------------------------------------------------------------------------------------------*********************OOOOOOOOOOOOOOOOOOOOOOOOOOOOOOOOOOOOOOOOOOOOOOOOOOOOOOOOOOOOOOOOOOOOOOOOOO.......                           ",
"                                                                                                                   ......-=======--------------------------------------------------------------------------------------------------------------------------------------------------------------------------------------------------------------------------------------------------*********************OOOOOOOOOOOOOOOOOOOOOOOOOOOOOOOOOOOOOOOOOOOOOOOOOOOOOOOOOOOOOOOOOOOOOOOOOO.......                           ",
"                                                                                                                   ......-=====----------------------------------------------------------------------------------------------------------------------------------------------------------------------------------------------------------------------------------------------------*********************OOOOOOOOOOOOOOOOOOOOOOOOOOOOOOOOOOOOOOOOOOOOOOOOOOOOOOOOOOOOOOOOOOOOOOOOOO.......                           ",
"                                                                                                                   ......-======---------------------------------------------------------------------------------------------------------------------------------------------------------------------------------------------------------------------------------------------------*********************OOOOOOOOOOOOOOOOOOOOOOOOOOOOOOOOOOOOOOOOOOOOOOOOOOOOOOOOOOOOOOOOOOOOOOOOOO.......                           ",
"                                                                                                                   ......-=====----------------------------------------------------------------------------------------------------------------------------------------------------------------------------------------------------------------------------------------------------*********************OOOOOOOOOOOOOOOOOOOOOOOOOOOOOOOOOOOOOOOOOOOOOOOOOOOOOOOOOOOOOOOOOOOOOOOOOO.......                           ",
"                                                                                                                   ......-=======--------------------------------------------------------------------------------------------------------------------------------------------------------------------------------------------------------------------------------------------------*********************OOOOOOOOOOOOOOOOOOOOOOOOOOOOOOOOOOOOOOOOOOOOOOOOOOOOOOOOOOOOOOOOOOOOOOOOOO.......                           ",
"                                                                                                                   ......-=======--------------------------------------------------------------------------------------------------------------------------------------------------------------------------------------------------------------------------------------------------*********************OOOOOOOOOOOOOOOOOOOOOOOOOOOOOOOOOOOOOOOOOOOOOOOOOOOOOOOOOOOOOOOOOOOOOOOOOO.......                           ",
"                                                                                                                   ......-=======-------------------------------------------------------------------------------------------------------------------------------------------------------------------------------------------------------------------------------=======-=====***************************OOOOOOOOOOOOOOOOOOOOOOOOOOOOOOOOOOOOOOOOOOOOOOOOOOOOOOOOOOOOOOOOOOOOOOOOOOOOOOOOO.......                    ",
"                                                                                                                   ......-=====---------------------------------------------------------------------------------------------------------------------------------------------------------------------------------------------------------------------------------=============***************************OOOOOOOOOOOOOOOOOOOOOOOOOOOOOOOOOOOOOOOOOOOOOOOOOOOOOOOOOOOOOOOOOOOOOOOOOOOOOOOOO.......                    ",
"                                                                                                                   ......-=====---------------------------------------------------------------------------------------------------------------------------------------------------------------------------------------------------------------------------------==========-==***************************OOOOOOOOOOOOOOOOOOOOOOOOOOOOOOOOOOOOOOOOOOOOOOOOOOOOOOOOOOOOOOOOOOOOOOOOOOOOOOOOO.......                    ",
"                                                                                                                   ......-======--------------------------------------------------------------------------------------------------------------------------------------------------------------------------------------------------------------------------------========-====***************************OOOOOOOOOOOOOOOOOOOOOOOOOOOOOOOOOOOOOOOOOOOOOOOOOOOOOOOOOOOOOOOOOOOOOOOOOOOOOOOOO.......                    ",
"                                                                                                                   ......-=======-------------------------------------------------------------------------------------------------------------------------------------------------------------------------------------------------------------------------------========-====***************************OOOOOOOOOOOOOOOOOOOOOOOOOOOOOOOOOOOOOOOOOOOOOOOOOOOOOOOOOOOOOOOOOOOOOOOOOOOOOOOOO.......                    ",
"                                                                                                                   ......-======--------------------------------------------------------------------------------------------------------------------------------------------------------------------------------------------------------------------------------=======-=====***************************OOOOOOOOOOOOOOOOOOOOOOOOOOOOOOOOOOOOOOOOOOOOOOOOOOOOOOOOOOOOOOOOOOOOOOOOOOOOOOOOO.......                    ",
"                                                                                                                   ......-======-------------------------------------------------------------------------------------------------------------------------------------------------------------------------------------------------------------------------------==============***************************OOOOOOOOOOOOOOOOOOOOOOOOOOOOOOOOOOOOOOOOOOOOOOOOOOOOOOOOOOOOOOOOOOOOOOOOOOOOOOOOO.......                    ",
"                                                                   ..............                           .......******-=====------------------------------------------------------------------------------------------------------------------------------------------------------------------------------------------------------------------------=========-=====**********************************OOOOOOOOOOOOOOOOOOOOOOOOOOOOOOOOOOOOOOOOOOOOOOOOOOOOOOOOOOOOOOOOOOOOOOOOOOOOOOOOO.......                    ",
"                                                                   ..............                           .......******=======-------------------------------------------------------------------------------------------------------------------------------------------------------------------------------------------------------------------------==========-==**********************************OOOOOOOOOOOOOOOOOOOOOOOOOOOOOOOOOOOOOOOOOOOOOOOOOOOOOOOOOOOOOOOOOOOOOOOOOOOOOOOOO.......                    ",
"                                                                   ..............                           .......******========-----------------------------------------------------------------------------------------------------------------------------------------------------------------------------------------------------------------------=======-======**********************************OOOOOOOOOOOOOOOOOOOOOOOOOOOOOOOOOOOOOOOOOOOOOOOOOOOOOOOOOOOOOOOOOOOOOOOOOOOOOOOOO.......                    ",
"                                                                   ..............                           .......******======--------------------------------------------------------------------------------------------------------------------------------------------------------------------------------------------------------------------=----===========-==**********************************OOOOOOOOOOOOOOOOOOOOOOOOOOOOOOOOOOOOOOOOOOOOOOOOOOOOOOOOOOOOOOOOOOOOOOOOOOOOOOOOO.......                    ",
"                                                                   ..............                           .......******=======---------------------------------------------------------------------------------------------------------------------------------------------------------------------------------------------------------------------=---=======-=====**********************************OOOOOOOOOOOOOOOOOOOOOOOOOOOOOOOOOOOOOOOOOOOOOOOOOOOOOOOOOOOOOOOOOOOOOOOOOOOOOOOOO.......                    ",
"                                                                   ..............                           .......******-=======------------------------------------------------------------------------------------------------------------------------------------------------------------------------------------------------------------------------========-====**********************************OOOOOOOOOOOOOOOOOOOOOOOOOOOOOOOOOOOOOOOOOOOOOOOOOOOOOOOOOOOOOOOOOOOOOOOOOOOOOOOOO.......                    ",
"                                                                   .......:::::::.......             ..............*************=======------------------------------------------------------------------------------------------------------------------------------------------------------------------------------------------------------------=======-====***********************************************OOOOOOOOOOOOOOOOOOOOOOOOOOOOOOOOOOOOOOOOOOOOOOOOOOOOOOOOOOOOOOOOOOOOOOOOOOO.......                    ",
"                                                                   .......:::::::.......             ..............*************========-----------------------------------------------------------------------------------------------------------------------------------------------------------------------------------------------------------=======-====***********************************************OOOOOOOOOOOOOOOOOOOOOOOOOOOOOOOOOOOOOOOOOOOOOOOOOOOOOOOOOOOOOOOOOOOOOOOOOOO.......                    ",
"                                                                   .......:::::::.......             ..............*************======-------------------------------------------------------------------------------------------------------------------------------------------------------------------------------------------------------------=======-====***********************************************OOOOOOOOOOOOOOOOOOOOOOOOOOOOOOOOOOOOOOOOOOOOOOOOOOOOOOOOOOOOOOOOOOOOOOOOOOO.......                    ",
"                                                                   .......:::::::.......             ..............*************========-----------------------------------------------------------------------------------------------------------------------------------------------------------------------------------------------------------=======-====***********************************************OOOOOOOOOOOOOOOOOOOOOOOOOOOOOOOOOOOOOOOOOOOOOOOOOOOOOOOOOOOOOOOOOOOOOOOOOOO.......                    ",
"                                                                   .......:::::::.......             ..............*************=======------------------------------------------------------------------------------------------------------------------------------------------------------------------------------------------------------------=======-====***********************************************OOOOOOOOOOOOOOOOOOOOOOOOOOOOOOOOOOOOOOOOOOOOOOOOOOOOOOOOOOOOOOOOOOOOOOOOOOO.......                    ",
"                                                                   .......:::::::.......             ..............*************========-----------------------------------------------------------------------------------------------------------------------------------------------------------------------------------------------------------========-===***********************************************OOOOOOOOOOOOOOOOOOOOOOOOOOOOOOOOOOOOOOOOOOOOOOOOOOOOOOOOOOOOOOOOOOOOOOOOOOO.......                    ",
"                                                                   .......:::::::.......             ..............*************======------------------------------------------------------------------------------------------------------------------------------------------------------------------------------------------------------------=========-===***********************************************OOOOOOOOOOOOOOOOOOOOOOOOOOOOOOOOOOOOOOOOOOOOOOOOOOOOOOOOOOOOOOOOOOOOOOOOOOO.......                    ",
"                                               .......             .......::::::::::::::.............:::::::.......********************========-------------------------------------------------------------------------------------------------------------------------------------------------------------------------------==========================*****************************************.......******OOOOOOOOOOOOOOOOOOOOOOOOOOOOOOOOOOOOOOOOOOOOOOOOOOOOOOOOOOOOOOOOOOOOOOOOOOO.......                    ",
"                                               .......             .......::::::::::::::.............:::::::.......********************========-------------------------------------------------------------------------------------------------------------------------------------------------------------------------------========-========-========*****************************************.......******OOOOOOOOOOOOOOOOOOOOOOOOOOOOOOOOOOOOOOOOOOOOOOOOOOOOOOOOOOOOOOOOOOOOOOOOOOO.......                    ",
"                                               .......             .......::::::::::::::.............:::::::.......********************========-------------------------------------------------------------------------------------------------------------------------------------------------------------------------------=========-==========-=====*****************************************.......******OOOOOOOOOOOOOOOOOOOOOOOOOOOOOOOOOOOOOOOOOOOOOOOOOOOOOOOOOOOOOOOOOOOOOOOOOOO.......                    ",
"                                               .......             .......::::::::::::::.............:::::::.......********************========-------------------------------------------------------------------------------------------------------------------------------------------------------------------------------==========-============-==*****************************************.......******OOOOOOOOOOOOOOOOOOOOOOOOOOOOOOOOOOOOOOOOOOOOOOOOOOOOOOOOOOOOOOOOOOOOOOOOOOO.......                    ",
"                                               .......             .......::::::::::::::.............:::::::.......********************========-------------------------------------------------------------------------------------------------------------------------------------------------------------------------------========-=============-===*****************************************.......******OOOOOOOOOOOOOOOOOOOOOOOOOOOOOOOOOOOOOOOOOOOOOOOOOOOOOOOOOOOOOOOOOOOOOOOOOOO.......                    ",
"                                               .......             .......::::::::::::::.............:::::::.......********************========-------------------------------------------------------------------------------------------------------------------------------------------------------------------------------========-==============-==*****************************************.......******OOOOOOOOOOOOOOOOOOOOOOOOOOOOOOOOOOOOOOOOOOOOOOOOOOOOOOOOOOOOOOOOOOOOOOOOOOO.......                    ",
"                                               .......             .......::::::::::::::.............:::::::.......********************========-------------------------------------------------------------------------------------------------------------------------------------------------------------------------------========-===============-=*****************************************.......******OOOOOOOOOOOOOOOOOOOOOOOOOOOOOOOOOOOOOOOOOOOOOOOOOOOOOOOOOOOOOOOOOOOOOOOOOOO.......                    ",
"                                        .......:::::::.............::::::::::::::ooooooo......:::::::;;;;;;;.......***************************========-=====-----------------------------------------------------------------------------------------------------------------------------------------------------=========-=========******************************************************.......:::::::......OOOOOOOOOOOOOOOOOOOOOOOOOOOOOOOOOO..............OOOOOOOOOOOOOOOOOOOOOOOOOOO.......                    ",
"                                        .......:::::::.............::::::::::::::ooooooo......:::::::;;;;;;;.......***************************========-=====-----------------------------------------------------------------------------------------------------------------------------------------------------========-==========******************************************************.......:::::::......OOOOOOOOOOOOOOOOOOOOOOOOOOOOOOOOOO..............OOOOOOOOOOOOOOOOOOOOOOOOOOO.......                    ",
"                                        .......:::::::.............::::::::::::::ooooooo......:::::::;;;;;;;.......***************************==========-===-----------------------------------------------------------------------------------------------------------------------------------------------------========-==========******************************************************.......:::::::......OOOOOOOOOOOOOOOOOOOOOOOOOOOOOOOOOO..............OOOOOOOOOOOOOOOOOOOOOOOOOOO.......                    ",
"                                        .......:::::::.............::::::::::::::ooooooo......:::::::;;;;;;;.......***************************=========-===------------------------------------------------------------------------------------------------------------------------------------------------------========-==========******************************************************.......:::::::......OOOOOOOOOOOOOOOOOOOOOOOOOOOOOOOOOO..............OOOOOOOOOOOOOOOOOOOOOOOOOOO.......                    ",
"                                        .......:::::::.............::::::::::::::ooooooo......:::::::;;;;;;;.......***************************========-=====-----------------------------------------------------------------------------------------------------------------------------------------------------========-==========******************************************************.......:::::::......OOOOOOOOOOOOOOOOOOOOOOOOOOOOOOOOOO..............OOOOOOOOOOOOOOOOOOOOOOOOOOO.......                    ",
"                                        .......:::::::.............::::::::::::::ooooooo......:::::::;;;;;;;.......***************************=========-===------------------------------------------------------------------------------------------------------------------------------------------------------========-==========******************************************************.......:::::::......OOOOOOOOOOOOOOOOOOOOOOOOOOOOOOOOOO..............OOOOOOOOOOOOOOOOOOOOOOOOOOO.......                    ",
"                                        .......:::::::.............::::::::::::::ooooooo......:::::::;;;;;;;.......***************************========-=====-----------------------------------------------------------------------------------------------------------------------------------------------------========-==========******************************************************.......:::::::......OOOOOOOOOOOOOOOOOOOOOOOOOOOOOOOOOO..............OOOOOOOOOOOOOOOOOOOOOOOOOOO.......                    ",
"                                               .......:::::::;;;;;;oooooooooooooo-------......:::::::;;;;;;;;;;;;;;......***************************========-==================-------------------------------------------------------------------------------------------------------------=========-===================-===******************************************************.......:::::::.......******OOOOOOOOOOOOOOOOOOOOO......;;;;;;;.......OOOOOOOOOOOOOOOOOOOOOOOOOOOOOOOOOO.......                    ",
"                                               .......:::::::;;;;;;oooooooooooooo-------......:::::::;;;;;;;;;;;;;;......***************************========-===================------------------------------------------------------------------------------------------------------------==========-=====================-******************************************************.......:::::::.......******OOOOOOOOOOOOOOOOOOOOO......;;;;;;;.......OOOOOOOOOOOOOOOOOOOOOOOOOOOOOOOOOO.......                    ",
"                                               .......:::::::;;;;;;oooooooooooooo-------......:::::::;;;;;;;;;;;;;;......***************************=========-==================-----------------------------------------------------------------------------------------------------------===========-======================******************************************************.......:::::::.......******OOOOOOOOOOOOOOOOOOOOO......;;;;;;;.......OOOOOOOOOOOOOOOOOOOOOOOOOOOOOOOOOO.......                    ",
"                                               .......:::::::;;;;;;oooooooooooooo-------......:::::::;;;;;;;;;;;;;;......***************************========-==================-------------------------------------------------------------------------------------------------------------============-====================******************************************************.......:::::::.......******OOOOOOOOOOOOOOOOOOOOO......;;;;;;;.......OOOOOOOOOOOOOOOOOOOOOOOOOOOOOOOOOO.......                    ",
"                                               .......:::::::;;;;;;oooooooooooooo-------......:::::::;;;;;;;;;;;;;;......***************************=========-==================-------------------------------------------------------------------------------------------------------------=============-==================******************************************************.......:::::::.......******OOOOOOOOOOOOOOOOOOOOO......;;;;;;;.......OOOOOOOOOOOOOOOOOOOOOOOOOOOOOOOOOO.......                    ",
"                                               .......:::::::;;;;;;oooooooooooooo-------......:::::::;;;;;;;;;;;;;;......***************************===========-================-------------------------------------------------------------------------------------------------------------========-==================-====******************************************************.......:::::::.......******OOOOOOOOOOOOOOOOOOOOO......;;;;;;;.......OOOOOOOOOOOOOOOOOOOOOOOOOOOOOOOOOO.......                    ",
"                                               .......:::::::......---------------------------;;;;;;;;;;;;;;ooooooo.............***************************=========-==================-=====--------------------------------------------------------------------------===========-==================-==========*************************************************************......:::::::::::::::::::::.............OOOOOOO.......::::::;;;;;;;.......OOOOOOOOOOOOOOOOOOOOOOOOOOOOOOOOOO.......                    ",
"                                               .......:::::::......---------------------------;;;;;;;;;;;;;;ooooooo.............***************************==========-==================-=====--------------------------------------------------------------------------==========-==================-==========*************************************************************......:::::::::::::::::::::.............OOOOOOO.......::::::;;;;;;;.......OOOOOOOOOOOOOOOOOOOOOOOOOOOOOOOOOO.......                    ",
"                                               .......:::::::......---------------------------;;;;;;;;;;;;;;ooooooo.............***************************===========-==================-====-------------------------------------------------------------------------===========-==================-==========*************************************************************......:::::::::::::::::::::.............OOOOOOO.......::::::;;;;;;;.......OOOOOOOOOOOOOOOOOOOOOOOOOOOOOOOOOO.......                    ",
"                                               .......:::::::......---------------------------;;;;;;;;;;;;;;ooooooo.............***************************============-==================-===--------------------------------------------------------------------------============-==================-========*************************************************************......:::::::::::::::::::::.............OOOOOOO.......::::::;;;;;;;.......OOOOOOOOOOOOOOOOOOOOOOOOOOOOOOOOOO.......                    ",
"                                               .......:::::::......---------------------------;;;;;;;;;;;;;;ooooooo.............***************************=============-==================-==-------------------------------------------------------------------------========-==================-=============*************************************************************......:::::::::::::::::::::.............OOOOOOO.......::::::;;;;;;;.......OOOOOOOOOOOOOOOOOOOOOOOOOOOOOOOOOO.......                    ",
"                                               .......:::::::......---------------------------;;;;;;;;;;;;;;ooooooo.............***************************========-==================-=======-------------------------------------------------------------------------=========-==================-============*************************************************************......:::::::::::::::::::::.............OOOOOOO.......::::::;;;;;;;.......OOOOOOOOOOOOOOOOOOOOOOOOOOOOOOOOOO.......                    ",
"                                               .......:::::::......---------------------------;;;;;;;;;;;;;;ooooooo.............***************************==============-==================-=-------------------------------------------------------------------------==========-==================-===========*************************************************************......:::::::::::::::::::::.............OOOOOOO.......::::::;;;;;;;.......OOOOOOOOOOOOOOOOOOOOOOOOOOOOOOOOOO.......                    ",
"                                               .......;;;;;;;......---------------------------oooooooooooooo.......------******************************************************=========-==================-==================-==================-===================-==================-===**************************************************************************.......******;;;;;;;:::::::;;;;;;;......*******.......:::::::::::::;;;;;;;.......OOOOOOOOOOOOOOOOOOOOOOOOOOOOOOOOOO.......                    ",
"                                               .......;;;;;;;......---------------------------oooooooooooooo.......------******************************************************========-==================-====================-==================-=====================-==================-**************************************************************************.......******;;;;;;;:::::::;;;;;;;......*******.......:::::::::::::;;;;;;;.......OOOOOOOOOOOOOOOOOOOOOOOOOOOOOOOOOO.......                    ",
"                                               .......;;;;;;;......---------------------------oooooooooooooo.......------******************************************************========-==================-======================-==================-=======================-===============**************************************************************************.......******;;;;;;;:::::::;;;;;;;......*******.......:::::::::::::;;;;;;;.......OOOOOOOOOOOOOOOOOOOOOOOOOOOOOOOOOO.......                    ",
"                                               .......;;;;;;;......---------------------------oooooooooooooo.......------******************************************************========-==================-========================-==================-=========================-===========**************************************************************************.......******;;;;;;;:::::::;;;;;;;......*******.......:::::::::::::;;;;;;;.......OOOOOOOOOOOOOOOOOOOOOOOOOOOOOOOOOO.......                    ",
"                                               .......;;;;;;;......---------------------------oooooooooooooo.......------******************************************************========-==================-==========================-==================-===========================-=======**************************************************************************.......******;;;;;;;:::::::;;;;;;;......*******.......:::::::::::::;;;;;;;.......OOOOOOOOOOOOOOOOOOOOOOOOOOOOOOOOOO.......                    ",
"                                               .......;;;;;;;......---------------------------oooooooooooooo.......------******************************************************========-==================-============================-==================-=============================-===**************************************************************************.......******;;;;;;;:::::::;;;;;;;......*******.......:::::::::::::;;;;;;;.......OOOOOOOOOOOOOOOOOOOOOOOOOOOOOOOOOO.......                    ",
"                                               .......;;;;;;;......---------------------------oooooooooooooo.......------******************************************************========-==================-==============================-==================-===============================**************************************************************************.......******;;;;;;;:::::::;;;;;;;......*******.......:::::::::::::;;;;;;;.......OOOOOOOOOOOOOOOOOOOOOOOOOOOOOOOOOO.......                    ",
"                                                      .......-------============-========---------------------------------------.......*************************************************************========-==================-================================-======****************************************************************************************.......-------------XXXXXXXXXXXXXXXXXXXXX-------------.......;;;;;;;;;;;;;;;;;;;;..............OOOOOOO.............OOOOOOO.......                    ",
"                                                      .......------=============-========---------------------------------------.......*************************************************************========-==================-=================================-=====****************************************************************************************.......-------------XXXXXXXXXXXXXXXXXXXXX-------------.......;;;;;;;;;;;;;;;;;;;;..............OOOOOOO.............OOOOOOO.......                    ",
"                                                      .......------========-=============---------------------------------------.......*************************************************************=========-==================-==================================-===****************************************************************************************.......-------------XXXXXXXXXXXXXXXXXXXXX-------------.......;;;;;;;;;;;;;;;;;;;;..............OOOOOOO.............OOOOOOO.......                    ",
"                                                      .......------=============-========---------------------------------------.......*************************************************************========-==================-===================================-===****************************************************************************************.......-------------XXXXXXXXXXXXXXXXXXXXX-------------.......;;;;;;;;;;;;;;;;;;;;..............OOOOOOO.............OOOOOOO.......                    ",
"                                                      .......------=========-============---------------------------------------.......*************************************************************========-==================-====================================-==****************************************************************************************.......-------------XXXXXXXXXXXXXXXXXXXXX-------------.......;;;;;;;;;;;;;;;;;;;;..............OOOOOOO.............OOOOOOO.......                    ",
"                                                      .......-------==============-=====----------------------------------------.......*************************************************************========-==================-=====================================-=****************************************************************************************.......-------------XXXXXXXXXXXXXXXXXXXXX-------------.......;;;;;;;;;;;;;;;;;;;;..............OOOOOOO.............OOOOOOO.......                    ",
"                                                      .......------========-=============---------------------------------------.......*************************************************************=========-==================-======================================****************************************************************************************.......------=------XXXXXXXXXXXXXXXXXXXXX-------------.......;;;;;;;;;;;;;;;;;;;;..............OOOOOOO.............OOOOOOO.......                    ",
"                                                      .......-========-===**************==========-===--------------------------*******.......**********************************************************************************************************************************************************************************************************.......------------------------------------------------------*******....................*******..............::::::.......OOOOOOO.......                    ",
"                                                      .......-========-===**************========-=====--------------------------*******.......**********************************************************************************************************************************************************************************************************.......------=-----------------------------------------------*******....................*******..............::::::.......OOOOOOO.......                    ",
"                                                      .......========-====**************========-=====--------------------------*******.......**********************************************************************************************************************************************************************************************************.......------=-----------------------------------------------*******....................*******..............::::::.......OOOOOOO.......                    ",
"                                                      .......-========-===**************=========-===---------------------------*******.......**********************************************************************************************************************************************************************************************************.......------=-----------------------------------------------*******....................*******..............::::::.......OOOOOOO.......                    ",
"                                                      .......-========-===**************========-=====--------------------------*******.......**********************************************************************************************************************************************************************************************************.......------=-----------------------------------------------*******....................*******..............::::::.......OOOOOOO.......                    ",
"                                                      .......-=========-==**************========-=====--------------------------*******.......**********************************************************************************************************************************************************************************************************.......------=-----------------------------------------------*******....................*******..............::::::.......OOOOOOO.......                    ",
"                                               .......-======*********************************========--------------------------*******.......****************************************************************************************************************************************************************************************************......------=------------------------------------------=========-===-------============**************.......:::::::::::::..............                           ",
"                                               .......-======*********************************========--------------------------*******.......****************************************************************************************************************************************************************************************************......------=------------------------------------------========-===--------============**************.......:::::::::::::..............                           ",
"                                               .......-======*********************************========--------------------------*******.......****************************************************************************************************************************************************************************************************......------=-----------------------------------------=========-===-------========-====**************.......:::::::::::::..............                           ",
"                                               .......-======*********************************========--------------------------*******.......****************************************************************************************************************************************************************************************************......-------------------------------------------------=========-===-------=========-==**************.......:::::::::::::..............                           ",
"                                               .......-======*********************************========--------------------------*******.......****************************************************************************************************************************************************************************************************......------------------------------------------------==========-===-------==========-=**************.......:::::::::::::..............                           ",
"                                               .......-======*********************************========--------------------------*******.......****************************************************************************************************************************************************************************************************......-------------------------------------------------=============------=============**************.......:::::::::::::..............                           ",
"                                               .......-======*********************************========--------------------------*******.......****************************************************************************************************************************************************************************************************......-------------------------------------------------===========---------========-===**************.......:::::::::::::..............                           ",
"                                               .......***********************************************========------------==============.......*********************************************************************************************************************************************************************************************.......------=--------------------------=========-====*************=======**********************************;;;;;;;:::::::......OOOOOOO.......                           ",
"                                               .......***********************************************========-------------=============.......*********************************************************************************************************************************************************************************************.......------=---------------------------==========-==*************=======**********************************;;;;;;;:::::::......OOOOOOO.......                           ",
"                                               .......***********************************************========------------========-=====.......*********************************************************************************************************************************************************************************************.......------=--------------------------=========-====*************=======**********************************;;;;;;;:::::::......OOOOOOO.......                           ",
"                                               .......***********************************************========------------=========-====.......*********************************************************************************************************************************************************************************************.......------=---------------------------==========-==*************=======**********************************;;;;;;;:::::::......OOOOOOO.......                           ",
"                                               .......***********************************************========------------==========-===.......*********************************************************************************************************************************************************************************************.......------=---------------------------========-====*************=======**********************************;;;;;;;:::::::......OOOOOOO.......                           ",
"                                               .......***********************************************========------------===========-==.......*********************************************************************************************************************************************************************************************.......------=---------------------------========-====*************=======**********************************;;;;;;;:::::::......OOOOOOO.......                           ",
"                                               .......***********************************************========-------------========-====.......*********************************************************************************************************************************************************************************************.......------=---------------------------========-====*************=======**********************************;;;;;;;:::::::......OOOOOOO.......                           ",
"                                                      .......******XXXXXXXXXXXXXXXXXXXXX********************============-==============*******......********************************************************************************************************************************************************************************.......*******---------------------===========-********************************************************************....................OOOOOOO.......                           ",
"                                                      .......******XXXXXXXXXXXXXXXXXXXXX********************=============-=============*******......********************************************************************************************************************************************************************************.......*******--------------------===========-=********************************************************************....................OOOOOOO.......                           ",
"                                                      .......******XXXXXXXXXXXXXXXXXXXXX********************==============-============*******......********************************************************************************************************************************************************************************.......*******---------------------============********************************************************************....................OOOOOOO.......                           ",
"                                                      .......******XXXXXXXXXXXXXXXXXXXXX********************===============-===========*******......********************************************************************************************************************************************************************************.......*******---------------------============********************************************************************....................OOOOOOO.......                           ",
"                                                      .......******XXXXXXXXXXXXXXXXXXXXX********************================-==========*******......********************************************************************************************************************************************************************************.......*******--------------------=============********************************************************************....................OOOOOOO.......                           ",
"                                                      .......******XXXXXXXXXXXXXXXXXXXXX********************=================-=========*******......********************************************************************************************************************************************************************************.......*******---------------------=========-==********************************************************************....................OOOOOOO.......                           ",
"                                                      .......******XXXXXXXXXXXXXXXXXXXXX********************==================-========*******......********************************************************************************************************************************************************************************.......*******---------------------=========-==********************************************************************....................OOOOOOO.......                           ",
"                                                      .......XXXXXX##############XXXXXXX*********************************=======**************......********************************************************************************************************************************************************************************.......---------------------======**********************************XXXXXXXXXXXXX************************************************.............                                  ",
"                                                      .......XXXXXX##############XXXXXXX*********************************=======**************......********************************************************************************************************************************************************************************.......---------------------======**********************************XXXXXXXXXXXXX************************************************.............                                  ",
"                                                      .......XXXXXX##############XXXXXXX*********************************=======**************......********************************************************************************************************************************************************************************.......------=--------------======**********************************XXXXXXXXXXXXX************************************************.............                                  ",
"                                                      .......XXXXXX##############XXXXXXX*********************************=======**************......********************************************************************************************************************************************************************************.......------=--------------======**********************************XXXXXXXXXXXXX************************************************.............                                  ",
"                                                      .......XXXXXX##############XXXXXXX*********************************=======**************......********************************************************************************************************************************************************************************.......---------------------======**********************************XXXXXXXXXXXXX************************************************.............                                  ",
"                                                      .......XXXXXX##############XXXXXXX*********************************=======**************......********************************************************************************************************************************************************************************.......------=--------------======**********************************XXXXXXXXXXXXX************************************************.............                                  ",
"                                                             ......#####################XXXXXX******************************************************.......*************************************************************************************************************************************************************************.......------=-------------=======********************XXXXXXXXXXXXXX######XXXXXXXXXXXXXX*****************************************.............                                  ",
"                                                             ......#####################XXXXXX******************************************************.......*************************************************************************************************************************************************************************.......------=-------------=======********************XXXXXXXXXXXXXX######XXXXXXXXXXXXXX*****************************************.............                                  ",
"                                                             ......#####################XXXXXX******************************************************.......*************************************************************************************************************************************************************************.......------=--------------======********************XXXXXXXXXXXXXX######XXXXXXXXXXXXXX*****************************************.............                                  ",
"                                                             ......#####################XXXXXX******************************************************.......*************************************************************************************************************************************************************************.......------=-------------=======********************XXXXXXXXXXXXXX######XXXXXXXXXXXXXX*****************************************.............                                  ",
"                                                             ......#####################XXXXXX******************************************************.......*************************************************************************************************************************************************************************.......------=------------========********************XXXXXXXXXXXXXX######XXXXXXXXXXXXXX*****************************************.............                                  ",
"                                                             ......#####################XXXXXX******************************************************.......*************************************************************************************************************************************************************************.......------=-------------=======********************XXXXXXXXXXXXXX######XXXXXXXXXXXXXX*****************************************.............                                  ",
"                                                             ......#####################XXXXXX******************************************************.......*************************************************************************************************************************************************************************.......------=-------------=======********************XXXXXXXXXXXXXX######XXXXXXXXXXXXXX*****************************************.............                                  ",
"                                                      .......###########################XXXXXX************************************************......OOOOOOOOOOOOOO******************************************************************************************************************************************************************.......---------------------======*************XXXXXXX##################################XXXXXXX**********************************......                                         ",
"                                                      .......###########################XXXXXX************************************************......OOOOOOOOOOOOOO******************************************************************************************************************************************************************.......------=-------------=======*************XXXXXXX##################################XXXXXXX**********************************......                                         ",
"                                                      .......###########################XXXXXX************************************************......OOOOOOOOOOOOOO******************************************************************************************************************************************************************.......--------------------=======*************XXXXXXX##################################XXXXXXX**********************************......                                         ",
"                                                      .......###########################XXXXXX************************************************......OOOOOOOOOOOOOO******************************************************************************************************************************************************************.......------=------------========*************XXXXXXX##################################XXXXXXX**********************************......                                         ",
"                                                      .......###########################XXXXXX************************************************......OOOOOOOOOOOOOO******************************************************************************************************************************************************************.......------=-------------=======*************XXXXXXX##################################XXXXXXX**********************************......                                         ",
"                                                      .......###########################XXXXXX************************************************......OOOOOOOOOOOOOO******************************************************************************************************************************************************************.......--------------------=======*************XXXXXXX##################################XXXXXXX**********************************......                                         ",
"                                                      .......###########################XXXXXX************************************************......OOOOOOOOOOOOOO******************************************************************************************************************************************************************.......---------------------======*************XXXXXXX##################################XXXXXXX**********************************......                                         ",
"                                                             ......#####################XXXXXX************************************************......OOOOOOOOOOOOOOOOOOOOOOOOOOO**********************************************************************************************************************************************.......-------------=======*********************XXXXXX#########################################XXXXXXX********************..............                                               ",
"                                                             ......#####################XXXXXX************************************************......OOOOOOOOOOOOOOOOOOOOOOOOOOO**********************************************************************************************************************************************.......------=--------=====*********************XXXXXX#########################################XXXXXXX********************..............                                               ",
"                                                             ......#####################XXXXXX************************************************......OOOOOOOOOOOOOOOOOOOOOOOOOOO**********************************************************************************************************************************************.......-------------=======*********************XXXXXX#########################################XXXXXXX********************..............                                               ",
"                                                             ......#####################XXXXXX************************************************......OOOOOOOOOOOOOOOOOOOOOOOOOOO**********************************************************************************************************************************************.......------=--------=====*********************XXXXXX#########################################XXXXXXX********************..............                                               ",
"                                                             ......#####################XXXXXX************************************************......OOOOOOOOOOOOOOOOOOOOOOOOOOO**********************************************************************************************************************************************.......--------------======*********************XXXXXX#########################################XXXXXXX********************..............                                               ",
"                                                             ......#####################XXXXXX************************************************......OOOOOOOOOOOOOOOOOOOOOOOOOOO**********************************************************************************************************************************************.......-------------=======*********************XXXXXX#########################################XXXXXXX********************..............                                               ",
"                                                             ......#####################XXXXXX************************************************......OOOOOOOOOOOOOOOOOOOOOOOOOOO**********************************************************************************************************************************************.......---------------=====*********************XXXXXX#########################################XXXXXXX********************..............                                               ",
"                                                                   .......####################XXXXXXX*****************************************......OOOOOOOOOOOOOOOOOOOOOOOOOOOOOOOOOO**********************************************************************************************************************************************.......--------=====**************XXXXXXX###############################################XXXXXXX********************.......                                                      ",
"                                                                   .......####################XXXXXXX*****************************************......OOOOOOOOOOOOOOOOOOOOOOOOOOOOOOOOOO**********************************************************************************************************************************************.......------=-=====**************XXXXXXX###############################################XXXXXXX********************.......                                                      ",
"                                                                   .......####################XXXXXXX*****************************************......OOOOOOOOOOOOOOOOOOOOOOOOOOOOOOOOOO**********************************************************************************************************************************************.......------=-=====**************XXXXXXX###############################################XXXXXXX********************.......                                                      ",
"                                                                   .......####################XXXXXXX*****************************************......OOOOOOOOOOOOOOOOOOOOOOOOOOOOOOOOOO**********************************************************************************************************************************************.......--------=====**************XXXXXXX###############################################XXXXXXX********************.......                                                      ",
"                                                                   .......####################XXXXXXX*****************************************......OOOOOOOOOOOOOOOOOOOOOOOOOOOOOOOOOO**********************************************************************************************************************************************.......-------======**************XXXXXXX###############################################XXXXXXX********************.......                                                      ",
"                                                                   .......####################XXXXXXX*****************************************......OOOOOOOOOOOOOOOOOOOOOOOOOOOOOOOOOO**********************************************************************************************************************************************.......--------=====**************XXXXXXX###############################################XXXXXXX********************.......                                                      ",
"                                                                          .......#############XXXXXXX*****************************************......OOOOOOOOOOOOOO..................................$$$$$$$***************************=-----*******=-------------******=------*******=------******=------***************************.......--------=====**************XXXXXXX###############################################XXXXXXX********************.......                                                      ",
"                                                                          .......#############XXXXXXX*****************************************......OOOOOOOOOOOOOO..................................$$$$$$$***************************=-----*******=-------------******=------*******=------******-------***************************.......=-------=====**************XXXXXXX###############################################XXXXXXX********************.......                                                      ",
"                                                                          .......#############XXXXXXX*****************************************......OOOOOOOOOOOOOO..................................$$$$$$$***************************=-----*******--------------******=------*******=------******-------***************************.......--------=====**************XXXXXXX###############################################XXXXXXX********************.......                                                      ",
"                                                                          .......#############XXXXXXX*****************************************......OOOOOOOOOOOOOO..................................$$$$$$$***************************=-----*******=-------------******=------*******=------******=------***************************.......=-----=======**************XXXXXXX###############################################XXXXXXX********************.......                                                      ",
"                                                                          .......#############XXXXXXX*****************************************......OOOOOOOOOOOOOO..................................$$$$$$$***************************=-----*******=-------------******=------*******=------******=------***************************.......------=======**************XXXXXXX###############################################XXXXXXX********************.......                                                      ",
"                                                                          .......#############XXXXXXX*****************************************......OOOOOOOOOOOOOO..................................$$$$$$$***************************=-----*******=-------------******=------*******=------******-------***************************.......-------======**************XXXXXXX###############################################XXXXXXX********************.......                                                      ",
"                                                                          .......#############XXXXXXX*****************************************......OOOOOOOOOOOOOO..................................$$$$$$$***************************=-----*******--------------******=------*******=------******=------***************************.......-------======**************XXXXXXX###############################################XXXXXXX********************.......                                                      ",
"                                                                                 #############XXXXXXX**********************************...........................                                  ..................................$$$$$$-------**************=-----*******-------*******=-----*******.........................................***************************XXXXXX##################################XXXXXXX********************.......                                                             ",
"                                                                                 #############XXXXXXX**********************************...........................                                  ..................................$$$$$$-------**************=-----*******-------*******------*******.........................................***************************XXXXXX##################################XXXXXXX********************.......                                                             ",
"                                                                                 #############XXXXXXX**********************************...........................                                  ..................................$$$$$$-------**************=-----*******=------*******------*******.........................................***************************XXXXXX##################################XXXXXXX********************.......                                                             ",
"                                                                                 #############XXXXXXX**********************************...........................                                  ..................................$$$$$$-------**************=-----*******-------*******------*******.........................................***************************XXXXXX##################################XXXXXXX********************.......                                                             ",
"                                                                                 #############XXXXXXX**********************************...........................                                  ..................................$$$$$$-------**************=-----*******=------*******------*******.........................................***************************XXXXXX##################################XXXXXXX********************.......                                                             ",
"                                                                                 #############XXXXXXX**********************************...........................                                  ..................................$$$$$$-------**************=-----*******-------*******------*******.........................................***************************XXXXXX##################################XXXXXXX********************.......                                                             ",
"                                                                                 #############XXXXXXX**********************************...........................                                  ..................................$$$$$$-------**************=-----*******=------*******=-----*******.........................................***************************XXXXXX##################################XXXXXXX********************.......                                                             ",
"                                                                                 .............*****************************************.......                                                                                        ...................................................................                                         ......***************************XXXXXXXXXXXXXXXXXXXXX######XXXXXXX********************..............                                                             ",
"                                                                                 .............*****************************************.......                                                                                        ...................................................................                                         ......***************************XXXXXXXXXXXXXXXXXXXXX######XXXXXXX********************..............                                                             ",
"                                                                                 .............*****************************************.......                                                                                        ...................................................................                                         ......***************************XXXXXXXXXXXXXXXXXXXXX######XXXXXXX********************..............                                                             ",
"                                                                                 .............*****************************************.......                                                                                        ...................................................................                                         ......***************************XXXXXXXXXXXXXXXXXXXXX######XXXXXXX********************..............                                                             ",
"                                                                                 .............*****************************************.......                                                                                        ...................................................................                                         ......***************************XXXXXXXXXXXXXXXXXXXXX######XXXXXXX********************..............                                                             ",
"                                                                                 .............*****************************************.......                                                                                        ...................................................................                                         ......***************************XXXXXXXXXXXXXXXXXXXXX######XXXXXXX********************..............                                                             ",
"                                                                                 .............*****************************************.......                                                                                        ...................................................................                                         ......***************************XXXXXXXXXXXXXXXXXXXXX######XXXXXXX********************..............                                                             ",
"                                                                                        ........................................                                                                                                                                                                                                                        .......*****************************************XXXXXX*********************......                                                                           ",
"                                                                                        ........................................                                                                                                                                                                                                                        .......*****************************************XXXXXX*********************......                                                                           ",
"                                                                                        ........................................                                                                                                                                                                                                                        .......*****************************************XXXXXX*********************......                                                                           ",
"                                                                                        ........................................                                                                                                                                                                                                                        .......*****************************************XXXXXX*********************......                                                                           ",
"                                                                                        ........................................                                                                                                                                                                                                                        .......*****************************************XXXXXX*********************......                                                                           ",
"                                                                                        ........................................                                                                                                                                                                                                                        .......*****************************************XXXXXX*********************......                                                                           ",
"                                                                                        ........................................                                                                                                                                                                                                                        .......*****************************************XXXXXX*********************......                                                                           ",
"                                                                                                                                                                                                                                                                                                                                                               **********************************.......******..............                                                                                        ",
"                                                                                                                                                                                                                                                                                                                                                               **********************************.......******..............                                                                                        ",
"                                                                                                                                                                                                                                                                                                                                                               **********************************.......******..............                                                                                        ",
"                                                                                                                                                                                                                                                                                                                                                               **********************************.......******..............                                                                                        ",
"                                                                                                                                                                                                                                                                                                                                                               **********************************.......******..............                                                                                        ",
"                                                                                                                                                                                                                                                                                                                                                               **********************************.......******..............                                                                                        ",
"                                                                                                                                                                                                                                                                                                                                                               ..................................       ......                                                                                                      ",
"                                                                                                                                                                                                                                                                                                                                                               ..................................       ......                                                                                                      ",
"                                                                                                                                                                                                                                                                                                                                                               ..................................       ......                                                                                                      ",
"                                                                                                                                                                                                                                                                                                                                                               ..................................       ......                                                                                                      ",
"                                                                                                                                                                                                                                                                                                                                                               ..................................       ......                                                                                                      ",
"                                                                                                                                                                                                                                                                                                                                                               ..................................       ......                                                                                                      ",
"                                                                                                                                                                                                                                                                                                                                                               ..................................       ......                                                                                                      ",
"                                                                                                                                                                                                                                                                                                                                                               ..................................       ......                                                                                                      ",
"                                                                                                                                                                                                                                                                                                                                                                                                                                                                                                                    ",
"                                                                                                                                                                                                                                                                                                                                                                                                                                                                                                                    "
};
