/* XPM */
static char *out[] = {
/* columns rows colors chars-per-pixel */
"500 503 16 1 ",
"  c #FF00FF",
". c black",
"X c #634221",
"o c #735A21",
"O c #103942",
"+ c #315A7B",
"@ c gray45",
"# c #A57352",
"$ c #C69C5A",
"% c #528CAD",
"& c #73A5BD",
"* c #E7C6AD",
"= c #F7D6BD",
"- c #F7E7BD",
"; c #CECECE",
": c white",
/* pixels */
"                                                                                                                                                                                                                                                                                                                                                                                                                                                                                                                    ",
"                                                                                                                                                                                                                                                                                                                                                                                                                                                                                                                    ",
"                                                                                                                                                                                                                                                                                                                                                                                                                                                                                                                    ",
"                                                                                                                                                                                                                                                                                                                                                                                                                                                                                                                    ",
"                                                                                                                                                                                                                                                                                                                                                                                                                                                                                                                    ",
"                                                                                                                                                                                                                                                                                                                                                                                                                                                                                                                    ",
"                                                                                                                                                                                                                                                                                                                                                                                                                                                                                                                    ",
"                                                                                                                                                                                                                                                                                                                                                                                                                                                                                                                    ",
"                                                                                                                                                                                                                                                                                                                                                                                                                                                                                                                    ",
"                                                                                                                                                                                                                                                                                                                                                                                                                                                                                                                    ",
"                                                                                                                                                                                                                                                                                                                                                                                                                                                                                                                    ",
"                                                                                                                                                                                                                                                                                                                                                                                                                                                                                                                    ",
"                                                                                                                                                                                                                                                                                                                                                                                                                                                                                                                    ",
"                                                                                                                                                                                                                                                                                                                                                                                                                                                                                                                    ",
"                                                                                                                                                                                                                                                                                                                                                                                                                                                                                                                    ",
"                                                                                                                                                                                                                                                                                                                                                                                                                                                                                                                    ",
"                                                                                                                                                                                                                                                                                                                                                                                                                                                                                                                    ",
"                                                                                                                                                                                                                                                                                                                                                                                                                                                                                                                    ",
"                                                                                                                                                                                                                                                                                                                                                                                                                                                                                                                    ",
"                                                                                                                                                                                                                                                                                                                                                                                                                                                                                                                    ",
"                                                                                                                                                                                                                                                                                                                                                                                                                                                                                                                    ",
"                                                                                                                                                                                                                                                                                                                                                                                                                                                                                                                    ",
"                                                                                                                                                                                                                                                                                                                                                                                                                                                                                                                    ",
"                                                                                                                                                                                                                                                                                                                                                                                                                                                                                                                    ",
"                                                                                                                                                                                                                                                                                                                                                                                                                                                                                                                    ",
"                                                                                                                                                                                                                                                                                                                                                                                                                                                                                                                    ",
"                                                                                                                                                                                                                                                                                                                                                                                                                                                                                                                    ",
"                                                                                                                                                                                                                                                                                                                                                                                                                                                                                                                    ",
"                                                                                                                                                                                                                                                                                                                                                                                                                                                                                                                    ",
"                                                                                                                                                                                                                                                                                                                                                                                                                                                                                                                    ",
"                                                                                                                                                                                                                                                                                                                                                                                                                                                                                                                    ",
"                                                                                                                                                                                                                                                                                                                                                                                                                                                                                                                    ",
"                                                                                                                                                                                                                                                                                                                                                                                                                                                                                                                    ",
"                                                                                                                                                                                                                                                                                                                                                                                                                                                                                                                    ",
"                                                                                                                                                                                                                                                                                                                                                                                                                                                                                                                    ",
"                                                                                                                                                                                                                                                                                                                                                                                                                                                                                                                    ",
"                                                                                                                                                                                                                                                                                                                                                                                                                                                                                                                    ",
"                                                                                                                                                                                                                                                                                                                                                                                                                                                                                                                    ",
"                                                                                                                                                                                                                                                                                                                                                                                                                                                                                                                    ",
"                                                                                                                                                                                                                                                                                                                                                                                                                                                                                                                    ",
"                                                                                                                                                                                                                                                                                                                                                                                                                                                                                                                    ",
"                                                                                                                                                                                                                                                                                                                                                                                                                                                                                                                    ",
"                                                                                                                                                                                                                                                                                                                                                                                                                                                                                                                    ",
"                                                                                                                                                                                                                                                                                                                                                                                                                                                                                                                    ",
"                                                                                                                                                                                                                                                                                                                                                                                                                                                                                                                    ",
"                                                                                                                                                                                                                                                                                                                                                                                                                                                                                                                    ",
"                                                                                                                                                                                                                                                                                                                                                                                                                                                                                                                    ",
"                                                                                                                                                                                                           .............                                                                                        OOOOOOO....................                                                                                                                                                                         ",
"                                                                                                                                                                                                           .............                                                                                        OOOOOOO....................                                                                                                                                                                         ",
"                                                                                                                                                                                                           .............                                                                                        OOOOOOO....................                                                                                                                                                                         ",
"                                                                                                                                                                                                           .............                                                                                        OOOOOOO....................                                                                                                                                                                         ",
"                                                                                                                                                                                                           .............                                                                                        OOOOOOO....................                                                                                                                                                                         ",
"                                                                                                                                                                                                           .............                                                                                        OOOOOOO....................                                                                                                                                                                         ",
"                                                                                                                                                                                                           .............                                                                                        OOOOOOO....................                                                                                                                                                                         ",
"                                                                                                                                                                                                    OOOOOOO%%%%%%+++++++..............                                                                   OOOOOOO%%%%%%%%%%%%%++++++++++++++.......                                                                                                                                                                  ",
"                                                                                                                                                                                                    OOOOOOO%%%%%%+++++++..............                                                                   OOOOOOO%%%%%%%%%%%%%++++++++++++++.......                                                                                                                                                                  ",
"                                                                                                                                                                                                    OOOOOOO%%%%%%+++++++..............                                                                   OOOOOOO%%%%%%%%%%%%%++++++++++++++.......                                                                                                                                                                  ",
"                                                                                                                                                                                                    OOOOOOO%%%%%%+++++++..............                                                                   OOOOOOO%%%%%%%%%%%%%++++++++++++++.......                                                                                                                                                                  ",
"                                                                                                                                                                                                    OOOOOOO%%%%%%+++++++..............                                                                   OOOOOOO%%%%%%%%%%%%%++++++++++++++.......                                                                                                                                                                  ",
"                                                                                                                                                                                                    OOOOOOO%%%%%%+++++++..............                                                                   OOOOOOO%%%%%%%%%%%%%++++++++++++++.......                                                                                                                                                                  ",
"                                                                                                                                                                                                    OOOOOOO%%%%%%+++++++..............                                                                   OOOOOOO%%%%%%%%%%%%%++++++++++++++.......                                                                                                                                                                  ",
"                                                                                                                                                                                                    OOOOOOO%%%%%%+++++++++++++++++++++......                                                      OOOOOOO%%%%%%%%%%%%%%%%%%%%%%%%%%%+++++++.......                                                                                                                                                                  ",
"                                                                                                                                                                                                    OOOOOOO%%%%%%+++++++++++++++++++++......                                                      OOOOOOO%%%%%%%%%%%%%%%%%%%%%%%%%%%+++++++.......                                                                                                                                                                  ",
"                                                                                                                                                                                                    OOOOOOO%%%%%%+++++++++++++++++++++......                                                      OOOOOOO%%%%%%%%%%%%%%%%%%%%%%%%%%%+++++++.......                                                                                                                                                                  ",
"                                                                                                                                                                                                    OOOOOOO%%%%%%+++++++++++++++++++++......                                                      OOOOOOO%%%%%%%%%%%%%%%%%%%%%%%%%%%+++++++.......                                                                                                                                                                  ",
"                                                                                                                                                                                                    OOOOOOO%%%%%%+++++++++++++++++++++......                                                      OOOOOOO%%%%%%%%%%%%%%%%%%%%%%%%%%%+++++++.......                                                                                                                                                                  ",
"                                                                                                                                                                                                    OOOOOOO%%%%%%+++++++++++++++++++++......                                                      OOOOOOO%%%%%%%%%%%%%%%%%%%%%%%%%%%+++++++.......                                                                                                                                                                  ",
"                                                                                                                                                                                             OOOOOOO%%%%%%%%%%%%%%%%%%%%++++++++++++++++++++.......                                         OOOOOO%%%%%%%%%%%%%%%%%%%%%%%%%%%%%%%%%%++++++++++++++......                                                                                                                                                            ",
"                                                                                                                                                                                             OOOOOOO%%%%%%%%%%%%%%%%%%%%++++++++++++++++++++.......                                         OOOOOO%%%%%%%%%%%%%%%%%%%%%%%%%%%%%%%%%%++++++++++++++......                                                                                                                                                            ",
"                                                                                                                                                                                             OOOOOOO%%%%%%%%%%%%%%%%%%%%++++++++++++++++++++.......                                         OOOOOO%%%%%%%%%%%%%%%%%%%%%%%%%%%%%%%%%%++++++++++++++......                                                                                                                                                            ",
"                                                                                                                                                                                             OOOOOOO%%%%%%%%%%%%%%%%%%%%++++++++++++++++++++.......                                         OOOOOO%%%%%%%%%%%%%%%%%%%%%%%%%%%%%%%%%%++++++++++++++......                                                                                                                                                            ",
"                                                                                                                                                                                             OOOOOOO%%%%%%%%%%%%%%%%%%%%++++++++++++++++++++.......                                         OOOOOO%%%%%%%%%%%%%%%%%%%%%%%%%%%%%%%%%%++++++++++++++......                                                                                                                                                            ",
"                                                                                                                                                                                             OOOOOOO%%%%%%%%%%%%%%%%%%%%++++++++++++++++++++.......                                         OOOOOO%%%%%%%%%%%%%%%%%%%%%%%%%%%%%%%%%%++++++++++++++......                                                                                                                                                            ",
"                                                                                                                                                                                             OOOOOOO%%%%%%%%%%%%%%%%%%%%++++++++++++++++++++.......                                         OOOOOO%%%%%%%%%%%%%%%%%%%%%%%%%%%%%%%%%%++++++++++++++......                                                                                                                                                            ",
"                                                                                                                                                                                      OOOOOOO%%%%%%%%%%%%%%%%%%%%+++++++OOOOOOOOOOOOOO++++++&&&&&&&..................................%%%%%%%%%%%%%%%%%%%%%%%%%%%%%%%%%%%%%%%%++++++++++++++.......                                                                                                                                                                  ",
"                                                                                                                                                                                      OOOOOOO%%%%%%%%%%%%%%%%%%%%+++++++OOOOOOOOOOOOOO++++++&&&&&&&..................................%%%%%%%%%%%%%%%%%%%%%%%%%%%%%%%%%%%%%%%%++++++++++++++.......                                                                                                                                                                  ",
"                                                                                                                                                                                      OOOOOOO%%%%%%%%%%%%%%%%%%%%+++++++OOOOOOOOOOOOOO++++++&&&&&&&..................................%%%%%%%%%%%%%%%%%%%%%%%%%%%%%%%%%%%%%%%%++++++++++++++.......                                                                                                                                                                  ",
"                                                                                                                                                                                      OOOOOOO%%%%%%%%%%%%%%%%%%%%+++++++OOOOOOOOOOOOOO++++++&&&&&&&..................................%%%%%%%%%%%%%%%%%%%%%%%%%%%%%%%%%%%%%%%%++++++++++++++.......                                                                                                                                                                  ",
"                                                                                                                                                                                      OOOOOOO%%%%%%%%%%%%%%%%%%%%+++++++OOOOOOOOOOOOOO++++++&&&&&&&..................................%%%%%%%%%%%%%%%%%%%%%%%%%%%%%%%%%%%%%%%%++++++++++++++.......                                                                                                                                                                  ",
"                                                                                                                                                                                      OOOOOOO%%%%%%%%%%%%%%%%%%%%+++++++OOOOOOOOOOOOOO++++++&&&&&&&..................................%%%%%%%%%%%%%%%%%%%%%%%%%%%%%%%%%%%%%%%%++++++++++++++.......                                                                                                                                                                  ",
"                                                                                                                                                                                      OOOOOOO%%%%%%%%%%%%%%%%%%%%+++++++OOOOOOOOOOOOOO++++++&&&&&&&..................................%%%%%%%%%%%%%%%%%%%%%%%%%%%%%%%%%%%%%%%%++++++++++++++.......                                                                                                                                                                  ",
"                                                                                                                                                                                      OOOOOOO%%%%%%%%%%%%%%+++++++++++++%%%%%%%&&&&&&&&&&&&&&&&&&&&&&&&&&&%%%%%%%%%%%%%%%%%%%%%%%%%%%%%%%%%%%%%%%%%%%%%%%%%%%%%%%%%%%%%+++++++++++++++++++++++++++......                                                                                                                                                            ",
"                                                                                                                                                                                      OOOOOOO%%%%%%%%%%%%%%+++++++++++++%%%%%%%&&&&&&&&&&&&&&&&&&&&&&&&&&&%%%%%%%%%%%%%%%%%%%%%%%%%%%%%%%%%%%%%%%%%%%%%%%%%%%%%%%%%%%%%+++++++++++++++++++++++++++......                                                                                                                                                            ",
"                                                                                                                                                                                      OOOOOOO%%%%%%%%%%%%%%+++++++++++++%%%%%%%&&&&&&&&&&&&&&&&&&&&&&&&&&&%%%%%%%%%%%%%%%%%%%%%%%%%%%%%%%%%%%%%%%%%%%%%%%%%%%%%%%%%%%%%+++++++++++++++++++++++++++......                                                                                                                                                            ",
"                                                                                                                                                                                      OOOOOOO%%%%%%%%%%%%%%+++++++++++++%%%%%%%&&&&&&&&&&&&&&&&&&&&&&&&&&&%%%%%%%%%%%%%%%%%%%%%%%%%%%%%%%%%%%%%%%%%%%%%%%%%%%%%%%%%%%%%+++++++++++++++++++++++++++......                                                                                                                                                            ",
"                                                                                                                                                                                      OOOOOOO%%%%%%%%%%%%%%+++++++++++++%%%%%%%&&&&&&&&&&&&&&&&&&&&&&&&&&&%%%%%%%%%%%%%%%%%%%%%%%%%%%%%%%%%%%%%%%%%%%%%%%%%%%%%%%%%%%%%+++++++++++++++++++++++++++......                                                                                                                                                            ",
"                                                                                                                                                                                      OOOOOOO%%%%%%%%%%%%%%+++++++++++++%%%%%%%&&&&&&&&&&&&&&&&&&&&&&&&&&&%%%%%%%%%%%%%%%%%%%%%%%%%%%%%%%%%%%%%%%%%%%%%%%%%%%%%%%%%%%%%+++++++++++++++++++++++++++......                                                                                                                                                            ",
"                                                                                                                                                                                      OOOOOOO%%%%%%%%%%%%%%+++++++++++++%%%%%%%&&&&&&&&&&&&&&&&&&&&&&&&&&&%%%%%%%%%%%%%%%%%%%%%%%%%%%%%%%%%%%%%%%%%%%%%%%%%%%%%%%%%%%%%+++++++++++++++++++++++++++......                                                                                                                                                            ",
"                                                                                                                                                                                      OOOOOOO%%%%%%%+++++++%%%%%%%%%%%%%%%%%%%%%%%%%%%&&&&&&&&&&&&&&&&&&&&&&&&&&&%%%%%%%%%%%%%%%%%%%%%%%%%%%%%%%%%%%%%%%%%%%%%%%%%%%%%%+++++++++++++++++++++++++++++++++.......                                                                                                                                                     ",
"                                                                                                                                                                                      OOOOOOO%%%%%%%+++++++%%%%%%%%%%%%%%%%%%%%%%%%%%%&&&&&&&&&&&&&&&&&&&&&&&&&&&%%%%%%%%%%%%%%%%%%%%%%%%%%%%%%%%%%%%%%%%%%%%%%%%%%%%%%+++++++++++++++++++++++++++++++++.......                                                                                                                                                     ",
"                                                                                                                                                                                      OOOOOOO%%%%%%%+++++++%%%%%%%%%%%%%%%%%%%%%%%%%%%&&&&&&&&&&&&&&&&&&&&&&&&&&&%%%%%%%%%%%%%%%%%%%%%%%%%%%%%%%%%%%%%%%%%%%%%%%%%%%%%%+++++++++++++++++++++++++++++++++.......                                                                                                                                                     ",
"                                                                                                                                                                                      OOOOOOO%%%%%%%+++++++%%%%%%%%%%%%%%%%%%%%%%%%%%%&&&&&&&&&&&&&&&&&&&&&&&&&&&%%%%%%%%%%%%%%%%%%%%%%%%%%%%%%%%%%%%%%%%%%%%%%%%%%%%%%+++++++++++++++++++++++++++++++++.......                                                                                                                                                     ",
"                                                                                                                                                                                      OOOOOOO%%%%%%%+++++++%%%%%%%%%%%%%%%%%%%%%%%%%%%&&&&&&&&&&&&&&&&&&&&&&&&&&&%%%%%%%%%%%%%%%%%%%%%%%%%%%%%%%%%%%%%%%%%%%%%%%%%%%%%%+++++++++++++++++++++++++++++++++.......                                                                                                                                                     ",
"                                                                                                                                                                                      OOOOOOO%%%%%%%+++++++%%%%%%%%%%%%%%%%%%%%%%%%%%%&&&&&&&&&&&&&&&&&&&&&&&&&&&%%%%%%%%%%%%%%%%%%%%%%%%%%%%%%%%%%%%%%%%%%%%%%%%%%%%%%+++++++++++++++++++++++++++++++++.......                                                                                                                                                     ",
"                                                                                                                                                                                      .......+++++++%%%%%%%+++++++++++++%%%%%%%%%%%%%%%%%%%%%%%%%%%&&&&&&&%%%%%%%%%%%%%%%%%%%%%%%%%%%++++++++++++++++++++++++++++++++++++++++++++++++++++++++++++++++++++++++++.......                                                                                                                                              ",
"                                                                                                                                                                                      .......+++++++%%%%%%%+++++++++++++%%%%%%%%%%%%%%%%%%%%%%%%%%%&&&&&&&%%%%%%%%%%%%%%%%%%%%%%%%%%%++++++++++++++++++++++++++++++++++++++++++++++++++++++++++++++++++++++++++.......                                                                                                                                              ",
"                                                                                                                                                                                      .......+++++++%%%%%%%+++++++++++++%%%%%%%%%%%%%%%%%%%%%%%%%%%&&&&&&&%%%%%%%%%%%%%%%%%%%%%%%%%%%++++++++++++++++++++++++++++++++++++++++++++++++++++++++++++++++++++++++++.......                                                                                                                                              ",
"                                                                                                                                                                                      .......+++++++%%%%%%%+++++++++++++%%%%%%%%%%%%%%%%%%%%%%%%%%%&&&&&&&%%%%%%%%%%%%%%%%%%%%%%%%%%%++++++++++++++++++++++++++++++++++++++++++++++++++++++++++++++++++++++++++.......                                                                                                                                              ",
"                                                                                                                                                                                      .......+++++++%%%%%%%+++++++++++++%%%%%%%%%%%%%%%%%%%%%%%%%%%&&&&&&&%%%%%%%%%%%%%%%%%%%%%%%%%%%++++++++++++++++++++++++++++++++++++++++++++++++++++++++++++++++++++++++++.......                                                                                                                                              ",
"                                                                                                                                                                                      .......+++++++%%%%%%%+++++++++++++%%%%%%%%%%%%%%%%%%%%%%%%%%%&&&&&&&%%%%%%%%%%%%%%%%%%%%%%%%%%%++++++++++++++++++++++++++++++++++++++++++++++++++++++++++++++++++++++++++.......                                                                                                                                              ",
"                                                                                                                                                                                      .......+++++++%%%%%%%+++++++++++++%%%%%%%%%%%%%%%%%%%%%%%%%%%&&&&&&&%%%%%%%%%%%%%%%%%%%%%%%%%%%++++++++++++++++++++++++++++++++++++++++++++++++++++++++++++++++++++++++++.......                                                                                                                                              ",
"                                                                                                                                                                                      .......++++++++++++++------*******+++++++%%%%%%%%%%%%%%%%%%%%%%%%%%%%%%%%%%%%%%%%++++++++++++++-------******OOOOOOOOOOOOOO+++++++++++++++++++++++++++++++++++++++++++++++.......                                                                                                                                              ",
"                                                                                                                                                                                      .......++++++++++++++------*******+++++++%%%%%%%%%%%%%%%%%%%%%%%%%%%%%%%%%%%%%%%%++++++++++++++-------******OOOOOOOOOOOOOO+++++++++++++++++++++++++++++++++++++++++++++++.......                                                                                                                                              ",
"                                                                                                                                                                                      .......++++++++++++++------*******+++++++%%%%%%%%%%%%%%%%%%%%%%%%%%%%%%%%%%%%%%%%++++++++++++++-------******OOOOOOOOOOOOOO+++++++++++++++++++++++++++++++++++++++++++++++.......                                                                                                                                              ",
"                                                                                                                                                                                      .......++++++++++++++------*******+++++++%%%%%%%%%%%%%%%%%%%%%%%%%%%%%%%%%%%%%%%%++++++++++++++-------******OOOOOOOOOOOOOO+++++++++++++++++++++++++++++++++++++++++++++++.......                                                                                                                                              ",
"                                                                                                                                                                                      .......++++++++++++++------*******+++++++%%%%%%%%%%%%%%%%%%%%%%%%%%%%%%%%%%%%%%%%++++++++++++++-------******OOOOOOOOOOOOOO+++++++++++++++++++++++++++++++++++++++++++++++.......                                                                                                                                              ",
"                                                                                                                                                                                      .......++++++++++++++------*******+++++++%%%%%%%%%%%%%%%%%%%%%%%%%%%%%%%%%%%%%%%%++++++++++++++-------******OOOOOOOOOOOOOO+++++++++++++++++++++++++++++++++++++++++++++++.......                                                                                                                                              ",
"                                                                                                                                                                                      .......++++++++++++++------*******+++++++%%%%%%%%%%%%%%%%%%%%%%%%%%%%%%%%%%%%%%%%++++++++++++++-------******OOOOOOOOOOOOOO+++++++++++++++++++++++++++++++++++++++++++++++.......                                                                                                                                              ",
"                                                                                                                                                                               .......++++++++++++++---------------------------+++++++%%%%%%%%%%%%%%%%%%%%%%%%%%%++++++----------------------------------*******++++++++++++++++++++++++++++++++++++++++++++++++++++++.......                                                                                                                                       ",
"                                                                                                                                                                               .......++++++++++++++---------------------------+++++++%%%%%%%%%%%%%%%%%%%%%%%%%%%++++++----------------------------------*******++++++++++++++++++++++++++++++++++++++++++++++++++++++.......                                                                                                                                       ",
"                                                                                                                                                                               .......++++++++++++++---------------------------+++++++%%%%%%%%%%%%%%%%%%%%%%%%%%%++++++----------------------------------*******++++++++++++++++++++++++++++++++++++++++++++++++++++++.......                                                                                                                                       ",
"                                                                                                                                                                               .......++++++++++++++---------------------------+++++++%%%%%%%%%%%%%%%%%%%%%%%%%%%++++++----------------------------------*******++++++++++++++++++++++++++++++++++++++++++++++++++++++.......                                                                                                                                       ",
"                                                                                                                                                                               .......++++++++++++++---------------------------+++++++%%%%%%%%%%%%%%%%%%%%%%%%%%%++++++----------------------------------*******++++++++++++++++++++++++++++++++++++++++++++++++++++++.......                                                                                                                                       ",
"                                                                                                                                                                               .......++++++++++++++---------------------------+++++++%%%%%%%%%%%%%%%%%%%%%%%%%%%++++++----------------------------------*******++++++++++++++++++++++++++++++++++++++++++++++++++++++.......                                                                                                                                       ",
"                                                                                                                                                                               .......++++++++++++++---------------------------+++++++%%%%%%%%%%%%%%%%%%%%%%%%%%%++++++----------------------------------*******++++++++++++++++++++++++++++++++++++++++++++++++++++++.......                                                                                                                                       ",
"                                                                                                                                                                               .......+++++++*******----------------------------------+++++++++++++%%%%%%%+++++++-----------------------------------------------OOOOOOO+++++++++++++++++++++++++++++++++++++++++++++++.......                                                                                                                                       ",
"                                                                                                                                                                               .......+++++++*******----------------------------------+++++++++++++%%%%%%%+++++++-----------------------------------------------OOOOOOO+++++++++++++++++++++++++++++++++++++++++++++++.......                                                                                                                                       ",
"                                                                                                                                                                               .......+++++++*******----------------------------------+++++++++++++%%%%%%%+++++++-----------------------------------------------OOOOOOO+++++++++++++++++++++++++++++++++++++++++++++++.......                                                                                                                                       ",
"                                                                                                                                                                               .......+++++++*******----------------------------------+++++++++++++%%%%%%%+++++++-----------------------------------------------OOOOOOO+++++++++++++++++++++++++++++++++++++++++++++++.......                                                                                                                                       ",
"                                                                                                                                                                               .......+++++++*******----------------------------------+++++++++++++%%%%%%%+++++++-----------------------------------------------OOOOOOO+++++++++++++++++++++++++++++++++++++++++++++++.......                                                                                                                                       ",
"                                                                                                                                                                               .......+++++++*******----------------------------------+++++++++++++%%%%%%%+++++++-----------------------------------------------OOOOOOO+++++++++++++++++++++++++++++++++++++++++++++++.......                                                                                                                                       ",
"                                                                                                                                                                               .......+++++++------------------------------------------------------*******-------------------------------------------------------------OOOOOO++++++++++++++++++++++++++++++++++++++++++++++++......                                                                                                                                 ",
"                                                                                                                                                                               .......+++++++------------------------------------------------------*******-------------------------------------------------------------OOOOOO++++++++++++++++++++++++++++++++++++++++++++++++......                                                                                                                                 ",
"                                                                                                                                                                               .......+++++++------------------------------------------------------*******-------------------------------------------------------------OOOOOO++++++++++++++++++++++++++++++++++++++++++++++++......                                                                                                                                 ",
"                                                                                                                                                                               .......+++++++------------------------------------------------------*******-------------------------------------------------------------OOOOOO++++++++++++++++++++++++++++++++++++++++++++++++......                                                                                                                                 ",
"                                                                                                                                                                               .......+++++++------------------------------------------------------*******-------------------------------------------------------------OOOOOO++++++++++++++++++++++++++++++++++++++++++++++++......                                                                                                                                 ",
"                                                                                                                                                                               .......+++++++------------------------------------------------------*******-------------------------------------------------------------OOOOOO++++++++++++++++++++++++++++++++++++++++++++++++......                                                                                                                                 ",
"                                                                                                                                                                               .......+++++++------------------------------------------------------*******-------------------------------------------------------------OOOOOO++++++++++++++++++++++++++++++++++++++++++++++++......                                                                                                                                 ",
"                                                                                                                                                                               .......*******--------------------------------------------------------------------------------------------------------------------------------OOOOOOO+++++++++++++++++++++++++++++++++++++++++......                                                                    ..............             ..............                    ",
"                                                                                                                                                                               .......*******--------------------------------------------------------------------------------------------------------------------------------OOOOOOO+++++++++++++++++++++++++++++++++++++++++......                                                                    ..............             ..............                    ",
"                                                                                                                                                                               .......*******--------------------------------------------------------------------------------------------------------------------------------OOOOOOO+++++++++++++++++++++++++++++++++++++++++......                                                                    ..............             ..............                    ",
"                                                                                                                                                                               .......*******--------------------------------------------------------------------------------------------------------------------------------OOOOOOO+++++++++++++++++++++++++++++++++++++++++......                                                                    ..............             ..............                    ",
"                                                                                                                                                                               .......*******--------------------------------------------------------------------------------------------------------------------------------OOOOOOO+++++++++++++++++++++++++++++++++++++++++......                                                                    ..............             ..............                    ",
"                                                                                                                                                                               .......*******--------------------------------------------------------------------------------------------------------------------------------OOOOOOO+++++++++++++++++++++++++++++++++++++++++......                                                                    ..............             ..............                    ",
"                                                                                                                                                                               .......*******--------------------------------------------------------------------------------------------------------------------------------OOOOOOO+++++++++++++++++++++++++++++++++++++++++......                                                                    ..............             ..............                    ",
"                                                                                                                                                                         ......----------------------------------------------------------------------------------------------------------------------------------------------*******OOOOOOO++++++++++++++++++++++++++++++++++......                                                                    .......:::::::.............:::::::.......                    ",
"                                                                                                                                                                         ......----------------------------------------------------------------------------------------------------------------------------------------------*******OOOOOOO++++++++++++++++++++++++++++++++++......                                                                    .......:::::::.............:::::::.......                    ",
"                                                                                                                                                                         ......----------------------------------------------------------------------------------------------------------------------------------------------*******OOOOOOO++++++++++++++++++++++++++++++++++......                                                                    .......:::::::.............:::::::.......                    ",
"                                                                                                                                                                         ......----------------------------------------------------------------------------------------------------------------------------------------------*******OOOOOOO++++++++++++++++++++++++++++++++++......                                                                    .......:::::::.............:::::::.......                    ",
"                                                                                                                                                                         ......----------------------------------------------------------------------------------------------------------------------------------------------*******OOOOOOO++++++++++++++++++++++++++++++++++......                                                                    .......:::::::.............:::::::.......                    ",
"                                                                                                                                                                         ......----------------------------------------------------------------------------------------------------------------------------------------------*******OOOOOOO++++++++++++++++++++++++++++++++++......                                                                    .......:::::::.............:::::::.......                    ",
"                                                                                                                                                                         ......----------------------------------------------------------------------------------------------------------------------------------------------*******OOOOOOO++++++++++++++++++++++++++++++++++......                                                                    .......:::::::.............:::::::.......                    ",
"                                                                                                                                                                  .......++++++@@@@@@@...........................-----------------------------------------@@@@@@@.................................@@@@@@@--------------------OOOOOOO+++++++++++++++++++++++++++++++++++++++++                                                                   .......%%%%%%%%%%%%%%%%%%%%..............       ..............      ",
"                                                                                                                                                                  .......++++++@@@@@@@...........................-----------------------------------------@@@@@@@.................................@@@@@@@--------------------OOOOOOO+++++++++++++++++++++++++++++++++++++++++                                                                   .......%%%%%%%%%%%%%%%%%%%%..............       ..............      ",
"                                                                                                                                                                  .......++++++@@@@@@@...........................-----------------------------------------@@@@@@@.................................@@@@@@@--------------------OOOOOOO+++++++++++++++++++++++++++++++++++++++++                                                                   .......%%%%%%%%%%%%%%%%%%%%..............       ..............      ",
"                                                                                                                                                                  .......++++++@@@@@@@...........................-----------------------------------------@@@@@@@.................................@@@@@@@--------------------OOOOOOO+++++++++++++++++++++++++++++++++++++++++                                                                   .......%%%%%%%%%%%%%%%%%%%%..............       ..............      ",
"                                                                                                                                                                  .......++++++@@@@@@@...........................-----------------------------------------@@@@@@@.................................@@@@@@@--------------------OOOOOOO+++++++++++++++++++++++++++++++++++++++++                                                                   .......%%%%%%%%%%%%%%%%%%%%..............       ..............      ",
"                                                                                                                                                                  .......++++++@@@@@@@...........................-----------------------------------------@@@@@@@.................................@@@@@@@--------------------OOOOOOO+++++++++++++++++++++++++++++++++++++++++                                                                   .......%%%%%%%%%%%%%%%%%%%%..............       ..............      ",
"                                                                                                                                                                  .......++++++@@@@@@@...........................-----------------------------------------@@@@@@@.................................@@@@@@@--------------------OOOOOOO+++++++++++++++++++++++++++++++++++++++++                                                                   .......%%%%%%%%%%%%%%%%%%%%..............       ..............      ",
"                                                                                                                                                                  .......++++++----------------------------------------------------------------------------------------------------------------------------------------------*******OOOOOOO++++++++++++++++++++++++++++++++++......                                                .............%%%%%%%%%%%%%%%%%%%%%%%%%%%%%%%%%%OOOOOOO.......::::::........      ",
"                                                                                                                                                                  .......++++++----------------------------------------------------------------------------------------------------------------------------------------------*******OOOOOOO++++++++++++++++++++++++++++++++++......                                                .............%%%%%%%%%%%%%%%%%%%%%%%%%%%%%%%%%%OOOOOOO.......::::::........      ",
"                                                                                                                                                                  .......++++++----------------------------------------------------------------------------------------------------------------------------------------------*******OOOOOOO++++++++++++++++++++++++++++++++++......                                                .............%%%%%%%%%%%%%%%%%%%%%%%%%%%%%%%%%%OOOOOOO.......::::::........      ",
"                                                                                                                                                                  .......++++++----------------------------------------------------------------------------------------------------------------------------------------------*******OOOOOOO++++++++++++++++++++++++++++++++++......                                                .............%%%%%%%%%%%%%%%%%%%%%%%%%%%%%%%%%%OOOOOOO.......::::::........      ",
"                                                                                                                                                                  .......++++++----------------------------------------------------------------------------------------------------------------------------------------------*******OOOOOOO++++++++++++++++++++++++++++++++++......                                                .............%%%%%%%%%%%%%%%%%%%%%%%%%%%%%%%%%%OOOOOOO.......::::::........      ",
"                                                                                                                                                                  .......++++++----------------------------------------------------------------------------------------------------------------------------------------------*******OOOOOOO++++++++++++++++++++++++++++++++++......                                                .............%%%%%%%%%%%%%%%%%%%%%%%%%%%%%%%%%%OOOOOOO.......::::::........      ",
"                                                                                 .............       ..............                                               .......++++++-----------------------------------------------------------------------------------------------------------------------------------------------------OOOOOOO++++++++++++++++++++++++++++++++++......                                         .......%%%%%%%%%%%%%%%%%%%%%%%%%%%%%%%%%%%%%%%%%%%%%%%%%%%%%%OOOOOOO..............      ",
"                                                                                 .............       ..............                                               .......++++++-----------------------------------------------------------------------------------------------------------------------------------------------------OOOOOOO++++++++++++++++++++++++++++++++++......                                         .......%%%%%%%%%%%%%%%%%%%%%%%%%%%%%%%%%%%%%%%%%%%%%%%%%%%%%%OOOOOOO..............      ",
"                                                                                 .............       ..............                                               .......++++++-----------------------------------------------------------------------------------------------------------------------------------------------------OOOOOOO++++++++++++++++++++++++++++++++++......                                         .......%%%%%%%%%%%%%%%%%%%%%%%%%%%%%%%%%%%%%%%%%%%%%%%%%%%%%%OOOOOOO..............      ",
"                                                                                 .............       ..............                                               .......++++++-----------------------------------------------------------------------------------------------------------------------------------------------------OOOOOOO++++++++++++++++++++++++++++++++++......                                         .......%%%%%%%%%%%%%%%%%%%%%%%%%%%%%%%%%%%%%%%%%%%%%%%%%%%%%%OOOOOOO..............      ",
"                                                                                 .............       ..............                                               .......++++++-----------------------------------------------------------------------------------------------------------------------------------------------------OOOOOOO++++++++++++++++++++++++++++++++++......                                         .......%%%%%%%%%%%%%%%%%%%%%%%%%%%%%%%%%%%%%%%%%%%%%%%%%%%%%%OOOOOOO..............      ",
"                                                                                 .............       ..............                                               .......++++++-----------------------------------------------------------------------------------------------------------------------------------------------------OOOOOOO++++++++++++++++++++++++++++++++++......                                         .......%%%%%%%%%%%%%%%%%%%%%%%%%%%%%%%%%%%%%%%%%%%%%%%%%%%%%%OOOOOOO..............      ",
"                                                                                 .............       ..............                                               .......++++++-----------------------------------------------------------------------------------------------------------------------------------------------------OOOOOOO++++++++++++++++++++++++++++++++++......                                         .......%%%%%%%%%%%%%%%%%%%%%%%%%%%%%%%%%%%%%%%%%%%%%%%%%%%%%%OOOOOOO..............      ",
"                                                             .............       .......::::::.......:::::::.......                                                      ++++++-----------------------------------------------------------------------------------------------------------------------------------------------------OOOOOOO++++++++++++++++++++++++++++++++++......                     .............%%%%%%%%%%%%%%%%%%%%%%%%%%%%%%%%%%%%%%%%%%%%%%%%%%%%%%%%%%%%%%%%%%%%.......::::::........      ",
"                                                             .............       .......::::::.......:::::::.......                                                      ++++++-----------------------------------------------------------------------------------------------------------------------------------------------------OOOOOOO++++++++++++++++++++++++++++++++++......                     .............%%%%%%%%%%%%%%%%%%%%%%%%%%%%%%%%%%%%%%%%%%%%%%%%%%%%%%%%%%%%%%%%%%%%.......::::::........      ",
"                                                             .............       .......::::::.......:::::::.......                                                      ++++++-----------------------------------------------------------------------------------------------------------------------------------------------------OOOOOOO++++++++++++++++++++++++++++++++++......                     .............%%%%%%%%%%%%%%%%%%%%%%%%%%%%%%%%%%%%%%%%%%%%%%%%%%%%%%%%%%%%%%%%%%%%.......::::::........      ",
"                                                             .............       .......::::::.......:::::::.......                                                      ++++++-----------------------------------------------------------------------------------------------------------------------------------------------------OOOOOOO++++++++++++++++++++++++++++++++++......                     .............%%%%%%%%%%%%%%%%%%%%%%%%%%%%%%%%%%%%%%%%%%%%%%%%%%%%%%%%%%%%%%%%%%%%.......::::::........      ",
"                                                             .............       .......::::::.......:::::::.......                                                      ++++++-----------------------------------------------------------------------------------------------------------------------------------------------------OOOOOOO++++++++++++++++++++++++++++++++++......                     .............%%%%%%%%%%%%%%%%%%%%%%%%%%%%%%%%%%%%%%%%%%%%%%%%%%%%%%%%%%%%%%%%%%%%.......::::::........      ",
"                                                             .............       .......::::::.......:::::::.......                                                      ++++++-----------------------------------------------------------------------------------------------------------------------------------------------------OOOOOOO++++++++++++++++++++++++++++++++++......                     .............%%%%%%%%%%%%%%%%%%%%%%%%%%%%%%%%%%%%%%%%%%%%%%%%%%%%%%%%%%%%%%%%%%%%.......::::::........      ",
"                                                             .............       .......::::::.......:::::::.......                                                      ++++++-----------------------------------------------------------------------------------------------------------------------------------------------------OOOOOOO++++++++++++++++++++++++++++++++++......                     .............%%%%%%%%%%%%%%%%%%%%%%%%%%%%%%%%%%%%%%%%%%%%%%%%%%%%%%%%%%%%%%%%%%%%.......::::::........      ",
"                                                             ......:::::::.......%%%%%%%%%%%%%.....................                                                      ......*******---------------------------@@@@@@@-----------------------------------------@@@@@@*******------------------------------------------------------OOOOOOO+++++++++++++++++++++++++++OOOOOOO......       ..............++++++%%%%%%%%%%%%%%%%%%%%%%%%%%%%%%%%%%%%%%%%%%%%%%%%%%%%%%%%%%%%%++++++++++++++OOOOOOO..............      ",
"                                                             ......:::::::.......%%%%%%%%%%%%%.....................                                                      ......*******---------------------------@@@@@@@-----------------------------------------@@@@@@*******------------------------------------------------------OOOOOOO+++++++++++++++++++++++++++OOOOOOO......       ..............++++++%%%%%%%%%%%%%%%%%%%%%%%%%%%%%%%%%%%%%%%%%%%%%%%%%%%%%%%%%%%%%++++++++++++++OOOOOOO..............      ",
"                                                             ......:::::::.......%%%%%%%%%%%%%.....................                                                      ......*******---------------------------@@@@@@@-----------------------------------------@@@@@@*******------------------------------------------------------OOOOOOO+++++++++++++++++++++++++++OOOOOOO......       ..............++++++%%%%%%%%%%%%%%%%%%%%%%%%%%%%%%%%%%%%%%%%%%%%%%%%%%%%%%%%%%%%%++++++++++++++OOOOOOO..............      ",
"                                                             ......:::::::.......%%%%%%%%%%%%%.....................                                                      ......*******---------------------------@@@@@@@-----------------------------------------@@@@@@*******------------------------------------------------------OOOOOOO+++++++++++++++++++++++++++OOOOOOO......       ..............++++++%%%%%%%%%%%%%%%%%%%%%%%%%%%%%%%%%%%%%%%%%%%%%%%%%%%%%%%%%%%%%++++++++++++++OOOOOOO..............      ",
"                                                             ......:::::::.......%%%%%%%%%%%%%.....................                                                      ......*******---------------------------@@@@@@@-----------------------------------------@@@@@@*******------------------------------------------------------OOOOOOO+++++++++++++++++++++++++++OOOOOOO......       ..............++++++%%%%%%%%%%%%%%%%%%%%%%%%%%%%%%%%%%%%%%%%%%%%%%%%%%%%%%%%%%%%%++++++++++++++OOOOOOO..............      ",
"                                                             ......:::::::.......%%%%%%%%%%%%%.....................                                                      ......*******---------------------------@@@@@@@-----------------------------------------@@@@@@*******------------------------------------------------------OOOOOOO+++++++++++++++++++++++++++OOOOOOO......       ..............++++++%%%%%%%%%%%%%%%%%%%%%%%%%%%%%%%%%%%%%%%%%%%%%%%%%%%%%%%%%%%%%++++++++++++++OOOOOOO..............      ",
"                                                             ......:::::::.......%%%%%%%%%%%%%.....................                                                      ......*******---------------------------@@@@@@@-----------------------------------------@@@@@@*******------------------------------------------------------OOOOOOO+++++++++++++++++++++++++++OOOOOOO......       ..............++++++%%%%%%%%%%%%%%%%%%%%%%%%%%%%%%%%%%%%%%%%%%%%%%%%%%%%%%%%%%%%%++++++++++++++OOOOOOO..............      ",
"                                                             ......OOOOOOO%%%%%%%%%%%%%%%%%%%%%%%%%%%%%%%%%%%%%%%%%OOOOOO                                                ......+++++++---------------------@@@@@@:::::::@@@@@@@---------------------------@@@@@@@::::::.......-----------------------------------------------*******OOOOOOO+++++++++++++++++++++++++++OOOOOOOOOOOOO.......++++++++++++++++++++%%%%%%%%%%%%%%%%%%%%%%%%%%%%%%%%%%%%%%%%%%%%%%%%%%%%%%%+++++++++++++..............OOOOOO........      ",
"                                                             ......OOOOOOO%%%%%%%%%%%%%%%%%%%%%%%%%%%%%%%%%%%%%%%%%OOOOOO                                                ......+++++++---------------------@@@@@@:::::::@@@@@@@---------------------------@@@@@@@::::::.......-----------------------------------------------*******OOOOOOO+++++++++++++++++++++++++++OOOOOOOOOOOOO.......++++++++++++++++++++%%%%%%%%%%%%%%%%%%%%%%%%%%%%%%%%%%%%%%%%%%%%%%%%%%%%%%%+++++++++++++..............OOOOOO........      ",
"                                                             ......OOOOOOO%%%%%%%%%%%%%%%%%%%%%%%%%%%%%%%%%%%%%%%%%OOOOOO                                                ......+++++++---------------------@@@@@@:::::::@@@@@@@---------------------------@@@@@@@::::::.......-----------------------------------------------*******OOOOOOO+++++++++++++++++++++++++++OOOOOOOOOOOOO.......++++++++++++++++++++%%%%%%%%%%%%%%%%%%%%%%%%%%%%%%%%%%%%%%%%%%%%%%%%%%%%%%%+++++++++++++..............OOOOOO........      ",
"                                                             ......OOOOOOO%%%%%%%%%%%%%%%%%%%%%%%%%%%%%%%%%%%%%%%%%OOOOOO                                                ......+++++++---------------------@@@@@@:::::::@@@@@@@---------------------------@@@@@@@::::::.......-----------------------------------------------*******OOOOOOO+++++++++++++++++++++++++++OOOOOOOOOOOOO.......++++++++++++++++++++%%%%%%%%%%%%%%%%%%%%%%%%%%%%%%%%%%%%%%%%%%%%%%%%%%%%%%%+++++++++++++..............OOOOOO........      ",
"                                                             ......OOOOOOO%%%%%%%%%%%%%%%%%%%%%%%%%%%%%%%%%%%%%%%%%OOOOOO                                                ......+++++++---------------------@@@@@@:::::::@@@@@@@---------------------------@@@@@@@::::::.......-----------------------------------------------*******OOOOOOO+++++++++++++++++++++++++++OOOOOOOOOOOOO.......++++++++++++++++++++%%%%%%%%%%%%%%%%%%%%%%%%%%%%%%%%%%%%%%%%%%%%%%%%%%%%%%%+++++++++++++..............OOOOOO........      ",
"                                                             ......OOOOOOO%%%%%%%%%%%%%%%%%%%%%%%%%%%%%%%%%%%%%%%%%OOOOOO                                                ......+++++++---------------------@@@@@@:::::::@@@@@@@---------------------------@@@@@@@::::::.......-----------------------------------------------*******OOOOOOO+++++++++++++++++++++++++++OOOOOOOOOOOOO.......++++++++++++++++++++%%%%%%%%%%%%%%%%%%%%%%%%%%%%%%%%%%%%%%%%%%%%%%%%%%%%%%%+++++++++++++..............OOOOOO........      ",
"                                                      .............OOOOOOO%%%%%%%%%%%%%%%%%%%%%%%%%%%%%%%%%%%%%%%%%%%%%%%OOOOOOOOOOOOOO       OOOOOO                           .......*******--------------@@@@@@.....................******.....................@@@@@@*******-----------------------------------------------OOOOOOO+++++++++++++++++++++++++++++++++++++++++++++++++++++++++++++++++++++++++++++++++%%%%%%%%%%%%%%%%%%%%%%%%%%%%%%%%%%%%%%%%%+++++++++++++++++++++++++++:::::::..............      ",
"                                                      .............OOOOOOO%%%%%%%%%%%%%%%%%%%%%%%%%%%%%%%%%%%%%%%%%%%%%%%OOOOOOOOOOOOOO       OOOOOO                           .......*******--------------@@@@@@.....................******.....................@@@@@@*******-----------------------------------------------OOOOOOO+++++++++++++++++++++++++++++++++++++++++++++++++++++++++++++++++++++++++++++++++%%%%%%%%%%%%%%%%%%%%%%%%%%%%%%%%%%%%%%%%%+++++++++++++++++++++++++++:::::::..............      ",
"                                                      .............OOOOOOO%%%%%%%%%%%%%%%%%%%%%%%%%%%%%%%%%%%%%%%%%%%%%%%OOOOOOOOOOOOOO       OOOOOO                           .......*******--------------@@@@@@.....................******.....................@@@@@@*******-----------------------------------------------OOOOOOO+++++++++++++++++++++++++++++++++++++++++++++++++++++++++++++++++++++++++++++++++%%%%%%%%%%%%%%%%%%%%%%%%%%%%%%%%%%%%%%%%%+++++++++++++++++++++++++++:::::::..............      ",
"                                                      .............OOOOOOO%%%%%%%%%%%%%%%%%%%%%%%%%%%%%%%%%%%%%%%%%%%%%%%OOOOOOOOOOOOOO       OOOOOO                           .......*******--------------@@@@@@.....................******.....................@@@@@@*******-----------------------------------------------OOOOOOO+++++++++++++++++++++++++++++++++++++++++++++++++++++++++++++++++++++++++++++++++%%%%%%%%%%%%%%%%%%%%%%%%%%%%%%%%%%%%%%%%%+++++++++++++++++++++++++++:::::::..............      ",
"                                                      .............OOOOOOO%%%%%%%%%%%%%%%%%%%%%%%%%%%%%%%%%%%%%%%%%%%%%%%OOOOOOOOOOOOOO       OOOOOO                           .......*******--------------@@@@@@.....................******.....................@@@@@@*******-----------------------------------------------OOOOOOO+++++++++++++++++++++++++++++++++++++++++++++++++++++++++++++++++++++++++++++++++%%%%%%%%%%%%%%%%%%%%%%%%%%%%%%%%%%%%%%%%%+++++++++++++++++++++++++++:::::::..............      ",
"                                                      .............OOOOOOO%%%%%%%%%%%%%%%%%%%%%%%%%%%%%%%%%%%%%%%%%%%%%%%OOOOOOOOOOOOOO       OOOOOO                           .......*******--------------@@@@@@.....................******.....................@@@@@@*******-----------------------------------------------OOOOOOO+++++++++++++++++++++++++++++++++++++++++++++++++++++++++++++++++++++++++++++++++%%%%%%%%%%%%%%%%%%%%%%%%%%%%%%%%%%%%%%%%%+++++++++++++++++++++++++++:::::::..............      ",
"                                                      .............OOOOOOO%%%%%%%%%%%%%%%%%%%%%%%%%%%%%%%%%%%%%%%%%%%%%%%OOOOOOOOOOOOOO       OOOOOO                           .......*******--------------@@@@@@.....................******.....................@@@@@@*******-----------------------------------------------OOOOOOO+++++++++++++++++++++++++++++++++++++++++++++++++++++++++++++++++++++++++++++++++%%%%%%%%%%%%%%%%%%%%%%%%%%%%%%%%%%%%%%%%%+++++++++++++++++++++++++++:::::::..............      ",
"                                                             ......:::::::OOOOOOO%%%%%%%%%%%%%%%%%%%%%%%%%%%%%%%%%%%%%%%%%%%%%%%%%%%%%%%%%%%%%OOOOOO%%%%%%%...........................+++++++-----------------------------------------......*******--------------------------------------------------------------------******OOOOOOO++++++++++++++++++++++++++++++++++++++++++++++++++++++++++++++++++++++++++++++++++++++++%%%%%%%++++++++++++++++++++++++++++++++++++++++++++++++++++++OOOOOOO......              ",
"                                                             ......:::::::OOOOOOO%%%%%%%%%%%%%%%%%%%%%%%%%%%%%%%%%%%%%%%%%%%%%%%%%%%%%%%%%%%%%OOOOOO%%%%%%%...........................+++++++-----------------------------------------......*******--------------------------------------------------------------------******OOOOOOO++++++++++++++++++++++++++++++++++++++++++++++++++++++++++++++++++++++++++++++++++++++++%%%%%%%++++++++++++++++++++++++++++++++++++++++++++++++++++++OOOOOOO......              ",
"                                                             ......:::::::OOOOOOO%%%%%%%%%%%%%%%%%%%%%%%%%%%%%%%%%%%%%%%%%%%%%%%%%%%%%%%%%%%%%OOOOOO%%%%%%%...........................+++++++-----------------------------------------......*******--------------------------------------------------------------------******OOOOOOO++++++++++++++++++++++++++++++++++++++++++++++++++++++++++++++++++++++++++++++++++++++++%%%%%%%++++++++++++++++++++++++++++++++++++++++++++++++++++++OOOOOOO......              ",
"                                                             ......:::::::OOOOOOO%%%%%%%%%%%%%%%%%%%%%%%%%%%%%%%%%%%%%%%%%%%%%%%%%%%%%%%%%%%%%OOOOOO%%%%%%%...........................+++++++-----------------------------------------......*******--------------------------------------------------------------------******OOOOOOO++++++++++++++++++++++++++++++++++++++++++++++++++++++++++++++++++++++++++++++++++++++++%%%%%%%++++++++++++++++++++++++++++++++++++++++++++++++++++++OOOOOOO......              ",
"                                                             ......:::::::OOOOOOO%%%%%%%%%%%%%%%%%%%%%%%%%%%%%%%%%%%%%%%%%%%%%%%%%%%%%%%%%%%%%OOOOOO%%%%%%%...........................+++++++-----------------------------------------......*******--------------------------------------------------------------------******OOOOOOO++++++++++++++++++++++++++++++++++++++++++++++++++++++++++++++++++++++++++++++++++++++++%%%%%%%++++++++++++++++++++++++++++++++++++++++++++++++++++++OOOOOOO......              ",
"                                                             ......:::::::OOOOOOO%%%%%%%%%%%%%%%%%%%%%%%%%%%%%%%%%%%%%%%%%%%%%%%%%%%%%%%%%%%%%OOOOOO%%%%%%%...........................+++++++-----------------------------------------......*******--------------------------------------------------------------------******OOOOOOO++++++++++++++++++++++++++++++++++++++++++++++++++++++++++++++++++++++++++++++++++++++++%%%%%%%++++++++++++++++++++++++++++++++++++++++++++++++++++++OOOOOOO......              ",
"                                                             ......:::::::OOOOOOO%%%%%%%%%%%%%%%%%%%%%%%%%%%%%%%%%%%%%%%%%%%%%%%%%%%%%%%%%%%%%OOOOOO%%%%%%%...........................+++++++-----------------------------------------......*******--------------------------------------------------------------------******OOOOOOO++++++++++++++++++++++++++++++++++++++++++++++++++++++++++++++++++++++++++++++++++++++++%%%%%%%++++++++++++++++++++++++++++++++++++++++++++++++++++++OOOOOOO......              ",
"                                                             ......OOOOOOOOOOOOOO+++++++%%%%%%%%%%%%%%%%%%%%%%%%%%%%%%%%%%%%%%%%%%%%%%%%%%%%%%%%%%%%%%%%%%%+++++++++++++++++++++++++++.......OOOOOOO-------------------------------------------------------------------------------------------------------------------OOOOOO+++++++++++++++++++++++++++OOOOOOO++++++++++++++++++++++++++++++++++++++++++++++++++++++++++++++++++++++++++++++++++++++++++++++++++++++++++++++++++++++++++.......                    ",
"                                                             ......OOOOOOOOOOOOOO+++++++%%%%%%%%%%%%%%%%%%%%%%%%%%%%%%%%%%%%%%%%%%%%%%%%%%%%%%%%%%%%%%%%%%%+++++++++++++++++++++++++++.......OOOOOOO-------------------------------------------------------------------------------------------------------------------OOOOOO+++++++++++++++++++++++++++OOOOOOO++++++++++++++++++++++++++++++++++++++++++++++++++++++++++++++++++++++++++++++++++++++++++++++++++++++++++++++++++++++++++.......                    ",
"                                                             ......OOOOOOOOOOOOOO+++++++%%%%%%%%%%%%%%%%%%%%%%%%%%%%%%%%%%%%%%%%%%%%%%%%%%%%%%%%%%%%%%%%%%%+++++++++++++++++++++++++++.......OOOOOOO-------------------------------------------------------------------------------------------------------------------OOOOOO+++++++++++++++++++++++++++OOOOOOO++++++++++++++++++++++++++++++++++++++++++++++++++++++++++++++++++++++++++++++++++++++++++++++++++++++++++++++++++++++++++.......                    ",
"                                                             ......OOOOOOOOOOOOOO+++++++%%%%%%%%%%%%%%%%%%%%%%%%%%%%%%%%%%%%%%%%%%%%%%%%%%%%%%%%%%%%%%%%%%%+++++++++++++++++++++++++++.......OOOOOOO-------------------------------------------------------------------------------------------------------------------OOOOOO+++++++++++++++++++++++++++OOOOOOO++++++++++++++++++++++++++++++++++++++++++++++++++++++++++++++++++++++++++++++++++++++++++++++++++++++++++++++++++++++++++.......                    ",
"                                                             ......OOOOOOOOOOOOOO+++++++%%%%%%%%%%%%%%%%%%%%%%%%%%%%%%%%%%%%%%%%%%%%%%%%%%%%%%%%%%%%%%%%%%%+++++++++++++++++++++++++++.......OOOOOOO-------------------------------------------------------------------------------------------------------------------OOOOOO+++++++++++++++++++++++++++OOOOOOO++++++++++++++++++++++++++++++++++++++++++++++++++++++++++++++++++++++++++++++++++++++++++++++++++++++++++++++++++++++++++.......                    ",
"                                                             ......OOOOOOOOOOOOOO+++++++%%%%%%%%%%%%%%%%%%%%%%%%%%%%%%%%%%%%%%%%%%%%%%%%%%%%%%%%%%%%%%%%%%%+++++++++++++++++++++++++++.......OOOOOOO-------------------------------------------------------------------------------------------------------------------OOOOOO+++++++++++++++++++++++++++OOOOOOO++++++++++++++++++++++++++++++++++++++++++++++++++++++++++++++++++++++++++++++++++++++++++++++++++++++++++++++++++++++++++.......                    ",
"                                                             ......OOOOOOOOOOOOOO+++++++%%%%%%%%%%%%%%%%%%%%%%%%%%%%%%%%%%%%%%%%%%%%%%%%%%%%%%%%%%%%%%%%%%%+++++++++++++++++++++++++++.......OOOOOOO-------------------------------------------------------------------------------------------------------------------OOOOOO+++++++++++++++++++++++++++OOOOOOO++++++++++++++++++++++++++++++++++++++++++++++++++++++++++++++++++++++++++++++++++++++++++++++++++++++++++++++++++++++++++.......                    ",
"                                                             ......OOOOOOO:::::::+++++++++++++%%%%%%%%%%%%%%%%%%%%%%%%%%%%%%%%%%%%%%%%%%%%%%%%%%%%%%+++++++++++++++++++++++++++++++++++++++++OOOOOOOOOOOOOO-----------------------------------------------------------------------------------------------------OOOOOOO+++++++++++++++++++++++++++++++++++++++++++++++++++++++++++++++++++++++++++++++++++++++++++++++++++++++++++++++++++++++++++++++++++++++++++++++++++++++++++..............                    ",
"                                                             ......OOOOOOO:::::::+++++++++++++%%%%%%%%%%%%%%%%%%%%%%%%%%%%%%%%%%%%%%%%%%%%%%%%%%%%%%+++++++++++++++++++++++++++++++++++++++++OOOOOOOOOOOOOO-----------------------------------------------------------------------------------------------------OOOOOOO+++++++++++++++++++++++++++++++++++++++++++++++++++++++++++++++++++++++++++++++++++++++++++++++++++++++++++++++++++++++++++++++++++++++++++++++++++++++++++..............                    ",
"                                                             ......OOOOOOO:::::::+++++++++++++%%%%%%%%%%%%%%%%%%%%%%%%%%%%%%%%%%%%%%%%%%%%%%%%%%%%%%+++++++++++++++++++++++++++++++++++++++++OOOOOOOOOOOOOO-----------------------------------------------------------------------------------------------------OOOOOOO+++++++++++++++++++++++++++++++++++++++++++++++++++++++++++++++++++++++++++++++++++++++++++++++++++++++++++++++++++++++++++++++++++++++++++++++++++++++++++..............                    ",
"                                                             ......OOOOOOO:::::::+++++++++++++%%%%%%%%%%%%%%%%%%%%%%%%%%%%%%%%%%%%%%%%%%%%%%%%%%%%%%+++++++++++++++++++++++++++++++++++++++++OOOOOOOOOOOOOO-----------------------------------------------------------------------------------------------------OOOOOOO+++++++++++++++++++++++++++++++++++++++++++++++++++++++++++++++++++++++++++++++++++++++++++++++++++++++++++++++++++++++++++++++++++++++++++++++++++++++++++..............                    ",
"                                                             ......OOOOOOO:::::::+++++++++++++%%%%%%%%%%%%%%%%%%%%%%%%%%%%%%%%%%%%%%%%%%%%%%%%%%%%%%+++++++++++++++++++++++++++++++++++++++++OOOOOOOOOOOOOO-----------------------------------------------------------------------------------------------------OOOOOOO+++++++++++++++++++++++++++++++++++++++++++++++++++++++++++++++++++++++++++++++++++++++++++++++++++++++++++++++++++++++++++++++++++++++++++++++++++++++++++..............                    ",
"                                                             ......OOOOOOO:::::::+++++++++++++%%%%%%%%%%%%%%%%%%%%%%%%%%%%%%%%%%%%%%%%%%%%%%%%%%%%%%+++++++++++++++++++++++++++++++++++++++++OOOOOOOOOOOOOO-----------------------------------------------------------------------------------------------------OOOOOOO+++++++++++++++++++++++++++++++++++++++++++++++++++++++++++++++++++++++++++++++++++++++++++++++++++++++++++++++++++++++++++++++++++++++++++++++++++++++++++..............                    ",
"                                                                   .......+++++++++++++++++++++++++++%%%%%%%%%%%%%%%%%%%%%%%%%%%%%%%%%%%%%%%%%%%%%%%+++++++++++++++++++++++++++++++++++++++++OOOOOOOOOOOOOOOOOOOO#######========-----------------------------------------------------#######OOOOOOOOOOOOO+++++++++++++++++++++++++++++++++++++++++++++++++++++++++++++++++++++++++++++++++++++++++++++++++++++++++++++++++++++++++++++++++++++++++++++++++++++++++++++++++++++++++.......                           ",
"                                                                   .......+++++++++++++++++++++++++++%%%%%%%%%%%%%%%%%%%%%%%%%%%%%%%%%%%%%%%%%%%%%%%+++++++++++++++++++++++++++++++++++++++++OOOOOOOOOOOOOOOOOOOO#######========-----------------------------------------------------#######OOOOOOOOOOOOO+++++++++++++++++++++++++++++++++++++++++++++++++++++++++++++++++++++++++++++++++++++++++++++++++++++++++++++++++++++++++++++++++++++++++++++++++++++++++++++++++++++++++.......                           ",
"                                                                   .......+++++++++++++++++++++++++++%%%%%%%%%%%%%%%%%%%%%%%%%%%%%%%%%%%%%%%%%%%%%%%+++++++++++++++++++++++++++++++++++++++++OOOOOOOOOOOOOOOOOOOO#######========-----------------------------------------------------#######OOOOOOOOOOOOO+++++++++++++++++++++++++++++++++++++++++++++++++++++++++++++++++++++++++++++++++++++++++++++++++++++++++++++++++++++++++++++++++++++++++++++++++++++++++++++++++++++++++.......                           ",
"                                                                   .......+++++++++++++++++++++++++++%%%%%%%%%%%%%%%%%%%%%%%%%%%%%%%%%%%%%%%%%%%%%%%+++++++++++++++++++++++++++++++++++++++++OOOOOOOOOOOOOOOOOOOO#######========-----------------------------------------------------#######OOOOOOOOOOOOO+++++++++++++++++++++++++++++++++++++++++++++++++++++++++++++++++++++++++++++++++++++++++++++++++++++++++++++++++++++++++++++++++++++++++++++++++++++++++++++++++++++++++.......                           ",
"                                                                   .......+++++++++++++++++++++++++++%%%%%%%%%%%%%%%%%%%%%%%%%%%%%%%%%%%%%%%%%%%%%%%+++++++++++++++++++++++++++++++++++++++++OOOOOOOOOOOOOOOOOOOO#######=======------------------------------------------------------#######OOOOOOOOOOOOO+++++++++++++++++++++++++++++++++++++++++++++++++++++++++++++++++++++++++++++++++++++++++++++++++++++++++++++++++++++++++++++++++++++++++++++++++++++++++++++++++++++++++.......                           ",
"                                                                   .......+++++++++++++++++++++++++++%%%%%%%%%%%%%%%%%%%%%%%%%%%%%%%%%%%%%%%%%%%%%%%+++++++++++++++++++++++++++++++++++++++++OOOOOOOOOOOOOOOOOOOO#######========-----------------------------------------------------#######OOOOOOOOOOOOO+++++++++++++++++++++++++++++++++++++++++++++++++++++++++++++++++++++++++++++++++++++++++++++++++++++++++++++++++++++++++++++++++++++++++++++++++++++++++++++++++++++++++.......                           ",
"                                                                   .......+++++++++++++++++++++++++++%%%%%%%%%%%%%%%%%%%%%%%%%%%%%%%%%%%%%%%%%%%%%%%+++++++++++++++++++++++++++++++++++++++++OOOOOOOOOOOOOOOOOOOO#######=======------------------------------------------------------#######OOOOOOOOOOOOO+++++++++++++++++++++++++++++++++++++++++++++++++++++++++++++++++++++++++++++++++++++++++++++++++++++++++++++++++++++++++++++++++++++++++++++++++++++++++++++++++++++++++.......                           ",
"                                                                   .......+++++++++++++++++++++++++++++++++++++++++++++++%%%%%%%%%%%%%%+++++++++++++++++++++++++++++++++++++++++++++++.....................-------======*******----------------------------======********************-------------++++++++++++++--------------------OOOOOOOOOOOOOO+++++++++++++++++++++++++++++++++++++++++++++++++++++++++++++++++++++++++++++++++++++++++++++++++++++++++++++++++++++++++.......                                  ",
"                                                                   .......+++++++++++++++++++++++++++++++++++++++++++++++%%%%%%%%%%%%%%+++++++++++++++++++++++++++++++++++++++++++++++.....................-------======*******----------------------------======********************-------------++++++++++++++--------------------OOOOOOOOOOOOOO+++++++++++++++++++++++++++++++++++++++++++++++++++++++++++++++++++++++++++++++++++++++++++++++++++++++++++++++++++++++++.......                                  ",
"                                                                   .......+++++++++++++++++++++++++++++++++++++++++++++++%%%%%%%%%%%%%%+++++++++++++++++++++++++++++++++++++++++++++++.....................-------======*******----------------------------======********************-------------++++++++++++++--------------------OOOOOOOOOOOOOO+++++++++++++++++++++++++++++++++++++++++++++++++++++++++++++++++++++++++++++++++++++++++++++++++++++++++++++++++++++++++.......                                  ",
"                                                                   .......+++++++++++++++++++++++++++++++++++++++++++++++%%%%%%%%%%%%%%+++++++++++++++++++++++++++++++++++++++++++++++.....................-------======*******----------------------------======********************-------------++++++++++++++--------------------OOOOOOOOOOOOOO+++++++++++++++++++++++++++++++++++++++++++++++++++++++++++++++++++++++++++++++++++++++++++++++++++++++++++++++++++++++++.......                                  ",
"                                                                   .......+++++++++++++++++++++++++++++++++++++++++++++++%%%%%%%%%%%%%%+++++++++++++++++++++++++++++++++++++++++++++++.....................-------======*******----------------------------======********************-------------++++++++++++++--------------------OOOOOOOOOOOOOO+++++++++++++++++++++++++++++++++++++++++++++++++++++++++++++++++++++++++++++++++++++++++++++++++++++++++++++++++++++++++.......                                  ",
"                                                                   .......+++++++++++++++++++++++++++++++++++++++++++++++%%%%%%%%%%%%%%+++++++++++++++++++++++++++++++++++++++++++++++.....................-------======*******----------------------------======********************-------------++++++++++++++--------------------OOOOOOOOOOOOOO+++++++++++++++++++++++++++++++++++++++++++++++++++++++++++++++++++++++++++++++++++++++++++++++++++++++++++++++++++++++++.......                                  ",
"                                                                   .......+++++++++++++++++++++++++++++++++++++++++++++++%%%%%%%%%%%%%%+++++++++++++++++++++++++++++++++++++++++++++++.....................-------======*******----------------------------======********************-------------++++++++++++++--------------------OOOOOOOOOOOOOO+++++++++++++++++++++++++++++++++++++++++++++++++++++++++++++++++++++++++++++++++++++++++++++++++++++++++++++++++++++++++.......                                  ",
"                                                                          .......++++++++++++++++++++++++++++++++++++++++++++++++++++++++++++++++++++++++++++++++++++++++.............-----------------------------------======****************************************-=======-------------------------------------------------------------------OOOOOO++++++++++++++OOOOOOO++++++++++++++++++++++++++++++++++++++++++++++++++++++++++++++++++++++++++++++++++++++++......                                         ",
"                                                                          .......++++++++++++++++++++++++++++++++++++++++++++++++++++++++++++++++++++++++++++++++++++++++.............-----------------------------------======****************************************-=======-------------------------------------------------------------------OOOOOO++++++++++++++OOOOOOO++++++++++++++++++++++++++++++++++++++++++++++++++++++++++++++++++++++++++++++++++++++++......                                         ",
"                                                                          .......++++++++++++++++++++++++++++++++++++++++++++++++++++++++++++++++++++++++++++++++++++++++.............-----------------------------------======****************************************-=======-------------------------------------------------------------------OOOOOO++++++++++++++OOOOOOO++++++++++++++++++++++++++++++++++++++++++++++++++++++++++++++++++++++++++++++++++++++++......                                         ",
"                                                                          .......++++++++++++++++++++++++++++++++++++++++++++++++++++++++++++++++++++++++++++++++++++++++.............-----------------------------------======****************************************=======--------------------------------------------------------------------OOOOOO++++++++++++++OOOOOOO++++++++++++++++++++++++++++++++++++++++++++++++++++++++++++++++++++++++++++++++++++++++......                                         ",
"                                                                          .......++++++++++++++++++++++++++++++++++++++++++++++++++++++++++++++++++++++++++++++++++++++++.............-----------------------------------======****************************************=======--------------------------------------------------------------------OOOOOO++++++++++++++OOOOOOO++++++++++++++++++++++++++++++++++++++++++++++++++++++++++++++++++++++++++++++++++++++++......                                         ",
"                                                                          .......++++++++++++++++++++++++++++++++++++++++++++++++++++++++++++++++++++++++++++++++++++++++.............-----------------------------------======****************************************=======--------------------------------------------------------------------OOOOOO++++++++++++++OOOOOOO++++++++++++++++++++++++++++++++++++++++++++++++++++++++++++++++++++++++++++++++++++++++......                                         ",
"                                                                          .......++++++++++++++++++++++++++++++++++++++++++++++++++++++++++++++++++++++++++++++++++++++++.............-----------------------------------======****************************************-=======-------------------------------------------------------------------OOOOOO++++++++++++++OOOOOOO++++++++++++++++++++++++++++++++++++++++++++++++++++++++++++++++++++++++++++++++++++++++......                                         ",
"                                                                                 .......+++++++++++++++++++++++++++++++++++++++++++++++++++++++++++++++++++++++++++++++++.............-----------------------------------------***************************-=======--------------------------------------------------------------------------------OOOOOO++++++++++++++++++++++++++++++++++++++++++++++++++++++++++++++++++++++++++++++++++++++++++++++++++++++.......                                               ",
"                                                                                 .......+++++++++++++++++++++++++++++++++++++++++++++++++++++++++++++++++++++++++++++++++.............-----------------------------------------***************************-=======--------------------------------------------------------------------------------OOOOOO++++++++++++++++++++++++++++++++++++++++++++++++++++++++++++++++++++++++++++++++++++++++++++++++++++++.......                                               ",
"                                                                                 .......+++++++++++++++++++++++++++++++++++++++++++++++++++++++++++++++++++++++++++++++++.............-----------------------------------------***************************-=======--------------------------------------------------------------------------------OOOOOO++++++++++++++++++++++++++++++++++++++++++++++++++++++++++++++++++++++++++++++++++++++++++++++++++++++.......                                               ",
"                                                                                 .......+++++++++++++++++++++++++++++++++++++++++++++++++++++++++++++++++++++++++++++++++.............-----------------------------------------***************************-=======--------------------------------------------------------------------------------OOOOOO++++++++++++++++++++++++++++++++++++++++++++++++++++++++++++++++++++++++++++++++++++++++++++++++++++++.......                                               ",
"                                                                                 .......+++++++++++++++++++++++++++++++++++++++++++++++++++++++++++++++++++++++++++++++++.............-----------------------------------------***************************-=======--------------------------------------------------------------------------------OOOOOO++++++++++++++++++++++++++++++++++++++++++++++++++++++++++++++++++++++++++++++++++++++++++++++++++++++.......                                               ",
"                                                                                 .......+++++++++++++++++++++++++++++++++++++++++++++++++++++++++++++++++++++++++++++++++.............-----------------------------------------***************************=======---------------------------------------------------------------------------------OOOOOO++++++++++++++++++++++++++++++++++++++++++++++++++++++++++++++++++++++++++++++++++++++++++++++++++++++.......                                               ",
"                                                                                        ......++++++++++++++++++++++++++++++++++++++++++++++++++++++++++++++++++++.......-------------------------------------------------------------------------------------------------------------------------------------------------------------------------******OOOOOOOOOOOOOO++++++++++++++++++++++++++++++++++++++++++++++++++++++++++++++++++++++++++..............                                                      ",
"                                                                                        ......++++++++++++++++++++++++++++++++++++++++++++++++++++++++++++++++++++.......-------------------------------------------------------------------------------------------------------------------------------------------------------------------------******OOOOOOOOOOOOOO++++++++++++++++++++++++++++++++++++++++++++++++++++++++++++++++++++++++++..............                                                      ",
"                                                                                        ......++++++++++++++++++++++++++++++++++++++++++++++++++++++++++++++++++++.......-------------------------------------------------------------------------------------------------------------------------------------------------------------------------******OOOOOOOOOOOOOO++++++++++++++++++++++++++++++++++++++++++++++++++++++++++++++++++++++++++..............                                                      ",
"                                                                                        ......++++++++++++++++++++++++++++++++++++++++++++++++++++++++++++++++++++.......-------------------------------------------------------------------------------------------------------------------------------------------------------------------------******OOOOOOOOOOOOOO++++++++++++++++++++++++++++++++++++++++++++++++++++++++++++++++++++++++++..............                                                      ",
"                                                                                        ......++++++++++++++++++++++++++++++++++++++++++++++++++++++++++++++++++++.......-------------------------------------------------------------------------------------------------------------------------------------------------------------------------******OOOOOOOOOOOOOO++++++++++++++++++++++++++++++++++++++++++++++++++++++++++++++++++++++++++..............                                                      ",
"                                                                                        ......++++++++++++++++++++++++++++++++++++++++++++++++++++++++++++++++++++.......-------------------------------------------------------------------------------------------------------------------------------------------------------------------------******OOOOOOOOOOOOOO++++++++++++++++++++++++++++++++++++++++++++++++++++++++++++++++++++++++++..............                                                      ",
"                                                                                        ......++++++++++++++++++++++++++++++++++++++++++++++++++++++++++++++++++++.......-------------------------------------------------------------------------------------------------------------------------------------------------------------------------******OOOOOOOOOOOOOO++++++++++++++++++++++++++++++++++++++++++++++++++++++++++++++++++++++++++..............                                                      ",
"                                                                                              .......++++++++++++++++++++++++++++++++++++++++++++++++++++++.......----------------------------------------------------------------------------------------------------------------------------------------------------------------------------------------------------OOOOOOO++++++++++++++++++++++++++++++++++++++++++++++++++++++++++++OOOOOOO+++++++                                                             ",
"                                                                                              .......++++++++++++++++++++++++++++++++++++++++++++++++++++++.......----------------------------------------------------------------------------------------------------------------------------------------------------------------------------------------------------OOOOOOO++++++++++++++++++++++++++++++++++++++++++++++++++++++++++++OOOOOOO+++++++                                                             ",
"                                                                                              .......++++++++++++++++++++++++++++++++++++++++++++++++++++++.......----------------------------------------------------------------------------------------------------------------------------------------------------------------------------------------------------OOOOOOO++++++++++++++++++++++++++++++++++++++++++++++++++++++++++++OOOOOOO+++++++                                                             ",
"                                                                                              .......++++++++++++++++++++++++++++++++++++++++++++++++++++++.......----------------------------------------------------------------------------------------------------------------------------------------------------------------------------------------------------OOOOOOO++++++++++++++++++++++++++++++++++++++++++++++++++++++++++++OOOOOOO+++++++                                                             ",
"                                                                                              .......++++++++++++++++++++++++++++++++++++++++++++++++++++++.......----------------------------------------------------------------------------------------------------------------------------------------------------------------------------------------------------OOOOOOO++++++++++++++++++++++++++++++++++++++++++++++++++++++++++++OOOOOOO+++++++                                                             ",
"                                                                                              .......++++++++++++++++++++++++++++++++++++++++++++++++++++++.......----------------------------------------------------------------------------------------------------------------------------------------------------------------------------------------------------OOOOOOO++++++++++++++++++++++++++++++++++++++++++++++++++++++++++++OOOOOOO+++++++                                                             ",
"                                                                                              .......++++++++++++++++++++++++++++++++++++++++++++++++++++++.......----------------------------------------------------------------------------------------------------------------------------------------------------------------------------------------------------OOOOOOO++++++++++++++++++++++++++++++++++++++++++++++++++++++++++++OOOOOOO+++++++                                                             ",
"                                                                                                     ..............+++++++++++++++++++++++++++++++++.......------------------------------------------------------------------------------------------------------------------------------------------------------------------------------------------------------------------OOOOOO++++++++++++++++++++++++++++++++++++++++++++++++OOOOOO+++++++OOOOOOO.......                                                      ",
"                                                                                                     ..............+++++++++++++++++++++++++++++++++.......------------------------------------------------------------------------------------------------------------------------------------------------------------------------------------------------------------------OOOOOO++++++++++++++++++++++++++++++++++++++++++++++++OOOOOO+++++++OOOOOOO.......                                                      ",
"                                                                                                     ..............+++++++++++++++++++++++++++++++++.......------------------------------------------------------------------------------------------------------------------------------------------------------------------------------------------------------------------OOOOOO++++++++++++++++++++++++++++++++++++++++++++++++OOOOOO+++++++OOOOOOO.......                                                      ",
"                                                                                                     ..............+++++++++++++++++++++++++++++++++.......------------------------------------------------------------------------------------------------------------------------------------------------------------------------------------------------------------------OOOOOO++++++++++++++++++++++++++++++++++++++++++++++++OOOOOO+++++++OOOOOOO.......                                                      ",
"                                                                                                     ..............+++++++++++++++++++++++++++++++++.......------------------------------------------------------------------------------------------------------------------------------------------------------------------------------------------------------------------OOOOOO++++++++++++++++++++++++++++++++++++++++++++++++OOOOOO+++++++OOOOOOO.......                                                      ",
"                                                                                                     ..............+++++++++++++++++++++++++++++++++.......------------------------------------------------------------------------------------------------------------------------------------------------------------------------------------------------------------------OOOOOO++++++++++++++++++++++++++++++++++++++++++++++++OOOOOO+++++++OOOOOOO.......                                                      ",
"                                                                                                     ..............+++++++++++++++++++++++++++++++++.......------------------------------------------------------------------------------------------------------------------------------------------------------------------------------------------------------------------OOOOOO++++++++++++++++++++++++++++++++++++++++++++++++OOOOOO+++++++OOOOOOO.......                                                      ",
"                                                                                                                   .............++++++++++++++......-------------------------------------------------------------------------------------------------------------------------------------------------------------------------------------------------------------------------------OOOOOOO++++++++++++++++++++++++++++++++++++++++++++++++++++++++++++++++++++.......                                               ",
"                                                                                                                   .............++++++++++++++......-------------------------------------------------------------------------------------------------------------------------------------------------------------------------------------------------------------------------------OOOOOOO++++++++++++++++++++++++++++++++++++++++++++++++++++++++++++++++++++.......                                               ",
"                                                                                                                   .............++++++++++++++......-------------------------------------------------------------------------------------------------------------------------------------------------------------------------------------------------------------------------------OOOOOOO++++++++++++++++++++++++++++++++++++++++++++++++++++++++++++++++++++.......                                               ",
"                                                                                                                   .............++++++++++++++......-------------------------------------------------------------------------------------------------------------------------------------------------------------------------------------------------------------------------------OOOOOOO++++++++++++++++++++++++++++++++++++++++++++++++++++++++++++++++++++.......                                               ",
"                                                                                                                   .............++++++++++++++......-------------------------------------------------------------------------------------------------------------------------------------------------------------------------------------------------------------------------------OOOOOOO++++++++++++++++++++++++++++++++++++++++++++++++++++++++++++++++++++.......                                               ",
"                                                                                                                   .............++++++++++++++......-------------------------------------------------------------------------------------------------------------------------------------------------------------------------------------------------------------------------------OOOOOOO++++++++++++++++++++++++++++++++++++++++++++++++++++++++++++++++++++.......                                               ",
"                                                                                                                                ..............-------------------------------------------------------------------------------------------------------------------------------------------------------------------------------------------------------------------------------------OOOOOOO++++++++++++++++++++++++++++++++++++++++++++++++++++++++++++++++++++OOOOOOO.............                                  ",
"                                                                                                                                ..............-------------------------------------------------------------------------------------------------------------------------------------------------------------------------------------------------------------------------------------OOOOOOO++++++++++++++++++++++++++++++++++++++++++++++++++++++++++++++++++++OOOOOOO.............                                  ",
"                                                                                                                                ..............-------------------------------------------------------------------------------------------------------------------------------------------------------------------------------------------------------------------------------------OOOOOOO++++++++++++++++++++++++++++++++++++++++++++++++++++++++++++++++++++OOOOOOO.............                                  ",
"                                                                                                                                ..............-------------------------------------------------------------------------------------------------------------------------------------------------------------------------------------------------------------------------------------OOOOOOO++++++++++++++++++++++++++++++++++++++++++++++++++++++++++++++++++++OOOOOOO.............                                  ",
"                                                                                                                                ..............-------------------------------------------------------------------------------------------------------------------------------------------------------------------------------------------------------------------------------------OOOOOOO++++++++++++++++++++++++++++++++++++++++++++++++++++++++++++++++++++OOOOOOO.............                                  ",
"                                                                                                                                ..............-------------------------------------------------------------------------------------------------------------------------------------------------------------------------------------------------------------------------------------OOOOOOO++++++++++++++++++++++++++++++++++++++++++++++++++++++++++++++++++++OOOOOOO.............                                  ",
"                                                                                                                                ..............-------------------------------------------------------------------------------------------------------------------------------------------------------------------------------------------------------------------------------------OOOOOOO++++++++++++++++++++++++++++++++++++++++++++++++++++++++++++++++++++OOOOOOO.............                                  ",
"                                                                                                                                ..............--------------------------------------------------------------------------------------------------------------------------------------------------------------------------------------------------------------------------------------------OOOOOOO++++++++++++++++++++++++++++++++++++++++++++++++++++++OOOOOOO+++++++....................                           ",
"                                                                                                                                ..............--------------------------------------------------------------------------------------------------------------------------------------------------------------------------------------------------------------------------------------------OOOOOOO++++++++++++++++++++++++++++++++++++++++++++++++++++++OOOOOOO+++++++....................                           ",
"                                                                                                                                ..............--------------------------------------------------------------------------------------------------------------------------------------------------------------------------------------------------------------------------------------------OOOOOOO++++++++++++++++++++++++++++++++++++++++++++++++++++++OOOOOOO+++++++....................                           ",
"                                                                                                                                ..............--------------------------------------------------------------------------------------------------------------------------------------------------------------------------------------------------------------------------------------------OOOOOOO++++++++++++++++++++++++++++++++++++++++++++++++++++++OOOOOOO+++++++....................                           ",
"                                                                                                                                ..............--------------------------------------------------------------------------------------------------------------------------------------------------------------------------------------------------------------------------------------------OOOOOOO++++++++++++++++++++++++++++++++++++++++++++++++++++++OOOOOOO+++++++....................                           ",
"                                                                                                                                ..............--------------------------------------------------------------------------------------------------------------------------------------------------------------------------------------------------------------------------------------------OOOOOOO++++++++++++++++++++++++++++++++++++++++++++++++++++++OOOOOOO+++++++....................                           ",
"                                                                                                                                ..............--------------------------------------------------------------------------------------------------------------------------------------------------------------------------------------------------------------------------------------------OOOOOOO++++++++++++++++++++++++++++++++++++++++++++++++++++++OOOOOOO+++++++....................                           ",
"                                                                                                                         .......----------------------------------------------------------------------------------------------------------------------------------------------------------------------------------------------------------------------------------------------------------OOOOOOO+++++++++++++++++++++++++++++++++++++++++++++++OOOOOOOOOOOOOO+++++++OOOOOOOOOOOOO.......                           ",
"                                                                                                                         .......----------------------------------------------------------------------------------------------------------------------------------------------------------------------------------------------------------------------------------------------------------OOOOOOO+++++++++++++++++++++++++++++++++++++++++++++++OOOOOOOOOOOOOO+++++++OOOOOOOOOOOOO.......                           ",
"                                                                                                                         .......----------------------------------------------------------------------------------------------------------------------------------------------------------------------------------------------------------------------------------------------------------OOOOOOO+++++++++++++++++++++++++++++++++++++++++++++++OOOOOOOOOOOOOO+++++++OOOOOOOOOOOOO.......                           ",
"                                                                                                                         .......----------------------------------------------------------------------------------------------------------------------------------------------------------------------------------------------------------------------------------------------------------OOOOOOO+++++++++++++++++++++++++++++++++++++++++++++++OOOOOOOOOOOOOO+++++++OOOOOOOOOOOOO.......                           ",
"                                                                                                                         .......----------------------------------------------------------------------------------------------------------------------------------------------------------------------------------------------------------------------------------------------------------OOOOOOO+++++++++++++++++++++++++++++++++++++++++++++++OOOOOOOOOOOOOO+++++++OOOOOOOOOOOOO.......                           ",
"                                                                                                                         .......----------------------------------------------------------------------------------------------------------------------------------------------------------------------------------------------------------------------------------------------------------OOOOOOO+++++++++++++++++++++++++++++++++++++++++++++++OOOOOOOOOOOOOO+++++++OOOOOOOOOOOOO.......                           ",
"                                                                                                                         .......----------------------------------------------------------------------------------------------------------------------------------------------------------------------------------------------------------------------------------------------------------OOOOOOO+++++++++++++++++++++++++++++++++++++++++++++++OOOOOOOOOOOOOO+++++++OOOOOOOOOOOOO.......                           ",
"                                                                                                                         .......-----------------------------------------------------------------------------------------------------------------------------------------------------------------------------------------------------------------------------------------------------------======OOOOOOO+++++++++++++++++++++++++++++++++OOOOOOOOOOOOOOOOOOOOOOOOOOOOOOOOOOOOOOOOOOOOOOOO.......                    ",
"                                                                                                                         .......-----------------------------------------------------------------------------------------------------------------------------------------------------------------------------------------------------------------------------------------------------------======OOOOOOO+++++++++++++++++++++++++++++++++OOOOOOOOOOOOOOOOOOOOOOOOOOOOOOOOOOOOOOOOOOOOOOOO.......                    ",
"                                                                                                                         .......-----------------------------------------------------------------------------------------------------------------------------------------------------------------------------------------------------------------------------------------------------------======OOOOOOO+++++++++++++++++++++++++++++++++OOOOOOOOOOOOOOOOOOOOOOOOOOOOOOOOOOOOOOOOOOOOOOOO.......                    ",
"                                                                                                                         .......-----------------------------------------------------------------------------------------------------------------------------------------------------------------------------------------------------------------------------------------------------------======OOOOOOO+++++++++++++++++++++++++++++++++OOOOOOOOOOOOOOOOOOOOOOOOOOOOOOOOOOOOOOOOOOOOOOOO.......                    ",
"                                                                                                                         .......-----------------------------------------------------------------------------------------------------------------------------------------------------------------------------------------------------------------------------------------------------------======OOOOOOO+++++++++++++++++++++++++++++++++OOOOOOOOOOOOOOOOOOOOOOOOOOOOOOOOOOOOOOOOOOOOOOOO.......                    ",
"                                                                                                                         .......-----------------------------------------------------------------------------------------------------------------------------------------------------------------------------------------------------------------------------------------------------------======OOOOOOO+++++++++++++++++++++++++++++++++OOOOOOOOOOOOOOOOOOOOOOOOOOOOOOOOOOOOOOOOOOOOOOOO.......                    ",
"                                                                                                                   ......------------------------------------------------------------------------------------------------------------------------------------------------------------------------------------------------------------------------------------------------------------------------OOOOOOO+++++++++++++++++++++++++++OOOOOOOOOOOOOOOOOOOOOOOOOOOOOOOOOOOOOOOOOOOOOOOOOOOOOO.......                    ",
"                                                                                                                   ......------------------------------------------------------------------------------------------------------------------------------------------------------------------------------------------------------------------------------------------------------------------------OOOOOOO+++++++++++++++++++++++++++OOOOOOOOOOOOOOOOOOOOOOOOOOOOOOOOOOOOOOOOOOOOOOOOOOOOOO.......                    ",
"                                                                                                                   ......------------------------------------------------------------------------------------------------------------------------------------------------------------------------------------------------------------------------------------------------------------------------OOOOOOO+++++++++++++++++++++++++++OOOOOOOOOOOOOOOOOOOOOOOOOOOOOOOOOOOOOOOOOOOOOOOOOOOOOO.......                    ",
"                                                                                                                   ......------------------------------------------------------------------------------------------------------------------------------------------------------------------------------------------------------------------------------------------------------------------------OOOOOOO+++++++++++++++++++++++++++OOOOOOOOOOOOOOOOOOOOOOOOOOOOOOOOOOOOOOOOOOOOOOOOOOOOOO.......                    ",
"                                                                                                                   ......------------------------------------------------------------------------------------------------------------------------------------------------------------------------------------------------------------------------------------------------------------------------OOOOOOO+++++++++++++++++++++++++++OOOOOOOOOOOOOOOOOOOOOOOOOOOOOOOOOOOOOOOOOOOOOOOOOOOOOO.......                    ",
"                                                                                                                   ......------------------------------------------------------------------------------------------------------------------------------------------------------------------------------------------------------------------------------------------------------------------------OOOOOOO+++++++++++++++++++++++++++OOOOOOOOOOOOOOOOOOOOOOOOOOOOOOOOOOOOOOOOOOOOOOOOOOOOOO.......                    ",
"                                                                                                                   ......------------------------------------------------------------------------------------------------------------------------------------------------------------------------------------------------------------------------------------------------------------------------OOOOOOO+++++++++++++++++++++++++++OOOOOOOOOOOOOOOOOOOOOOOOOOOOOOOOOOOOOOOOOOOOOOOOOOOOOO.......                    ",
"                                                                                                                   ......------------------------------------------------------------------------------------------------------------------------------------------------------------------------------------------------------------------------------------------------------------------------OOOOOOO++++++OOOOOOOOOOOOOOOOOOOOOOOOOOOOOOOOOOOOOOOOOOOOOOOOOOOOOOOOOOOOOOOOOOOOOOOOOOO.......                    ",
"                                                                                                                   ......------------------------------------------------------------------------------------------------------------------------------------------------------------------------------------------------------------------------------------------------------------------------OOOOOOO++++++OOOOOOOOOOOOOOOOOOOOOOOOOOOOOOOOOOOOOOOOOOOOOOOOOOOOOOOOOOOOOOOOOOOOOOOOOOO.......                    ",
"                                                                                                                   ......------------------------------------------------------------------------------------------------------------------------------------------------------------------------------------------------------------------------------------------------------------------------OOOOOOO++++++OOOOOOOOOOOOOOOOOOOOOOOOOOOOOOOOOOOOOOOOOOOOOOOOOOOOOOOOOOOOOOOOOOOOOOOOOOO.......                    ",
"                                                                                                                   ......------------------------------------------------------------------------------------------------------------------------------------------------------------------------------------------------------------------------------------------------------------------------OOOOOOO++++++OOOOOOOOOOOOOOOOOOOOOOOOOOOOOOOOOOOOOOOOOOOOOOOOOOOOOOOOOOOOOOOOOOOOOOOOOOO.......                    ",
"                                                                                                                   ......------------------------------------------------------------------------------------------------------------------------------------------------------------------------------------------------------------------------------------------------------------------------OOOOOOO++++++OOOOOOOOOOOOOOOOOOOOOOOOOOOOOOOOOOOOOOOOOOOOOOOOOOOOOOOOOOOOOOOOOOOOOOOOOOO.......                    ",
"                                                                                                                   ......------------------------------------------------------------------------------------------------------------------------------------------------------------------------------------------------------------------------------------------------------------------------OOOOOOO++++++OOOOOOOOOOOOOOOOOOOOOOOOOOOOOOOOOOOOOOOOOOOOOOOOOOOOOOOOOOOOOOOOOOOOOOOOOOO.......                    ",
"                                                                                                                   ......------------------------------------------------------------------------------------------------------------------------------------------------------------------------------------------------------------------------------------------------------------------------OOOOOOO++++++OOOOOOOOOOOOOOOOOOOOOOOOOOOOOOOOOOOOOOOOOOOOOOOOOOOOOOOOOOOOOOOOOOOOOOOOOOO.......                    ",
"                                                                                                                   ......-------------------------------------------------------------------------------------------------------------------------------------------------------------------------------------------------------------------------------------------------------------------------------OOOOOOOOOOOOOOOOOOOOOOOOOOOOOOOOOOOOOOOOOOOOOOOOOOOOOOOOOOOOOOOOOOOOOOOOOOOOOOOOOOOOOOOO......              ",
"                                                                                                                   ......-------------------------------------------------------------------------------------------------------------------------------------------------------------------------------------------------------------------------------------------------------------------------------OOOOOOOOOOOOOOOOOOOOOOOOOOOOOOOOOOOOOOOOOOOOOOOOOOOOOOOOOOOOOOOOOOOOOOOOOOOOOOOOOOOOOOOO......              ",
"                                                                                                                   ......-------------------------------------------------------------------------------------------------------------------------------------------------------------------------------------------------------------------------------------------------------------------------------OOOOOOOOOOOOOOOOOOOOOOOOOOOOOOOOOOOOOOOOOOOOOOOOOOOOOOOOOOOOOOOOOOOOOOOOOOOOOOOOOOOOOOOO......              ",
"                                                                                                                   ......-------------------------------------------------------------------------------------------------------------------------------------------------------------------------------------------------------------------------------------------------------------------------------OOOOOOOOOOOOOOOOOOOOOOOOOOOOOOOOOOOOOOOOOOOOOOOOOOOOOOOOOOOOOOOOOOOOOOOOOOOOOOOOOOOOOOOO......              ",
"                                                                                                                   ......-------------------------------------------------------------------------------------------------------------------------------------------------------------------------------------------------------------------------------------------------------------------------------OOOOOOOOOOOOOOOOOOOOOOOOOOOOOOOOOOOOOOOOOOOOOOOOOOOOOOOOOOOOOOOOOOOOOOOOOOOOOOOOOOOOOOOO......              ",
"                                                                                                                   ......-------------------------------------------------------------------------------------------------------------------------------------------------------------------------------------------------------------------------------------------------------------------------------OOOOOOOOOOOOOOOOOOOOOOOOOOOOOOOOOOOOOOOOOOOOOOOOOOOOOOOOOOOOOOOOOOOOOOOOOOOOOOOOOOOOOOOO......              ",
"                                                                                                                   ......-------------------------------------------------------------------------------------------------------------------------------------------------------------------------------------------------------------------------------------------------------------------------------OOOOOOOOOOOOOOOOOOOOOOOOOOOOOOOOOOOOOOOOOOOOOOOOOOOOOOOOOOOOOOOOOOOOOOOOOOOOOOOOOOOOOOOO......              ",
"                                                                                                            .......------------------------------------------------------------------------------------------------------------------------------------------------------------------------------------------------------------------------------------------------------------------------------*******OOOOOOOOOOOOOOOOOOOOOOOOOOOOOOOOOOOOOOOOOOOOOOOOOOOOOOOOOOOOOOOOOOOOOOOOOOOOOOOOOOOOOOOO......              ",
"                                                                                                            .......------------------------------------------------------------------------------------------------------------------------------------------------------------------------------------------------------------------------------------------------------------------------------*******OOOOOOOOOOOOOOOOOOOOOOOOOOOOOOOOOOOOOOOOOOOOOOOOOOOOOOOOOOOOOOOOOOOOOOOOOOOOOOOOOOOOOOOO......              ",
"                                                                                                            .......------------------------------------------------------------------------------------------------------------------------------------------------------------------------------------------------------------------------------------------------------------------------------*******OOOOOOOOOOOOOOOOOOOOOOOOOOOOOOOOOOOOOOOOOOOOOOOOOOOOOOOOOOOOOOOOOOOOOOOOOOOOOOOOOOOOOOOO......              ",
"                                                                                                            .......------------------------------------------------------------------------------------------------------------------------------------------------------------------------------------------------------------------------------------------------------------------------------*******OOOOOOOOOOOOOOOOOOOOOOOOOOOOOOOOOOOOOOOOOOOOOOOOOOOOOOOOOOOOOOOOOOOOOOOOOOOOOOOOOOOOOOOO......              ",
"                                                                                                            .......------------------------------------------------------------------------------------------------------------------------------------------------------------------------------------------------------------------------------------------------------------------------------*******OOOOOOOOOOOOOOOOOOOOOOOOOOOOOOOOOOOOOOOOOOOOOOOOOOOOOOOOOOOOOOOOOOOOOOOOOOOOOOOOOOOOOOOO......              ",
"                                                                                                            .......------------------------------------------------------------------------------------------------------------------------------------------------------------------------------------------------------------------------------------------------------------------------------*******OOOOOOOOOOOOOOOOOOOOOOOOOOOOOOOOOOOOOOOOOOOOOOOOOOOOOOOOOOOOOOOOOOOOOOOOOOOOOOOOOOOOOOOO......              ",
"                                                                                                            .......------------------------------------------------------------------------------------------------------------------------------------------------------------------------------------------------------------------------------------------------------------------------------*******OOOOOOOOOOOOOOOOOOOOOOOOOOOOOOOOOOOOOOOOOOOOOOOOOOOOOOOOOOOOOOOOOOOOOOOOOOOOOOOOOOOOOOOO......              ",
"                                                                                                            .......-----------------------------------------------------------------------------------------------------------------------------------------------------------------------------------------------------------------------------------------------------------------------********************OOOOOOOOOOOOOOOOOOOOOOOOOOOOOOOOOOOOOOOOOOOOOOOOOOOOOOOOOOOOOOOOOOOOOOOOOOOOOOOOOO......              ",
"                                                                                                            .......-----------------------------------------------------------------------------------------------------------------------------------------------------------------------------------------------------------------------------------------------------------------------********************OOOOOOOOOOOOOOOOOOOOOOOOOOOOOOOOOOOOOOOOOOOOOOOOOOOOOOOOOOOOOOOOOOOOOOOOOOOOOOOOOO......              ",
"                                                                                                            .......-----------------------------------------------------------------------------------------------------------------------------------------------------------------------------------------------------------------------------------------------------------------------********************OOOOOOOOOOOOOOOOOOOOOOOOOOOOOOOOOOOOOOOOOOOOOOOOOOOOOOOOOOOOOOOOOOOOOOOOOOOOOOOOOO......              ",
"                                                                                                            .......-----------------------------------------------------------------------------------------------------------------------------------------------------------------------------------------------------------------------------------------------------------------------********************OOOOOOOOOOOOOOOOOOOOOOOOOOOOOOOOOOOOOOOOOOOOOOOOOOOOOOOOOOOOOOOOOOOOOOOOOOOOOOOOOO......              ",
"                                                                                                            .......-----------------------------------------------------------------------------------------------------------------------------------------------------------------------------------------------------------------------------------------------------------------------********************OOOOOOOOOOOOOOOOOOOOOOOOOOOOOOOOOOOOOOOOOOOOOOOOOOOOOOOOOOOOOOOOOOOOOOOOOOOOOOOOOO......              ",
"                                                                                                            .......-----------------------------------------------------------------------------------------------------------------------------------------------------------------------------------------------------------------------------------------------------------------------********************OOOOOOOOOOOOOOOOOOOOOOOOOOOOOOOOOOOOOOOOOOOOOOOOOOOOOOOOOOOOOOOOOOOOOOOOOOOOOOOOOO......              ",
"                                                                                                            .......-======----------------------------------------------------------------------------------------------------------------------------------------------------------------------------------------------------------------------------------------------------------------********************OOOOOOOOOOOOOOOOOOOOOOOOOOOOOOOOOOOOOOOOOOOOOOOOOOOOOOOOOOOOOOOOOOOOOOOOOOOOOOOOOO......              ",
"                                                                                                            .......-======----------------------------------------------------------------------------------------------------------------------------------------------------------------------------------------------------------------------------------------------------------------********************OOOOOOOOOOOOOOOOOOOOOOOOOOOOOOOOOOOOOOOOOOOOOOOOOOOOOOOOOOOOOOOOOOOOOOOOOOOOOOOOOO......              ",
"                                                                                                            .......-=====-----------------------------------------------------------------------------------------------------------------------------------------------------------------------------------------------------------------------------------------------------------------********************OOOOOOOOOOOOOOOOOOOOOOOOOOOOOOOOOOOOOOOOOOOOOOOOOOOOOOOOOOOOOOOOOOOOOOOOOOOOOOOOOO......              ",
"                                                                                                            .......-======----------------------------------------------------------------------------------------------------------------------------------------------------------------------------------------------------------------------------------------------------------------********************OOOOOOOOOOOOOOOOOOOOOOOOOOOOOOOOOOOOOOOOOOOOOOOOOOOOOOOOOOOOOOOOOOOOOOOOOOOOOOOOOO......              ",
"                                                                                                            .......-======----------------------------------------------------------------------------------------------------------------------------------------------------------------------------------------------------------------------------------------------------------------********************OOOOOOOOOOOOOOOOOOOOOOOOOOOOOOOOOOOOOOOOOOOOOOOOOOOOOOOOOOOOOOOOOOOOOOOOOOOOOOOOOO......              ",
"                                                                                                            .......-======----------------------------------------------------------------------------------------------------------------------------------------------------------------------------------------------------------------------------------------------------------------********************OOOOOOOOOOOOOOOOOOOOOOOOOOOOOOOOOOOOOOOOOOOOOOOOOOOOOOOOOOOOOOOOOOOOOOOOOOOOOOOOOO......              ",
"                                                                                                            .......-=====-----------------------------------------------------------------------------------------------------------------------------------------------------------------------------------------------------------------------------------------------------------------********************OOOOOOOOOOOOOOOOOOOOOOOOOOOOOOOOOOOOOOOOOOOOOOOOOOOOOOOOOOOOOOOOOOOOOOOOOOOOOOOOOO......              ",
"                                                                                                            .......-======---------------------------------------------------------------------------------------------------------------------------------------------------------------------------------------------------------------------------------------------=======-====***************************OOOOOOOOOOOOOOOOOOOOOOOOOOOOOOOOOOOOOOOOOOOOOOOOOOOOOOOOOOOOOOOOOOOOOOOOOOOOOOOOOOOOOOOO........      ",
"                                                                                                            .......-=====---------------------------------------------------------------------------------------------------------------------------------------------------------------------------------------------------------------------------------------------========-====***************************OOOOOOOOOOOOOOOOOOOOOOOOOOOOOOOOOOOOOOOOOOOOOOOOOOOOOOOOOOOOOOOOOOOOOOOOOOOOOOOOOOOOOOOO........      ",
"                                                                                                            .......-=====----------------------------------------------------------------------------------------------------------------------------------------------------------------------------------------------------------------------------------------------=======-====***************************OOOOOOOOOOOOOOOOOOOOOOOOOOOOOOOOOOOOOOOOOOOOOOOOOOOOOOOOOOOOOOOOOOOOOOOOOOOOOOOOOOOOOOOO........      ",
"                                                                                                            .......-=====---------------------------------------------------------------------------------------------------------------------------------------------------------------------------------------------------------------------------------------------=========-===***************************OOOOOOOOOOOOOOOOOOOOOOOOOOOOOOOOOOOOOOOOOOOOOOOOOOOOOOOOOOOOOOOOOOOOOOOOOOOOOOOOOOOOOOOO........      ",
"                                                                                                            .......-=====---------------------------------------------------------------------------------------------------------------------------------------------------------------------------------------------------------------------------------------------=========-===***************************OOOOOOOOOOOOOOOOOOOOOOOOOOOOOOOOOOOOOOOOOOOOOOOOOOOOOOOOOOOOOOOOOOOOOOOOOOOOOOOOOOOOOOOO........      ",
"                                                                                                            .......-======---------------------------------------------------------------------------------------------------------------------------------------------------------------------------------------------------------------------------------------------========-===***************************OOOOOOOOOOOOOOOOOOOOOOOOOOOOOOOOOOOOOOOOOOOOOOOOOOOOOOOOOOOOOOOOOOOOOOOOOOOOOOOOOOOOOOOO........      ",
"                                                                                                            .......-=====----------------------------------------------------------------------------------------------------------------------------------------------------------------------------------------------------------------------------------------------=========-==***************************OOOOOOOOOOOOOOOOOOOOOOOOOOOOOOOOOOOOOOOOOOOOOOOOOOOOOOOOOOOOOOOOOOOOOOOOOOOOOOOOOOOOOOOO........      ",
"                                                                                                     .......*******-======-------------------------------------------------------------------------------------------------------------------------------------------------------------------------------------------------------------------------------========-==========-*********************************OOOOOOOOOOOOOOOOOOOOOOOOOOOOOOOOOOOOOOOOOOOOOOOOOOOOOOOOOOOOOOOOOOOOOOOOOOOOOOOOOOOOOOOO........      ",
"                                                                                                     .......*******=======-------------------------------------------------------------------------------------------------------------------------------------------------------------------------------------------------------------------------------==========-=========*********************************OOOOOOOOOOOOOOOOOOOOOOOOOOOOOOOOOOOOOOOOOOOOOOOOOOOOOOOOOOOOOOOOOOOOOOOOOOOOOOOOOOOOOOOO........      ",
"                                                                                                     .......*******=======-------------------------------------------------------------------------------------------------------------------------------------------------------------------------------------------------------------------------------========-===========*********************************OOOOOOOOOOOOOOOOOOOOOOOOOOOOOOOOOOOOOOOOOOOOOOOOOOOOOOOOOOOOOOOOOOOOOOOOOOOOOOOOOOOOOOOO........      ",
"                                                                                                     .......*******-=====--------------------------------------------------------------------------------------------------------------------------------------------------------------------------------------------------------------------------------=========-==========*********************************OOOOOOOOOOOOOOOOOOOOOOOOOOOOOOOOOOOOOOOOOOOOOOOOOOOOOOOOOOOOOOOOOOOOOOOOOOOOOOOOOOOOOOOO........      ",
"                                                                                                     .......*******-======-------------------------------------------------------------------------------------------------------------------------------------------------------------------------------------------------------------------------------===========-========*********************************OOOOOOOOOOOOOOOOOOOOOOOOOOOOOOOOOOOOOOOOOOOOOOOOOOOOOOOOOOOOOOOOOOOOOOOOOOOOOOOOOOOOOOOO........      ",
"                                                                                                     .......*******-=====--------------------------------------------------------------------------------------------------------------------------------------------------------------------------------------------------------------------------------=========-==========*********************************OOOOOOOOOOOOOOOOOOOOOOOOOOOOOOOOOOOOOOOOOOOOOOOOOOOOOOOOOOOOOOOOOOOOOOOOOOOOOOOOOOOOOOOO........      ",
"                                                                                                     .......*******-======-------------------------------------------------------------------------------------------------------------------------------------------------------------------------------------------------------------------------------============-=======*********************************OOOOOOOOOOOOOOOOOOOOOOOOOOOOOOOOOOOOOOOOOOOOOOOOOOOOOOOOOOOOOOOOOOOOOOOOOOOOOOOOOOOOOOOO........      ",
"                                                                                                     .......*************-=======------------------------------------------------------------------------------------------------------------------------------------------------------------------------------------------------------------------=======-===========******************************************************OOOOOOOOOOOOOOOOOOOOOOOOOOOOOOOOOOOOOOOOOOOOOOOOOOOOOOOOOOOOOOOOOOOOOOOOOO........      ",
"                                                                                                     .......*************-=======------------------------------------------------------------------------------------------------------------------------------------------------------------------------------------------------------------------=======-===========******************************************************OOOOOOOOOOOOOOOOOOOOOOOOOOOOOOOOOOOOOOOOOOOOOOOOOOOOOOOOOOOOOOOOOOOOOOOOOO........      ",
"                                                                                                     .......*************-=======------------------------------------------------------------------------------------------------------------------------------------------------------------------------------------------------------------------=======-===========******************************************************OOOOOOOOOOOOOOOOOOOOOOOOOOOOOOOOOOOOOOOOOOOOOOOOOOOOOOOOOOOOOOOOOOOOOOOOOO........      ",
"                                                                                                     .......*************-=======------------------------------------------------------------------------------------------------------------------------------------------------------------------------------------------------------------------=======-===========******************************************************OOOOOOOOOOOOOOOOOOOOOOOOOOOOOOOOOOOOOOOOOOOOOOOOOOOOOOOOOOOOOOOOOOOOOOOOOO........      ",
"                                                                                                     .......*************-======-------------------------------------------------------------------------------------------------------------------------------------------------------------------------------------------------------------------===================******************************************************OOOOOOOOOOOOOOOOOOOOOOOOOOOOOOOOOOOOOOOOOOOOOOOOOOOOOOOOOOOOOOOOOOOOOOOOOO........      ",
"                                                                                                     .......*************========------------------------------------------------------------------------------------------------------------------------------------------------------------------------------------------------------------------===================******************************************************OOOOOOOOOOOOOOOOOOOOOOOOOOOOOOOOOOOOOOOOOOOOOOOOOOOOOOOOOOOOOOOOOOOOOOOOOO........      ",
"                                                                                                     .......*************========--------------------=--------------------=---------------------=----------------------=-----------------------=------------------------=-------------------------=--------------------------=---------------------===================******************************************************OOOOOOOOOOOOOOOOOOOOOOOOOOOOOOOOOOOOOOOOOOOOOOOOOOOOOOOOOOOOOOOOOOOOOOOOOO........      ",
"                                                                                                     .......*************========--------------------=----------------------------=-----------------------------=------------------------------=-------------------------------=--------------------------------=---------------------------------=-==================******************************************************OOOOOOOOOOOOOOOOOOOOOOOOOOOOOOOOOOOOOOOOOOOOOOOOOOOOOOOOOOOOOOOOOOOOOOOOOO........      ",
"                                                                                                     .......*************========---------------------=----------------------------------=-----------------------------------=------------------------------------=-------------------------------------=--------------------------------------=---===================******************************************************OOOOOOOOOOOOOOOOOOOOOOOOOOOOOOOOOOOOOOOOOOOOOOOOOOOOOOOOOOOOOOOOOOOOOOOOOO........      ",
"                                                                                                     .......*************========----------------------=---------------------------------------=----------------------------------------=-----------------------------------------=------------------------------------------=---------------------===================******************************************************OOOOOOOOOOOOOOOOOOOOOOOOOOOOOOOOOOOOOOOOOOOOOOOOOOOOOOOOOOOOOOOOOOOOOOOOOO........      ",
"                                                                                                     .......*************========-----------------------=-------------------------------------------=--------------------------------------------=---------------------------------------------=----------------------------------------------=---====================******************************************************OOOOOOOOOOOOOOOOOOOOOOOOOOOOOOOOOOOOOOOOOOOOOOOOOOOOOOOOOOOOOOOOOOOOOOOOOO........      ",
"                                                                                                     .......*************========------------------------=-----------------------------------------------=------------------------------------------------=-------------------------------------------------=--------------------------------------===================******************************************************OOOOOOOOOOOOOOOOOOOOOOOOOOOOOOOOOOOOOOOOOOOOOOOOOOOOOOOOOOOOOOOOOOOOOOOOOO........      ",
"                                                                                                     .......*************========-------------------------=---------------------------------------------------=----------------------------------------------------=-----------------------------------------------------=-------------------------===================******************************************************OOOOOOOOOOOOOOOOOOOOOOOOOOOOOOOOOOOOOOOOOOOOOOOOOOOOOOOOOOOOOOOOOOOOOOOOOO........      ",
"                                               ..............                    .............       .......********************===============--------------------=------------------------------------------------------=-------------------------------------------------------=--------------------------------------------------===================***************************.......**********************************OOOOOOOOOOOOOOOOOOOOOOOOOOOOOOOOOOOOOOOOOOOOOOOOOOOOOOOOOOOOOOOOOOOOOOOOOO........      ",
"                                               ..............                    .............       .......********************===============---------------------=---------------------------------------------------------=----------------------------------------------------------=-------------------------------------------===================***************************.......**********************************OOOOOOOOOOOOOOOOOOOOOOOOOOOOOOOOOOOOOOOOOOOOOOOOOOOOOOOOOOOOOOOOOOOOOOOOOO........      ",
"                                               ..............                    .............       .......********************===============--------------------=------------------------------------------------------------=-------------------------------------------------------------=--------------------------------------===================***************************.......**********************************OOOOOOOOOOOOOOOOOOOOOOOOOOOOOOOOOOOOOOOOOOOOOOOOOOOOOOOOOOOOOOOOOOOOOOOOOO........      ",
"                                               ..............                    .............       .......********************===============----------------------=--------------------------------------------------------------=---------------------------------------------------------------=--------------------------------===================***************************.......**********************************OOOOOOOOOOOOOOOOOOOOOOOOOOOOOOOOOOOOOOOOOOOOOOOOOOOOOOOOOOOOOOOOOOOOOOOOOO........      ",
"                                               ..............                    .............       .......********************===============-----------------------=----------------------------------------------------------------=-----------------------------------------------------------------=---------------------------===================***************************.......**********************************OOOOOOOOOOOOOOOOOOOOOOOOOOOOOOOOOOOOOOOOOOOOOOOOOOOOOOOOOOOOOOOOOOOOOOOOOO........      ",
"                                               ..............                    .............       .......********************===============---------------------=------------------------------------------------------------------=-------------------------------------------------------------------=-------------------------===================***************************.......**********************************OOOOOOOOOOOOOOOOOOOOOOOOOOOOOOOOOOOOOOOOOOOOOOOOOOOOOOOOOOOOOOOOOOOOOOOOOO........      ",
"                                               ..............                    .............       .......********************===============----------------------=--------------------------------------------------------------------=---------------------------------------------------------------------=--------------------===================***************************.......**********************************OOOOOOOOOOOOOOOOOOOOOOOOOOOOOOOOOOOOOOOOOOOOOOOOOOOOOOOOOOOOOOOOOOOOOOOOOO........      ",
"                                               .......:::::::......       .......:::::::;;;;;;..............**********************************==============-----------------------=----------------------------------------------------------------------=-------------------------------------------------------------===================**********************************......:::::::.......***************************....................OOOOOOOOOOOOOOOOOOOOOOOOOOOOOOOOOOOOOOOOOOOOOOOOOOOOOO........      ",
"                                               .......:::::::......       .......:::::::;;;;;;..............**********************************==============------------------------=------------------------------------------------------------------------=---------------------------------------------------------====================**********************************......:::::::.......***************************....................OOOOOOOOOOOOOOOOOOOOOOOOOOOOOOOOOOOOOOOOOOOOOOOOOOOOOO........      ",
"                                               .......:::::::......       .......:::::::;;;;;;..............**********************************==============-------------------------=--------------------------------------------------------------------------=-------------------------------------------------------===================**********************************......:::::::.......***************************....................OOOOOOOOOOOOOOOOOOOOOOOOOOOOOOOOOOOOOOOOOOOOOOOOOOOOOO........      ",
"                                               .......:::::::......       .......:::::::;;;;;;..............**********************************==============--------------------------=-------------------------------------------------------=--------------------=----------------------------------------------------===================**********************************......:::::::.......***************************....................OOOOOOOOOOOOOOOOOOOOOOOOOOOOOOOOOOOOOOOOOOOOOOOOOOOOOO........      ",
"                                               .......:::::::......       .......:::::::;;;;;;..............**********************************==============---------------------------=-------------------------------------------------------=---------------------=--------------------------------------------------===================**********************************......:::::::.......***************************....................OOOOOOOOOOOOOOOOOOOOOOOOOOOOOOOOOOOOOOOOOOOOOOOOOOOOOO........      ",
"                                               .......:::::::......       .......:::::::;;;;;;..............**********************************==============--------------------=-------------------------------------------------------=----------------------=-------------------------------------------------------=-==================**********************************......:::::::.......***************************....................OOOOOOOOOOOOOOOOOOOOOOOOOOOOOOOOOOOOOOOOOOOOOOOOOOOOOO........      ",
"                                               .......:::::::......       .......:::::::;;;;;;..............**********************************==============----------------------------=-------------------------------------------------------=-----------------------=-----------------------------------------------===================**********************************......:::::::.......***************************....................OOOOOOOOOOOOOOOOOOOOOOOOOOOOOOOOOOOOOOOOOOOOOOOOOOOOOO........      ",
"                                               .......:::::::::::::..............:::::::;;;;;;;;;;;;;.......****************************************======================---------------------=-------------------------------------------------------=------------------------=------------=======================================*****************************************......:::::::.......********************.......:::::::;;;;;;.......OOOOOOOOOOOOOOOOOOOOOOOOOOOOOOOOOOOOOOOOOOOOOOOOOOOOOO........      ",
"                                               .......:::::::::::::..............:::::::;;;;;;;;;;;;;.......****************************************=====================--------------------=-------------------------------------------------------=-------------------------=------------======================-=================*****************************************......:::::::.......********************.......:::::::;;;;;;.......OOOOOOOOOOOOOOOOOOOOOOOOOOOOOOOOOOOOOOOOOOOOOOOOOOOOOO........      ",
"                                               .......:::::::::::::..............:::::::;;;;;;;;;;;;;.......****************************************=====================-=--------------------=-------------------------------------------------------=--------------------------=----------=====================-=================*****************************************......:::::::.......********************.......:::::::;;;;;;.......OOOOOOOOOOOOOOOOOOOOOOOOOOOOOOOOOOOOOOOOOOOOOOOOOOOOOO........      ",
"                                               .......:::::::::::::..............:::::::;;;;;;;;;;;;;.......****************************************=====================-=---------------------=-------------------------------------------------------=---------------------------=--------=====================-=================*****************************************......:::::::.......********************.......:::::::;;;;;;.......OOOOOOOOOOOOOOOOOOOOOOOOOOOOOOOOOOOOOOOOOOOOOOOOOOOOOO........      ",
"                                               .......:::::::::::::..............:::::::;;;;;;;;;;;;;.......****************************************======================--------------------=-------------------------------------------------------=----------------------------=--------======================-=================*****************************************......:::::::.......********************.......:::::::;;;;;;.......OOOOOOOOOOOOOOOOOOOOOOOOOOOOOOOOOOOOOOOOOOOOOOOOOOOOOO........      ",
"                                               .......:::::::::::::..............:::::::;;;;;;;;;;;;;.......****************************************=====================-=----------------------=-------------------------------------------------------=-----------------------------=-----=====================-=================*****************************************......:::::::.......********************.......:::::::;;;;;;.......OOOOOOOOOOOOOOOOOOOOOOOOOOOOOOOOOOOOOOOOOOOOOOOOOOOOOO........      ",
"                           ...........................:::::::::::::ooooooo.......:::::::;;;;;;ooooooo..............****************************************======================-=====--------------------=-------------------------------------------------------=----=====================-=====-===================***********************************************.......::::::::::::::::::::....................::::::::::::::;;;;;;.......OOOOOOOOOOOOOOOOOOOOOOOOOOOOOOOOOOOOOOOOOOOOOOOOOOOOOO........      ",
"                           ...........................:::::::::::::ooooooo.......:::::::;;;;;;ooooooo..............****************************************=====================-=====-=--------------------=-------------------------------------------------------=---=====================-=====-===================***********************************************.......::::::::::::::::::::....................::::::::::::::;;;;;;.......OOOOOOOOOOOOOOOOOOOOOOOOOOOOOOOOOOOOOOOOOOOOOOOOOOOOOO........      ",
"                           ...........................:::::::::::::ooooooo.......:::::::;;;;;;ooooooo..............****************************************======================-=====---------------------=-------------------------------------------------------=---======================-=====-==================***********************************************.......::::::::::::::::::::....................::::::::::::::;;;;;;.......OOOOOOOOOOOOOOOOOOOOOOOOOOOOOOOOOOOOOOOOOOOOOOOOOOOOOO........      ",
"                           ...........................:::::::::::::ooooooo.......:::::::;;;;;;ooooooo..............****************************************=====================-=====-=---------------------=-------------------------------------------------------=-======================-=====-===================***********************************************.......::::::::::::::::::::....................::::::::::::::;;;;;;.......OOOOOOOOOOOOOOOOOOOOOOOOOOOOOOOOOOOOOOOOOOOOOOOOOOOOOO........      ",
"                           ...........................:::::::::::::ooooooo.......:::::::;;;;;;ooooooo..............****************************************======================-=====----------------------=-------------------------------------------------------=-=======================-=====-==================***********************************************.......::::::::::::::::::::....................::::::::::::::;;;;;;.......OOOOOOOOOOOOOOOOOOOOOOOOOOOOOOOOOOOOOOOOOOOOOOOOOOOOOO........      ",
"                           ...........................:::::::::::::ooooooo.......:::::::;;;;;;ooooooo..............****************************************=====================-=====-=----------------------=-------------------------------------------------------=-========================-=====-================***********************************************.......::::::::::::::::::::....................::::::::::::::;;;;;;.......OOOOOOOOOOOOOOOOOOOOOOOOOOOOOOOOOOOOOOOOOOOOOOOOOOOOOO........      ",
"                           ...........................:::::::::::::ooooooo.......:::::::;;;;;;ooooooo..............****************************************=======================-====--------------------=-------------------------------------------------------=---=======================-=====-==================***********************************************.......::::::::::::::::::::....................::::::::::::::;;;;;;.......OOOOOOOOOOOOOOOOOOOOOOOOOOOOOOOOOOOOOOOOOOOOOOOOOOOOOO........      ",
"                           .......:::::::::::::;;;;;;;ooooooooooooo-------.......;;;;;;;oooooo.......-------*******......************************************************=====================-=====-============================-=====-=============================-=====-================**************************************************************************.......;;;;;;:::::::;;;;;;;.......******.......;;;;;;;;;;;;;;;;;;;;.......OOOOOOOOOOOOOO.............OOOOOOOOOOOOOOOOOOOOOOOOOOO........      ",
"                           .......:::::::::::::;;;;;;;ooooooooooooo-------.......;;;;;;;oooooo.......-------*******......************************************************========================-=====-===============================-=====-================================-=====-=======**************************************************************************.......;;;;;;:::::::;;;;;;;.......******.......;;;;;;;;;;;;;;;;;;;;.......OOOOOOOOOOOOOO.............OOOOOOOOOOOOOOOOOOOOOOOOOOO........      ",
"                           .......:::::::::::::;;;;;;;ooooooooooooo-------.......;;;;;;;oooooo.......-------*******......************************************************=====================-=====-=================================-=====-==================================-=====-======**************************************************************************.......;;;;;;:::::::;;;;;;;.......******.......;;;;;;;;;;;;;;;;;;;;.......OOOOOOOOOOOOOO.............OOOOOOOOOOOOOOOOOOOOOOOOOOO........      ",
"                           .......:::::::::::::;;;;;;;ooooooooooooo-------.......;;;;;;;oooooo.......-------*******......************************************************=====================-=====-===================================-=====-====================================-=====-==**************************************************************************.......;;;;;;:::::::;;;;;;;.......******.......;;;;;;;;;;;;;;;;;;;;.......OOOOOOOOOOOOOO.............OOOOOOOOOOOOOOOOOOOOOOOOOOO........      ",
"                           .......:::::::::::::;;;;;;;ooooooooooooo-------.......;;;;;;;oooooo.......-------*******......************************************************======================-=====-=====================================-=====-======================================-===**************************************************************************.......;;;;;;:::::::;;;;;;;.......******.......;;;;;;;;;;;;;;;;;;;;.......OOOOOOOOOOOOOO.............OOOOOOOOOOOOOOOOOOOOOOOOOOO........      ",
"                           .......:::::::::::::;;;;;;;ooooooooooooo-------.......;;;;;;;oooooo.......-------*******......************************************************======================-=====-=======================================-=====-========================================**************************************************************************.......;;;;;;:::::::;;;;;;;.......******.......;;;;;;;;;;;;;;;;;;;;.......OOOOOOOOOOOOOO.............OOOOOOOOOOOOOOOOOOOOOOOOOOO........      ",
"                           .......:::::::::::::;;;;;;;ooooooooooooo-------.......;;;;;;;oooooo.......-------*******......************************************************=====================-=====-=========================================-=====-=======================================**************************************************************************.......;;;;;;:::::::;;;;;;;.......******.......;;;;;;;;;;;;;;;;;;;;.......OOOOOOOOOOOOOO.............OOOOOOOOOOOOOOOOOOOOOOOOOOO........      ",
"                                  ......:::::::.......--------------------=------ooooooo---------------------=-----******.......********************************************************************=======================-=====-=====================================****************************************************************************************.......*******XXXXXXXXXXXXXXXXXXXX-------------*******..............;;;;;;.....................:::::::......OOOOOOOOOOOOOOOOOOOOOOOOOOO........      ",
"                                  ......:::::::.......---------------------=-----ooooooo----------------------=----******.......********************************************************************======================-=====-======================================****************************************************************************************.......*******XXXXXXXXXXXXXXXXXXXX-------------*******..............;;;;;;.....................:::::::......OOOOOOOOOOOOOOOOOOOOOOOOOOO........      ",
"                                  ......:::::::.......----------------------=----ooooooo-----------------------=---******.......********************************************************************=======================-=====-=====================================****************************************************************************************.......*******XXXXXXXXXXXXXXXXXXXX-------------*******..............;;;;;;.....................:::::::......OOOOOOOOOOOOOOOOOOOOOOOOOOO........      ",
"                                  ......:::::::.......----------------------=----ooooooo---------------------=-----******.......********************************************************************=====================-=====-=======================================****************************************************************************************.......*******XXXXXXXXXXXXXXXXXXXX-------------*******..............;;;;;;.....................:::::::......OOOOOOOOOOOOOOOOOOOOOOOOOOO........      ",
"                                  ......:::::::.......---------------------=-----ooooooo----------------------=----******.......********************************************************************=====================-=====-=======================================****************************************************************************************.......*******XXXXXXXXXXXXXXXXXXXX-------------*******..............;;;;;;.....................:::::::......OOOOOOOOOOOOOOOOOOOOOOOOOOO........      ",
"                                  ......:::::::.......---------------------=-----ooooooo--------------------=------******.......********************************************************************======================-=====-======================================****************************************************************************************.......*******XXXXXXXXXXXXXXXXXXXX-------------*******..............;;;;;;.....................:::::::......OOOOOOOOOOOOOOOOOOOOOOOOOOO........      ",
"                                  ......:::::::.......----------------------=----ooooooo---------------------=-----******.......********************************************************************======================-=====-======================================****************************************************************************************.......*******XXXXXXXXXXXXXXXXXXXX-------------*******..............;;;;;;.....................:::::::......OOOOOOOOOOOOOOOOOOOOOOOOOOO........      ",
"                                  ......;;;;;;;.......---------------------=---------------------------------------------*******.......*****************************************************************************************************************************************************************************************************************.......-----------------------=-------------------------------=============......*******.......::::::::::::::......OOOOOOOOOOOOOOOOOOOOOOOOOOO........      ",
"                                  ......;;;;;;;.......--------------------=----------------------------------------------*******.......*****************************************************************************************************************************************************************************************************************.......-----------------------=-------------------------------=============......*******.......::::::::::::::......OOOOOOOOOOOOOOOOOOOOOOOOOOO........      ",
"                                  ......;;;;;;;.......--------------------=----------------------------------------------*******.......*****************************************************************************************************************************************************************************************************************.......------------------------=------------------------------=============......*******.......::::::::::::::......OOOOOOOOOOOOOOOOOOOOOOOOOOO........      ",
"                                  ......;;;;;;;.......--------------------=----------------------------------------------*******.......*****************************************************************************************************************************************************************************************************************.......-------------------------=-----------------------------=============......*******.......::::::::::::::......OOOOOOOOOOOOOOOOOOOOOOOOOOO........      ",
"                                  ......;;;;;;;.......----------------------=--------------------------------------------*******.......*****************************************************************************************************************************************************************************************************************.......--------------------------=---------------------------==============......*******.......::::::::::::::......OOOOOOOOOOOOOOOOOOOOOOOOOOO........      ",
"                                  ......;;;;;;;.......---------------------------=---------------------------------------*******.......*****************************************************************************************************************************************************************************************************************.......----------------------------=-------------------------==============......*******.......::::::::::::::......OOOOOOOOOOOOOOOOOOOOOOOOOOO........      ",
"                                        .......--------=====================-=====-============--------------------=-----=======.......***********************************************************************************************************************************************************************************************************......----------------------=-------------------===================*******=======*************.......;;;;;;;:::::::......OOOOOOOOOOOOOOOOOOOOO......              ",
"                                        .......-------=======================-=====-===========--------------------=-----=======.......***********************************************************************************************************************************************************************************************************......-----------------------=------------------===================*******=======*************.......;;;;;;;:::::::......OOOOOOOOOOOOOOOOOOOOO......              ",
"                                        .......--------========================-=====-=========--------------------=-----=======.......***********************************************************************************************************************************************************************************************************......------------------------=-----------------===================*******=======*************.......;;;;;;;:::::::......OOOOOOOOOOOOOOOOOOOOO......              ",
"                                        .......--------=====================-=====-============---------------------=-----======.......***********************************************************************************************************************************************************************************************************......--------------------------=---------------===================*******=======*************.......;;;;;;;:::::::......OOOOOOOOOOOOOOOOOOOOO......              ",
"                                        .......-------=========================-=====-=========---------------------=-----======.......***********************************************************************************************************************************************************************************************************......--------------------=---------------------===================*******=======*************.......;;;;;;;:::::::......OOOOOOOOOOOOOOOOOOOOO......              ",
"                                        .......--------======================-=====-===========---------------------=-----======.......***********************************************************************************************************************************************************************************************************......---------------------------=------------=====================*******=======*************.......;;;;;;;:::::::......OOOOOOOOOOOOOOOOOOOOO......              ",
"                                        .......--------======================-=====-===========----------------------=---=======.......***********************************************************************************************************************************************************************************************************......------------------------=-----------------===================*******=======*************.......;;;;;;;:::::::......OOOOOOOOOOOOOOOOOOOOO......              ",
"                                        .......-=============*********************************========--------------============*******.......*********************************************************************************************************************************************************************************************.......--------------------------=-----===============******************************************************....................OOOOOOOOOOOOOOOOOOOOO......              ",
"                                        .......-=============*********************************========-------------=============*******.......*********************************************************************************************************************************************************************************************.......-----------------------------=---==============******************************************************....................OOOOOOOOOOOOOOOOOOOOO......              ",
"                                        .......-=============*********************************========--------------============*******.......*********************************************************************************************************************************************************************************************.......------------------------------=---=============******************************************************....................OOOOOOOOOOOOOOOOOOOOO......              ",
"                                        .......-=============*********************************========--------------============*******.......*********************************************************************************************************************************************************************************************.......-------------------------------=-==============******************************************************....................OOOOOOOOOOOOOOOOOOOOO......              ",
"                                        .......-=============*********************************========-------------=============*******.......*********************************************************************************************************************************************************************************************.......--------------------------------=-=============******************************************************....................OOOOOOOOOOOOOOOOOOOOO......              ",
"                                        .......-=============*********************************========--------------============*******.......*********************************************************************************************************************************************************************************************.......---------------------------------=-============******************************************************....................OOOOOOOOOOOOOOOOOOOOO......              ",
"                                        .......-=============*********************************========------------==============*******.......*********************************************************************************************************************************************************************************************.......----------------------------------=============******************************************************....................OOOOOOOOOOOOOOOOOOOOO......              ",
"                                        .......-======***********************************************====================**************.......*********************************************************************************************************************************************************************************************.......----------------------------=====**********************************************************************************......OOOOOOOOOOOOOOOOOOOOO......              ",
"                                        .......-======***********************************************====================**************.......*********************************************************************************************************************************************************************************************.......--------------------------=======**********************************************************************************......OOOOOOOOOOOOOOOOOOOOO......              ",
"                                        .......-======***********************************************====================**************.......*********************************************************************************************************************************************************************************************.......---------------------------======**********************************************************************************......OOOOOOOOOOOOOOOOOOOOO......              ",
"                                        .......-======***********************************************====================**************.......*********************************************************************************************************************************************************************************************.......----------------------------=====**********************************************************************************......OOOOOOOOOOOOOOOOOOOOO......              ",
"                                        .......-======***********************************************====================**************.......*********************************************************************************************************************************************************************************************.......--------------------------=======**********************************************************************************......OOOOOOOOOOOOOOOOOOOOO......              ",
"                                        .......-======***********************************************====================**************.......*********************************************************************************************************************************************************************************************.......---------------------------======**********************************************************************************......OOOOOOOOOOOOOOOOOOOOO......              ",
"                                        .......-======***********************************************====================**************.......*********************************************************************************************************************************************************************************************.......----------------------------=====**********************************************************************************......OOOOOOOOOOOOOOOOOOOOO......              ",
"                                        .......***********************************************************************************************......********************************************************************************************************************************************************************************.......*******--------------------=-=====***************************XXXXXXXXXXXXXXXXXXXX*****************************************......OOOOOOOOOOOOOO.......                    ",
"                                        .......***********************************************************************************************......********************************************************************************************************************************************************************************.......*******---------------------======***************************XXXXXXXXXXXXXXXXXXXX*****************************************......OOOOOOOOOOOOOO.......                    ",
"                                        .......***********************************************************************************************......********************************************************************************************************************************************************************************.......*******---------------------======***************************XXXXXXXXXXXXXXXXXXXX*****************************************......OOOOOOOOOOOOOO.......                    ",
"                                        .......***********************************************************************************************......********************************************************************************************************************************************************************************.......*******--------------------=-=====***************************XXXXXXXXXXXXXXXXXXXX*****************************************......OOOOOOOOOOOOOO.......                    ",
"                                        .......***********************************************************************************************......********************************************************************************************************************************************************************************.......*******--------------------=-=====***************************XXXXXXXXXXXXXXXXXXXX*****************************************......OOOOOOOOOOOOOO.......                    ",
"                                        .......***********************************************************************************************......********************************************************************************************************************************************************************************.......*******---------------------======***************************XXXXXXXXXXXXXXXXXXXX*****************************************......OOOOOOOOOOOOOO.......                    ",
"                                                      .......******XXXXXXXXXXXXXXXXXXXXX************************************************************.......*************************************************************************************************************************************************************************.......---------------------======********************XXXXXXXXXXXXXX####################*****************************************......OOOOOOOOOOOOOO.......                    ",
"                                                      .......******XXXXXXXXXXXXXXXXXXXXX************************************************************.......*************************************************************************************************************************************************************************.......---------------------======********************XXXXXXXXXXXXXX####################*****************************************......OOOOOOOOOOOOOO.......                    ",
"                                                      .......******XXXXXXXXXXXXXXXXXXXXX************************************************************.......*************************************************************************************************************************************************************************.......---------------------======********************XXXXXXXXXXXXXX####################*****************************************......OOOOOOOOOOOOOO.......                    ",
"                                                      .......******XXXXXXXXXXXXXXXXXXXXX************************************************************.......*************************************************************************************************************************************************************************.......---------------------======********************XXXXXXXXXXXXXX####################*****************************************......OOOOOOOOOOOOOO.......                    ",
"                                                      .......******XXXXXXXXXXXXXXXXXXXXX************************************************************.......*************************************************************************************************************************************************************************.......---------------------======********************XXXXXXXXXXXXXX####################*****************************************......OOOOOOOOOOOOOO.......                    ",
"                                                      .......******XXXXXXXXXXXXXXXXXXXXX************************************************************.......*************************************************************************************************************************************************************************.......--------------------=======********************XXXXXXXXXXXXXX####################*****************************************......OOOOOOOOOOOOOO.......                    ",
"                                                      .......******XXXXXXXXXXXXXXXXXXXXX************************************************************.......*************************************************************************************************************************************************************************.......---------------------======********************XXXXXXXXXXXXXX####################*****************************************......OOOOOOOOOOOOOO.......                    ",
"                                                      .......XXXXXX#####################XXXXXX******************************************************.......OOOOOOO******************************************************************************************************************************************************************.......---------------------======*************XXXXXXX##################################XXXXXXX***************************.......OOOOOOOOOOOOO.......                           ",
"                                                      .......XXXXXX#####################XXXXXX******************************************************.......OOOOOOO******************************************************************************************************************************************************************.......--------------------=-=====*************XXXXXXX##################################XXXXXXX***************************.......OOOOOOOOOOOOO.......                           ",
"                                                      .......XXXXXX#####################XXXXXX******************************************************.......OOOOOOO******************************************************************************************************************************************************************.......---------------------======*************XXXXXXX##################################XXXXXXX***************************.......OOOOOOOOOOOOO.......                           ",
"                                                      .......XXXXXX#####################XXXXXX******************************************************.......OOOOOOO******************************************************************************************************************************************************************.......-------------------========*************XXXXXXX##################################XXXXXXX***************************.......OOOOOOOOOOOOO.......                           ",
"                                                      .......XXXXXX#####################XXXXXX******************************************************.......OOOOOOO******************************************************************************************************************************************************************.......-------------------========*************XXXXXXX##################################XXXXXXX***************************.......OOOOOOOOOOOOO.......                           ",
"                                                      .......XXXXXX#####################XXXXXX******************************************************.......OOOOOOO******************************************************************************************************************************************************************.......--------------------=======*************XXXXXXX##################################XXXXXXX***************************.......OOOOOOOOOOOOO.......                           ",
"                                                      .......XXXXXX#####################XXXXXX******************************************************.......OOOOOOO******************************************************************************************************************************************************************.......---------------------======*************XXXXXXX##################################XXXXXXX***************************.......OOOOOOOOOOOOO.......                           ",
"                                                             ......###########################XXXXXXX***********************************************.......OOOOOOOOOOOOOO****************************************************************************************************************************************************.......---------------------======**************XXXXXX#########################################XXXXXXX********************.......OOOOOOO.............                                  ",
"                                                             ......###########################XXXXXXX***********************************************.......OOOOOOOOOOOOOO****************************************************************************************************************************************************.......-------------------========**************XXXXXX#########################################XXXXXXX********************.......OOOOOOO.............                                  ",
"                                                             ......###########################XXXXXXX***********************************************.......OOOOOOOOOOOOOO****************************************************************************************************************************************************.......--------------------=======**************XXXXXX#########################################XXXXXXX********************.......OOOOOOO.............                                  ",
"                                                             ......###########################XXXXXXX***********************************************.......OOOOOOOOOOOOOO****************************************************************************************************************************************************.......---------------------======**************XXXXXX#########################################XXXXXXX********************.......OOOOOOO.............                                  ",
"                                                             ......###########################XXXXXXX***********************************************.......OOOOOOOOOOOOOO****************************************************************************************************************************************************.......---------------------======**************XXXXXX#########################################XXXXXXX********************.......OOOOOOO.............                                  ",
"                                                             ......###########################XXXXXXX***********************************************.......OOOOOOOOOOOOOO****************************************************************************************************************************************************.......---------------------======**************XXXXXX#########################################XXXXXXX********************.......OOOOOOO.............                                  ",
"                                                             ......###########################XXXXXXX***********************************************.......OOOOOOOOOOOOOO****************************************************************************************************************************************************.......--------------------=======**************XXXXXX#########################################XXXXXXX********************.......OOOOOOO.............                                  ",
"                                                             ......###########################XXXXXXXXXXXXXX****************************************.......OOOOOOOOOOOOOOOOOOOO**********************************************************************************************************************************************.......--------------======**************XXXXXXX###############################################XXXXXXX********************..............                                               ",
"                                                             ......###########################XXXXXXXXXXXXXX****************************************.......OOOOOOOOOOOOOOOOOOOO**********************************************************************************************************************************************.......--------------======**************XXXXXXX###############################################XXXXXXX********************..............                                               ",
"                                                             ......###########################XXXXXXXXXXXXXX****************************************.......OOOOOOOOOOOOOOOOOOOO**********************************************************************************************************************************************.......--------------======**************XXXXXXX###############################################XXXXXXX********************..............                                               ",
"                                                             ......###########################XXXXXXXXXXXXXX****************************************.......OOOOOOOOOOOOOOOOOOOO**********************************************************************************************************************************************.......---------------=====**************XXXXXXX###############################################XXXXXXX********************..............                                               ",
"                                                             ......###########################XXXXXXXXXXXXXX****************************************.......OOOOOOOOOOOOOOOOOOOO**********************************************************************************************************************************************.......--------------======**************XXXXXXX###############################################XXXXXXX********************..............                                               ",
"                                                             ......###########################XXXXXXXXXXXXXX****************************************.......OOOOOOOOOOOOOOOOOOOO**********************************************************************************************************************************************.......--------------======**************XXXXXXX###############################################XXXXXXX********************..............                                               ",
"                                                                   .......###########################XXXXXXX**********************************......OOOOOOOOOOOOOO..................................$$$$$$$***************************------**************=------******=------*******=------******--------------********************.......-------======**************XXXXXXX###############################################XXXXXXX*************..............                                                      ",
"                                                                   .......###########################XXXXXXX**********************************......OOOOOOOOOOOOOO..................................$$$$$$$***************************------**************=------******=------*******=------******--------------********************.......--------=====**************XXXXXXX###############################################XXXXXXX*************..............                                                      ",
"                                                                   .......###########################XXXXXXX**********************************......OOOOOOOOOOOOOO..................................$$$$$$$***************************------**************=------******-------*******=------******--------------********************.......--------=====**************XXXXXXX###############################################XXXXXXX*************..............                                                      ",
"                                                                   .......###########################XXXXXXX**********************************......OOOOOOOOOOOOOO..................................$$$$$$$***************************=-----**************=------******-------*******=------******=-------------********************.......--------=====**************XXXXXXX###############################################XXXXXXX*************..............                                                      ",
"                                                                   .......###########################XXXXXXX**********************************......OOOOOOOOOOOOOO..................................$$$$$$$***************************------**************=------******=------*******=------******--------------********************.......--------=====**************XXXXXXX###############################################XXXXXXX*************..............                                                      ",
"                                                                   .......###########################XXXXXXX**********************************......OOOOOOOOOOOOOO..................................$$$$$$$***************************=-----**************=------******-------*******-------******--------------********************.......--------=====**************XXXXXXX###############################################XXXXXXX*************..............                                                      ",
"                                                                   .......###########################XXXXXXX**********************************......OOOOOOOOOOOOOO..................................$$$$$$$***************************------**************=------******-------*******=------******=-------------********************.......--------=====**************XXXXXXX###############################################XXXXXXX*************..............                                                      ",
"                                                                          .......####################XXXXXXX**********************************....................                                  ..................................$$$$$$--------------*******=-----*******=------*******=-----**************...........................-------======*********************XXXXXX###########################XXXXXXXXXXXXXX********************.......                                                             ",
"                                                                          .......####################XXXXXXX**********************************....................                                  ..................................$$$$$$--------------*******------*******-------*******------**************...........................-------======*********************XXXXXX###########################XXXXXXXXXXXXXX********************.......                                                             ",
"                                                                          .......####################XXXXXXX**********************************....................                                  ..................................$$$$$$--------------*******=-----*******=------*******------**************...........................-------======*********************XXXXXX###########################XXXXXXXXXXXXXX********************.......                                                             ",
"                                                                          .......####################XXXXXXX**********************************....................                                  ..................................$$$$$$--------------*******=-----*******=------*******------**************...........................--------=====*********************XXXXXX###########################XXXXXXXXXXXXXX********************.......                                                             ",
"                                                                          .......####################XXXXXXX**********************************....................                                  ..................................$$$$$$--------------*******------*******-------*******=-----**************...........................-------======*********************XXXXXX###########################XXXXXXXXXXXXXX********************.......                                                             ",
"                                                                          .......####################XXXXXXX**********************************....................                                  ..................................$$$$$$--------------*******------*******-------*******------**************...........................--------=====*********************XXXXXX###########################XXXXXXXXXXXXXX********************.......                                                             ",
"                                                                          .......####################XXXXXXX**********************************....................                                  ..................................$$$$$$--------------*******=-----*******=------*******------**************...........................-------======*********************XXXXXX###########################XXXXXXXXXXXXXX********************.......                                                             ",
"                                                                                 .......#############***************************..................................                                  ..................................$$$$$$--------------*******------*******-------*******------**************..................................*********************************XXXXXXXXXXXXXXXXXXXXXXXXXXX***************************.......                                                                    ",
"                                                                                 .......#############***************************..................................                                  ..................................$$$$$$--------------*******=-----*******=------*******------**************..................................*********************************XXXXXXXXXXXXXXXXXXXXXXXXXXX***************************.......                                                                    ",
"                                                                                 .......#############***************************..................................                                  ..................................$$$$$$--------------*******=-----*******=------*******------**************..................................*********************************XXXXXXXXXXXXXXXXXXXXXXXXXXX***************************.......                                                                    ",
"                                                                                 .......#############***************************..................................                                  ..................................$$$$$$--------------*******------*******-------*******------**************..................................*********************************XXXXXXXXXXXXXXXXXXXXXXXXXXX***************************.......                                                                    ",
"                                                                                 .......#############***************************..................................                                  ..................................$$$$$$--------------*******------*******=------*******=-----**************..................................*********************************XXXXXXXXXXXXXXXXXXXXXXXXXXX***************************.......                                                                    ",
"                                                                                 .......#############***************************..................................                                  ..................................$$$$$$--------------*******=-----*******=------*******=-----**************..................................*********************************XXXXXXXXXXXXXXXXXXXXXXXXXXX***************************.......                                                                    ",
"                                                                                 .......#############***************************..................................                                  ..................................$$$$$$--------------*******=-----*******=------*******=-----**************..................................*********************************XXXXXXXXXXXXXXXXXXXXXXXXXXX***************************.......                                                                    ",
"                                                                                        ........................................                                                                                                      ..........................................................................                                  ......***************************************************************************......                                                                           ",
"                                                                                        ........................................                                                                                                      ..........................................................................                                  ......***************************************************************************......                                                                           ",
"                                                                                        ........................................                                                                                                      ..........................................................................                                  ......***************************************************************************......                                                                           ",
"                                                                                        ........................................                                                                                                      ..........................................................................                                  ......***************************************************************************......                                                                           ",
"                                                                                        ........................................                                                                                                      ..........................................................................                                  ......***************************************************************************......                                                                           ",
"                                                                                        ........................................                                                                                                      ..........................................................................                                  ......***************************************************************************......                                                                           ",
"                                                                                        ........................................                                                                                                      ..........................................................................                                  ......***************************************************************************......                                                                           ",
"                                                                                                                                                                                                                                                                                                                                                        ..............**********************************......*******..............                                                                                 ",
"                                                                                                                                                                                                                                                                                                                                                        ..............**********************************......*******..............                                                                                 ",
"                                                                                                                                                                                                                                                                                                                                                        ..............**********************************......*******..............                                                                                 ",
"                                                                                                                                                                                                                                                                                                                                                        ..............**********************************......*******..............                                                                                 ",
"                                                                                                                                                                                                                                                                                                                                                        ..............**********************************......*******..............                                                                                 ",
"                                                                                                                                                                                                                                                                                                                                                        ..............**********************************......*******..............                                                                                 ",
"                                                                                                                                                                                                                                                                                                                                                                      ..................................      .......                                                                                               ",
"                                                                                                                                                                                                                                                                                                                                                                      ..................................      .......                                                                                               ",
"                                                                                                                                                                                                                                                                                                                                                                      ..................................      .......                                                                                               ",
"                                                                                                                                                                                                                                                                                                                                                                      ..................................      .......                                                                                               ",
"                                                                                                                                                                                                                                                                                                                                                                      ..................................      .......                                                                                               ",
"                                                                                                                                                                                                                                                                                                                                                                      ..................................      .......                                                                                               ",
"                                                                                                                                                                                                                                                                                                                                                                      ..................................      .......                                                                                               ",
"                                                                                                                                                                                                                                                                                                                                                                      ..................................      .......                                                                                               ",
"                                                                                                                                                                                                                                                                                                                                                                                                                                                                                                                    ",
"                                                                                                                                                                                                                                                                                                                                                                                                                                                                                                                    "
};
