/* XPM */
static char *out[] = {
/* columns rows colors chars-per-pixel */
"500 503 16 1 ",
"  c #FF00FF",
". c black",
"X c #634221",
"o c #735A21",
"O c #103942",
"+ c #315A7B",
"@ c gray45",
"# c #A57352",
"$ c #C69C5A",
"% c #528CAD",
"& c #73A5BD",
"* c #E7C6AD",
"= c #F7D6BD",
"- c #F7E7BD",
"; c #CECECE",
": c white",
/* pixels */
"                                                                                                                                                                                                                                                                                                                                                                                                                                                                                                                    ",
"                                                                                                                                                                                                                                                                                                                                                                                                                                                                                                                    ",
"                                                                                                                                                                                                                                                                                                                                                                                                                                                                                                                    ",
"                                                                                                                                                                                                                                                                                                                                                                                                                                                                                                                    ",
"                                                                                                                                                                                                                                                                                                                                                                                                                                                                                                                    ",
"                                                                                                                                                                                                                                                                                                                                                                                                                                                                                                                    ",
"                                                                                                                                                                                                                                                                                                                                                                                                                                                                                                                    ",
"                                                                                                                                                                                                                                                                                                                                                                                                                                                                                                                    ",
"                                                                                                                                                                                                                                                                                                                                                                                                                                                                                                                    ",
"                                                                                                                                                                                                                                                                                                                                                                                                                                                                                                                    ",
"                                                                                                                                                                                                                                                                                                                                                                                                                                                                                                                    ",
"                                                                                                                                                                                                                                                                                                                                                                                                                                                                                                                    ",
"                                                                                                                                                                                                                                                                                                                                                                                                                                                                                                                    ",
"                                                                                                                                                                                                                                                                                                                                                                                                                                                                                                                    ",
"                                                                                                                                                                                                                                                                                                                                                                                                                                                                                                                    ",
"                                                                                                                                                                                                                                                                                                                                                                                                                                                                                                                    ",
"                                                                                                                                                                                                                                                                                                                                                                                                                                                                                                                    ",
"                                                                                                                                                                                                                                                                                                                                                                                                                                                                                                                    ",
"                                                                                                                                                                                                                                                                                                                                                                                                                                                                                                                    ",
"                                                                                                                                                                                                                                                                                                                                                                                                                                                                                                                    ",
"                                                                                                                                                                                                                                                                                                                                                                                                                                                                                                                    ",
"                                                                                                                                                                                                                                                                                                                                                                                                                                                                                                                    ",
"                                                                                                                                                                                                                                                                                                                                                                                                                                                                                                                    ",
"                                                                                                                                                                                                                                                                                                                                                                                                                                                                                                                    ",
"                                                                                                                                                                                                                                                                                                                                                                                                                                                                                                                    ",
"                                                                                                                                                                                                                                                                                                                                                                                                                                                                                                                    ",
"                                                                                                                                                                                                                                                                                                                                                                                                                                                                                                                    ",
"                                                                                                                                                                                                                                                                                                                                                                                                                                                                                                                    ",
"                                                                                                                                                                                                                                                                                                                                                                                                                                                                                                                    ",
"                                                                                                                                                                                                                                                                                                                                                                                                                                                                                                                    ",
"                                                                                                                                                                                                                                                                                                                                                                                                                                                                                                                    ",
"                                                                                                                                                                                                                                                                                                                                                                                                                                                                                                                    ",
"                                                                                                                                                                                                                                                                                                                                                                                                                                                                                                                    ",
"                                                                                                                                                                                                                                                                                                                                                                                                                                                                                                                    ",
"                                                                                                                                                                                                                                                                                                                                                                                                                                                                                                                    ",
"                                                                                                                                                                                                                                                                                                                                                                                                                                                                                                                    ",
"                                                                                                                                                                                                                                                                                                                                                                                                                                                                                                                    ",
"                                                                                                                                                                                                                                                                                                                                                                                                                                                                                                                    ",
"                                                                                                                                                                                                                                                                                                                                                                                                                                                                                                                    ",
"                                                                                                                                                                                                                                                                                                                                                                                                                                                                                                                    ",
"                                                                                                                                                                                                                                                                                                                                                                                                                                                                                                                    ",
"                                                                                                                                                                                                                                                                                                                                                                                                                                                                                                                    ",
"                                                                                                                                                                                                                                                                                                                                                                                                                                                                                                                    ",
"                                                                                                                                                                                                                                                                                                                                                                                                                                                                                                                    ",
"                                                                                                                                                                                                                                                                                                                                                                                                                                                                                                                    ",
"                                                                                                                                                                                                                                                                                                                                                                                                                                                                                                                    ",
"                                                                                                                                                                                                                                                                                                                                                                                                                                                                                                                    ",
"                                                                                                                                                                                                                                                                                                                                                                                                                                                                                                                    ",
"                                                                                                                                                                                                                                                                                                                                                                                                                                                                                                                    ",
"                                                                                                                                                                                                                                                                                                                                                                                                                                                                                                                    ",
"                                                                                                                                                                                                                                                                                                                                                                                                                                                                                                                    ",
"                                                                                                                                                                                                                                                                                                                                                                                                                                                                                                                    ",
"                                                                                                                                                                                                                                                                                                                                                                                                                                                                                                                    ",
"                                                                                                                                                                                                                                                                                                                                                                                                                                                                                                                    ",
"                                                                                                                                                                                                                                                                                                         ....................                                                                                                                                                                                       ",
"                                                                                                                                                                                                                                                                                                         ....................                                                                                                                                                                                       ",
"                                                                                                                                                                                                                                                                                                         ....................                                                                                                                                                                                       ",
"                                                                                                                                                                                                                                                                                                         ....................                                                                                                                                                                                       ",
"                                                                                                                                                                                                                                                                                                         ....................                                                                                                                                                                                       ",
"                                                                                                                                                                                                                                                                                                         ....................                                                                                                                                                                                       ",
"                                                                                                                                                                                                                                                                                                         ....................                                                                                                                                                                                       ",
"                                                                                                                                                                                                                                                                                                  OOOOOOO%%%%%%%+++++++++++++.......                                                                                                                                                                                ",
"                                                                                                                                                                                                                                                                                                  OOOOOOO%%%%%%%+++++++++++++.......                                                                                                                                                                                ",
"                                                                                                                                                                                                                                                                                                  OOOOOOO%%%%%%%+++++++++++++.......                                                                                                                                                                                ",
"                                                                                                                                                                                                                                                                                                  OOOOOOO%%%%%%%+++++++++++++.......                                                                                                                                                                                ",
"                                                                                                                                                                                                                                                                                                  OOOOOOO%%%%%%%+++++++++++++.......                                                                                                                                                                                ",
"                                                                                                                                                                                                                                                                                                  OOOOOOO%%%%%%%+++++++++++++.......                                                                                                                                                                                ",
"                                                                                                                                                                                      OOOOOOO..............                                                                                 OOOOOO%%%%%%%%%%%%%%%%%%%%%++++++.......                                                                                                                                                                                ",
"                                                                                                                                                                                      OOOOOOO..............                                                                                 OOOOOO%%%%%%%%%%%%%%%%%%%%%++++++.......                                                                                                                                                                                ",
"                                                                                                                                                                                      OOOOOOO..............                                                                                 OOOOOO%%%%%%%%%%%%%%%%%%%%%++++++.......                                                                                                                                                                                ",
"                                                                                                                                                                                      OOOOOOO..............                                                                                 OOOOOO%%%%%%%%%%%%%%%%%%%%%++++++.......                                                                                                                                                                                ",
"                                                                                                                                                                                      OOOOOOO..............                                                                                 OOOOOO%%%%%%%%%%%%%%%%%%%%%++++++.......                                                                                                                                                                                ",
"                                                                                                                                                                                      OOOOOOO..............                                                                                 OOOOOO%%%%%%%%%%%%%%%%%%%%%++++++.......                                                                                                                                                                                ",
"                                                                                                                                                                                      OOOOOOO..............                                                                                 OOOOOO%%%%%%%%%%%%%%%%%%%%%++++++.......                                                                                                                                                                                ",
"                                                                                                                                                                                      OOOOOOO%%%%%%%+++++++.............                                                             OOOOOOO%%%%%%%%%%%%%%%%%%%%%%%%%%%+++++++++++++.......                                                                                                                                                                         ",
"                                                                                                                                                                                      OOOOOOO%%%%%%%+++++++.............                                                             OOOOOOO%%%%%%%%%%%%%%%%%%%%%%%%%%%+++++++++++++.......                                                                                                                                                                         ",
"                                                                                                                                                                                      OOOOOOO%%%%%%%+++++++.............                                                             OOOOOOO%%%%%%%%%%%%%%%%%%%%%%%%%%%+++++++++++++.......                                                                                                                                                                         ",
"                                                                                                                                                                                      OOOOOOO%%%%%%%+++++++.............                                                             OOOOOOO%%%%%%%%%%%%%%%%%%%%%%%%%%%+++++++++++++.......                                                                                                                                                                         ",
"                                                                                                                                                                                      OOOOOOO%%%%%%%+++++++.............                                                             OOOOOOO%%%%%%%%%%%%%%%%%%%%%%%%%%%+++++++++++++.......                                                                                                                                                                         ",
"                                                                                                                                                                                      OOOOOOO%%%%%%%+++++++.............                                                             OOOOOOO%%%%%%%%%%%%%%%%%%%%%%%%%%%+++++++++++++.......                                                                                                                                                                         ",
"                                                                                                                                                                                      OOOOOOO%%%%%%%+++++++.............                                                             OOOOOOO%%%%%%%%%%%%%%%%%%%%%%%%%%%+++++++++++++.......                                                                                                                                                                         ",
"                                                                                                                                                                               OOOOOOOOOOOOOO%%%%%%%++++++++++++++++++++.......                                               OOOOOOO%%%%%%%%%%%%%%%%%%%%%%%%%%%%%%%%%%+++++++++++++.......                                                                                                                                                                         ",
"                                                                                                                                                                               OOOOOOOOOOOOOO%%%%%%%++++++++++++++++++++.......                                               OOOOOOO%%%%%%%%%%%%%%%%%%%%%%%%%%%%%%%%%%+++++++++++++.......                                                                                                                                                                         ",
"                                                                                                                                                                               OOOOOOOOOOOOOO%%%%%%%++++++++++++++++++++.......                                               OOOOOOO%%%%%%%%%%%%%%%%%%%%%%%%%%%%%%%%%%+++++++++++++.......                                                                                                                                                                         ",
"                                                                                                                                                                               OOOOOOOOOOOOOO%%%%%%%++++++++++++++++++++.......                                               OOOOOOO%%%%%%%%%%%%%%%%%%%%%%%%%%%%%%%%%%+++++++++++++.......                                                                                                                                                                         ",
"                                                                                                                                                                               OOOOOOOOOOOOOO%%%%%%%++++++++++++++++++++.......                                               OOOOOOO%%%%%%%%%%%%%%%%%%%%%%%%%%%%%%%%%%+++++++++++++.......                                                                                                                                                                         ",
"                                                                                                                                                                               OOOOOOOOOOOOOO%%%%%%%++++++++++++++++++++.......                                               OOOOOOO%%%%%%%%%%%%%%%%%%%%%%%%%%%%%%%%%%+++++++++++++.......                                                                                                                                                                         ",
"                                                                                                                                                                               OOOOOOOOOOOOOO%%%%%%%++++++++++++++++++++.......                                               OOOOOOO%%%%%%%%%%%%%%%%%%%%%%%%%%%%%%%%%%+++++++++++++.......                                                                                                                                                                         ",
"                                                                                                                                                                               OOOOOOO%%%%%%%%%%%%%%%%%%%%%++++++++++++++++++++...............................................%%%%%%%%%%%%%%%%%%%%%%%%%%%%%%%%%%+++++++++++++++++++++++++++.......                                                                                                                                                                  ",
"                                                                                                                                                                               OOOOOOO%%%%%%%%%%%%%%%%%%%%%++++++++++++++++++++...............................................%%%%%%%%%%%%%%%%%%%%%%%%%%%%%%%%%%+++++++++++++++++++++++++++.......                                                                                                                                                                  ",
"                                                                                                                                                                               OOOOOOO%%%%%%%%%%%%%%%%%%%%%++++++++++++++++++++...............................................%%%%%%%%%%%%%%%%%%%%%%%%%%%%%%%%%%+++++++++++++++++++++++++++.......                                                                                                                                                                  ",
"                                                                                                                                                                               OOOOOOO%%%%%%%%%%%%%%%%%%%%%++++++++++++++++++++...............................................%%%%%%%%%%%%%%%%%%%%%%%%%%%%%%%%%%+++++++++++++++++++++++++++.......                                                                                                                                                                  ",
"                                                                                                                                                                               OOOOOOO%%%%%%%%%%%%%%%%%%%%%++++++++++++++++++++...............................................%%%%%%%%%%%%%%%%%%%%%%%%%%%%%%%%%%+++++++++++++++++++++++++++.......                                                                                                                                                                  ",
"                                                                                                                                                                               OOOOOOO%%%%%%%%%%%%%%%%%%%%%++++++++++++++++++++...............................................%%%%%%%%%%%%%%%%%%%%%%%%%%%%%%%%%%+++++++++++++++++++++++++++.......                                                                                                                                                                  ",
"                                                                                                                                                                               OOOOOOO%%%%%%%%%%%%%%%%%%%%%++++++OOOOOOOOOOOOOO+++++++&&&&&&&&&&&&&%%%%%%%%%%%%%%%%%%%%%%%%%%%%%%%%%%%%%%%%%%%%%%%%%%%%%%%%%%%%%++++++++++++++++++++++++++++++++++......                                                                                                                                                            ",
"                                                                                                                                                                               OOOOOOO%%%%%%%%%%%%%%%%%%%%%++++++OOOOOOOOOOOOOO+++++++&&&&&&&&&&&&&%%%%%%%%%%%%%%%%%%%%%%%%%%%%%%%%%%%%%%%%%%%%%%%%%%%%%%%%%%%%%++++++++++++++++++++++++++++++++++......                                                                                                                                                            ",
"                                                                                                                                                                               OOOOOOO%%%%%%%%%%%%%%%%%%%%%++++++OOOOOOOOOOOOOO+++++++&&&&&&&&&&&&&%%%%%%%%%%%%%%%%%%%%%%%%%%%%%%%%%%%%%%%%%%%%%%%%%%%%%%%%%%%%%++++++++++++++++++++++++++++++++++......                                                                                                                                                            ",
"                                                                                                                                                                               OOOOOOO%%%%%%%%%%%%%%%%%%%%%++++++OOOOOOOOOOOOOO+++++++&&&&&&&&&&&&&%%%%%%%%%%%%%%%%%%%%%%%%%%%%%%%%%%%%%%%%%%%%%%%%%%%%%%%%%%%%%++++++++++++++++++++++++++++++++++......                                                                                                                                                            ",
"                                                                                                                                                                               OOOOOOO%%%%%%%%%%%%%%%%%%%%%++++++OOOOOOOOOOOOOO+++++++&&&&&&&&&&&&&%%%%%%%%%%%%%%%%%%%%%%%%%%%%%%%%%%%%%%%%%%%%%%%%%%%%%%%%%%%%%++++++++++++++++++++++++++++++++++......                                                                                                                                                            ",
"                                                                                                                                                                               OOOOOOO%%%%%%%%%%%%%%%%%%%%%++++++OOOOOOOOOOOOOO+++++++&&&&&&&&&&&&&%%%%%%%%%%%%%%%%%%%%%%%%%%%%%%%%%%%%%%%%%%%%%%%%%%%%%%%%%%%%%++++++++++++++++++++++++++++++++++......                                                                                                                                                            ",
"                                                                                                                                                                               OOOOOOO%%%%%%%%%%%%%%%%%%%%%++++++OOOOOOOOOOOOOO+++++++&&&&&&&&&&&&&%%%%%%%%%%%%%%%%%%%%%%%%%%%%%%%%%%%%%%%%%%%%%%%%%%%%%%%%%%%%%++++++++++++++++++++++++++++++++++......                                                                                                                                                            ",
"                                                                                                                                                                               OOOOOOO%%%%%%%%%%%%%%+++++++++++++%%%%%%%&&&&&&&&&&&&&&&&&&&&&&&&&&&&&&&&&&%%%%%%%%%%%%%%%%%%%%%%%%%%%%%%%%%%%%%%%%%%%%%%%+++++++++++++++++++++++++++++++++++++++++++++++.......                                                                                                                                                     ",
"                                                                                                                                                                               OOOOOOO%%%%%%%%%%%%%%+++++++++++++%%%%%%%&&&&&&&&&&&&&&&&&&&&&&&&&&&&&&&&&&%%%%%%%%%%%%%%%%%%%%%%%%%%%%%%%%%%%%%%%%%%%%%%%+++++++++++++++++++++++++++++++++++++++++++++++.......                                                                                                                                                     ",
"                                                                                                                                                                               OOOOOOO%%%%%%%%%%%%%%+++++++++++++%%%%%%%&&&&&&&&&&&&&&&&&&&&&&&&&&&&&&&&&&%%%%%%%%%%%%%%%%%%%%%%%%%%%%%%%%%%%%%%%%%%%%%%%+++++++++++++++++++++++++++++++++++++++++++++++.......                                                                                                                                                     ",
"                                                                                                                                                                               OOOOOOO%%%%%%%%%%%%%%+++++++++++++%%%%%%%&&&&&&&&&&&&&&&&&&&&&&&&&&&&&&&&&&%%%%%%%%%%%%%%%%%%%%%%%%%%%%%%%%%%%%%%%%%%%%%%%+++++++++++++++++++++++++++++++++++++++++++++++.......                                                                                                                                                     ",
"                                                                                                                                                                               OOOOOOO%%%%%%%%%%%%%%+++++++++++++%%%%%%%&&&&&&&&&&&&&&&&&&&&&&&&&&&&&&&&&&%%%%%%%%%%%%%%%%%%%%%%%%%%%%%%%%%%%%%%%%%%%%%%%+++++++++++++++++++++++++++++++++++++++++++++++.......                                                                                                                                                     ",
"                                                                                                                                                                               OOOOOOO%%%%%%%%%%%%%%+++++++++++++%%%%%%%&&&&&&&&&&&&&&&&&&&&&&&&&&&&&&&&&&%%%%%%%%%%%%%%%%%%%%%%%%%%%%%%%%%%%%%%%%%%%%%%%+++++++++++++++++++++++++++++++++++++++++++++++.......                                                                                                                                                     ",
"                                                                                                                                                                               OOOOOOO%%%%%%%%%%%%%%+++++++++++++%%%%%%%&&&&&&&&&&&&&&&&&&&&&&&&&&&&&&&&&&%%%%%%%%%%%%%%%%%%%%%%%%%%%%%%%%%%%%%%%%%%%%%%%+++++++++++++++++++++++++++++++++++++++++++++++.......                                                                                                                                                     ",
"                                                                                                                                                                               OOOOOOO%%%%%%%+++++++%%%%%%%%%%%%%%%%%%%%%%%%%%%&&&&&&&&&&&&&&&&&&&&%%%%%%%%%%%%%%%%%%%%%%%%%%%++++++++++++++++++++++++++++++++++++++++++++++++++++++++++++++++++++++++++.......                                                                                                                                                     ",
"                                                                                                                                                                               OOOOOOO%%%%%%%+++++++%%%%%%%%%%%%%%%%%%%%%%%%%%%&&&&&&&&&&&&&&&&&&&&%%%%%%%%%%%%%%%%%%%%%%%%%%%++++++++++++++++++++++++++++++++++++++++++++++++++++++++++++++++++++++++++.......                                                                                                                                                     ",
"                                                                                                                                                                               OOOOOOO%%%%%%%+++++++%%%%%%%%%%%%%%%%%%%%%%%%%%%&&&&&&&&&&&&&&&&&&&&%%%%%%%%%%%%%%%%%%%%%%%%%%%++++++++++++++++++++++++++++++++++++++++++++++++++++++++++++++++++++++++++.......                                                                                                                                                     ",
"                                                                                                                                                                               OOOOOOO%%%%%%%+++++++%%%%%%%%%%%%%%%%%%%%%%%%%%%&&&&&&&&&&&&&&&&&&&&%%%%%%%%%%%%%%%%%%%%%%%%%%%++++++++++++++++++++++++++++++++++++++++++++++++++++++++++++++++++++++++++.......                                                                                                                                                     ",
"                                                                                                                                                                               OOOOOOO%%%%%%%+++++++%%%%%%%%%%%%%%%%%%%%%%%%%%%&&&&&&&&&&&&&&&&&&&&%%%%%%%%%%%%%%%%%%%%%%%%%%%++++++++++++++++++++++++++++++++++++++++++++++++++++++++++++++++++++++++++.......                                                                                                                                                     ",
"                                                                                                                                                                               OOOOOOO%%%%%%%+++++++%%%%%%%%%%%%%%%%%%%%%%%%%%%&&&&&&&&&&&&&&&&&&&&%%%%%%%%%%%%%%%%%%%%%%%%%%%++++++++++++++++++++++++++++++++++++++++++++++++++++++++++++++++++++++++++.......                                                                                                                                                     ",
"                                                                                                                                                                               OOOOOOO%%%%%%%+++++++%%%%%%%%%%%%%%%%%%%%%%%%%%%&&&&&&&&&&&&&&&&&&&&%%%%%%%%%%%%%%%%%%%%%%%%%%%++++++++++++++++++++++++++++++++++++++++++++++++++++++++++++++++++++++++++.......                                                                                                                                                     ",
"                                                                                                                                                                               .......+++++++%%%%%%%+++++++++++++%%%%%%%%%%%%%%%%%%%%%%%%%%%%%%%%%%%%%%%%%%%%%%%%+++++++++++++-------*******OOOOOOOOOOOOO++++++++++++++++++++++++++++++++++++++++++++++++++++++.......                                                                                                                                              ",
"                                                                                                                                                                               .......+++++++%%%%%%%+++++++++++++%%%%%%%%%%%%%%%%%%%%%%%%%%%%%%%%%%%%%%%%%%%%%%%%+++++++++++++-------*******OOOOOOOOOOOOO++++++++++++++++++++++++++++++++++++++++++++++++++++++.......                                                                                                                                              ",
"                                                                                                                                                                               .......+++++++%%%%%%%+++++++++++++%%%%%%%%%%%%%%%%%%%%%%%%%%%%%%%%%%%%%%%%%%%%%%%%+++++++++++++-------*******OOOOOOOOOOOOO++++++++++++++++++++++++++++++++++++++++++++++++++++++.......                                                                                                                                              ",
"                                                                                                                                                                               .......+++++++%%%%%%%+++++++++++++%%%%%%%%%%%%%%%%%%%%%%%%%%%%%%%%%%%%%%%%%%%%%%%%+++++++++++++-------*******OOOOOOOOOOOOO++++++++++++++++++++++++++++++++++++++++++++++++++++++.......                                                                                                                                              ",
"                                                                                                                                                                               .......+++++++%%%%%%%+++++++++++++%%%%%%%%%%%%%%%%%%%%%%%%%%%%%%%%%%%%%%%%%%%%%%%%+++++++++++++-------*******OOOOOOOOOOOOO++++++++++++++++++++++++++++++++++++++++++++++++++++++.......                                                                                                                                              ",
"                                                                                                                                                                               .......+++++++%%%%%%%+++++++++++++%%%%%%%%%%%%%%%%%%%%%%%%%%%%%%%%%%%%%%%%%%%%%%%%+++++++++++++-------*******OOOOOOOOOOOOO++++++++++++++++++++++++++++++++++++++++++++++++++++++.......                                                                                                                                              ",
"                                                                                                                                                                         .............++++++++++++++-------******+++++++%%%%%%%%%%%%%%%%%%%%%%%%%%%%%%%%%%+++++++---------------------------------*******OOOOOOO+++++++++++++++++++++++++++++++++++++++++++++++.......                                                                                                                                              ",
"                                                                                                                                                                         .............++++++++++++++-------******+++++++%%%%%%%%%%%%%%%%%%%%%%%%%%%%%%%%%%+++++++---------------------------------*******OOOOOOO+++++++++++++++++++++++++++++++++++++++++++++++.......                                                                                                                                              ",
"                                                                                                                                                                         .............++++++++++++++-------******+++++++%%%%%%%%%%%%%%%%%%%%%%%%%%%%%%%%%%+++++++---------------------------------*******OOOOOOO+++++++++++++++++++++++++++++++++++++++++++++++.......                                                                                                                                              ",
"                                                                                                                                                                         .............++++++++++++++-------******+++++++%%%%%%%%%%%%%%%%%%%%%%%%%%%%%%%%%%+++++++---------------------------------*******OOOOOOO+++++++++++++++++++++++++++++++++++++++++++++++.......                                                                                                                                              ",
"                                                                                                                                                                         .............++++++++++++++-------******+++++++%%%%%%%%%%%%%%%%%%%%%%%%%%%%%%%%%%+++++++---------------------------------*******OOOOOOO+++++++++++++++++++++++++++++++++++++++++++++++.......                                                                                                                                              ",
"                                                                                                                                                                         .............++++++++++++++-------******+++++++%%%%%%%%%%%%%%%%%%%%%%%%%%%%%%%%%%+++++++---------------------------------*******OOOOOOO+++++++++++++++++++++++++++++++++++++++++++++++.......                                                                                                                                              ",
"                                                                                                                                                                         .............++++++++++++++-------******+++++++%%%%%%%%%%%%%%%%%%%%%%%%%%%%%%%%%%+++++++---------------------------------*******OOOOOOO+++++++++++++++++++++++++++++++++++++++++++++++.......                                                                                                                                              ",
"                                                                                                                                                                         ......++++++++++++++---------------------------+++++++%%%%%%%%%%%%%%%%%%%%+++++++------------------------------------------------------OOOOOOO+++++++++++++++++++++++++++++++++++++++++++++++.......                                                                                                                                       ",
"                                                                                                                                                                         ......++++++++++++++---------------------------+++++++%%%%%%%%%%%%%%%%%%%%+++++++------------------------------------------------------OOOOOOO+++++++++++++++++++++++++++++++++++++++++++++++.......                                                                                                                                       ",
"                                                                                                                                                                         ......++++++++++++++---------------------------+++++++%%%%%%%%%%%%%%%%%%%%+++++++------------------------------------------------------OOOOOOO+++++++++++++++++++++++++++++++++++++++++++++++.......                                                                                                                                       ",
"                                                                                                                                                                         ......++++++++++++++---------------------------+++++++%%%%%%%%%%%%%%%%%%%%+++++++------------------------------------------------------OOOOOOO+++++++++++++++++++++++++++++++++++++++++++++++.......                                                                                                                                       ",
"                                                                                                                                                                         ......++++++++++++++---------------------------+++++++%%%%%%%%%%%%%%%%%%%%+++++++------------------------------------------------------OOOOOOO+++++++++++++++++++++++++++++++++++++++++++++++.......                                                                                                                                       ",
"                                                                                                                                                                         ......++++++++++++++---------------------------+++++++%%%%%%%%%%%%%%%%%%%%+++++++------------------------------------------------------OOOOOOO+++++++++++++++++++++++++++++++++++++++++++++++.......                                                                                                                                       ",
"                                                                                                                                                                         ......++++++++++++++---------------------------+++++++%%%%%%%%%%%%%%%%%%%%+++++++------------------------------------------------------OOOOOOO+++++++++++++++++++++++++++++++++++++++++++++++.......                                                                                                                                       ",
"                                                                                                                                                                         ......+++++++*******----------------------------------+++++++++++++*******--------------------------------------------------------------------OOOOOO+++++++++++++++++++++++++++++++++++++++++.......                                                                                                                                       ",
"                                                                                                                                                                         ......+++++++*******----------------------------------+++++++++++++*******--------------------------------------------------------------------OOOOOO+++++++++++++++++++++++++++++++++++++++++.......                                                                                                                                       ",
"                                                                                                                                                                         ......+++++++*******----------------------------------+++++++++++++*******--------------------------------------------------------------------OOOOOO+++++++++++++++++++++++++++++++++++++++++.......                                                                                                                                       ",
"                                                                                                                                                                         ......+++++++*******----------------------------------+++++++++++++*******--------------------------------------------------------------------OOOOOO+++++++++++++++++++++++++++++++++++++++++.......                                                                                                                                       ",
"                                                                                                                                                                         ......+++++++*******----------------------------------+++++++++++++*******--------------------------------------------------------------------OOOOOO+++++++++++++++++++++++++++++++++++++++++.......                                                                                                                                       ",
"                                                                                                                                                                         ......+++++++*******----------------------------------+++++++++++++*******--------------------------------------------------------------------OOOOOO+++++++++++++++++++++++++++++++++++++++++.......                                                                                                                                       ",
"                                                                                                                                                                         ......+++++++*******----------------------------------+++++++++++++*******--------------------------------------------------------------------OOOOOO+++++++++++++++++++++++++++++++++++++++++.......                                                                                                                                       ",
"                                                                                                                                                                         ......+++++++---------------------------------------------------------------------------------------------------------------------------------******OOOOOOO++++++++++++++++++++++++++++++++++.......                                                                                                                                       ",
"                                                                                                                                                                         ......+++++++---------------------------------------------------------------------------------------------------------------------------------******OOOOOOO++++++++++++++++++++++++++++++++++.......                                                                                                                                       ",
"                                                                                                                                                                         ......+++++++---------------------------------------------------------------------------------------------------------------------------------******OOOOOOO++++++++++++++++++++++++++++++++++.......                                                                                                                                       ",
"                                                                                                                                                                         ......+++++++---------------------------------------------------------------------------------------------------------------------------------******OOOOOOO++++++++++++++++++++++++++++++++++.......                                                                                                                                       ",
"                                                                                                                                                                         ......+++++++---------------------------------------------------------------------------------------------------------------------------------******OOOOOOO++++++++++++++++++++++++++++++++++.......                                                                                                                                       ",
"                                                                                                                                                                         ......+++++++---------------------------------------------------------------------------------------------------------------------------------******OOOOOOO++++++++++++++++++++++++++++++++++.......                                                                                                                                       ",
"                                                                                                                                                                         ......+++++++---------------------------------------------------------------------------------------------------------------------------------******OOOOOOO++++++++++++++++++++++++++++++++++.......                                                                                                                                       ",
"                                                                                                                                                                  .............*******---------------------------------------------------------------------------------------------------------------------------------------OOOOOOO+++++++++++++++++++++++++++++++++++++++++                                                                                 .............                     ......              ",
"                                                                                                                                                                  .............*******---------------------------------------------------------------------------------------------------------------------------------------OOOOOOO+++++++++++++++++++++++++++++++++++++++++                                                                                 .............                     ......              ",
"                                                                                                                                                                  .............*******---------------------------------------------------------------------------------------------------------------------------------------OOOOOOO+++++++++++++++++++++++++++++++++++++++++                                                                                 .............                     ......              ",
"                                                                                                                                                                  .............*******---------------------------------------------------------------------------------------------------------------------------------------OOOOOOO+++++++++++++++++++++++++++++++++++++++++                                                                                 .............                     ......              ",
"                                                                                                                                                                  .............*******---------------------------------------------------------------------------------------------------------------------------------------OOOOOOO+++++++++++++++++++++++++++++++++++++++++                                                                                 .............                     ......              ",
"                                                                                                                                                                  .............*******---------------------------------------------------------------------------------------------------------------------------------------OOOOOOO+++++++++++++++++++++++++++++++++++++++++                                                                                 .............                     ......              ",
"                                                                                                                                                                  .......++++++----------------------------------------------------------------------------------------..................................--------------------*******OOOOOOO++++++++++++++++++++++++++++++++++......                                                                    ..............::::::       .......:::::::......              ",
"                                                                                                                                                                  .......++++++----------------------------------------------------------------------------------------..................................--------------------*******OOOOOOO++++++++++++++++++++++++++++++++++......                                                                    ..............::::::       .......:::::::......              ",
"                                                                                                                                                                  .......++++++----------------------------------------------------------------------------------------..................................--------------------*******OOOOOOO++++++++++++++++++++++++++++++++++......                                                                    ..............::::::       .......:::::::......              ",
"                                                                                                                                                                  .......++++++----------------------------------------------------------------------------------------..................................--------------------*******OOOOOOO++++++++++++++++++++++++++++++++++......                                                                    ..............::::::       .......:::::::......              ",
"                                                                                                                                                                  .......++++++----------------------------------------------------------------------------------------..................................--------------------*******OOOOOOO++++++++++++++++++++++++++++++++++......                                                                    ..............::::::       .......:::::::......              ",
"                                                                                                                                                                  .......++++++----------------------------------------------------------------------------------------..................................--------------------*******OOOOOOO++++++++++++++++++++++++++++++++++......                                                                    ..............::::::       .......:::::::......              ",
"                                                                                                                                                                  .......++++++----------------------------------------------------------------------------------------..................................--------------------*******OOOOOOO++++++++++++++++++++++++++++++++++......                                                                    ..............::::::       .......:::::::......              ",
"                                                                                                                                                                  .......++++++.....................------------------------------------------------------.............@@@@@@@------------------------------------------------------OOOOOOO++++++++++++++++++++++++++++++++++......                                                             .......%%%%%%%%%%%%%%%%%%%%...........................              ",
"                                                                                                                                                                  .......++++++.....................------------------------------------------------------.............@@@@@@@------------------------------------------------------OOOOOOO++++++++++++++++++++++++++++++++++......                                                             .......%%%%%%%%%%%%%%%%%%%%...........................              ",
"                                                                                                                                                                  .......++++++.....................------------------------------------------------------.............@@@@@@@------------------------------------------------------OOOOOOO++++++++++++++++++++++++++++++++++......                                                             .......%%%%%%%%%%%%%%%%%%%%...........................              ",
"                                                                                                                                                                  .......++++++.....................------------------------------------------------------.............@@@@@@@------------------------------------------------------OOOOOOO++++++++++++++++++++++++++++++++++......                                                             .......%%%%%%%%%%%%%%%%%%%%...........................              ",
"                                                                                                                                                                  .......++++++.....................------------------------------------------------------.............@@@@@@@------------------------------------------------------OOOOOOO++++++++++++++++++++++++++++++++++......                                                             .......%%%%%%%%%%%%%%%%%%%%...........................              ",
"                                                                                                                                                                  .......++++++.....................------------------------------------------------------.............@@@@@@@------------------------------------------------------OOOOOOO++++++++++++++++++++++++++++++++++......                                                             .......%%%%%%%%%%%%%%%%%%%%...........................              ",
"                                                                                                                                                                  .......++++++.....................------------------------------------------------------.............@@@@@@@------------------------------------------------------OOOOOOO++++++++++++++++++++++++++++++++++......                                                             .......%%%%%%%%%%%%%%%%%%%%...........................              ",
"                                                                                                                                                                  .......++++++--------------@@@@@@@.............-------------------------------------------------------------------------------------------------------------------OOOOOOO++++++++++++++++++++++++++++++++++......                           .......       .............%%%%%%%%%%%%%%%%%%%%%%%%%%%%%%%%%%%%%%%%%%%%%%%%OOOOOOO      ..............",
"                                                                                                                                                                  .......++++++--------------@@@@@@@.............-------------------------------------------------------------------------------------------------------------------OOOOOOO++++++++++++++++++++++++++++++++++......                           .......       .............%%%%%%%%%%%%%%%%%%%%%%%%%%%%%%%%%%%%%%%%%%%%%%%%OOOOOOO      ..............",
"                                                                                                                                                                  .......++++++--------------@@@@@@@.............-------------------------------------------------------------------------------------------------------------------OOOOOOO++++++++++++++++++++++++++++++++++......                           .......       .............%%%%%%%%%%%%%%%%%%%%%%%%%%%%%%%%%%%%%%%%%%%%%%%%OOOOOOO      ..............",
"                                                                                                                                                                  .......++++++--------------@@@@@@@.............-------------------------------------------------------------------------------------------------------------------OOOOOOO++++++++++++++++++++++++++++++++++......                           .......       .............%%%%%%%%%%%%%%%%%%%%%%%%%%%%%%%%%%%%%%%%%%%%%%%%OOOOOOO      ..............",
"                                                                                                                                                                  .......++++++--------------@@@@@@@.............-------------------------------------------------------------------------------------------------------------------OOOOOOO++++++++++++++++++++++++++++++++++......                           .......       .............%%%%%%%%%%%%%%%%%%%%%%%%%%%%%%%%%%%%%%%%%%%%%%%%OOOOOOO      ..............",
"                                                                                                                                                                  .......++++++--------------@@@@@@@.............-------------------------------------------------------------------------------------------------------------------OOOOOOO++++++++++++++++++++++++++++++++++......                           .......       .............%%%%%%%%%%%%%%%%%%%%%%%%%%%%%%%%%%%%%%%%%%%%%%%%OOOOOOO      ..............",
"                                                                                                                                                                  .......++++++--------------@@@@@@@.............-------------------------------------------------------------------------------------------------------------------OOOOOOO++++++++++++++++++++++++++++++++++......                           .......       .............%%%%%%%%%%%%%%%%%%%%%%%%%%%%%%%%%%%%%%%%%%%%%%%%OOOOOOO      ..............",
"                                                                   ..............       .............                                                             .......++++++-----------------------------------------------------------------------------------------------------------------------------------------------------OOOOOOO++++++++++++++++++++++++++++++++++......                     ......+++++++.......%%%%%%%%%%%%%%%%%%%%%%%%%%%%%%%%%%%%%%%%%%%%%%%%%%%%%%%%%%%%%%%%%%%%......:::::::.......",
"                                                                   ..............       .............                                                             .......++++++-----------------------------------------------------------------------------------------------------------------------------------------------------OOOOOOO++++++++++++++++++++++++++++++++++......                     ......+++++++.......%%%%%%%%%%%%%%%%%%%%%%%%%%%%%%%%%%%%%%%%%%%%%%%%%%%%%%%%%%%%%%%%%%%%......:::::::.......",
"                                                                   ..............       .............                                                             .......++++++-----------------------------------------------------------------------------------------------------------------------------------------------------OOOOOOO++++++++++++++++++++++++++++++++++......                     ......+++++++.......%%%%%%%%%%%%%%%%%%%%%%%%%%%%%%%%%%%%%%%%%%%%%%%%%%%%%%%%%%%%%%%%%%%%......:::::::.......",
"                                                                   ..............       .............                                                             .......++++++-----------------------------------------------------------------------------------------------------------------------------------------------------OOOOOOO++++++++++++++++++++++++++++++++++......                     ......+++++++.......%%%%%%%%%%%%%%%%%%%%%%%%%%%%%%%%%%%%%%%%%%%%%%%%%%%%%%%%%%%%%%%%%%%%......:::::::.......",
"                                                                   ..............       .............                                                             .......++++++-----------------------------------------------------------------------------------------------------------------------------------------------------OOOOOOO++++++++++++++++++++++++++++++++++......                     ......+++++++.......%%%%%%%%%%%%%%%%%%%%%%%%%%%%%%%%%%%%%%%%%%%%%%%%%%%%%%%%%%%%%%%%%%%%......:::::::.......",
"                                                                   ..............       .............                                                             .......++++++-----------------------------------------------------------------------------------------------------------------------------------------------------OOOOOOO++++++++++++++++++++++++++++++++++......                     ......+++++++.......%%%%%%%%%%%%%%%%%%%%%%%%%%%%%%%%%%%%%%%%%%%%%%%%%%%%%%%%%%%%%%%%%%%%......:::::::.......",
"                                                                   .......:::::::.......::::::.......                                                             .......++++++----------------------------------------------------------------------------------@@@@@@*******-----------------------------------------------*******OOOOOOO++++++++++++++++++++++++++++++++++OOOOOO.......+++++++++++++++++++++++++++%%%%%%%%%%%%%%%%%%%%%%%%%%%%%%%%%%%%%%%%%%%%%%%%%%%%%%%%%%%%%%%%%%%%%%%%%%%OOOOOO..............",
"                                                                   .......:::::::.......::::::.......                                                             .......++++++----------------------------------------------------------------------------------@@@@@@*******-----------------------------------------------*******OOOOOOO++++++++++++++++++++++++++++++++++OOOOOO.......+++++++++++++++++++++++++++%%%%%%%%%%%%%%%%%%%%%%%%%%%%%%%%%%%%%%%%%%%%%%%%%%%%%%%%%%%%%%%%%%%%%%%%%%%OOOOOO..............",
"                                                                   .......:::::::.......::::::.......                                                             .......++++++----------------------------------------------------------------------------------@@@@@@*******-----------------------------------------------*******OOOOOOO++++++++++++++++++++++++++++++++++OOOOOO.......+++++++++++++++++++++++++++%%%%%%%%%%%%%%%%%%%%%%%%%%%%%%%%%%%%%%%%%%%%%%%%%%%%%%%%%%%%%%%%%%%%%%%%%%%OOOOOO..............",
"                                                                   .......:::::::.......::::::.......                                                             .......++++++----------------------------------------------------------------------------------@@@@@@*******-----------------------------------------------*******OOOOOOO++++++++++++++++++++++++++++++++++OOOOOO.......+++++++++++++++++++++++++++%%%%%%%%%%%%%%%%%%%%%%%%%%%%%%%%%%%%%%%%%%%%%%%%%%%%%%%%%%%%%%%%%%%%%%%%%%%OOOOOO..............",
"                                                                   .......:::::::.......::::::.......                                                             .......++++++----------------------------------------------------------------------------------@@@@@@*******-----------------------------------------------*******OOOOOOO++++++++++++++++++++++++++++++++++OOOOOO.......+++++++++++++++++++++++++++%%%%%%%%%%%%%%%%%%%%%%%%%%%%%%%%%%%%%%%%%%%%%%%%%%%%%%%%%%%%%%%%%%%%%%%%%%%OOOOOO..............",
"                                                                   .......:::::::.......::::::.......                                                             .......++++++----------------------------------------------------------------------------------@@@@@@*******-----------------------------------------------*******OOOOOOO++++++++++++++++++++++++++++++++++OOOOOO.......+++++++++++++++++++++++++++%%%%%%%%%%%%%%%%%%%%%%%%%%%%%%%%%%%%%%%%%%%%%%%%%%%%%%%%%%%%%%%%%%%%%%%%%%%OOOOOO..............",
"                                                                   .......:::::::.......::::::.......                                                             .......++++++----------------------------------------------------------------------------------@@@@@@*******-----------------------------------------------*******OOOOOOO++++++++++++++++++++++++++++++++++OOOOOO.......+++++++++++++++++++++++++++%%%%%%%%%%%%%%%%%%%%%%%%%%%%%%%%%%%%%%%%%%%%%%%%%%%%%%%%%%%%%%%%%%%%%%%%%%%OOOOOO..............",
"                                                      .............       %%%%%%%%%%%%%%....................OOOOOOO                                                      ......*******---------------------------@@@@@@@----------------------------------@@@@@@@::::::.......-----------------------------------------------OOOOOOO+++++++++++++++++++++++++++++++++++++++++++++++++++++++++++++++++++++++++++++++++%%%%%%%%%%%%%%%%%%%%%%%%%%%%%%%%%%%%%%%%%%%%%%%%%%%%%%%%%%%%%+++++++OOOOOOO::::::.......       ",
"                                                      .............       %%%%%%%%%%%%%%....................OOOOOOO                                                      ......*******---------------------------@@@@@@@----------------------------------@@@@@@@::::::.......-----------------------------------------------OOOOOOO+++++++++++++++++++++++++++++++++++++++++++++++++++++++++++++++++++++++++++++++++%%%%%%%%%%%%%%%%%%%%%%%%%%%%%%%%%%%%%%%%%%%%%%%%%%%%%%%%%%%%%+++++++OOOOOOO::::::.......       ",
"                                                      .............       %%%%%%%%%%%%%%....................OOOOOOO                                                      ......*******---------------------------@@@@@@@----------------------------------@@@@@@@::::::.......-----------------------------------------------OOOOOOO+++++++++++++++++++++++++++++++++++++++++++++++++++++++++++++++++++++++++++++++++%%%%%%%%%%%%%%%%%%%%%%%%%%%%%%%%%%%%%%%%%%%%%%%%%%%%%%%%%%%%%+++++++OOOOOOO::::::.......       ",
"                                                      .............       %%%%%%%%%%%%%%....................OOOOOOO                                                      ......*******---------------------------@@@@@@@----------------------------------@@@@@@@::::::.......-----------------------------------------------OOOOOOO+++++++++++++++++++++++++++++++++++++++++++++++++++++++++++++++++++++++++++++++++%%%%%%%%%%%%%%%%%%%%%%%%%%%%%%%%%%%%%%%%%%%%%%%%%%%%%%%%%%%%%+++++++OOOOOOO::::::.......       ",
"                                                      .............       %%%%%%%%%%%%%%....................OOOOOOO                                                      ......*******---------------------------@@@@@@@----------------------------------@@@@@@@::::::.......-----------------------------------------------OOOOOOO+++++++++++++++++++++++++++++++++++++++++++++++++++++++++++++++++++++++++++++++++%%%%%%%%%%%%%%%%%%%%%%%%%%%%%%%%%%%%%%%%%%%%%%%%%%%%%%%%%%%%%+++++++OOOOOOO::::::.......       ",
"                                                      .............       %%%%%%%%%%%%%%....................OOOOOOO                                                      ......*******---------------------------@@@@@@@----------------------------------@@@@@@@::::::.......-----------------------------------------------OOOOOOO+++++++++++++++++++++++++++++++++++++++++++++++++++++++++++++++++++++++++++++++++%%%%%%%%%%%%%%%%%%%%%%%%%%%%%%%%%%%%%%%%%%%%%%%%%%%%%%%%%%%%%+++++++OOOOOOO::::::.......       ",
"                                                      .............       %%%%%%%%%%%%%%....................OOOOOOO                                                      ......*******---------------------------@@@@@@@----------------------------------@@@@@@@::::::.......-----------------------------------------------OOOOOOO+++++++++++++++++++++++++++++++++++++++++++++++++++++++++++++++++++++++++++++++++%%%%%%%%%%%%%%%%%%%%%%%%%%%%%%%%%%%%%%%%%%%%%%%%%%%%%%%%%%%%%+++++++OOOOOOO::::::.......       ",
"                                                      .......::::::.......%%%%%%%%%%%%%%%%%%%%%%%%%%%%%%%%%%OOOOOOOOOOOOOOOOOOOOOOOOOOOOOOOOOOOOOOOO       ....................+++++++---------------------@@@@@@:::::::@@@@@@@-------******.....................@@@@@@*******-----------------------------------------******OOOOOOO+++++++++++++++++++++++++++++++++++++++++++++++++++++++++++++++++++++++++++++++++%%%%%%%%%%%%%%%%%%%%%%%%%%%%%%%%%%%%%%%%%%%%%%%%++++++++++++++++++++....................       ",
"                                                      .......::::::.......%%%%%%%%%%%%%%%%%%%%%%%%%%%%%%%%%%OOOOOOOOOOOOOOOOOOOOOOOOOOOOOOOOOOOOOOOO       ....................+++++++---------------------@@@@@@:::::::@@@@@@@-------******.....................@@@@@@*******-----------------------------------------******OOOOOOO+++++++++++++++++++++++++++++++++++++++++++++++++++++++++++++++++++++++++++++++++%%%%%%%%%%%%%%%%%%%%%%%%%%%%%%%%%%%%%%%%%%%%%%%%++++++++++++++++++++....................       ",
"                                                      .......::::::.......%%%%%%%%%%%%%%%%%%%%%%%%%%%%%%%%%%OOOOOOOOOOOOOOOOOOOOOOOOOOOOOOOOOOOOOOOO       ....................+++++++---------------------@@@@@@:::::::@@@@@@@-------******.....................@@@@@@*******-----------------------------------------******OOOOOOO+++++++++++++++++++++++++++++++++++++++++++++++++++++++++++++++++++++++++++++++++%%%%%%%%%%%%%%%%%%%%%%%%%%%%%%%%%%%%%%%%%%%%%%%%++++++++++++++++++++....................       ",
"                                                      .......::::::.......%%%%%%%%%%%%%%%%%%%%%%%%%%%%%%%%%%OOOOOOOOOOOOOOOOOOOOOOOOOOOOOOOOOOOOOOOO       ....................+++++++---------------------@@@@@@:::::::@@@@@@@-------******.....................@@@@@@*******-----------------------------------------******OOOOOOO+++++++++++++++++++++++++++++++++++++++++++++++++++++++++++++++++++++++++++++++++%%%%%%%%%%%%%%%%%%%%%%%%%%%%%%%%%%%%%%%%%%%%%%%%++++++++++++++++++++....................       ",
"                                                      .......::::::.......%%%%%%%%%%%%%%%%%%%%%%%%%%%%%%%%%%OOOOOOOOOOOOOOOOOOOOOOOOOOOOOOOOOOOOOOOO       ....................+++++++---------------------@@@@@@:::::::@@@@@@@-------******.....................@@@@@@*******-----------------------------------------******OOOOOOO+++++++++++++++++++++++++++++++++++++++++++++++++++++++++++++++++++++++++++++++++%%%%%%%%%%%%%%%%%%%%%%%%%%%%%%%%%%%%%%%%%%%%%%%%++++++++++++++++++++....................       ",
"                                                      .......::::::.......%%%%%%%%%%%%%%%%%%%%%%%%%%%%%%%%%%OOOOOOOOOOOOOOOOOOOOOOOOOOOOOOOOOOOOOOOO       ....................+++++++---------------------@@@@@@:::::::@@@@@@@-------******.....................@@@@@@*******-----------------------------------------******OOOOOOO+++++++++++++++++++++++++++++++++++++++++++++++++++++++++++++++++++++++++++++++++%%%%%%%%%%%%%%%%%%%%%%%%%%%%%%%%%%%%%%%%%%%%%%%%++++++++++++++++++++....................       ",
"                                                      .......::::::.......%%%%%%%%%%%%%%%%%%%%%%%%%%%%%%%%%%OOOOOOOOOOOOOOOOOOOOOOOOOOOOOOOOOOOOOOOO       ....................+++++++---------------------@@@@@@:::::::@@@@@@@-------******.....................@@@@@@*******-----------------------------------------******OOOOOOO+++++++++++++++++++++++++++++++++++++++++++++++++++++++++++++++++++++++++++++++++%%%%%%%%%%%%%%%%%%%%%%%%%%%%%%%%%%%%%%%%%%%%%%%%++++++++++++++++++++....................       ",
"                                                      .......OOOOOO%%%%%%%%%%%%%%%%%%%%%%%%%%%%%%%%%%%%%%%%%%%%%%%%%%%%%%%%%%%%%%%%%%%%%%%%%%%%%%%%%.......++++++++++++++++++++.......*******--------------@@@@@@...........................*******--------------------------------------------------------------------OOOOOO+++++++++++++++++++++++++++++++++++++++++++++++++++++++++++++++++++++++++++++++++++++++++++++++%%%%%%%%%%%%%%%%%%%%++++++++++++++++++++++++++++++++++.......:::::::OOOOOO.......       ",
"                                                      .......OOOOOO%%%%%%%%%%%%%%%%%%%%%%%%%%%%%%%%%%%%%%%%%%%%%%%%%%%%%%%%%%%%%%%%%%%%%%%%%%%%%%%%%.......++++++++++++++++++++.......*******--------------@@@@@@...........................*******--------------------------------------------------------------------OOOOOO+++++++++++++++++++++++++++++++++++++++++++++++++++++++++++++++++++++++++++++++++++++++++++++++%%%%%%%%%%%%%%%%%%%%++++++++++++++++++++++++++++++++++.......:::::::OOOOOO.......       ",
"                                                      .......OOOOOO%%%%%%%%%%%%%%%%%%%%%%%%%%%%%%%%%%%%%%%%%%%%%%%%%%%%%%%%%%%%%%%%%%%%%%%%%%%%%%%%%.......++++++++++++++++++++.......*******--------------@@@@@@...........................*******--------------------------------------------------------------------OOOOOO+++++++++++++++++++++++++++++++++++++++++++++++++++++++++++++++++++++++++++++++++++++++++++++++%%%%%%%%%%%%%%%%%%%%++++++++++++++++++++++++++++++++++.......:::::::OOOOOO.......       ",
"                                                      .......OOOOOO%%%%%%%%%%%%%%%%%%%%%%%%%%%%%%%%%%%%%%%%%%%%%%%%%%%%%%%%%%%%%%%%%%%%%%%%%%%%%%%%%.......++++++++++++++++++++.......*******--------------@@@@@@...........................*******--------------------------------------------------------------------OOOOOO+++++++++++++++++++++++++++++++++++++++++++++++++++++++++++++++++++++++++++++++++++++++++++++++%%%%%%%%%%%%%%%%%%%%++++++++++++++++++++++++++++++++++.......:::::::OOOOOO.......       ",
"                                                      .......OOOOOO%%%%%%%%%%%%%%%%%%%%%%%%%%%%%%%%%%%%%%%%%%%%%%%%%%%%%%%%%%%%%%%%%%%%%%%%%%%%%%%%%.......++++++++++++++++++++.......*******--------------@@@@@@...........................*******--------------------------------------------------------------------OOOOOO+++++++++++++++++++++++++++++++++++++++++++++++++++++++++++++++++++++++++++++++++++++++++++++++%%%%%%%%%%%%%%%%%%%%++++++++++++++++++++++++++++++++++.......:::::::OOOOOO.......       ",
"                                                      .......OOOOOO%%%%%%%%%%%%%%%%%%%%%%%%%%%%%%%%%%%%%%%%%%%%%%%%%%%%%%%%%%%%%%%%%%%%%%%%%%%%%%%%%.......++++++++++++++++++++.......*******--------------@@@@@@...........................*******--------------------------------------------------------------------OOOOOO+++++++++++++++++++++++++++++++++++++++++++++++++++++++++++++++++++++++++++++++++++++++++++++++%%%%%%%%%%%%%%%%%%%%++++++++++++++++++++++++++++++++++.......:::::::OOOOOO.......       ",
"                                                      .............OOOOOOO%%%%%%%%%%%%%%%%%%%%%%%%%%%%%%%%%%%%%%%%%%%%%%%%%%%%%%%%%%%%%%%%%%%%%%%%%%+++++++++++++++++++++++++++.......+++++++-------------------------------------------------------------------------------------------------------------------OOOOOOO+++++++++++++++++++++++++++++++++++++++++++++++++++++++++++++++++++++++++++++++++++++++++++++++++++++++++++++++++++++++++++++++++++++++++++++++++++++++++++....................              ",
"                                                      .............OOOOOOO%%%%%%%%%%%%%%%%%%%%%%%%%%%%%%%%%%%%%%%%%%%%%%%%%%%%%%%%%%%%%%%%%%%%%%%%%%+++++++++++++++++++++++++++.......+++++++-------------------------------------------------------------------------------------------------------------------OOOOOOO+++++++++++++++++++++++++++++++++++++++++++++++++++++++++++++++++++++++++++++++++++++++++++++++++++++++++++++++++++++++++++++++++++++++++++++++++++++++++++....................              ",
"                                                      .............OOOOOOO%%%%%%%%%%%%%%%%%%%%%%%%%%%%%%%%%%%%%%%%%%%%%%%%%%%%%%%%%%%%%%%%%%%%%%%%%%+++++++++++++++++++++++++++.......+++++++-------------------------------------------------------------------------------------------------------------------OOOOOOO+++++++++++++++++++++++++++++++++++++++++++++++++++++++++++++++++++++++++++++++++++++++++++++++++++++++++++++++++++++++++++++++++++++++++++++++++++++++++++....................              ",
"                                                      .............OOOOOOO%%%%%%%%%%%%%%%%%%%%%%%%%%%%%%%%%%%%%%%%%%%%%%%%%%%%%%%%%%%%%%%%%%%%%%%%%%+++++++++++++++++++++++++++.......+++++++-------------------------------------------------------------------------------------------------------------------OOOOOOO+++++++++++++++++++++++++++++++++++++++++++++++++++++++++++++++++++++++++++++++++++++++++++++++++++++++++++++++++++++++++++++++++++++++++++++++++++++++++++....................              ",
"                                                      .............OOOOOOO%%%%%%%%%%%%%%%%%%%%%%%%%%%%%%%%%%%%%%%%%%%%%%%%%%%%%%%%%%%%%%%%%%%%%%%%%%+++++++++++++++++++++++++++.......+++++++-------------------------------------------------------------------------------------------------------------------OOOOOOO+++++++++++++++++++++++++++++++++++++++++++++++++++++++++++++++++++++++++++++++++++++++++++++++++++++++++++++++++++++++++++++++++++++++++++++++++++++++++++....................              ",
"                                                      .............OOOOOOO%%%%%%%%%%%%%%%%%%%%%%%%%%%%%%%%%%%%%%%%%%%%%%%%%%%%%%%%%%%%%%%%%%%%%%%%%%+++++++++++++++++++++++++++.......+++++++-------------------------------------------------------------------------------------------------------------------OOOOOOO+++++++++++++++++++++++++++++++++++++++++++++++++++++++++++++++++++++++++++++++++++++++++++++++++++++++++++++++++++++++++++++++++++++++++++++++++++++++++++....................              ",
"                                                      .............OOOOOOO%%%%%%%%%%%%%%%%%%%%%%%%%%%%%%%%%%%%%%%%%%%%%%%%%%%%%%%%%%%%%%%%%%%%%%%%%%+++++++++++++++++++++++++++.......+++++++-------------------------------------------------------------------------------------------------------------------OOOOOOO+++++++++++++++++++++++++++++++++++++++++++++++++++++++++++++++++++++++++++++++++++++++++++++++++++++++++++++++++++++++++++++++++++++++++++++++++++++++++++....................              ",
"                                                      .......::::::OOOOOOO+++++++%%%%%%%%%%%%%%%%%%%%%%%%%%%%%%%%%%%%%%%%%%%%%%%%%%%%%%%%%%%%%%%%%%%+++++++++++++++++++++++++++.......OOOOOOO-----------------------------------------------------------------------------------------------------OOOOOOO+++++++++++++++++++++++++++++++++++++++++++++++OOOOOOO++++++++++++++++++++++++++++++++++++++++++++++++++++++++++++++++++++++++++++++++++++++++++++++++++++++++++++++++++++++++++.............              ",
"                                                      .......::::::OOOOOOO+++++++%%%%%%%%%%%%%%%%%%%%%%%%%%%%%%%%%%%%%%%%%%%%%%%%%%%%%%%%%%%%%%%%%%%+++++++++++++++++++++++++++.......OOOOOOO-----------------------------------------------------------------------------------------------------OOOOOOO+++++++++++++++++++++++++++++++++++++++++++++++OOOOOOO++++++++++++++++++++++++++++++++++++++++++++++++++++++++++++++++++++++++++++++++++++++++++++++++++++++++++++++++++++++++++.............              ",
"                                                      .......::::::OOOOOOO+++++++%%%%%%%%%%%%%%%%%%%%%%%%%%%%%%%%%%%%%%%%%%%%%%%%%%%%%%%%%%%%%%%%%%%+++++++++++++++++++++++++++.......OOOOOOO-----------------------------------------------------------------------------------------------------OOOOOOO+++++++++++++++++++++++++++++++++++++++++++++++OOOOOOO++++++++++++++++++++++++++++++++++++++++++++++++++++++++++++++++++++++++++++++++++++++++++++++++++++++++++++++++++++++++++.............              ",
"                                                      .......::::::OOOOOOO+++++++%%%%%%%%%%%%%%%%%%%%%%%%%%%%%%%%%%%%%%%%%%%%%%%%%%%%%%%%%%%%%%%%%%%+++++++++++++++++++++++++++.......OOOOOOO-----------------------------------------------------------------------------------------------------OOOOOOO+++++++++++++++++++++++++++++++++++++++++++++++OOOOOOO++++++++++++++++++++++++++++++++++++++++++++++++++++++++++++++++++++++++++++++++++++++++++++++++++++++++++++++++++++++++++.............              ",
"                                                      .......::::::OOOOOOO+++++++%%%%%%%%%%%%%%%%%%%%%%%%%%%%%%%%%%%%%%%%%%%%%%%%%%%%%%%%%%%%%%%%%%%+++++++++++++++++++++++++++.......OOOOOOO-----------------------------------------------------------------------------------------------------OOOOOOO+++++++++++++++++++++++++++++++++++++++++++++++OOOOOOO++++++++++++++++++++++++++++++++++++++++++++++++++++++++++++++++++++++++++++++++++++++++++++++++++++++++++++++++++++++++++.............              ",
"                                                      .......::::::OOOOOOO+++++++%%%%%%%%%%%%%%%%%%%%%%%%%%%%%%%%%%%%%%%%%%%%%%%%%%%%%%%%%%%%%%%%%%%+++++++++++++++++++++++++++.......OOOOOOO-----------------------------------------------------------------------------------------------------OOOOOOO+++++++++++++++++++++++++++++++++++++++++++++++OOOOOOO++++++++++++++++++++++++++++++++++++++++++++++++++++++++++++++++++++++++++++++++++++++++++++++++++++++++++++++++++++++++++.............              ",
"                                                      .......::::::OOOOOOO+++++++%%%%%%%%%%%%%%%%%%%%%%%%%%%%%%%%%%%%%%%%%%%%%%%%%%%%%%%%%%%%%%%%%%%+++++++++++++++++++++++++++.......OOOOOOO-----------------------------------------------------------------------------------------------------OOOOOOO+++++++++++++++++++++++++++++++++++++++++++++++OOOOOOO++++++++++++++++++++++++++++++++++++++++++++++++++++++++++++++++++++++++++++++++++++++++++++++++++++++++++++++++++++++++++.............              ",
"                                                             ......OOOOOOOOOOOOOO+++++++++++++%%%%%%%%%%%%%%%%%%%%%%%%%%%%%%%%%%%%%%%%%%%%%%%%++++++++++++++++++++++++++++++++++++++++OOOOOOOOOOOOOO---------------------------------------------------------------------------------#######OOOOOO++++++++++++++-------OOOOOOOOOOOOO+++++++++++++++++++++++++++OOOOOOO+++++++++++++++++++++++++++++++++++++++++++++++++++++++++++++++++++++++++++++++++++++++++++++++++++++++++++++++++++.......                    ",
"                                                             ......OOOOOOOOOOOOOO+++++++++++++%%%%%%%%%%%%%%%%%%%%%%%%%%%%%%%%%%%%%%%%%%%%%%%%++++++++++++++++++++++++++++++++++++++++OOOOOOOOOOOOOO---------------------------------------------------------------------------------#######OOOOOO++++++++++++++-------OOOOOOOOOOOOO+++++++++++++++++++++++++++OOOOOOO+++++++++++++++++++++++++++++++++++++++++++++++++++++++++++++++++++++++++++++++++++++++++++++++++++++++++++++++++++.......                    ",
"                                                             ......OOOOOOOOOOOOOO+++++++++++++%%%%%%%%%%%%%%%%%%%%%%%%%%%%%%%%%%%%%%%%%%%%%%%%++++++++++++++++++++++++++++++++++++++++OOOOOOOOOOOOOO---------------------------------------------------------------------------------#######OOOOOO++++++++++++++-------OOOOOOOOOOOOO+++++++++++++++++++++++++++OOOOOOO+++++++++++++++++++++++++++++++++++++++++++++++++++++++++++++++++++++++++++++++++++++++++++++++++++++++++++++++++++.......                    ",
"                                                             ......OOOOOOOOOOOOOO+++++++++++++%%%%%%%%%%%%%%%%%%%%%%%%%%%%%%%%%%%%%%%%%%%%%%%%++++++++++++++++++++++++++++++++++++++++OOOOOOOOOOOOOO---------------------------------------------------------------------------------#######OOOOOO++++++++++++++-------OOOOOOOOOOOOO+++++++++++++++++++++++++++OOOOOOO+++++++++++++++++++++++++++++++++++++++++++++++++++++++++++++++++++++++++++++++++++++++++++++++++++++++++++++++++++.......                    ",
"                                                             ......OOOOOOOOOOOOOO+++++++++++++%%%%%%%%%%%%%%%%%%%%%%%%%%%%%%%%%%%%%%%%%%%%%%%%++++++++++++++++++++++++++++++++++++++++OOOOOOOOOOOOOO---------------------------------------------------------------------------------#######OOOOOO++++++++++++++-------OOOOOOOOOOOOO+++++++++++++++++++++++++++OOOOOOO+++++++++++++++++++++++++++++++++++++++++++++++++++++++++++++++++++++++++++++++++++++++++++++++++++++++++++++++++++.......                    ",
"                                                             ......OOOOOOOOOOOOOO+++++++++++++%%%%%%%%%%%%%%%%%%%%%%%%%%%%%%%%%%%%%%%%%%%%%%%%++++++++++++++++++++++++++++++++++++++++OOOOOOOOOOOOOO---------------------------------------------------------------------------------#######OOOOOO++++++++++++++-------OOOOOOOOOOOOO+++++++++++++++++++++++++++OOOOOOO+++++++++++++++++++++++++++++++++++++++++++++++++++++++++++++++++++++++++++++++++++++++++++++++++++++++++++++++++++.......                    ",
"                                                             ......OOOOOOOOOOOOOO+++++++++++++%%%%%%%%%%%%%%%%%%%%%%%%%%%%%%%%%%%%%%%%%%%%%%%%++++++++++++++++++++++++++++++++++++++++OOOOOOOOOOOOOO---------------------------------------------------------------------------------#######OOOOOO++++++++++++++-------OOOOOOOOOOOOO+++++++++++++++++++++++++++OOOOOOO+++++++++++++++++++++++++++++++++++++++++++++++++++++++++++++++++++++++++++++++++++++++++++++++++++++++++++++++++++.......                    ",
"                                                             ......OOOOOOO:::::::+++++++++++++++++++++++++++%%%%%%%%%%%%%%%%%%%%%%%%%%%+++++++++++++++++++++++++++++++++++++++++++++++.......OOOOOOOOOOOOOOOOOOOO#######========---------------------------======********************-----------------------------------------------OOOOOOOOOOOOOOOOOOOO++++++++++++++OOOOOOO++++++++++++++++++++++++++++++++++++++++++++++++++++++++++++++++++++++++++++++++++++++++++++++.......                                  ",
"                                                             ......OOOOOOO:::::::+++++++++++++++++++++++++++%%%%%%%%%%%%%%%%%%%%%%%%%%%+++++++++++++++++++++++++++++++++++++++++++++++.......OOOOOOOOOOOOOOOOOOOO#######========---------------------------======********************-----------------------------------------------OOOOOOOOOOOOOOOOOOOO++++++++++++++OOOOOOO++++++++++++++++++++++++++++++++++++++++++++++++++++++++++++++++++++++++++++++++++++++++++++++.......                                  ",
"                                                             ......OOOOOOO:::::::+++++++++++++++++++++++++++%%%%%%%%%%%%%%%%%%%%%%%%%%%+++++++++++++++++++++++++++++++++++++++++++++++.......OOOOOOOOOOOOOOOOOOOO#######========---------------------------======********************-----------------------------------------------OOOOOOOOOOOOOOOOOOOO++++++++++++++OOOOOOO++++++++++++++++++++++++++++++++++++++++++++++++++++++++++++++++++++++++++++++++++++++++++++++.......                                  ",
"                                                             ......OOOOOOO:::::::+++++++++++++++++++++++++++%%%%%%%%%%%%%%%%%%%%%%%%%%%+++++++++++++++++++++++++++++++++++++++++++++++.......OOOOOOOOOOOOOOOOOOOO#######========---------------------------======********************-----------------------------------------------OOOOOOOOOOOOOOOOOOOO++++++++++++++OOOOOOO++++++++++++++++++++++++++++++++++++++++++++++++++++++++++++++++++++++++++++++++++++++++++++++.......                                  ",
"                                                             ......OOOOOOO:::::::+++++++++++++++++++++++++++%%%%%%%%%%%%%%%%%%%%%%%%%%%+++++++++++++++++++++++++++++++++++++++++++++++.......OOOOOOOOOOOOOOOOOOOO#######======-----------------------------======********************-----------------------------------------------OOOOOOOOOOOOOOOOOOOO++++++++++++++OOOOOOO++++++++++++++++++++++++++++++++++++++++++++++++++++++++++++++++++++++++++++++++++++++++++++++.......                                  ",
"                                                             ......OOOOOOO:::::::+++++++++++++++++++++++++++%%%%%%%%%%%%%%%%%%%%%%%%%%%+++++++++++++++++++++++++++++++++++++++++++++++.......OOOOOOOOOOOOOOOOOOOO#######=======----------------------------======********************-----------------------------------------------OOOOOOOOOOOOOOOOOOOO++++++++++++++OOOOOOO++++++++++++++++++++++++++++++++++++++++++++++++++++++++++++++++++++++++++++++++++++++++++++++.......                                  ",
"                                                                   .......+++++++++++++++++++++++++++++++++++++++++++++++++++++++++++++++++++++++++++++++++++++++++++++++.............----------------------------======***********************************************======---------------------------------------------------------------------------OOOOOOO++++++++++++++++++++++++++++++++++++++++++++++++++++++++++++++++++++++++++++++++++++++++++++++++++++++.............                                  ",
"                                                                   .......+++++++++++++++++++++++++++++++++++++++++++++++++++++++++++++++++++++++++++++++++++++++++++++++.............----------------------------======***********************************************======---------------------------------------------------------------------------OOOOOOO++++++++++++++++++++++++++++++++++++++++++++++++++++++++++++++++++++++++++++++++++++++++++++++++++++++.............                                  ",
"                                                                   .......+++++++++++++++++++++++++++++++++++++++++++++++++++++++++++++++++++++++++++++++++++++++++++++++.............----------------------------======***********************************************-======--------------------------------------------------------------------------OOOOOOO++++++++++++++++++++++++++++++++++++++++++++++++++++++++++++++++++++++++++++++++++++++++++++++++++++++.............                                  ",
"                                                                   .......+++++++++++++++++++++++++++++++++++++++++++++++++++++++++++++++++++++++++++++++++++++++++++++++.............----------------------------======***********************************************-======--------------------------------------------------------------------------OOOOOOO++++++++++++++++++++++++++++++++++++++++++++++++++++++++++++++++++++++++++++++++++++++++++++++++++++++.............                                  ",
"                                                                   .......+++++++++++++++++++++++++++++++++++++++++++++++++++++++++++++++++++++++++++++++++++++++++++++++.............----------------------------======***********************************************======---------------------------------------------------------------------------OOOOOOO++++++++++++++++++++++++++++++++++++++++++++++++++++++++++++++++++++++++++++++++++++++++++++++++++++++.............                                  ",
"                                                                   .......+++++++++++++++++++++++++++++++++++++++++++++++++++++++++++++++++++++++++++++++++++++++++++++++.............----------------------------======***********************************************=======--------------------------------------------------------------------------OOOOOOO++++++++++++++++++++++++++++++++++++++++++++++++++++++++++++++++++++++++++++++++++++++++++++++++++++++.............                                  ",
"                                                                   .......+++++++++++++++++++++++++++++++++++++++++++++++++++++++++++++++++++++++++++++++++++++++++++++++.............----------------------------======***********************************************======---------------------------------------------------------------------------OOOOOOO++++++++++++++++++++++++++++++++++++++++++++++++++++++++++++++++++++++++++++++++++++++++++++++++++++++.............                                  ",
"                                                                          ..............+++++++++++++++++++++++++++++++++++++++++++++++++++++++++++++++++++..............------------------------------------------------======***************************======----------------------------------------------------------------------------------------*******OOOOOOO+++++++++++++++++++++++++++++++++++++++++++++++++++++++++++++++++++++++++++++++++.......                                                      ",
"                                                                          ..............+++++++++++++++++++++++++++++++++++++++++++++++++++++++++++++++++++..............------------------------------------------------======***************************======----------------------------------------------------------------------------------------*******OOOOOOO+++++++++++++++++++++++++++++++++++++++++++++++++++++++++++++++++++++++++++++++++.......                                                      ",
"                                                                          ..............+++++++++++++++++++++++++++++++++++++++++++++++++++++++++++++++++++..............------------------------------------------------======***************************========--------------------------------------------------------------------------------------*******OOOOOOO+++++++++++++++++++++++++++++++++++++++++++++++++++++++++++++++++++++++++++++++++.......                                                      ",
"                                                                          ..............+++++++++++++++++++++++++++++++++++++++++++++++++++++++++++++++++++..............------------------------------------------------======***************************======----------------------------------------------------------------------------------------*******OOOOOOO+++++++++++++++++++++++++++++++++++++++++++++++++++++++++++++++++++++++++++++++++.......                                                      ",
"                                                                          ..............+++++++++++++++++++++++++++++++++++++++++++++++++++++++++++++++++++..............------------------------------------------------======***************************=======---------------------------------------------------------------------------------------*******OOOOOOO+++++++++++++++++++++++++++++++++++++++++++++++++++++++++++++++++++++++++++++++++.......                                                      ",
"                                                                          ..............+++++++++++++++++++++++++++++++++++++++++++++++++++++++++++++++++++..............------------------------------------------------======***************************======----------------------------------------------------------------------------------------*******OOOOOOO+++++++++++++++++++++++++++++++++++++++++++++++++++++++++++++++++++++++++++++++++.......                                                      ",
"                                                                          ..............+++++++++++++++++++++++++++++++++++++++++++++++++++++++++++++++++++..............-----------------------------------------------=======***************************======----------------------------------------------------------------------------------------*******OOOOOOO+++++++++++++++++++++++++++++++++++++++++++++++++++++++++++++++++++++++++++++++++.......                                                      ",
"                                                                                 .......++++++++++++++++++++++++++++++++++++++++++++++++++++++++++++.......-----------------------------------------------------------------------------------------------------------------------------------------------------------------------------------------------------------OOOOOOO+++++++++++++++++++++++++++++++++++++++++++++++++++++++++++++++++++..............                                                      ",
"                                                                                 .......++++++++++++++++++++++++++++++++++++++++++++++++++++++++++++.......-----------------------------------------------------------------------------------------------------------------------------------------------------------------------------------------------------------OOOOOOO+++++++++++++++++++++++++++++++++++++++++++++++++++++++++++++++++++..............                                                      ",
"                                                                                 .......++++++++++++++++++++++++++++++++++++++++++++++++++++++++++++.......-----------------------------------------------------------------------------------------------------------------------------------------------------------------------------------------------------------OOOOOOO+++++++++++++++++++++++++++++++++++++++++++++++++++++++++++++++++++..............                                                      ",
"                                                                                 .......++++++++++++++++++++++++++++++++++++++++++++++++++++++++++++.......-----------------------------------------------------------------------------------------------------------------------------------------------------------------------------------------------------------OOOOOOO+++++++++++++++++++++++++++++++++++++++++++++++++++++++++++++++++++..............                                                      ",
"                                                                                 .......++++++++++++++++++++++++++++++++++++++++++++++++++++++++++++.......-----------------------------------------------------------------------------------------------------------------------------------------------------------------------------------------------------------OOOOOOO+++++++++++++++++++++++++++++++++++++++++++++++++++++++++++++++++++..............                                                      ",
"                                                                                 .......++++++++++++++++++++++++++++++++++++++++++++++++++++++++++++.......-----------------------------------------------------------------------------------------------------------------------------------------------------------------------------------------------------------OOOOOOO+++++++++++++++++++++++++++++++++++++++++++++++++++++++++++++++++++..............                                                      ",
"                                                                                 .......++++++++++++++++++++++++++++++++++++++++++++++++++++++++++++.......-----------------------------------------------------------------------------------------------------------------------------------------------------------------------------------------------------------OOOOOOO+++++++++++++++++++++++++++++++++++++++++++++++++++++++++++++++++++..............                                                      ",
"                                                                                        ......++++++++++++++++++++++++++++++++++++++++++++++++......-------------------------------------------------------------------------------------------------------------------------------------------------------------------------------------------------------------------------OOOOOO+++++++++++++++++++++++++++++++++++++++++OOOOOOO....................OOOOOOO.......                                               ",
"                                                                                        ......++++++++++++++++++++++++++++++++++++++++++++++++......-------------------------------------------------------------------------------------------------------------------------------------------------------------------------------------------------------------------------OOOOOO+++++++++++++++++++++++++++++++++++++++++OOOOOOO....................OOOOOOO.......                                               ",
"                                                                                        ......++++++++++++++++++++++++++++++++++++++++++++++++......-------------------------------------------------------------------------------------------------------------------------------------------------------------------------------------------------------------------------OOOOOO+++++++++++++++++++++++++++++++++++++++++OOOOOOO....................OOOOOOO.......                                               ",
"                                                                                        ......++++++++++++++++++++++++++++++++++++++++++++++++......-------------------------------------------------------------------------------------------------------------------------------------------------------------------------------------------------------------------------OOOOOO+++++++++++++++++++++++++++++++++++++++++OOOOOOO....................OOOOOOO.......                                               ",
"                                                                                        ......++++++++++++++++++++++++++++++++++++++++++++++++......-------------------------------------------------------------------------------------------------------------------------------------------------------------------------------------------------------------------------OOOOOO+++++++++++++++++++++++++++++++++++++++++OOOOOOO....................OOOOOOO.......                                               ",
"                                                                                        ......++++++++++++++++++++++++++++++++++++++++++++++++......-------------------------------------------------------------------------------------------------------------------------------------------------------------------------------------------------------------------------OOOOOO+++++++++++++++++++++++++++++++++++++++++OOOOOOO....................OOOOOOO.......                                               ",
"                                                                                                     ..............++++++++++++++++++++.......-------------------------------------------------------------------------------------------------------------------------------------------------------------------------------------------------------------------------------------OOOOOOO+++++++++++++++++++++++++++OOOOOOOOOOOOOO++++++++++++++++++++++++++++++++++......                                         ",
"                                                                                                     ..............++++++++++++++++++++.......-------------------------------------------------------------------------------------------------------------------------------------------------------------------------------------------------------------------------------------OOOOOOO+++++++++++++++++++++++++++OOOOOOOOOOOOOO++++++++++++++++++++++++++++++++++......                                         ",
"                                                                                                     ..............++++++++++++++++++++.......-------------------------------------------------------------------------------------------------------------------------------------------------------------------------------------------------------------------------------------OOOOOOO+++++++++++++++++++++++++++OOOOOOOOOOOOOO++++++++++++++++++++++++++++++++++......                                         ",
"                                                                                                     ..............++++++++++++++++++++.......-------------------------------------------------------------------------------------------------------------------------------------------------------------------------------------------------------------------------------------OOOOOOO+++++++++++++++++++++++++++OOOOOOOOOOOOOO++++++++++++++++++++++++++++++++++......                                         ",
"                                                                                                     ..............++++++++++++++++++++.......-------------------------------------------------------------------------------------------------------------------------------------------------------------------------------------------------------------------------------------OOOOOOO+++++++++++++++++++++++++++OOOOOOOOOOOOOO++++++++++++++++++++++++++++++++++......                                         ",
"                                                                                                     ..............++++++++++++++++++++.......-------------------------------------------------------------------------------------------------------------------------------------------------------------------------------------------------------------------------------------OOOOOOO+++++++++++++++++++++++++++OOOOOOOOOOOOOO++++++++++++++++++++++++++++++++++......                                         ",
"                                                                                                     ..............++++++++++++++++++++.......-------------------------------------------------------------------------------------------------------------------------------------------------------------------------------------------------------------------------------------OOOOOOO+++++++++++++++++++++++++++OOOOOOOOOOOOOO++++++++++++++++++++++++++++++++++......                                         ",
"                                                                                                                   ......+++++++.......--------------------------------------------------------------------------------------------------------------------------------------------------------------------------------------------------------------------------------------------OOOOOOO+++++++++++++++++++++++++++++++++++++++++++++++++++++++++++++++++++++++++++OOOOOO.......                                  ",
"                                                                                                                   ......+++++++.......--------------------------------------------------------------------------------------------------------------------------------------------------------------------------------------------------------------------------------------------OOOOOOO+++++++++++++++++++++++++++++++++++++++++++++++++++++++++++++++++++++++++++OOOOOO.......                                  ",
"                                                                                                                   ......+++++++.......--------------------------------------------------------------------------------------------------------------------------------------------------------------------------------------------------------------------------------------------OOOOOOO+++++++++++++++++++++++++++++++++++++++++++++++++++++++++++++++++++++++++++OOOOOO.......                                  ",
"                                                                                                                   ......+++++++.......--------------------------------------------------------------------------------------------------------------------------------------------------------------------------------------------------------------------------------------------OOOOOOO+++++++++++++++++++++++++++++++++++++++++++++++++++++++++++++++++++++++++++OOOOOO.......                                  ",
"                                                                                                                   ......+++++++.......--------------------------------------------------------------------------------------------------------------------------------------------------------------------------------------------------------------------------------------------OOOOOOO+++++++++++++++++++++++++++++++++++++++++++++++++++++++++++++++++++++++++++OOOOOO.......                                  ",
"                                                                                                                   ......+++++++.......--------------------------------------------------------------------------------------------------------------------------------------------------------------------------------------------------------------------------------------------OOOOOOO+++++++++++++++++++++++++++++++++++++++++++++++++++++++++++++++++++++++++++OOOOOO.......                                  ",
"                                                                                                                   ......+++++++.......--------------------------------------------------------------------------------------------------------------------------------------------------------------------------------------------------------------------------------------------OOOOOOO+++++++++++++++++++++++++++++++++++++++++++++++++++++++++++++++++++++++++++OOOOOO.......                                  ",
"                                                                                                                         ..............---------------------------------------------------------------------------------------------------------------------------------------------------------------------------------------------------------------------------------------------------OOOOOOOOOOOOOO++++++++++++++++++++++++++++++++++++++++++++++++++++++OOOOOOO++++++.....................                    ",
"                                                                                                                         ..............---------------------------------------------------------------------------------------------------------------------------------------------------------------------------------------------------------------------------------------------------OOOOOOOOOOOOOO++++++++++++++++++++++++++++++++++++++++++++++++++++++OOOOOOO++++++.....................                    ",
"                                                                                                                         ..............---------------------------------------------------------------------------------------------------------------------------------------------------------------------------------------------------------------------------------------------------OOOOOOOOOOOOOO++++++++++++++++++++++++++++++++++++++++++++++++++++++OOOOOOO++++++.....................                    ",
"                                                                                                                         ..............---------------------------------------------------------------------------------------------------------------------------------------------------------------------------------------------------------------------------------------------------OOOOOOOOOOOOOO++++++++++++++++++++++++++++++++++++++++++++++++++++++OOOOOOO++++++.....................                    ",
"                                                                                                                         ..............---------------------------------------------------------------------------------------------------------------------------------------------------------------------------------------------------------------------------------------------------OOOOOOOOOOOOOO++++++++++++++++++++++++++++++++++++++++++++++++++++++OOOOOOO++++++.....................                    ",
"                                                                                                                         ..............---------------------------------------------------------------------------------------------------------------------------------------------------------------------------------------------------------------------------------------------------OOOOOOOOOOOOOO++++++++++++++++++++++++++++++++++++++++++++++++++++++OOOOOOO++++++.....................                    ",
"                                                                                                                         ..............---------------------------------------------------------------------------------------------------------------------------------------------------------------------------------------------------------------------------------------------------OOOOOOOOOOOOOO++++++++++++++++++++++++++++++++++++++++++++++++++++++OOOOOOO++++++.....................                    ",
"                                                                                                                         .......----------------------------------------------------------------------------------------------------------------------------------------------------------------------------------------------------------------------------------------------------------OOOOOOOOOOOOOO+++++++++++++++++++++++++++++++++++++++++++++++OOOOOOOOOOOOOO++++++OOOOOOO..............                    ",
"                                                                                                                         .......----------------------------------------------------------------------------------------------------------------------------------------------------------------------------------------------------------------------------------------------------------OOOOOOOOOOOOOO+++++++++++++++++++++++++++++++++++++++++++++++OOOOOOOOOOOOOO++++++OOOOOOO..............                    ",
"                                                                                                                         .......----------------------------------------------------------------------------------------------------------------------------------------------------------------------------------------------------------------------------------------------------------OOOOOOOOOOOOOO+++++++++++++++++++++++++++++++++++++++++++++++OOOOOOOOOOOOOO++++++OOOOOOO..............                    ",
"                                                                                                                         .......----------------------------------------------------------------------------------------------------------------------------------------------------------------------------------------------------------------------------------------------------------OOOOOOOOOOOOOO+++++++++++++++++++++++++++++++++++++++++++++++OOOOOOOOOOOOOO++++++OOOOOOO..............                    ",
"                                                                                                                         .......----------------------------------------------------------------------------------------------------------------------------------------------------------------------------------------------------------------------------------------------------------OOOOOOOOOOOOOO+++++++++++++++++++++++++++++++++++++++++++++++OOOOOOOOOOOOOO++++++OOOOOOO..............                    ",
"                                                                                                                         .......----------------------------------------------------------------------------------------------------------------------------------------------------------------------------------------------------------------------------------------------------------OOOOOOOOOOOOOO+++++++++++++++++++++++++++++++++++++++++++++++OOOOOOOOOOOOOO++++++OOOOOOO..............                    ",
"                                                                                                                         .......-----------------------------------------------------------------------------------------------------------------------------------------------------------------------------------------------------------------------------------------------------------======-======OOOOOO++++++++++++++++++++++++++++++++++OOOOOOOOOOOOOOOOOOOOOOOOOOOOOOOOOOOOOOOOOOOOOOOO......              ",
"                                                                                                                         .......-----------------------------------------------------------------------------------------------------------------------------------------------------------------------------------------------------------------------------------------------------------======-======OOOOOO++++++++++++++++++++++++++++++++++OOOOOOOOOOOOOOOOOOOOOOOOOOOOOOOOOOOOOOOOOOOOOOOO......              ",
"                                                                                                                         .......-----------------------------------------------------------------------------------------------------------------------------------------------------------------------------------------------------------------------------------------------------------======-======OOOOOO++++++++++++++++++++++++++++++++++OOOOOOOOOOOOOOOOOOOOOOOOOOOOOOOOOOOOOOOOOOOOOOOO......              ",
"                                                                                                                         .......----------------------------------------------------------------------------------------------------------------------------------------------------------------------------------------------------------------------------------------------------------=======-======OOOOOO++++++++++++++++++++++++++++++++++OOOOOOOOOOOOOOOOOOOOOOOOOOOOOOOOOOOOOOOOOOOOOOOO......              ",
"                                                                                                                         .......----------------------------------------------------------------------------------------------------------------------------------------------------------------------------------------------------------------------------------------------------------========-=====OOOOOO++++++++++++++++++++++++++++++++++OOOOOOOOOOOOOOOOOOOOOOOOOOOOOOOOOOOOOOOOOOOOOOOO......              ",
"                                                                                                                         .......-----------------------------------------------------------------------------------------------------------------------------------------------------------------------------------------------------------------------------------------------------------======-======OOOOOO++++++++++++++++++++++++++++++++++OOOOOOOOOOOOOOOOOOOOOOOOOOOOOOOOOOOOOOOOOOOOOOOO......              ",
"                                                                                                                         .......-----------------------------------------------------------------------------------------------------------------------------------------------------------------------------------------------------------------------------------------------------------======-======OOOOOO++++++++++++++++++++++++++++++++++OOOOOOOOOOOOOOOOOOOOOOOOOOOOOOOOOOOOOOOOOOOOOOOO......              ",
"                                                                                                            .............-------------------------------------------------------------------------------------------------------------------------------------------------------------------------------------------------------------------------------------------------------------------------------OOOOOO+++++++++++++++++++++OOOOOOOOOOOOOOOOOOOOOOOOOOOOOOOOOOOOOOOOOOOOOOOOOOOOOOOOOOOOO......              ",
"                                                                                                            .............-------------------------------------------------------------------------------------------------------------------------------------------------------------------------------------------------------------------------------------------------------------------------------OOOOOO+++++++++++++++++++++OOOOOOOOOOOOOOOOOOOOOOOOOOOOOOOOOOOOOOOOOOOOOOOOOOOOOOOOOOOOO......              ",
"                                                                                                            .............-------------------------------------------------------------------------------------------------------------------------------------------------------------------------------------------------------------------------------------------------------------------------------OOOOOO+++++++++++++++++++++OOOOOOOOOOOOOOOOOOOOOOOOOOOOOOOOOOOOOOOOOOOOOOOOOOOOOOOOOOOOO......              ",
"                                                                                                            .............-------------------------------------------------------------------------------------------------------------------------------------------------------------------------------------------------------------------------------------------------------------------------------OOOOOO+++++++++++++++++++++OOOOOOOOOOOOOOOOOOOOOOOOOOOOOOOOOOOOOOOOOOOOOOOOOOOOOOOOOOOOO......              ",
"                                                                                                            .............-------------------------------------------------------------------------------------------------------------------------------------------------------------------------------------------------------------------------------------------------------------------------------OOOOOO+++++++++++++++++++++OOOOOOOOOOOOOOOOOOOOOOOOOOOOOOOOOOOOOOOOOOOOOOOOOOOOOOOOOOOOO......              ",
"                                                                                                            .............-------------------------------------------------------------------------------------------------------------------------------------------------------------------------------------------------------------------------------------------------------------------------------OOOOOO+++++++++++++++++++++OOOOOOOOOOOOOOOOOOOOOOOOOOOOOOOOOOOOOOOOOOOOOOOOOOOOOOOOOOOOO......              ",
"                                                                                                            .............-------------------------------------------------------------------------------------------------------------------------------------------------------------------------------------------------------------------------------------------------------------------------------OOOOOO+++++++++++++++++++++OOOOOOOOOOOOOOOOOOOOOOOOOOOOOOOOOOOOOOOOOOOOOOOOOOOOOOOOOOOOO......              ",
"                                                                                                            .............-------------------------------------------------------------------------------------------------------------------------------------------------------------------------------------------------------------------------------------------------------------------------------OOOOOO+++++++OOOOOOOOOOOOOOOOOOOOOOOOOOOOOOOOOOOOOOOOOOOOOOOOOOOOOOOOOOOOOOOOOOOOOOOOOOO......              ",
"                                                                                                            .............-------------------------------------------------------------------------------------------------------------------------------------------------------------------------------------------------------------------------------------------------------------------------------OOOOOO+++++++OOOOOOOOOOOOOOOOOOOOOOOOOOOOOOOOOOOOOOOOOOOOOOOOOOOOOOOOOOOOOOOOOOOOOOOOOOO......              ",
"                                                                                                            .............-------------------------------------------------------------------------------------------------------------------------------------------------------------------------------------------------------------------------------------------------------------------------------OOOOOO+++++++OOOOOOOOOOOOOOOOOOOOOOOOOOOOOOOOOOOOOOOOOOOOOOOOOOOOOOOOOOOOOOOOOOOOOOOOOOO......              ",
"                                                                                                            .............-------------------------------------------------------------------------------------------------------------------------------------------------------------------------------------------------------------------------------------------------------------------------------OOOOOO+++++++OOOOOOOOOOOOOOOOOOOOOOOOOOOOOOOOOOOOOOOOOOOOOOOOOOOOOOOOOOOOOOOOOOOOOOOOOOO......              ",
"                                                                                                            .............-------------------------------------------------------------------------------------------------------------------------------------------------------------------------------------------------------------------------------------------------------------------------------OOOOOO+++++++OOOOOOOOOOOOOOOOOOOOOOOOOOOOOOOOOOOOOOOOOOOOOOOOOOOOOOOOOOOOOOOOOOOOOOOOOOO......              ",
"                                                                                                            .............-------------------------------------------------------------------------------------------------------------------------------------------------------------------------------------------------------------------------------------------------------------------------------OOOOOO+++++++OOOOOOOOOOOOOOOOOOOOOOOOOOOOOOOOOOOOOOOOOOOOOOOOOOOOOOOOOOOOOOOOOOOOOOOOOOO......              ",
"                                                                                                            .............-------------------------------------------------------------------------------------------------------------------------------------------------------------------------------------------------------------------------------------------------------------------------------OOOOOO+++++++OOOOOOOOOOOOOOOOOOOOOOOOOOOOOOOOOOOOOOOOOOOOOOOOOOOOOOOOOOOOOOOOOOOOOOOOOOO......              ",
"                                                                                                            .............-------------------------------------------------------------------------------------------------------------------------------------------------------------------------------------------------------------------------------------------------------------------------------------OOOOOOOOOOOOOOOOOOOOOOOOOOOOOOOOOOOOOOOOOOOOOOOOOOOOOOOOOOOOOOOOOOOOOOOOOOOOOOOOOOOOOOOO.......       ",
"                                                                                                            .............-------------------------------------------------------------------------------------------------------------------------------------------------------------------------------------------------------------------------------------------------------------------------------------OOOOOOOOOOOOOOOOOOOOOOOOOOOOOOOOOOOOOOOOOOOOOOOOOOOOOOOOOOOOOOOOOOOOOOOOOOOOOOOOOOOOOOOO.......       ",
"                                                                                                            .............-------------------------------------------------------------------------------------------------------------------------------------------------------------------------------------------------------------------------------------------------------------------------------------OOOOOOOOOOOOOOOOOOOOOOOOOOOOOOOOOOOOOOOOOOOOOOOOOOOOOOOOOOOOOOOOOOOOOOOOOOOOOOOOOOOOOOOO.......       ",
"                                                                                                            .............-------------------------------------------------------------------------------------------------------------------------------------------------------------------------------------------------------------------------------------------------------------------------------------OOOOOOOOOOOOOOOOOOOOOOOOOOOOOOOOOOOOOOOOOOOOOOOOOOOOOOOOOOOOOOOOOOOOOOOOOOOOOOOOOOOOOOOO.......       ",
"                                                                                                            .............-------------------------------------------------------------------------------------------------------------------------------------------------------------------------------------------------------------------------------------------------------------------------------------OOOOOOOOOOOOOOOOOOOOOOOOOOOOOOOOOOOOOOOOOOOOOOOOOOOOOOOOOOOOOOOOOOOOOOOOOOOOOOOOOOOOOOOO.......       ",
"                                                                                                            .............-------------------------------------------------------------------------------------------------------------------------------------------------------------------------------------------------------------------------------------------------------------------------------------OOOOOOOOOOOOOOOOOOOOOOOOOOOOOOOOOOOOOOOOOOOOOOOOOOOOOOOOOOOOOOOOOOOOOOOOOOOOOOOOOOOOOOOO.......       ",
"                                                                                                            .............-------------------------------------------------------------------------------------------------------------------------------------------------------------------------------------------------------------------------------------------------------------------------------------OOOOOOOOOOOOOOOOOOOOOOOOOOOOOOOOOOOOOOOOOOOOOOOOOOOOOOOOOOOOOOOOOOOOOOOOOOOOOOOOOOOOOOOO.......       ",
"                                                                                                     .......--------------------------------------------------------------------------------------------------------------------------------------------------------------------------------------------------------------------------------------------------------------------------------------------******OOOOOOOOOOOOOOOOOOOOOOOOOOOOOOOOOOOOOOOOOOOOOOOOOOOOOOOOOOOOOOOOOOOOOOOOOOOOOOOOOOOOOOOO.......       ",
"                                                                                                     .......--------------------------------------------------------------------------------------------------------------------------------------------------------------------------------------------------------------------------------------------------------------------------------------------******OOOOOOOOOOOOOOOOOOOOOOOOOOOOOOOOOOOOOOOOOOOOOOOOOOOOOOOOOOOOOOOOOOOOOOOOOOOOOOOOOOOOOOOO.......       ",
"                                                                                                     .......--------------------------------------------------------------------------------------------------------------------------------------------------------------------------------------------------------------------------------------------------------------------------------------------******OOOOOOOOOOOOOOOOOOOOOOOOOOOOOOOOOOOOOOOOOOOOOOOOOOOOOOOOOOOOOOOOOOOOOOOOOOOOOOOOOOOOOOOO.......       ",
"                                                                                                     .......--------------------------------------------------------------------------------------------------------------------------------------------------------------------------------------------------------------------------------------------------------------------------------------------******OOOOOOOOOOOOOOOOOOOOOOOOOOOOOOOOOOOOOOOOOOOOOOOOOOOOOOOOOOOOOOOOOOOOOOOOOOOOOOOOOOOOOOOO.......       ",
"                                                                                                     .......--------------------------------------------------------------------------------------------------------------------------------------------------------------------------------------------------------------------------------------------------------------------------------------------******OOOOOOOOOOOOOOOOOOOOOOOOOOOOOOOOOOOOOOOOOOOOOOOOOOOOOOOOOOOOOOOOOOOOOOOOOOOOOOOOOOOOOOOO.......       ",
"                                                                                                     .......--------------------------------------------------------------------------------------------------------------------------------------------------------------------------------------------------------------------------------------------------------------------------------------------******OOOOOOOOOOOOOOOOOOOOOOOOOOOOOOOOOOOOOOOOOOOOOOOOOOOOOOOOOOOOOOOOOOOOOOOOOOOOOOOOOOOOOOOO.......       ",
"                                                                                                     .......------------------------------------------------------------------------------------------------------------------------------------------------------------------------------------------------------------------------------------------------------------------------------***************************OOOOOOOOOOOOOOOOOOOOOOOOOOOOOOOOOOOOOOOOOOOOOOOOOOOOOOOOOOOOOOOOOOOOOOOOOOOOOOOOO.......       ",
"                                                                                                     .......------------------------------------------------------------------------------------------------------------------------------------------------------------------------------------------------------------------------------------------------------------------------------***************************OOOOOOOOOOOOOOOOOOOOOOOOOOOOOOOOOOOOOOOOOOOOOOOOOOOOOOOOOOOOOOOOOOOOOOOOOOOOOOOOO.......       ",
"                                                                                                     .......------------------------------------------------------------------------------------------------------------------------------------------------------------------------------------------------------------------------------------------------------------------------------***************************OOOOOOOOOOOOOOOOOOOOOOOOOOOOOOOOOOOOOOOOOOOOOOOOOOOOOOOOOOOOOOOOOOOOOOOOOOOOOOOOO.......       ",
"                                                                                                     .......------------------------------------------------------------------------------------------------------------------------------------------------------------------------------------------------------------------------------------------------------------------------------***************************OOOOOOOOOOOOOOOOOOOOOOOOOOOOOOOOOOOOOOOOOOOOOOOOOOOOOOOOOOOOOOOOOOOOOOOOOOOOOOOOO.......       ",
"                                                                                                     .......------------------------------------------------------------------------------------------------------------------------------------------------------------------------------------------------------------------------------------------------------------------------------***************************OOOOOOOOOOOOOOOOOOOOOOOOOOOOOOOOOOOOOOOOOOOOOOOOOOOOOOOOOOOOOOOOOOOOOOOOOOOOOOOOO.......       ",
"                                                                                                     .......------------------------------------------------------------------------------------------------------------------------------------------------------------------------------------------------------------------------------------------------------------------------------***************************OOOOOOOOOOOOOOOOOOOOOOOOOOOOOOOOOOOOOOOOOOOOOOOOOOOOOOOOOOOOOOOOOOOOOOOOOOOOOOOOO.......       ",
"                                                                                                     .......------------------------------------------------------------------------------------------------------------------------------------------------------------------------------------------------------------------------------------------------------------------------------***************************OOOOOOOOOOOOOOOOOOOOOOOOOOOOOOOOOOOOOOOOOOOOOOOOOOOOOOOOOOOOOOOOOOOOOOOOOOOOOOOOO.......       ",
"                                                                                                     .......-======-======----------------------------------------------------------------------------------------------------------------------------------------------------------------------------------------------------------------------------------------------------------------***************************OOOOOOOOOOOOOOOOOOOOOOOOOOOOOOOOOOOOOOOOOOOOOOOOOOOOOOOOOOOOOOOOOOOOOOOOOOOOOOOOO.......       ",
"                                                                                                     .......-======-======----------------------------------------------------------------------------------------------------------------------------------------------------------------------------------------------------------------------------------------------------------------***************************OOOOOOOOOOOOOOOOOOOOOOOOOOOOOOOOOOOOOOOOOOOOOOOOOOOOOOOOOOOOOOOOOOOOOOOOOOOOOOOOO.......       ",
"                                                                                                     .......-======-======----------------------------------------------------------------------------------------------------------------------------------------------------------------------------------------------------------------------------------------------------------------***************************OOOOOOOOOOOOOOOOOOOOOOOOOOOOOOOOOOOOOOOOOOOOOOOOOOOOOOOOOOOOOOOOOOOOOOOOOOOOOOOOO.......       ",
"                                                                                                     .......-=======-=====----------------------------------------------------------------------------------------------------------------------------------------------------------------------------------------------------------------------------------------------------------------***************************OOOOOOOOOOOOOOOOOOOOOOOOOOOOOOOOOOOOOOOOOOOOOOOOOOOOOOOOOOOOOOOOOOOOOOOOOOOOOOOOO.......       ",
"                                                                                                     .......-======-======----------------------------------------------------------------------------------------------------------------------------------------------------------------------------------------------------------------------------------------------------------------***************************OOOOOOOOOOOOOOOOOOOOOOOOOOOOOOOOOOOOOOOOOOOOOOOOOOOOOOOOOOOOOOOOOOOOOOOOOOOOOOOOO.......       ",
"                                                                                                     .......-=======-=====----------------------------------------------------------------------------------------------------------------------------------------------------------------------------------------------------------------------------------------------------------------***************************OOOOOOOOOOOOOOOOOOOOOOOOOOOOOOOOOOOOOOOOOOOOOOOOOOOOOOOOOOOOOOOOOOOOOOOOOOOOOOOOO.......       ",
"                                                                                                     .......-========-====----------------------------------------------------------------------------------------------------------------------------------------------------------------------------------------------------------------------------------------------------------------***************************OOOOOOOOOOOOOOOOOOOOOOOOOOOOOOOOOOOOOOOOOOOOOOOOOOOOOOOOOOOOOOOOOOOOOOOOOOOOOOOOO.......       ",
"                                                                                                     .......-======-======---------------------------------------------------------------------------------------------------------------------------------------------------------------------------------------------------------------------------------------------=======-====**********************************OOOOOOOOOOOOOOOOOOOOOOOOOOOOOOOOOOOOOOOOOOOOOOOOOOOOOOOOOOOOOOOOOOOOOOOOOOOOOOOOOOOOOOOO.......",
"                                                                                                     .......-=======-=====--------------------------------------------------------------------------------------------------------------------------------------------------------------------------------------------------------------------------------------------========-====**********************************OOOOOOOOOOOOOOOOOOOOOOOOOOOOOOOOOOOOOOOOOOOOOOOOOOOOOOOOOOOOOOOOOOOOOOOOOOOOOOOOOOOOOOOO.......",
"                                                                                                     .......-========-====--------------------------------------------------------------------------------------------------------------------------------------------------------------------------------------------------------------------------------------------=========-===**********************************OOOOOOOOOOOOOOOOOOOOOOOOOOOOOOOOOOOOOOOOOOOOOOOOOOOOOOOOOOOOOOOOOOOOOOOOOOOOOOOOOOOOOOOO.......",
"                                                                                                     .......-=========-===--------------------------------------------------------------------------------------------------------------------------------------------------------------------------------------------------------------------------------------------==========-==**********************************OOOOOOOOOOOOOOOOOOOOOOOOOOOOOOOOOOOOOOOOOOOOOOOOOOOOOOOOOOOOOOOOOOOOOOOOOOOOOOOOOOOOOOOO.......",
"                                                                                                     .......-=======-=====---------------------------------------------------------------------------------------------------------------------------------------------------------------------------------------------------------------------------------------------=======-====**********************************OOOOOOOOOOOOOOOOOOOOOOOOOOOOOOOOOOOOOOOOOOOOOOOOOOOOOOOOOOOOOOOOOOOOOOOOOOOOOOOOOOOOOOOO.......",
"                                                                                                     .......-========-====---------------------------------------------------------------------------------------------------------------------------------------------------------------------------------------------------------------------------------------------========-===**********************************OOOOOOOOOOOOOOOOOOOOOOOOOOOOOOOOOOOOOOOOOOOOOOOOOOOOOOOOOOOOOOOOOOOOOOOOOOOOOOOOOOOOOOOO.......",
"                                                                                                     .......-==========-==--------------------------------------------------------------------------------------------------------------------------------------------------------------------------------------------------------------------------------------------=========-===**********************************OOOOOOOOOOOOOOOOOOOOOOOOOOOOOOOOOOOOOOOOOOOOOOOOOOOOOOOOOOOOOOOOOOOOOOOOOOOOOOOOOOOOOOOO.......",
"                                                                                              .......*******-======-======--------------------------------------------------------------------------------------------------------------------------------------------------------------------------------------------------------------------------------------======-======****************************************OOOOOOOOOOOOOOOOOOOOOOOOOOOOOOOOOOOOOOOOOOOOOOOOOOOOOOOOOOOOOOOOOOOOOOOOOOOOOOOOOOOOOOOO.......",
"                                                                                              .......*******-======-======-------------------------------------------------------------------------------------------------------------------------------------------------------------------------------------------------------------------------------------============-=****************************************OOOOOOOOOOOOOOOOOOOOOOOOOOOOOOOOOOOOOOOOOOOOOOOOOOOOOOOOOOOOOOOOOOOOOOOOOOOOOOOOOOOOOOOO.......",
"                                                                                              .......*******-=======-=====------------------------------------------------------------------------------------------------------------------------------------------------------------------------------------------------------------------------------------=============-=****************************************OOOOOOOOOOOOOOOOOOOOOOOOOOOOOOOOOOOOOOOOOOOOOOOOOOOOOOOOOOOOOOOOOOOOOOOOOOOOOOOOOOOOOOOO.......",
"                                                                                              .......*******-======-======--------------------------------------------------------------------------------------------------------------------------------------------------------------------------------------------------------------------------------------========-====****************************************OOOOOOOOOOOOOOOOOOOOOOOOOOOOOOOOOOOOOOOOOOOOOOOOOOOOOOOOOOOOOOOOOOOOOOOOOOOOOOOOOOOOOOOO.......",
"                                                                                              .......*******-========-====-------------------------------------------------------------------------------------------------------------------------------------------------------------------------------------------------------------------------------------==============****************************************OOOOOOOOOOOOOOOOOOOOOOOOOOOOOOOOOOOOOOOOOOOOOOOOOOOOOOOOOOOOOOOOOOOOOOOOOOOOOOOOOOOOOOOO.......",
"                                                                                              .......*******-=======-=====--------------------------------------------------------------------------------------------------------------------------------------------------------------------------------------------------------------------------------------=========-===****************************************OOOOOOOOOOOOOOOOOOOOOOOOOOOOOOOOOOOOOOOOOOOOOOOOOOOOOOOOOOOOOOOOOOOOOOOOOOOOOOOOOOOOOOOO.......",
"                                                                                              .......********************======--------------------------------------------------------------------------------------------------------------------------------------------------------------------------------------------------------------------------======-======******************************************************OOOOOOOOOOOOOOOOOOOOOOOOOOOOOOOOOOOOOOOOOOOOOOOOOOOOOOOOOOOOOOOOOOOOOOOOOOOOOOOOO.......",
"                                                                                              .......********************=======-------------------------------------------------------------------------------------------------------------------------------------------------------------------------------------------------------------------------======-======******************************************************OOOOOOOOOOOOOOOOOOOOOOOOOOOOOOOOOOOOOOOOOOOOOOOOOOOOOOOOOOOOOOOOOOOOOOOOOOOOOOOOO.......",
"                                                                                              .......********************=======-------------------------------------------------------------------------------------------------------------------------------------------------------------------------------------------------------------------------======-======******************************************************OOOOOOOOOOOOOOOOOOOOOOOOOOOOOOOOOOOOOOOOOOOOOOOOOOOOOOOOOOOOOOOOOOOOOOOOOOOOOOOOO.......",
"                                                                                              .......********************=======-------------------------------------------------------------------------------------------------------------------------------------------------------------------------------------------------------------------------======-======******************************************************OOOOOOOOOOOOOOOOOOOOOOOOOOOOOOOOOOOOOOOOOOOOOOOOOOOOOOOOOOOOOOOOOOOOOOOOOOOOOOOOO.......",
"                                                                                              .......********************========------------------------------------------------------------------------------------------------------------------------------------------------------------------------------------------------------------------------======-======******************************************************OOOOOOOOOOOOOOOOOOOOOOOOOOOOOOOOOOOOOOOOOOOOOOOOOOOOOOOOOOOOOOOOOOOOOOOOOOOOOOOOO.......",
"                                                                                              .......********************========------------------------------------------------------------------------------------------------------------------------------------------------------------------------------------------------------------------------======-======******************************************************OOOOOOOOOOOOOOOOOOOOOOOOOOOOOOOOOOOOOOOOOOOOOOOOOOOOOOOOOOOOOOOOOOOOOOOOOOOOOOOOO.......",
"                                                                                              .......********************======--------------------------------------------------------------------------------------------------------------------------------------------------------------------------------------------------------------------------=======-=====******************************************************OOOOOOOOOOOOOOOOOOOOOOOOOOOOOOOOOOOOOOOOOOOOOOOOOOOOOOOOOOOOOOOOOOOOOOOOOOOOOOOOO.......",
"                                                      .......                                 .......***************************======-----------------------------------------------------------------------------------------------------------------------------------------------------------------------------------------------======-======-======-=====***********************************************.......*******OOOOOOOOOOOOOOOOOOOOOOOOOOOOOOOOOOOOOOOOOOOOOOOOOOOOOOOOOOOOOOOOOOOOOOOOOOOOOOOOO.......",
"                                                      .......                                 .......***************************======-----------------------------------------------------------------------------------------------------------------------------------------------------------------------------------------------======-======-=======-====***********************************************.......*******OOOOOOOOOOOOOOOOOOOOOOOOOOOOOOOOOOOOOOOOOOOOOOOOOOOOOOOOOOOOOOOOOOOOOOOOOOOOOOOOO.......",
"                                                      .......                                 .......***************************=======----------------------------------------------------------------------------------------------------------------------------------------------------------------------------------------------======-======-========-===***********************************************.......*******OOOOOOOOOOOOOOOOOOOOOOOOOOOOOOOOOOOOOOOOOOOOOOOOOOOOOOOOOOOOOOOOOOOOOOOOOOOOOOOOO.......",
"                                                      .......                                 .......***************************=======----------------------------------------------------------------------------------------------------------------------------------------------------------------------------------------------======-======-=========-==***********************************************.......*******OOOOOOOOOOOOOOOOOOOOOOOOOOOOOOOOOOOOOOOOOOOOOOOOOOOOOOOOOOOOOOOOOOOOOOOOOOOOOOOOO.......",
"                                                      .......                                 .......***************************=======----------------------------------------------------------------------------------------------------------------------------------------------------------------------------------------------======-======-==========-=***********************************************.......*******OOOOOOOOOOOOOOOOOOOOOOOOOOOOOOOOOOOOOOOOOOOOOOOOOOOOOOOOOOOOOOOOOOOOOOOOOOOOOOOOO.......",
"                                                      .......                                 .......***************************========---------------------------------------------------------------------------------------------------------------------------------------------------------------------------------------------======-======-===========-***********************************************.......*******OOOOOOOOOOOOOOOOOOOOOOOOOOOOOOOOOOOOOOOOOOOOOOOOOOOOOOOOOOOOOOOOOOOOOOOOOOOOOOOOO.......",
"                                                      .......                                 .......***************************=======----------------------------------------------------------------------------------------------------------------------------------------------------------------------------------------------===-===-====-=====-======-***********************************************.......*******OOOOOOOOOOOOOOOOOOOOOOOOOOOOOOOOOOOOOOOOOOOOOOOOOOOOOOOOOOOOOOOOOOOOOOOOOOOOOOOOO.......",
"                           .............              .......::::::.......                    .......**********************************===-=======-==-------------------=-------------------=--------------------=---------------------=----------------------=-----------------------=------------------------=--------===-========-======*************************************************************......:::::::.......OOOOOOOOOOOOOOOOOOOOOOOOOOOOOOOOOO.......OOOOOOOOOOOOOOOOOOOOOOOOOOOOOOOOOOOOOOOO.......",
"                           .............              .......::::::.......                    .......**********************************===-=========-=-------------------=--------------------------=---------------------------=----------------------------=-----------------------------=----------------------------===-==========-====*************************************************************......:::::::.......OOOOOOOOOOOOOOOOOOOOOOOOOOOOOOOOOO.......OOOOOOOOOOOOOOOOOOOOOOOOOOOOOOOOOOOOOOOO.......",
"                           .............              .......::::::.......                    .......**********************************===-==========-------------------=-------------------------------=--------------------------------=---------------------------------=----------------------------------=---------===-============-==*************************************************************......:::::::.......OOOOOOOOOOOOOOOOOOOOOOOOOOOOOOOOOO.......OOOOOOOOOOOOOOOOOOOOOOOOOOOOOOOOOOOOOOOO.......",
"                           .............              .......::::::.......                    .......**********************************===-==========-------------------=-----------------------------------=------------------------------------=-------------------------------------=--------------------------------===-==========-===-*************************************************************......:::::::.......OOOOOOOOOOOOOOOOOOOOOOOOOOOOOOOOOO.......OOOOOOOOOOOOOOOOOOOOOOOOOOOOOOOOOOOOOOOO.......",
"                           .............              .......::::::.......                    .......**********************************===-==========--------------------=---------------------------------------=----------------------------------------=-----------------------------------------=-------------------===-==========-====*************************************************************......:::::::.......OOOOOOOOOOOOOOOOOOOOOOOOOOOOOOOOOO.......OOOOOOOOOOOOOOOOOOOOOOOOOOOOOOOOOOOOOOOO.......",
"                           .............              .......::::::.......                    .......**********************************===-==========---------------------=------------------------------------------=-------------------------------------------=--------------------------------------------=---------====-==========-===*************************************************************......:::::::.......OOOOOOOOOOOOOOOOOOOOOOOOOOOOOOOOOO.......OOOOOOOOOOOOOOOOOOOOOOOOOOOOOOOOOOOOOOOO.......",
"                           .............              .......::::::.......                    .......**********************************====-=========-------------------=---------------------------------------------=----------------------------------------------=-----------------------------------------------=--===-==========-====*************************************************************......:::::::.......OOOOOOOOOOOOOOOOOOOOOOOOOOOOOOOOOO.......OOOOOOOOOOOOOOOOOOOOOOOOOOOOOOOOOOOOOOOO.......",
"                           .......::::::.......       .......::::::;;;;;;;.......             .......*****************************************====-==========-=======-====-------------------=------------------------------------------------=----------------------------------------------===-==========-========-==========-====********************************************************************......:::::::.......OOOOOOOOOOOOOOOOOOOOOOOOOOO.......;;;;;;;......OOOOOOOOOOOOOOOOOOOOOOOOOOOOOOOOOO.......",
"                           .......::::::.......       .......::::::;;;;;;;.......             .......*****************************************===-==========-=========-==--------------------=--------------------------------------------------=--------------------------------------------===-==========-==========-==========-==********************************************************************......:::::::.......OOOOOOOOOOOOOOOOOOOOOOOOOOO.......;;;;;;;......OOOOOOOOOOOOOOOOOOOOOOOOOOOOOOOOOO.......",
"                           .......::::::.......       .......::::::;;;;;;;.......             .......*****************************************===-==========-===========-=--------------------=----------------------------------------------------=-----------------------------------------===-==========-============-==========-********************************************************************......:::::::.......OOOOOOOOOOOOOOOOOOOOOOOOOOO.......;;;;;;;......OOOOOOOOOOOOOOOOOOOOOOOOOOOOOOOOOO.......",
"                           .......::::::.......       .......::::::;;;;;;;.......             .......*****************************************===-==========-=============--------------------=------------------------------------------------------=--------------------------------------====-==========-==============-=========********************************************************************......:::::::.......OOOOOOOOOOOOOOOOOOOOOOOOOOO.......;;;;;;;......OOOOOOOOOOOOOOOOOOOOOOOOOOOOOOOOOO.......",
"                           .......::::::.......       .......::::::;;;;;;;.......             .......*****************************************====-==========-============-------------------=--------------------------------------------------------=--------------------------------------===-==========-============-===-=======********************************************************************......:::::::.......OOOOOOOOOOOOOOOOOOOOOOOOOOO.......;;;;;;;......OOOOOOOOOOOOOOOOOOOOOOOOOOOOOOOOOO.......",
"                           .......::::::.......       .......::::::;;;;;;;.......             .......*****************************************===-==========-============-=-------------------=--------------------------------------=-------------------=-----------------------------------===-==========-============-====-======********************************************************************......:::::::.......OOOOOOOOOOOOOOOOOOOOOOOOOOO.......;;;;;;;......OOOOOOOOOOOOOOOOOOOOOOOOOOOOOOOOOO.......",
"                           .......:::::::::::::..............::::::;;;;;;;;;;;;;;....................***********************************************=====-==========-============-=====---------------------=--------------------------------------=--------------------====-==========-============-======-==========-**************************************************************************.......::::::::::::::::::::.......OOOOOOOOOOOOO.......:::::::;;;;;;;......OOOOOOOOOOOOOOOOOOOOOOOOOOOOOOOOOO.......",
"                           .......:::::::::::::..............::::::;;;;;;;;;;;;;;....................***********************************************===-==========-============-=======----------------------=--------------------------------------=-------------------====-==========-============-========-=========**************************************************************************.......::::::::::::::::::::.......OOOOOOOOOOOOO.......:::::::;;;;;;;......OOOOOOOOOOOOOOOOOOOOOOOOOOOOOOOOOO.......",
"                           .......:::::::::::::..............::::::;;;;;;;;;;;;;;....................***********************************************======-==========-============-====-------------------=--------------------------------------=----------------------=====-==========-============-=========-=======**************************************************************************.......::::::::::::::::::::.......OOOOOOOOOOOOO.......:::::::;;;;;;;......OOOOOOOOOOOOOOOOOOOOOOOOOOOOOOOOOO.......",
"                           .......:::::::::::::..............::::::;;;;;;;;;;;;;;....................***********************************************===-==========-============-=======-------------------=--------------------------------------=---------------------=====-==========-============-=======-===-======**************************************************************************.......::::::::::::::::::::.......OOOOOOOOOOOOO.......:::::::;;;;;;;......OOOOOOOOOOOOOOOOOOOOOOOOOOOOOOOOOO.......",
"                           .......:::::::::::::..............::::::;;;;;;;;;;;;;;....................***********************************************===-==========-============-=======--------------------=--------------------------------------=---------------------====-==========-============-=======-====-=====**************************************************************************.......::::::::::::::::::::.......OOOOOOOOOOOOO.......:::::::;;;;;;;......OOOOOOOOOOOOOOOOOOOOOOOOOOOOOOOOOO.......",
"                           .......:::::::::::::..............::::::;;;;;;;;;;;;;;....................***********************************************===-==========-============-=======---------------------=--------------------------------------=-------------------====-==========-============-=======-=====-=====**************************************************************************.......::::::::::::::::::::.......OOOOOOOOOOOOO.......:::::::;;;;;;;......OOOOOOOOOOOOOOOOOOOOOOOOOOOOOOOOOO.......",
"                           .......:::::::::::::..............::::::;;;;;;;;;;;;;;....................***********************************************====-==========-============-======-------------------=--------------------------------------=--------------------=====-==========-============-=======-======-====**************************************************************************.......::::::::::::::::::::.......OOOOOOOOOOOOO.......:::::::;;;;;;;......OOOOOOOOOOOOOOOOOOOOOOOOOOOOOOOOOO.......",
"                           .......:::::::::::::ooooooo.......;;;;;;;;;;;;;ooooooo.......******.......********************************************************************===-==========-============-=======-=======-==========-============-=======-========-==========-============-======***************************************************************************************.......*******;;;;;;;::::::;;;;;;;.......*******......::::::::::::::;;;;;;;.......OOOOOOOOOOOOOOOOOOOOOOOOOOOOOOOOOOOOOOOO.......",
"                           .......:::::::::::::ooooooo.......;;;;;;;;;;;;;ooooooo.......******.......********************************************************************====-==========-============-=======-=========-==========-============-=======-==========-==========-============-=***************************************************************************************.......*******;;;;;;;::::::;;;;;;;.......*******......::::::::::::::;;;;;;;.......OOOOOOOOOOOOOOOOOOOOOOOOOOOOOOOOOOOOOOOO.......",
"                           .......:::::::::::::ooooooo.......;;;;;;;;;;;;;ooooooo.......******.......********************************************************************===-==========-============-=======-===========-==========-============-=======-============-==========-===========***************************************************************************************.......*******;;;;;;;::::::;;;;;;;.......*******......::::::::::::::;;;;;;;.......OOOOOOOOOOOOOOOOOOOOOOOOOOOOOOOOOOOOOOOO.......",
"                           .......:::::::::::::ooooooo.......;;;;;;;;;;;;;ooooooo.......******.......********************************************************************====-==========-============-=======-=============-==========-============-=======-==============-==========-======***************************************************************************************.......*******;;;;;;;::::::;;;;;;;.......*******......::::::::::::::;;;;;;;.......OOOOOOOOOOOOOOOOOOOOOOOOOOOOOOOOOOOOOOOO.......",
"                           .......:::::::::::::ooooooo.......;;;;;;;;;;;;;ooooooo.......******.......********************************************************************====-==========-============-=======-===============-==========-============-=======-================-==========-==***************************************************************************************.......*******;;;;;;;::::::;;;;;;;.......*******......::::::::::::::;;;;;;;.......OOOOOOOOOOOOOOOOOOOOOOOOOOOOOOOOOOOOOOOO.......",
"                           .......:::::::::::::ooooooo.......;;;;;;;;;;;;;ooooooo.......******.......********************************************************************===-==========-============-=======-=================-==========-============-=======-==================-==========***************************************************************************************.......*******;;;;;;;::::::;;;;;;;.......*******......::::::::::::::;;;;;;;.......OOOOOOOOOOOOOOOOOOOOOOOOOOOOOOOOOOOOOOOO.......",
"                           .......:::::::::::::ooooooo.......;;;;;;;;;;;;;ooooooo.......******.......********************************************************************===-==========-============-=======-===================-==========-============-=======-====================-======***************************************************************************************.......*******;;;;;;;::::::;;;;;;;.......*******......::::::::::::::;;;;;;;.......OOOOOOOOOOOOOOOOOOOOOOOOOOOOOOOOOOOOOOOO.......",
"             ..............:::::::;;;;;;oooooooooooooo-------------oooooooooooooo.......-------------*******.......**************************************************************************=======-==========-============-=======-=====================-==========-=******************************************************************************************************......--------------XXXXXXXXXXXXXXXXXXXX--------------......;;;;;;;;;;;;;;;;;;;;;.......OOOOOOOOOOOOO..............OOOOOOOOOOOOO.......",
"             ..............:::::::;;;;;;oooooooooooooo-------------oooooooooooooo.......-------------*******.......**************************************************************************=====-==========-============-=======-======================-==========-==******************************************************************************************************......--------------XXXXXXXXXXXXXXXXXXXX--------------......;;;;;;;;;;;;;;;;;;;;;.......OOOOOOOOOOOOO..............OOOOOOOOOOOOO.......",
"             ..............:::::::;;;;;;oooooooooooooo-------------oooooooooooooo.......-------------*******.......**************************************************************************===-==========-============-=======-=======================-==========-===******************************************************************************************************......--------------XXXXXXXXXXXXXXXXXXXX--------------......;;;;;;;;;;;;;;;;;;;;;.......OOOOOOOOOOOOO..............OOOOOOOOOOOOO.......",
"             ..............:::::::;;;;;;oooooooooooooo-------------oooooooooooooo.......-------------*******.......**************************************************************************========-==========-============-=======-========================-========******************************************************************************************************......--------------XXXXXXXXXXXXXXXXXXXX--------------......;;;;;;;;;;;;;;;;;;;;;.......OOOOOOOOOOOOO..............OOOOOOOOOOOOO.......",
"             ..............:::::::;;;;;;oooooooooooooo-------------oooooooooooooo.......-------------*******.......**************************************************************************===-==========-============-=======-=========================-==========-=******************************************************************************************************......--------------XXXXXXXXXXXXXXXXXXXX--------------......;;;;;;;;;;;;;;;;;;;;;.......OOOOOOOOOOOOO..............OOOOOOOOOOOOO.......",
"             ..............:::::::;;;;;;oooooooooooooo-------------oooooooooooooo.......-------------*******.......**************************************************************************===-==========-============-=======-==========================-==========-******************************************************************************************************......--------------XXXXXXXXXXXXXXXXXXXX--------------......;;;;;;;;;;;;;;;;;;;;;.......OOOOOOOOOOOOO..............OOOOOOOOOOOOO.......",
"             ..............:::::::;;;;;;oooooooooooooo-------------oooooooooooooo.......-------------*******.......**************************************************************************===-==========-============-=======-===========================-==========******************************************************************************************************......--------------XXXXXXXXXXXXXXXXXXXX--------------......;;;;;;;;;;;;;;;;;;;;;.......OOOOOOOOOOOOO..............OOOOOOOOOOOOO.......",
"             .......::::::::::::::......-------------------=--------------------------------------=---------*******......*********************************************************************************************************************************************************************************************************************************************.......------------------------=-----------------------------******.........................................:::::::.......OOOOOOOOOOOOO.......",
"             .......::::::::::::::......---------------------=--------------------------------------=-------*******......*********************************************************************************************************************************************************************************************************************************************.......----------------------=-------------------------------******.........................................:::::::.......OOOOOOOOOOOOO.......",
"             .......::::::::::::::......----------------------=--------------------------------------=------*******......*********************************************************************************************************************************************************************************************************************************************.......-------------------------=----------------------------******.........................................:::::::.......OOOOOOOOOOOOO.......",
"             .......::::::::::::::......--------------------=--------------------------------------=--------*******......*********************************************************************************************************************************************************************************************************************************************.......--------------------------=---------------------------******.........................................:::::::.......OOOOOOOOOOOOO.......",
"             .......::::::::::::::......--------------------=--------------------------------------=--------*******......*********************************************************************************************************************************************************************************************************************************************.......---------------------------=--------------------------******.........................................:::::::.......OOOOOOOOOOOOO.......",
"             .......::::::::::::::......---------------------=--------------------------------------=-------*******......*********************************************************************************************************************************************************************************************************************************************.......----------------------------=-------------------------******.........................................:::::::.......OOOOOOOOOOOOO.......",
"                    .......;;;;;;;......---------------------======-=======-------------------=--------------===-==.............*******************************************************************************************************************************************************************************************************************************.......-----------------------------=------------------===-==========-----=====-========**************......::::::::::::::.......OOOOOO.......       ",
"                    .......;;;;;;;......---------------------=======-======-------------------=--------------====-=.............*******************************************************************************************************************************************************************************************************************************.......------------------------------=-----------------===-==========------======-======**************......::::::::::::::.......OOOOOO.......       ",
"                    .......;;;;;;;......-------------------=--====-=======--------------------=--------------=====-.............*******************************************************************************************************************************************************************************************************************************.......-----------------------=------------------------===-==========-----===-==========**************......::::::::::::::.......OOOOOO.......       ",
"                    .......;;;;;;;......-------------------=--=====-=======---------------------=------------===-==.............*******************************************************************************************************************************************************************************************************************************.......-------------------------------=--------------======-=======--------===-=========**************......::::::::::::::.......OOOOOO.......       ",
"                    .......;;;;;;;......--------------------========-======--------------------=------------====-==.............*******************************************************************************************************************************************************************************************************************************.......--------------------------------=--------------=======-=======------=======-=====**************......::::::::::::::.......OOOOOO.......       ",
"                    .......;;;;;;;......--------------------=========-====--------------------=--------------======.............*******************************************************************************************************************************************************************************************************************************.......------------------------=-----------------------===-==========-----====-=========**************......::::::::::::::.......OOOOOO.......       ",
"                    .......;;;;;;;......---------------------==========-==---------------------=------------=====-=.............*******************************************************************************************************************************************************************************************************************************.......-------------------------=----------------------===-==========-----=====-========**************......::::::::::::::.......OOOOOO.......       ",
"                    ..............-------====-==========-====*************====-==--------------------======-=======******.......************************************************************************************************************************************************************************************************************************..............-------------------=--------------=========-===**************===-==****************************......;;;;;;;:::::::.......OOOOOO.......       ",
"                    ..............-------=====-==========-===*************=====-==--------------------=====-=======******.......************************************************************************************************************************************************************************************************************************..............-------------------=--------------==========-==**************======****************************......;;;;;;;:::::::.......OOOOOO.......       ",
"                    ..............-------===-==========-=====*************====-==---------------------======-======******.......************************************************************************************************************************************************************************************************************************..............--------------------=--------------===========-**************======****************************......;;;;;;;:::::::.......OOOOOO.......       ",
"                    ..............------====-==========-=====*************========--------------------=======-=====******.......************************************************************************************************************************************************************************************************************************..............---------------------=------------======-======**************===-==****************************......;;;;;;;:::::::.......OOOOOO.......       ",
"                    ..............-------======-==========-==*************===-====-------------------=======-======******.......************************************************************************************************************************************************************************************************************************..............----------------------=------------=======-====**************======****************************......;;;;;;;:::::::.......OOOOOO.......       ",
"                    ..............------=====-==========-====*************===-====--------------------========-====******.......************************************************************************************************************************************************************************************************************************..............--------------------=--------------============**************======****************************......;;;;;;;:::::::.......OOOOOO.......       ",
"                    ..............-------====-==========-====*************====-==-------------------======-========******.......************************************************************************************************************************************************************************************************************************..............--------------------=--------------============**************=====-****************************......;;;;;;;:::::::.......OOOOOO.......       ",
"                           .......-===-========**********************************===-====------========-====********************.......***********************************************************************************************************************************************************************************************************......--------------------------===========-===********************************************************************....................OOOOOOOOOOOOO.......       ",
"                           .......-===-========**********************************===-====-----===-==========********************.......***********************************************************************************************************************************************************************************************************......----------------------=-----===-=========********************************************************************....................OOOOOOOOOOOOO.......       ",
"                           .......-====-=======**********************************====-==-------===-=========********************.......***********************************************************************************************************************************************************************************************************......---------------------------============-=********************************************************************....................OOOOOOOOOOOOO.......       ",
"                           .......-===-========**********************************===-====-----====-=========********************.......***********************************************************************************************************************************************************************************************************......-----------------------=----===-=========********************************************************************....................OOOOOOOOOOOOO.......       ",
"                           .......-===-========**********************************===-====-----=====-========********************.......***********************************************************************************************************************************************************************************************************......----------------------------=============********************************************************************....................OOOOOOOOOOOOO.......       ",
"                           .......-=====-======**********************************====-==-------====-========********************.......***********************************************************************************************************************************************************************************************************......---------------------------=========-====********************************************************************....................OOOOOOOOOOOOO.......       ",
"                           .......-===-========**********************************===-====-----======-=======********************.......***********************************************************************************************************************************************************************************************************......----------------------------==========-==********************************************************************....................OOOOOOOOOOOOO.......       ",
"                                  ......===-===****************************************************************************************.......****************************************************************************************************************************************************************************************************......----------------------=====**********************************XXXXXXX******************************************************.......OOOOOOO......              ",
"                                  ......-====-=****************************************************************************************.......****************************************************************************************************************************************************************************************************......---------------------======**********************************XXXXXXX******************************************************.......OOOOOOO......              ",
"                                  ......-====-=****************************************************************************************.......****************************************************************************************************************************************************************************************************......----------------------=====**********************************XXXXXXX******************************************************.......OOOOOOO......              ",
"                                  ......-=====-****************************************************************************************.......****************************************************************************************************************************************************************************************************......----------------------===-=**********************************XXXXXXX******************************************************.......OOOOOOO......              ",
"                                  ......-===-==****************************************************************************************.......****************************************************************************************************************************************************************************************************......--------------------=======**********************************XXXXXXX******************************************************.......OOOOOOO......              ",
"                                  ......-=====-****************************************************************************************.......****************************************************************************************************************************************************************************************************......----------------------=====**********************************XXXXXXX******************************************************.......OOOOOOO......              ",
"                                  ......*********************XXXXXXXXXXXXX*************************************************************.......OOOOOO**********************************************************************************************************************************************************************************************......----------------------=====*********************XXXXXXXXXXXXX#######XXXXXXXXXXXXX*****************************************.......OOOOOOO......              ",
"                                  ......*********************XXXXXXXXXXXXX*************************************************************.......OOOOOO**********************************************************************************************************************************************************************************************......---------------------======*********************XXXXXXXXXXXXX#######XXXXXXXXXXXXX*****************************************.......OOOOOOO......              ",
"                                  ......*********************XXXXXXXXXXXXX*************************************************************.......OOOOOO**********************************************************************************************************************************************************************************************......--------------------=======*********************XXXXXXXXXXXXX#######XXXXXXXXXXXXX*****************************************.......OOOOOOO......              ",
"                                  ......*********************XXXXXXXXXXXXX*************************************************************.......OOOOOO**********************************************************************************************************************************************************************************************......--------------------=======*********************XXXXXXXXXXXXX#######XXXXXXXXXXXXX*****************************************.......OOOOOOO......              ",
"                                  ......*********************XXXXXXXXXXXXX*************************************************************.......OOOOOO**********************************************************************************************************************************************************************************************......---------------------======*********************XXXXXXXXXXXXX#######XXXXXXXXXXXXX*****************************************.......OOOOOOO......              ",
"                                  ......*********************XXXXXXXXXXXXX*************************************************************.......OOOOOO**********************************************************************************************************************************************************************************************......---------------------======*********************XXXXXXXXXXXXX#######XXXXXXXXXXXXX*****************************************.......OOOOOOO......              ",
"                                  ......*********************XXXXXXXXXXXXX*************************************************************.......OOOOOO**********************************************************************************************************************************************************************************************......--------------------=======*********************XXXXXXXXXXXXX#######XXXXXXXXXXXXX*****************************************.......OOOOOOO......              ",
"                                        .......*******XXXXXXX#############XXXXXXX******************************************************.......OOOOOOOOOOOOO***************************************************************************************************************************************************************************************......---------------------======**************XXXXXXX#################################XXXXXXX**********************************..............                    ",
"                                        .......*******XXXXXXX#############XXXXXXX******************************************************.......OOOOOOOOOOOOO***************************************************************************************************************************************************************************************......----------------------=====**************XXXXXXX#################################XXXXXXX**********************************..............                    ",
"                                        .......*******XXXXXXX#############XXXXXXX******************************************************.......OOOOOOOOOOOOO***************************************************************************************************************************************************************************************......----------------------====-**************XXXXXXX#################################XXXXXXX**********************************..............                    ",
"                                        .......*******XXXXXXX#############XXXXXXX******************************************************.......OOOOOOOOOOOOO***************************************************************************************************************************************************************************************......----------------------=====**************XXXXXXX#################################XXXXXXX**********************************..............                    ",
"                                        .......*******XXXXXXX#############XXXXXXX******************************************************.......OOOOOOOOOOOOO***************************************************************************************************************************************************************************************......---------------------======**************XXXXXXX#################################XXXXXXX**********************************..............                    ",
"                                        .......*******XXXXXXX#############XXXXXXX******************************************************.......OOOOOOOOOOOOO***************************************************************************************************************************************************************************************......----------------------=====**************XXXXXXX#################################XXXXXXX**********************************..............                    ",
"                                        .......*******XXXXXXX#############XXXXXXX******************************************************.......OOOOOOOOOOOOO***************************************************************************************************************************************************************************************......---------------------====-=**************XXXXXXX#################################XXXXXXX**********************************..............                    ",
"                                        .......XXXXXXX###########################XXXXXXX***********************************************.......OOOOOOOOOOOOOOOOOOOOOOOOOOO*******************************************************************************************************************************************************************************=-------------=======********************XXXXXXX########################################XXXXXXX********************.......                                  ",
"                                        .......XXXXXXX###########################XXXXXXX***********************************************.......OOOOOOOOOOOOOOOOOOOOOOOOOOO*******************************************************************************************************************************************************************************-------------========********************XXXXXXX########################################XXXXXXX********************.......                                  ",
"                                        .......XXXXXXX###########################XXXXXXX***********************************************.......OOOOOOOOOOOOOOOOOOOOOOOOOOO*******************************************************************************************************************************************************************************--------------=======********************XXXXXXX########################################XXXXXXX********************.......                                  ",
"                                        .......XXXXXXX###########################XXXXXXX***********************************************.......OOOOOOOOOOOOOOOOOOOOOOOOOOO*******************************************************************************************************************************************************************************-------------========********************XXXXXXX########################################XXXXXXX********************.......                                  ",
"                                        .......XXXXXXX###########################XXXXXXX***********************************************.......OOOOOOOOOOOOOOOOOOOOOOOOOOO*******************************************************************************************************************************************************************************-------------========********************XXXXXXX########################################XXXXXXX********************.......                                  ",
"                                        .......XXXXXXX###########################XXXXXXX***********************************************.......OOOOOOOOOOOOOOOOOOOOOOOOOOO*******************************************************************************************************************************************************************************-------------========********************XXXXXXX########################################XXXXXXX********************.......                                  ",
"                                        .......XXXXXXX###########################XXXXXXX***********************************************.......OOOOOOOOOOOOOOOOOOOOOOOOOOO*******************************************************************************************************************************************************************************-------------========********************XXXXXXX########################################XXXXXXX********************.......                                  ",
"                                               .......###########################XXXXXXX****************************************.......OOOOOOOOOOOOOOOOOOOOOOOOOOOOOOOOOOOOOOOO*******************************************************************************************************************************************************************......--------===-==*************XXXXXXX###############################################XXXXXXX*********************......                                         ",
"                                               .......###########################XXXXXXX****************************************.......OOOOOOOOOOOOOOOOOOOOOOOOOOOOOOOOOOOOOOOO*******************************************************************************************************************************************************************......--------===-==*************XXXXXXX###############################################XXXXXXX*********************......                                         ",
"                                               .......###########################XXXXXXX****************************************.......OOOOOOOOOOOOOOOOOOOOOOOOOOOOOOOOOOOOOOOO*******************************************************************************************************************************************************************......-------=======*************XXXXXXX###############################################XXXXXXX*********************......                                         ",
"                                               .......###########################XXXXXXX****************************************.......OOOOOOOOOOOOOOOOOOOOOOOOOOOOOOOOOOOOOOOO*******************************************************************************************************************************************************************......--------======*************XXXXXXX###############################################XXXXXXX*********************......                                         ",
"                                               .......###########################XXXXXXX****************************************.......OOOOOOOOOOOOOOOOOOOOOOOOOOOOOOOOOOOOOOOO*******************************************************************************************************************************************************************......--------======*************XXXXXXX###############################################XXXXXXX*********************......                                         ",
"                                               .......###########################XXXXXXX****************************************.......OOOOOOOOOOOOOOOOOOOOOOOOOOOOOOOOOOOOOOOO*******************************************************************************************************************************************************************......--------===-==*************XXXXXXX###############################################XXXXXXX*********************......                                         ",
"                                                      .......#################################XXXXXXX**********************************.......OOOOOOOOOOOOO..................................$$$$$$$**********************************------*******=-------------******-------*******=------*************=------****************************************-------=======********************###############################################XXXXXXX*********************......                                         ",
"                                                      .......#################################XXXXXXX**********************************.......OOOOOOOOOOOOO..................................$$$$$$$**********************************------*******=-------------******-------*******=------*************=------****************************************-------=======********************###############################################XXXXXXX*********************......                                         ",
"                                                      .......#################################XXXXXXX**********************************.......OOOOOOOOOOOOO..................................$$$$$$$**********************************------*******=-------------******-------*******-------*************=------****************************************--------======********************###############################################XXXXXXX*********************......                                         ",
"                                                      .......#################################XXXXXXX**********************************.......OOOOOOOOOOOOO..................................$$$$$$$**********************************------*******=-------------******-------*******=------*************=------****************************************-------=======********************###############################################XXXXXXX*********************......                                         ",
"                                                      .......#################################XXXXXXX**********************************.......OOOOOOOOOOOOO..................................$$$$$$$**********************************------*******=-------------******-------*******=------*************=------****************************************--------======********************###############################################XXXXXXX*********************......                                         ",
"                                                      .......#################################XXXXXXX**********************************.......OOOOOOOOOOOOO..................................$$$$$$$**********************************------*******=-------------******-------*******=------*************=------****************************************=-------======********************###############################################XXXXXXX*********************......                                         ",
"                                                      .......#################################XXXXXXX**********************************.......OOOOOOOOOOOOO..................................$$$$$$$**********************************------*******=-------------******=------*******-------*************=------****************************************-------=======********************###############################################XXXXXXX*********************......                                         ",
"                                                             .............####################XXXXXXX**********************************....................                                  .........................................$$$$$$-------**************=-----*******-------*******-------------*******...............................................***************************XXXXXXX##################################XXXXXX*********************.......                                               ",
"                                                             .............####################XXXXXXX**********************************....................                                  .........................................$$$$$$-------**************=-----*******=------*******-------------*******...............................................***************************XXXXXXX##################################XXXXXX*********************.......                                               ",
"                                                             .............####################XXXXXXX**********************************....................                                  .........................................$$$$$$-------**************=-----*******=------*******-------------*******...............................................***************************XXXXXXX##################################XXXXXX*********************.......                                               ",
"                                                             .............####################XXXXXXX**********************************....................                                  .........................................$$$$$$-------**************=-----*******=------*******=------------*******...............................................***************************XXXXXXX##################################XXXXXX*********************.......                                               ",
"                                                             .............####################XXXXXXX**********************************....................                                  .........................................$$$$$$-------**************=-----*******-------*******=------------*******...............................................***************************XXXXXXX##################################XXXXXX*********************.......                                               ",
"                                                             .............####################XXXXXXX**********************************....................                                  .........................................$$$$$$-------**************=-----*******-------*******-------------*******...............................................***************************XXXXXXX##################################XXXXXX*********************.......                                               ",
"                                                             .............####################XXXXXXX**********************************....................                                  .........................................$$$$$$-------**************=-----*******-------*******=------------*******...............................................***************************XXXXXXX##################################XXXXXX*********************.......                                               ",
"                                                                          .......#############XXXXXXX********************..............                                                                                               ..........................................................................                                               .......***************************XXXXXXXXXXXXXXXXXXXX#######XXXXXXX***************************.......                                               ",
"                                                                          .......#############XXXXXXX********************..............                                                                                               ..........................................................................                                               .......***************************XXXXXXXXXXXXXXXXXXXX#######XXXXXXX***************************.......                                               ",
"                                                                          .......#############XXXXXXX********************..............                                                                                               ..........................................................................                                               .......***************************XXXXXXXXXXXXXXXXXXXX#######XXXXXXX***************************.......                                               ",
"                                                                          .......#############XXXXXXX********************..............                                                                                               ..........................................................................                                               .......***************************XXXXXXXXXXXXXXXXXXXX#######XXXXXXX***************************.......                                               ",
"                                                                          .......#############XXXXXXX********************..............                                                                                               ..........................................................................                                               .......***************************XXXXXXXXXXXXXXXXXXXX#######XXXXXXX***************************.......                                               ",
"                                                                          .......#############XXXXXXX********************..............                                                                                               ..........................................................................                                               .......***************************XXXXXXXXXXXXXXXXXXXX#######XXXXXXX***************************.......                                               ",
"                                                                          .......#############XXXXXXX********************..............                                                                                               ..........................................................................                                               .......***************************XXXXXXXXXXXXXXXXXXXX#######XXXXXXX***************************.......                                               ",
"                                                                                 .............*******....................                                                                                                                                                                                                                                             .............**********************************XXXXXXX********************..............                                                      ",
"                                                                                 .............*******....................                                                                                                                                                                                                                                             .............**********************************XXXXXXX********************..............                                                      ",
"                                                                                 .............*******....................                                                                                                                                                                                                                                             .............**********************************XXXXXXX********************..............                                                      ",
"                                                                                 .............*******....................                                                                                                                                                                                                                                             .............**********************************XXXXXXX********************..............                                                      ",
"                                                                                 .............*******....................                                                                                                                                                                                                                                             .............**********************************XXXXXXX********************..............                                                      ",
"                                                                                 .............*******....................                                                                                                                                                                                                                                             .............**********************************XXXXXXX********************..............                                                      ",
"                                                                                 .............*******....................                                                                                                                                                                                                                                             .............**********************************XXXXXXX********************..............                                                      ",
"                                                                                                                                                                                                                                                                                                                                                                             ......***************************.......*******.............                                                                           ",
"                                                                                                                                                                                                                                                                                                                                                                             ......***************************.......*******.............                                                                           ",
"                                                                                                                                                                                                                                                                                                                                                                             ......***************************.......*******.............                                                                           ",
"                                                                                                                                                                                                                                                                                                                                                                             ......***************************.......*******.............                                                                           ",
"                                                                                                                                                                                                                                                                                                                                                                             ......***************************.......*******.............                                                                           ",
"                                                                                                                                                                                                                                                                                                                                                                             ......***************************.......*******.............                                                                           ",
"                                                                                                                                                                                                                                                                                                                                                                                   ...........................       .......                                                                                        ",
"                                                                                                                                                                                                                                                                                                                                                                                   ...........................       .......                                                                                        ",
"                                                                                                                                                                                                                                                                                                                                                                                   ...........................       .......                                                                                        ",
"                                                                                                                                                                                                                                                                                                                                                                                   ...........................       .......                                                                                        ",
"                                                                                                                                                                                                                                                                                                                                                                                   ...........................       .......                                                                                        ",
"                                                                                                                                                                                                                                                                                                                                                                                   ...........................       .......                                                                                        ",
"                                                                                                                                                                                                                                                                                                                                                                                   ...........................       .......                                                                                        ",
"                                                                                                                                                                                                                                                                                                                                                                                   ...........................       .......                                                                                        ",
"                                                                                                                                                                                                                                                                                                                                                                                                                                                                                                                    ",
"                                                                                                                                                                                                                                                                                                                                                                                                                                                                                                                    "
};
