/* XPM */
static char *out[] = {
/* columns rows colors chars-per-pixel */
"500 503 16 1 ",
"  c #FF00FF",
". c black",
"X c #634221",
"o c #735A21",
"O c #103942",
"+ c #315A7B",
"@ c gray45",
"# c #A57352",
"$ c #C69C5A",
"% c #528CAD",
"& c #73A5BD",
"* c #E7C6AD",
"= c #F7D6BD",
"- c #F7E7BD",
"; c #CECECE",
": c white",
/* pixels */
"                                                                                                                                                                                                                                                                                                                                                                                                                                                                                                                    ",
"                                                                                                                                                                                                                                                                                                                                                                                                                                                                                                                    ",
"                                                                                                                                                                                                                                                                                                                                                                                                                                                                                                                    ",
"                                                                                                                                                                                                                                                                                                                                                                                                                                                                                                                    ",
"                                                                                                                                                                                                                                                                                                                                                                                                                                                                                                                    ",
"                                                                                                                                                                                                                                                                                                                                                                                                                                                                                                                    ",
"                                                                                                                                                                                                                                                                                                                                                                                                                                                                                                                    ",
"                                                                                                                                                                                                                                                                                                                                                                                                                                                                                                                    ",
"                                                                                                                                                                                                                                                                                                                                                                                                                                                                                                                    ",
"                                                                                                                                                                                                                                                                                                                                                                                                                                                                                                                    ",
"                                                                                                                                                                                                                                                                                                                                                                                                                                                                                                                    ",
"                                                                                                                                                                                                                                                                                                                                                                                                                                                                                                                    ",
"                                                                                                                                                                                                                                                                                                                                                                                                                                                                                                                    ",
"                                                                                                                                                                                                                                                                                                                                                                                                                                                                                                                    ",
"                                                                                                                                                                                                                                                                                                                                                                                                                                                                                                                    ",
"                                                                                                                                                                                                                                                                                                                                                                                                                                                                                                                    ",
"                                                                                                                                                                                                                                                                                                                                                                                                                                                                                                                    ",
"                                                                                                                                                                                                                                                                                                                                                                                                                                                                                                                    ",
"                                                                                                                                                                                                                                                                                                                                                                                                                                                                                                                    ",
"                                                                                                                                                                                                                                                                                                                                                                                                                                                                                                                    ",
"                                                                                                                                                                                                                                                                                                                                                                                                                                                                                                                    ",
"                                                                                                                                                                                                                                                                                                                                                                                                                                                                                                                    ",
"                                                                                                                                                                                                                                                                                                                                                                                                                                                                                                                    ",
"                                                                                                                                                                                                                                                                                                                                                                                                                                                                                                                    ",
"                                                                                                                                                                                                                                                                                                                                                                                                                                                                                                                    ",
"                                                                                                                                                                                                                                                                                                                                                                                                                                                                                                                    ",
"                                                                                                                                                                                                                                                                                                                                                                                                                                                                                                                    ",
"                                                                                                                                                                                                                                                                                                                                                                                                                                                                                                                    ",
"                                                                                                                                                                                                                                                                                                                                                                                                                                                                                                                    ",
"                                                                                                                                                                                                                                                                                                                                                                                                                                                                                                                    ",
"                                                                                                                                                                                                                                                                                                                                                                                                                                                                                                                    ",
"                                                                                                                                                                                                                                                                                                                                                                                                                                                                                                                    ",
"                                                                                                                                                                                                                                                                                                                                                                                                                                                                                                                    ",
"                                                                                                                                                                                                                                                                                                                                                                                                                                                                                                                    ",
"                                                                                                                                                                                                                                                                                                                                                                                                                                                                                                                    ",
"                                                                                                                                                                                                                                                                                                                                                                                                                                                                                                                    ",
"                                                                                                                                                                                                                                                                                                                                                                                                                                                                                                                    ",
"                                                                                                                                                                                                                                                                                                                                                                                                                                                                                                                    ",
"                                                                                                                                                                                                                                                                                                                                                                                                                                                                                                                    ",
"                                                                                                                                                                                                                                                                                                                                                                                                                                                                                                                    ",
"                                                                                                                                                                                                                                                                                                                                                                                                                                                                                                                    ",
"                                                                                                                                                                                                                                                                                                                                                                                                                                                                                                                    ",
"                                                                                                                                                                                                                                                                                                                                                                                                                                                                                                                    ",
"                                                                                                                                                                                                                                                                                                                                                                                                                                                                                                                    ",
"                                                                                                                                                                                                                                                                                                                                                                                                                                                                                                                    ",
"                                                                                                                                                                                                                                                                                                                                                                                                                                                                                                                    ",
"                                                                                                                                                                                                                                                                                                                                                                                                                                                                                                                    ",
"                                                                                                                                                                                                                                                                                                                                                                                                                                                                                                                    ",
"                                                                                                                                                                                                                                                                                                                                                                                                                                                                                                                    ",
"                                                                                                                                                                                                                                                                                                                                                                                                                                                                                                                    ",
"                                                                                                                                                                                                                                                                                                                                                                                                                                                                                                                    ",
"                                                                                                                                                                                                                                                                                                                                                                                                                                                                                                                    ",
"                                                                                                                                                                                                                                                                                                                                                                                                                                                                                                                    ",
"                                                                                                                                                                                                                                                                                                                                                                                                                                                                                                                    ",
"                                                                                                                                                                                                                                                                                                                                                                                                                                                                                                                    ",
"                                                                                                                                                                                                                                                                                                                                                                                                                                                                                                                    ",
"                                                                                                                                                                                                                                                                                                                                                                                                                                                                                                                    ",
"                                                                                                                                                                                                                                                                                                                                                                                                                                                                                                                    ",
"                                                                                                                                                                                                                                                                                                                                                                                                                                                                                                                    ",
"                                                                                                                                                                                                                                                                                                                                                                                                                                                                                                                    ",
"                                                                                                                                                                                                                 .......                                                                                                                                                                                                                                                                                            ",
"                                                                                                                                                                                                                 .......                                                                                                                                                                                                                                                                                            ",
"                                                                                                                                                                                                                 .......                                                                                                                                                                                                                                                                                            ",
"                                                                                                                                                                                                                 .......                                                                                                                                                                                                                                                                                            ",
"                                                                                                                                                                                                                 .......                                                                                                                                                                                                                                                                                            ",
"                                                                                                                                                                                                                 .......                                                                                                                                                                                                                                                                                            ",
"                                                                                                                                                                                                                 .......                                                                                                                                                                                                                                                                                            ",
"                                                                                                                                                                                                           OOOOOO%%%%%%%.......                                                                                              .....................                                                                                                                                                                  ",
"                                                                                                                                                                                                           OOOOOO%%%%%%%.......                                                                                              .....................                                                                                                                                                                  ",
"                                                                                                                                                                                                           OOOOOO%%%%%%%.......                                                                                              .....................                                                                                                                                                                  ",
"                                                                                                                                                                                                           OOOOOO%%%%%%%.......                                                                                              .....................                                                                                                                                                                  ",
"                                                                                                                                                                                                           OOOOOO%%%%%%%.......                                                                                              .....................                                                                                                                                                                  ",
"                                                                                                                                                                                                           OOOOOO%%%%%%%.......                                                                                              .....................                                                                                                                                                                  ",
"                                                                                                                                                                                                           OOOOOO%%%%%%%.......                                                                                              .....................                                                                                                                                                                  ",
"                                                                                                                                                                                                           OOOOOO%%%%%%%+++++++.............                                                                           OOOOOO%%%%%%%++++++++++++++......                                                                                                                                                            ",
"                                                                                                                                                                                                           OOOOOO%%%%%%%+++++++.............                                                                           OOOOOO%%%%%%%++++++++++++++......                                                                                                                                                            ",
"                                                                                                                                                                                                           OOOOOO%%%%%%%+++++++.............                                                                           OOOOOO%%%%%%%++++++++++++++......                                                                                                                                                            ",
"                                                                                                                                                                                                           OOOOOO%%%%%%%+++++++.............                                                                           OOOOOO%%%%%%%++++++++++++++......                                                                                                                                                            ",
"                                                                                                                                                                                                           OOOOOO%%%%%%%+++++++.............                                                                           OOOOOO%%%%%%%++++++++++++++......                                                                                                                                                            ",
"                                                                                                                                                                                                           OOOOOO%%%%%%%+++++++.............                                                                           OOOOOO%%%%%%%++++++++++++++......                                                                                                                                                            ",
"                                                                                                                                                                                                           OOOOOO%%%%%%%+++++++.............                                                                           OOOOOO%%%%%%%++++++++++++++......                                                                                                                                                            ",
"                                                                                                                                                                                                    OOOOOOO%%%%%%%%%%%%%++++++++++++++++++++.......                                                             OOOOOOO%%%%%%%%%%%%%%%%%%%%+++++++......                                                                                                                                                            ",
"                                                                                                                                                                                                    OOOOOOO%%%%%%%%%%%%%++++++++++++++++++++.......                                                             OOOOOOO%%%%%%%%%%%%%%%%%%%%+++++++......                                                                                                                                                            ",
"                                                                                                                                                                                                    OOOOOOO%%%%%%%%%%%%%++++++++++++++++++++.......                                                             OOOOOOO%%%%%%%%%%%%%%%%%%%%+++++++......                                                                                                                                                            ",
"                                                                                                                                                                                                    OOOOOOO%%%%%%%%%%%%%++++++++++++++++++++.......                                                             OOOOOOO%%%%%%%%%%%%%%%%%%%%+++++++......                                                                                                                                                            ",
"                                                                                                                                                                                                    OOOOOOO%%%%%%%%%%%%%++++++++++++++++++++.......                                                             OOOOOOO%%%%%%%%%%%%%%%%%%%%+++++++......                                                                                                                                                            ",
"                                                                                                                                                                                                    OOOOOOO%%%%%%%%%%%%%++++++++++++++++++++.......                                                             OOOOOOO%%%%%%%%%%%%%%%%%%%%+++++++......                                                                                                                                                            ",
"                                                                                                                                                                                                    OOOOOOO%%%%%%%%%%%%%++++++++++++++++++++.......                                                             OOOOOOO%%%%%%%%%%%%%%%%%%%%+++++++......                                                                                                                                                            ",
"                                                                                                                                                                                                    OOOOOOO%%%%%%%%%%%%%%%%%%%%++++++++++++++++++++..............                                 OOOOOOOOOOOOOO%%%%%%%%%%%%%%%%%%%%%%%%%%%+++++++++++++                                                                                                                                                            ",
"                                                                                                                                                                                                    OOOOOOO%%%%%%%%%%%%%%%%%%%%++++++++++++++++++++..............                                 OOOOOOOOOOOOOO%%%%%%%%%%%%%%%%%%%%%%%%%%%+++++++++++++                                                                                                                                                            ",
"                                                                                                                                                                                                    OOOOOOO%%%%%%%%%%%%%%%%%%%%++++++++++++++++++++..............                                 OOOOOOOOOOOOOO%%%%%%%%%%%%%%%%%%%%%%%%%%%+++++++++++++                                                                                                                                                            ",
"                                                                                                                                                                                                    OOOOOOO%%%%%%%%%%%%%%%%%%%%++++++++++++++++++++..............                                 OOOOOOOOOOOOOO%%%%%%%%%%%%%%%%%%%%%%%%%%%+++++++++++++                                                                                                                                                            ",
"                                                                                                                                                                                                    OOOOOOO%%%%%%%%%%%%%%%%%%%%++++++++++++++++++++..............                                 OOOOOOOOOOOOOO%%%%%%%%%%%%%%%%%%%%%%%%%%%+++++++++++++                                                                                                                                                            ",
"                                                                                                                                                                                                    OOOOOOO%%%%%%%%%%%%%%%%%%%%++++++++++++++++++++..............                                 OOOOOOOOOOOOOO%%%%%%%%%%%%%%%%%%%%%%%%%%%+++++++++++++                                                                                                                                                            ",
"                                                                                                                                                                                             OOOOOOO%%%%%%%%%%%%%%%%%%%%+++++++OOOOOOOOOOOOO+++++++&&&&&&&..................................%%%%%%%%%%%%%%%%%%%%%%%%%%%%%%%%%%%%%%%%++++++++++++++......                                                                                                                                                            ",
"                                                                                                                                                                                             OOOOOOO%%%%%%%%%%%%%%%%%%%%+++++++OOOOOOOOOOOOO+++++++&&&&&&&..................................%%%%%%%%%%%%%%%%%%%%%%%%%%%%%%%%%%%%%%%%++++++++++++++......                                                                                                                                                            ",
"                                                                                                                                                                                             OOOOOOO%%%%%%%%%%%%%%%%%%%%+++++++OOOOOOOOOOOOO+++++++&&&&&&&..................................%%%%%%%%%%%%%%%%%%%%%%%%%%%%%%%%%%%%%%%%++++++++++++++......                                                                                                                                                            ",
"                                                                                                                                                                                             OOOOOOO%%%%%%%%%%%%%%%%%%%%+++++++OOOOOOOOOOOOO+++++++&&&&&&&..................................%%%%%%%%%%%%%%%%%%%%%%%%%%%%%%%%%%%%%%%%++++++++++++++......                                                                                                                                                            ",
"                                                                                                                                                                                             OOOOOOO%%%%%%%%%%%%%%%%%%%%+++++++OOOOOOOOOOOOO+++++++&&&&&&&..................................%%%%%%%%%%%%%%%%%%%%%%%%%%%%%%%%%%%%%%%%++++++++++++++......                                                                                                                                                            ",
"                                                                                                                                                                                             OOOOOOO%%%%%%%%%%%%%%%%%%%%+++++++OOOOOOOOOOOOO+++++++&&&&&&&..................................%%%%%%%%%%%%%%%%%%%%%%%%%%%%%%%%%%%%%%%%++++++++++++++......                                                                                                                                                            ",
"                                                                                                                                                                                             OOOOOOO%%%%%%%%%%%%%%%%%%%%+++++++OOOOOOOOOOOOO+++++++&&&&&&&..................................%%%%%%%%%%%%%%%%%%%%%%%%%%%%%%%%%%%%%%%%++++++++++++++......                                                                                                                                                            ",
"                                                                                                                                                                                             OOOOOOO%%%%%%%++++++++++++++++++++%%%%%%%&&&&&&&&&&&&&&&&&&&&&&&&&&&%%%%%%%%%%%%%%%%%%%%%%%%%%%%%%%%%%%%%%%%%%%%%%%%%%%%%%%%%%%%+++++++++++++++++++++++++++                                                                                                                                                            ",
"                                                                                                                                                                                             OOOOOOO%%%%%%%++++++++++++++++++++%%%%%%%&&&&&&&&&&&&&&&&&&&&&&&&&&&%%%%%%%%%%%%%%%%%%%%%%%%%%%%%%%%%%%%%%%%%%%%%%%%%%%%%%%%%%%%+++++++++++++++++++++++++++                                                                                                                                                            ",
"                                                                                                                                                                                             OOOOOOO%%%%%%%++++++++++++++++++++%%%%%%%&&&&&&&&&&&&&&&&&&&&&&&&&&&%%%%%%%%%%%%%%%%%%%%%%%%%%%%%%%%%%%%%%%%%%%%%%%%%%%%%%%%%%%%+++++++++++++++++++++++++++                                                                                                                                                            ",
"                                                                                                                                                                                             OOOOOOO%%%%%%%++++++++++++++++++++%%%%%%%&&&&&&&&&&&&&&&&&&&&&&&&&&&%%%%%%%%%%%%%%%%%%%%%%%%%%%%%%%%%%%%%%%%%%%%%%%%%%%%%%%%%%%%+++++++++++++++++++++++++++                                                                                                                                                            ",
"                                                                                                                                                                                             OOOOOOO%%%%%%%++++++++++++++++++++%%%%%%%&&&&&&&&&&&&&&&&&&&&&&&&&&&%%%%%%%%%%%%%%%%%%%%%%%%%%%%%%%%%%%%%%%%%%%%%%%%%%%%%%%%%%%%+++++++++++++++++++++++++++                                                                                                                                                            ",
"                                                                                                                                                                                             OOOOOOO%%%%%%%++++++++++++++++++++%%%%%%%&&&&&&&&&&&&&&&&&&&&&&&&&&&%%%%%%%%%%%%%%%%%%%%%%%%%%%%%%%%%%%%%%%%%%%%%%%%%%%%%%%%%%%%+++++++++++++++++++++++++++                                                                                                                                                            ",
"                                                                                                                                                                                             OOOOOOO%%%%%%%++++++++++++++++++++%%%%%%%&&&&&&&&&&&&&&&&&&&&&&&&&&&%%%%%%%%%%%%%%%%%%%%%%%%%%%%%%%%%%%%%%%%%%%%%%%%%%%%%%%%%%%%+++++++++++++++++++++++++++                                                                                                                                                            ",
"                                                                                                                                                                                             .......+++++++%%%%%%%%%%%%%%%%%%%%%%%%%%%%%%%%%&&&&&&&&&&&&&&&&&&&&&&&&&&&%%%%%%%%%%%%%%%%%%%%%%%%%%%%%%%%%%%%%%%%%%%%%%%%%%%%%%+++++++++++++++++++++++++++.......                                                                                                                                                     ",
"                                                                                                                                                                                             .......+++++++%%%%%%%%%%%%%%%%%%%%%%%%%%%%%%%%%&&&&&&&&&&&&&&&&&&&&&&&&&&&%%%%%%%%%%%%%%%%%%%%%%%%%%%%%%%%%%%%%%%%%%%%%%%%%%%%%%+++++++++++++++++++++++++++.......                                                                                                                                                     ",
"                                                                                                                                                                                             .......+++++++%%%%%%%%%%%%%%%%%%%%%%%%%%%%%%%%%&&&&&&&&&&&&&&&&&&&&&&&&&&&%%%%%%%%%%%%%%%%%%%%%%%%%%%%%%%%%%%%%%%%%%%%%%%%%%%%%%+++++++++++++++++++++++++++.......                                                                                                                                                     ",
"                                                                                                                                                                                             .......+++++++%%%%%%%%%%%%%%%%%%%%%%%%%%%%%%%%%&&&&&&&&&&&&&&&&&&&&&&&&&&&%%%%%%%%%%%%%%%%%%%%%%%%%%%%%%%%%%%%%%%%%%%%%%%%%%%%%%+++++++++++++++++++++++++++.......                                                                                                                                                     ",
"                                                                                                                                                                                             .......+++++++%%%%%%%%%%%%%%%%%%%%%%%%%%%%%%%%%&&&&&&&&&&&&&&&&&&&&&&&&&&&%%%%%%%%%%%%%%%%%%%%%%%%%%%%%%%%%%%%%%%%%%%%%%%%%%%%%%+++++++++++++++++++++++++++.......                                                                                                                                                     ",
"                                                                                                                                                                                             .......+++++++%%%%%%%%%%%%%%%%%%%%%%%%%%%%%%%%%&&&&&&&&&&&&&&&&&&&&&&&&&&&%%%%%%%%%%%%%%%%%%%%%%%%%%%%%%%%%%%%%%%%%%%%%%%%%%%%%%+++++++++++++++++++++++++++.......                                                                                                                                                     ",
"                                                                                                                                                                                             .......+++++++%%%%%%%%%%%%%%%%%%%%%%%%%%%%%%%%%&&&&&&&&&&&&&&&&&&&&&&&&&&&%%%%%%%%%%%%%%%%%%%%%%%%%%%%%%%%%%%%%%%%%%%%%%%%%%%%%%+++++++++++++++++++++++++++.......                                                                                                                                                     ",
"                                                                                                                                                                                             .......+++++++++++++++++++++++++++%%%%%%%%%%%%%%%%%%%%%%%%%%%%%%%%%%%%%%%%%%%%%%%%%%%%%%%%%%%%%+++++++++++++%%%%%%%%%%%%%%++++++++++++++++++++++++++++++++++++++++.......                           .......                    .......                                                                                 ",
"                                                                                                                                                                                             .......+++++++++++++++++++++++++++%%%%%%%%%%%%%%%%%%%%%%%%%%%%%%%%%%%%%%%%%%%%%%%%%%%%%%%%%%%%%+++++++++++++%%%%%%%%%%%%%%++++++++++++++++++++++++++++++++++++++++.......                           .......                    .......                                                                                 ",
"                                                                                                                                                                                             .......+++++++++++++++++++++++++++%%%%%%%%%%%%%%%%%%%%%%%%%%%%%%%%%%%%%%%%%%%%%%%%%%%%%%%%%%%%%+++++++++++++%%%%%%%%%%%%%%++++++++++++++++++++++++++++++++++++++++.......                           .......                    .......                                                                                 ",
"                                                                                                                                                                                             .......+++++++++++++++++++++++++++%%%%%%%%%%%%%%%%%%%%%%%%%%%%%%%%%%%%%%%%%%%%%%%%%%%%%%%%%%%%%+++++++++++++%%%%%%%%%%%%%%++++++++++++++++++++++++++++++++++++++++.......                           .......                    .......                                                                                 ",
"                                                                                                                                                                                             .......+++++++++++++++++++++++++++%%%%%%%%%%%%%%%%%%%%%%%%%%%%%%%%%%%%%%%%%%%%%%%%%%%%%%%%%%%%%+++++++++++++%%%%%%%%%%%%%%++++++++++++++++++++++++++++++++++++++++.......                           .......                    .......                                                                                 ",
"                                                                                                                                                                                             .......+++++++++++++++++++++++++++%%%%%%%%%%%%%%%%%%%%%%%%%%%%%%%%%%%%%%%%%%%%%%%%%%%%%%%%%%%%%+++++++++++++%%%%%%%%%%%%%%++++++++++++++++++++++++++++++++++++++++.......                           .......                    .......                                                                                 ",
"                                                                                                                                                                                      .......++++++++++++++++++++-------*******+++++++%%%%%%%%%%%%%%%%%%%%%%%%%%%%%%%%%%%%%%%%++++++++++++++------*******+++++++++++++++++++++++++++++++++++++++++++++++++++++++++++++.......                    .............       ....................                                                                           ",
"                                                                                                                                                                                      .......++++++++++++++++++++-------*******+++++++%%%%%%%%%%%%%%%%%%%%%%%%%%%%%%%%%%%%%%%%++++++++++++++------*******+++++++++++++++++++++++++++++++++++++++++++++++++++++++++++++.......                    .............       ....................                                                                           ",
"                                                                                                                                                                                      .......++++++++++++++++++++-------*******+++++++%%%%%%%%%%%%%%%%%%%%%%%%%%%%%%%%%%%%%%%%++++++++++++++------*******+++++++++++++++++++++++++++++++++++++++++++++++++++++++++++++.......                    .............       ....................                                                                           ",
"                                                                                                                                                                                      .......++++++++++++++++++++-------*******+++++++%%%%%%%%%%%%%%%%%%%%%%%%%%%%%%%%%%%%%%%%++++++++++++++------*******+++++++++++++++++++++++++++++++++++++++++++++++++++++++++++++.......                    .............       ....................                                                                           ",
"                                                                                                                                                                                      .......++++++++++++++++++++-------*******+++++++%%%%%%%%%%%%%%%%%%%%%%%%%%%%%%%%%%%%%%%%++++++++++++++------*******+++++++++++++++++++++++++++++++++++++++++++++++++++++++++++++.......                    .............       ....................                                                                           ",
"                                                                                                                                                                                      .......++++++++++++++++++++-------*******+++++++%%%%%%%%%%%%%%%%%%%%%%%%%%%%%%%%%%%%%%%%++++++++++++++------*******+++++++++++++++++++++++++++++++++++++++++++++++++++++++++++++.......                    .............       ....................                                                                           ",
"                                                                                                                                                                                      .......++++++++++++++++++++-------*******+++++++%%%%%%%%%%%%%%%%%%%%%%%%%%%%%%%%%%%%%%%%++++++++++++++------*******+++++++++++++++++++++++++++++++++++++++++++++++++++++++++++++.......                    .............       ....................                                                                           ",
"                                                                                                                                                                                      .......+++++++*******---------------------------++++++%%%%%%%%%%%%%%%%%%%%%%%%%%%+++++++---------------------------OOOOOOOOOOOOOO+++++++++++++++++++++++++++++++++++++++++++++++.......                    :::::::....................:::::::......                                                                           ",
"                                                                                                                                                                                      .......+++++++*******---------------------------++++++%%%%%%%%%%%%%%%%%%%%%%%%%%%+++++++---------------------------OOOOOOOOOOOOOO+++++++++++++++++++++++++++++++++++++++++++++++.......                    :::::::....................:::::::......                                                                           ",
"                                                                                                                                                                                      .......+++++++*******---------------------------++++++%%%%%%%%%%%%%%%%%%%%%%%%%%%+++++++---------------------------OOOOOOOOOOOOOO+++++++++++++++++++++++++++++++++++++++++++++++.......                    :::::::....................:::::::......                                                                           ",
"                                                                                                                                                                                      .......+++++++*******---------------------------++++++%%%%%%%%%%%%%%%%%%%%%%%%%%%+++++++---------------------------OOOOOOOOOOOOOO+++++++++++++++++++++++++++++++++++++++++++++++.......                    :::::::....................:::::::......                                                                           ",
"                                                                                                                                                                                      .......+++++++*******---------------------------++++++%%%%%%%%%%%%%%%%%%%%%%%%%%%+++++++---------------------------OOOOOOOOOOOOOO+++++++++++++++++++++++++++++++++++++++++++++++.......                    :::::::....................:::::::......                                                                           ",
"                                                                                                                                                                                      .......+++++++*******---------------------------++++++%%%%%%%%%%%%%%%%%%%%%%%%%%%+++++++---------------------------OOOOOOOOOOOOOO+++++++++++++++++++++++++++++++++++++++++++++++.......                    :::::::....................:::::::......                                                                           ",
"                                                                                                                                                                                      .......+++++++*******---------------------------++++++%%%%%%%%%%%%%%%%%%%%%%%%%%%+++++++---------------------------OOOOOOOOOOOOOO+++++++++++++++++++++++++++++++++++++++++++++++.......                    :::::::....................:::::::......                                                                           ",
"                                                                                                                                                                                      .......+++++++----------------------------------------++++++++++++++%%%%%%%++++++-----------------------------------------*******OOOOOO++++++++++++++++++++++++++++++++++++++++++++++++......              .............OOOOOOOOOOOOOOOOOOOOO::::::.......                                                                    ",
"                                                                                                                                                                                      .......+++++++----------------------------------------++++++++++++++%%%%%%%++++++-----------------------------------------*******OOOOOO++++++++++++++++++++++++++++++++++++++++++++++++......              .............OOOOOOOOOOOOOOOOOOOOO::::::.......                                                                    ",
"                                                                                                                                                                                      .......+++++++----------------------------------------++++++++++++++%%%%%%%++++++-----------------------------------------*******OOOOOO++++++++++++++++++++++++++++++++++++++++++++++++......              .............OOOOOOOOOOOOOOOOOOOOO::::::.......                                                                    ",
"                                                                                                                                                                                      .......+++++++----------------------------------------++++++++++++++%%%%%%%++++++-----------------------------------------*******OOOOOO++++++++++++++++++++++++++++++++++++++++++++++++......              .............OOOOOOOOOOOOOOOOOOOOO::::::.......                                                                    ",
"                                                                                                                                                                                      .......+++++++----------------------------------------++++++++++++++%%%%%%%++++++-----------------------------------------*******OOOOOO++++++++++++++++++++++++++++++++++++++++++++++++......              .............OOOOOOOOOOOOOOOOOOOOO::::::.......                                                                    ",
"                                                                                                                                                                                      .......+++++++----------------------------------------++++++++++++++%%%%%%%++++++-----------------------------------------*******OOOOOO++++++++++++++++++++++++++++++++++++++++++++++++......              .............OOOOOOOOOOOOOOOOOOOOO::::::.......                                                                    ",
"                                                                                                                                                                                      .......+++++++----------------------------------------++++++++++++++%%%%%%%++++++-----------------------------------------*******OOOOOO++++++++++++++++++++++++++++++++++++++++++++++++......              .............OOOOOOOOOOOOOOOOOOOOO::::::.......                                                                    ",
"                                                                                                                                                                               .......*******--------------------------------------------------------------------------------------------------------------------------OOOOOO+++++++++++++++++++++++++++++++++++++++++....................:::::::%%%%%%%%%%%%%%%%%%%%%%%%%%%...........................                                                             ",
"                                                                                                                                                                               .......*******--------------------------------------------------------------------------------------------------------------------------OOOOOO+++++++++++++++++++++++++++++++++++++++++....................:::::::%%%%%%%%%%%%%%%%%%%%%%%%%%%...........................                                                             ",
"                                                                                                                                                                               .......*******--------------------------------------------------------------------------------------------------------------------------OOOOOO+++++++++++++++++++++++++++++++++++++++++....................:::::::%%%%%%%%%%%%%%%%%%%%%%%%%%%...........................                                                             ",
"                                                                                                                                                                               .......*******--------------------------------------------------------------------------------------------------------------------------OOOOOO+++++++++++++++++++++++++++++++++++++++++....................:::::::%%%%%%%%%%%%%%%%%%%%%%%%%%%...........................                                                             ",
"                                                                                                                                                                               .......*******--------------------------------------------------------------------------------------------------------------------------OOOOOO+++++++++++++++++++++++++++++++++++++++++....................:::::::%%%%%%%%%%%%%%%%%%%%%%%%%%%...........................                                                             ",
"                                                                                                                                                                               .......*******--------------------------------------------------------------------------------------------------------------------------OOOOOO+++++++++++++++++++++++++++++++++++++++++....................:::::::%%%%%%%%%%%%%%%%%%%%%%%%%%%...........................                                                             ",
"                                                                                                                                                                               .......*******--------------------------------------------------------------------------------------------------------------------------OOOOOO+++++++++++++++++++++++++++++++++++++++++....................:::::::%%%%%%%%%%%%%%%%%%%%%%%%%%%...........................                                                             ",
"                                                                                                                                                                         ......+++++++---------------------------------------------------------------------------------------------------------------------------------------OOOOOOO+++++++++++++++++++++++++++++++++++++++++......%%%%%%%%%%%%%%%%%%%%%%%%%%%%%%%%%%%%%%%%%OOOOOOO......OOOOOOO.......                                                             ",
"                                                                                                                                                                         ......+++++++---------------------------------------------------------------------------------------------------------------------------------------OOOOOOO+++++++++++++++++++++++++++++++++++++++++......%%%%%%%%%%%%%%%%%%%%%%%%%%%%%%%%%%%%%%%%%OOOOOOO......OOOOOOO.......                                                             ",
"                                                                                                                                                                         ......+++++++---------------------------------------------------------------------------------------------------------------------------------------OOOOOOO+++++++++++++++++++++++++++++++++++++++++......%%%%%%%%%%%%%%%%%%%%%%%%%%%%%%%%%%%%%%%%%OOOOOOO......OOOOOOO.......                                                             ",
"                                                                                                                                                                         ......+++++++---------------------------------------------------------------------------------------------------------------------------------------OOOOOOO+++++++++++++++++++++++++++++++++++++++++......%%%%%%%%%%%%%%%%%%%%%%%%%%%%%%%%%%%%%%%%%OOOOOOO......OOOOOOO.......                                                             ",
"                                                                                                                                                                         ......+++++++---------------------------------------------------------------------------------------------------------------------------------------OOOOOOO+++++++++++++++++++++++++++++++++++++++++......%%%%%%%%%%%%%%%%%%%%%%%%%%%%%%%%%%%%%%%%%OOOOOOO......OOOOOOO.......                                                             ",
"                                                                                                                                                                         ......+++++++---------------------------------------------------------------------------------------------------------------------------------------OOOOOOO+++++++++++++++++++++++++++++++++++++++++......%%%%%%%%%%%%%%%%%%%%%%%%%%%%%%%%%%%%%%%%%OOOOOOO......OOOOOOO.......                                                             ",
"                                                                                                                                              .............              ......+++++++.....................------------------------------------------------------------------------------------------------------------------*******OOOOOOO++++++++++++++++++++++++++++++++++.............%%%%%%%%%%%%%%%%%%%%%%%%%%%%%%%%%%+++++++......:::::::..............                                                      ",
"                                                                                                                                              .............              ......+++++++.....................------------------------------------------------------------------------------------------------------------------*******OOOOOOO++++++++++++++++++++++++++++++++++.............%%%%%%%%%%%%%%%%%%%%%%%%%%%%%%%%%%+++++++......:::::::..............                                                      ",
"                                                                                                                                              .............              ......+++++++.....................------------------------------------------------------------------------------------------------------------------*******OOOOOOO++++++++++++++++++++++++++++++++++.............%%%%%%%%%%%%%%%%%%%%%%%%%%%%%%%%%%+++++++......:::::::..............                                                      ",
"                                                                                                                                              .............              ......+++++++.....................------------------------------------------------------------------------------------------------------------------*******OOOOOOO++++++++++++++++++++++++++++++++++.............%%%%%%%%%%%%%%%%%%%%%%%%%%%%%%%%%%+++++++......:::::::..............                                                      ",
"                                                                                                                                              .............              ......+++++++.....................------------------------------------------------------------------------------------------------------------------*******OOOOOOO++++++++++++++++++++++++++++++++++.............%%%%%%%%%%%%%%%%%%%%%%%%%%%%%%%%%%+++++++......:::::::..............                                                      ",
"                                                                                                                                              .............              ......+++++++.....................------------------------------------------------------------------------------------------------------------------*******OOOOOOO++++++++++++++++++++++++++++++++++.............%%%%%%%%%%%%%%%%%%%%%%%%%%%%%%%%%%+++++++......:::::::..............                                                      ",
"                                                                                                                                              .............              ......+++++++.....................------------------------------------------------------------------------------------------------------------------*******OOOOOOO++++++++++++++++++++++++++++++++++.............%%%%%%%%%%%%%%%%%%%%%%%%%%%%%%%%%%+++++++......:::::::..............                                                      ",
"                                                                                                                                              ......:::::::.......       ......+++++++--------------.......-------------------------------------------------------------------....................----------------------------------OOOOOOO++++++++++++++++++++++++++++++++++.............%%%%%%%%%%%%%%%%%%%%%%%%%%%%%%%%%%+++++++.............OOOOOOO.......                                                      ",
"                                                                                                                                              ......:::::::.......       ......+++++++--------------.......-------------------------------------------------------------------....................----------------------------------OOOOOOO++++++++++++++++++++++++++++++++++.............%%%%%%%%%%%%%%%%%%%%%%%%%%%%%%%%%%+++++++.............OOOOOOO.......                                                      ",
"                                                                                                                                              ......:::::::.......       ......+++++++--------------.......-------------------------------------------------------------------....................----------------------------------OOOOOOO++++++++++++++++++++++++++++++++++.............%%%%%%%%%%%%%%%%%%%%%%%%%%%%%%%%%%+++++++.............OOOOOOO.......                                                      ",
"                                                                                                                                              ......:::::::.......       ......+++++++--------------.......-------------------------------------------------------------------....................----------------------------------OOOOOOO++++++++++++++++++++++++++++++++++.............%%%%%%%%%%%%%%%%%%%%%%%%%%%%%%%%%%+++++++.............OOOOOOO.......                                                      ",
"                                                                                                                                              ......:::::::.......       ......+++++++--------------.......-------------------------------------------------------------------....................----------------------------------OOOOOOO++++++++++++++++++++++++++++++++++.............%%%%%%%%%%%%%%%%%%%%%%%%%%%%%%%%%%+++++++.............OOOOOOO.......                                                      ",
"                                                                                                                                              ......:::::::.......       ......+++++++--------------.......-------------------------------------------------------------------....................----------------------------------OOOOOOO++++++++++++++++++++++++++++++++++.............%%%%%%%%%%%%%%%%%%%%%%%%%%%%%%%%%%+++++++.............OOOOOOO.......                                                      ",
"                                                                                                                                              ......:::::::.......       ......+++++++--------------.......-------------------------------------------------------------------....................----------------------------------OOOOOOO++++++++++++++++++++++++++++++++++.............%%%%%%%%%%%%%%%%%%%%%%%%%%%%%%%%%%+++++++.............OOOOOOO.......                                                      ",
"                                                                                                                                ..............OOOOOO%%%%%%%.......%%%%%%%......+++++++--------------@@@@@@@.............-----------------------------------------.............@@@@@@@-------------..............--------------------*******OOOOOOO+++++++++++++++++++++++++++++++++.......%%%%%%%%%%%%%%%%%%%%%%%%%%%%%%%%%%++++++++++++++++++++++++++++++++++.......                                               ",
"                                                                                                                                ..............OOOOOO%%%%%%%.......%%%%%%%......+++++++--------------@@@@@@@.............-----------------------------------------.............@@@@@@@-------------..............--------------------*******OOOOOOO+++++++++++++++++++++++++++++++++.......%%%%%%%%%%%%%%%%%%%%%%%%%%%%%%%%%%++++++++++++++++++++++++++++++++++.......                                               ",
"                                                                                                                                ..............OOOOOO%%%%%%%.......%%%%%%%......+++++++--------------@@@@@@@.............-----------------------------------------.............@@@@@@@-------------..............--------------------*******OOOOOOO+++++++++++++++++++++++++++++++++.......%%%%%%%%%%%%%%%%%%%%%%%%%%%%%%%%%%++++++++++++++++++++++++++++++++++.......                                               ",
"                                                                                                                                ..............OOOOOO%%%%%%%.......%%%%%%%......+++++++--------------@@@@@@@.............-----------------------------------------.............@@@@@@@-------------..............--------------------*******OOOOOOO+++++++++++++++++++++++++++++++++.......%%%%%%%%%%%%%%%%%%%%%%%%%%%%%%%%%%++++++++++++++++++++++++++++++++++.......                                               ",
"                                                                                                                                ..............OOOOOO%%%%%%%.......%%%%%%%......+++++++--------------@@@@@@@.............-----------------------------------------.............@@@@@@@-------------..............--------------------*******OOOOOOO+++++++++++++++++++++++++++++++++.......%%%%%%%%%%%%%%%%%%%%%%%%%%%%%%%%%%++++++++++++++++++++++++++++++++++.......                                               ",
"                                                                                                                                ..............OOOOOO%%%%%%%.......%%%%%%%......+++++++--------------@@@@@@@.............-----------------------------------------.............@@@@@@@-------------..............--------------------*******OOOOOOO+++++++++++++++++++++++++++++++++.......%%%%%%%%%%%%%%%%%%%%%%%%%%%%%%%%%%++++++++++++++++++++++++++++++++++.......                                               ",
"                                                                                                                                ..............OOOOOO%%%%%%%.......%%%%%%%......+++++++--------------@@@@@@@.............-----------------------------------------.............@@@@@@@-------------..............--------------------*******OOOOOOO+++++++++++++++++++++++++++++++++.......%%%%%%%%%%%%%%%%%%%%%%%%%%%%%%%%%%++++++++++++++++++++++++++++++++++.......                                               ",
"                                                                                                                         .......:::::::OOOOOOO%%%%%%%%%%%%%%%%%%%%%%%%%%%......+++++++-----------------------------------------------------------------------------------------------------------------------------------------------------OOOOOOO+++++++++++++++++++++++++++++++++%%%%%%%%%%%%%%%%%%%%%%%%%%%%%%%%%%%%%%%%%++++++++++++++++++++++++++++++++++                                                      ",
"                                                                                                                         .......:::::::OOOOOOO%%%%%%%%%%%%%%%%%%%%%%%%%%%......+++++++-----------------------------------------------------------------------------------------------------------------------------------------------------OOOOOOO+++++++++++++++++++++++++++++++++%%%%%%%%%%%%%%%%%%%%%%%%%%%%%%%%%%%%%%%%%++++++++++++++++++++++++++++++++++                                                      ",
"                                                                                                                         .......:::::::OOOOOOO%%%%%%%%%%%%%%%%%%%%%%%%%%%......+++++++-----------------------------------------------------------------------------------------------------------------------------------------------------OOOOOOO+++++++++++++++++++++++++++++++++%%%%%%%%%%%%%%%%%%%%%%%%%%%%%%%%%%%%%%%%%++++++++++++++++++++++++++++++++++                                                      ",
"                                                                                                                         .......:::::::OOOOOOO%%%%%%%%%%%%%%%%%%%%%%%%%%%......+++++++-----------------------------------------------------------------------------------------------------------------------------------------------------OOOOOOO+++++++++++++++++++++++++++++++++%%%%%%%%%%%%%%%%%%%%%%%%%%%%%%%%%%%%%%%%%++++++++++++++++++++++++++++++++++                                                      ",
"                                                                                                                         .......:::::::OOOOOOO%%%%%%%%%%%%%%%%%%%%%%%%%%%......+++++++-----------------------------------------------------------------------------------------------------------------------------------------------------OOOOOOO+++++++++++++++++++++++++++++++++%%%%%%%%%%%%%%%%%%%%%%%%%%%%%%%%%%%%%%%%%++++++++++++++++++++++++++++++++++                                                      ",
"                                                                                                                         .......:::::::OOOOOOO%%%%%%%%%%%%%%%%%%%%%%%%%%%......+++++++-----------------------------------------------------------------------------------------------------------------------------------------------------OOOOOOO+++++++++++++++++++++++++++++++++%%%%%%%%%%%%%%%%%%%%%%%%%%%%%%%%%%%%%%%%%++++++++++++++++++++++++++++++++++                                                      ",
"                                                                                                                   ......OOOOOOOOOOOOOO%%%%%%%%%%%%%%%%%%%%%%%%%%%%%%%%%%......*******----------------------------------------------------------------------------------------------------------------------------------------------OOOOOOO++++++++++++++++++++++++++++++++++.............%%%%%%%%%%%%%%%%%%%%%%%%%%%%%%%%%%+++++++++++++++++++++++++++..............                                               ",
"                                                                                                                   ......OOOOOOOOOOOOOO%%%%%%%%%%%%%%%%%%%%%%%%%%%%%%%%%%......*******----------------------------------------------------------------------------------------------------------------------------------------------OOOOOOO++++++++++++++++++++++++++++++++++.............%%%%%%%%%%%%%%%%%%%%%%%%%%%%%%%%%%+++++++++++++++++++++++++++..............                                               ",
"                                                                                                                   ......OOOOOOOOOOOOOO%%%%%%%%%%%%%%%%%%%%%%%%%%%%%%%%%%......*******----------------------------------------------------------------------------------------------------------------------------------------------OOOOOOO++++++++++++++++++++++++++++++++++.............%%%%%%%%%%%%%%%%%%%%%%%%%%%%%%%%%%+++++++++++++++++++++++++++..............                                               ",
"                                                                                                                   ......OOOOOOOOOOOOOO%%%%%%%%%%%%%%%%%%%%%%%%%%%%%%%%%%......*******----------------------------------------------------------------------------------------------------------------------------------------------OOOOOOO++++++++++++++++++++++++++++++++++.............%%%%%%%%%%%%%%%%%%%%%%%%%%%%%%%%%%+++++++++++++++++++++++++++..............                                               ",
"                                                                                                                   ......OOOOOOOOOOOOOO%%%%%%%%%%%%%%%%%%%%%%%%%%%%%%%%%%......*******----------------------------------------------------------------------------------------------------------------------------------------------OOOOOOO++++++++++++++++++++++++++++++++++.............%%%%%%%%%%%%%%%%%%%%%%%%%%%%%%%%%%+++++++++++++++++++++++++++..............                                               ",
"                                                                                                                   ......OOOOOOOOOOOOOO%%%%%%%%%%%%%%%%%%%%%%%%%%%%%%%%%%......*******----------------------------------------------------------------------------------------------------------------------------------------------OOOOOOO++++++++++++++++++++++++++++++++++.............%%%%%%%%%%%%%%%%%%%%%%%%%%%%%%%%%%+++++++++++++++++++++++++++..............                                               ",
"                                                                                                                   ......OOOOOOOOOOOOOO%%%%%%%%%%%%%%%%%%%%%%%%%%%%%%%%%%......*******----------------------------------------------------------------------------------------------------------------------------------------------OOOOOOO++++++++++++++++++++++++++++++++++.............%%%%%%%%%%%%%%%%%%%%%%%%%%%%%%%%%%+++++++++++++++++++++++++++..............                                               ",
"                                                                                                                         .......:::::::+++++++++++++%%%%%%%%%%%%%%%%%%%%%......+++++++---------------------------@@@@@@@-----------------------------------------@@@@@@*******------------------------------------------------------OOOOOOO++++++++++++++++++++++++++++++++++......%%%%%%%%%%%%%%%%%%%%%%%%%%%%%%%%%%+++++++++++++++++++++++++++++++++++++++++.......                                               ",
"                                                                                                                         .......:::::::+++++++++++++%%%%%%%%%%%%%%%%%%%%%......+++++++---------------------------@@@@@@@-----------------------------------------@@@@@@*******------------------------------------------------------OOOOOOO++++++++++++++++++++++++++++++++++......%%%%%%%%%%%%%%%%%%%%%%%%%%%%%%%%%%+++++++++++++++++++++++++++++++++++++++++.......                                               ",
"                                                                                                                         .......:::::::+++++++++++++%%%%%%%%%%%%%%%%%%%%%......+++++++---------------------------@@@@@@@-----------------------------------------@@@@@@*******------------------------------------------------------OOOOOOO++++++++++++++++++++++++++++++++++......%%%%%%%%%%%%%%%%%%%%%%%%%%%%%%%%%%+++++++++++++++++++++++++++++++++++++++++.......                                               ",
"                                                                                                                         .......:::::::+++++++++++++%%%%%%%%%%%%%%%%%%%%%......+++++++---------------------------@@@@@@@-----------------------------------------@@@@@@*******------------------------------------------------------OOOOOOO++++++++++++++++++++++++++++++++++......%%%%%%%%%%%%%%%%%%%%%%%%%%%%%%%%%%+++++++++++++++++++++++++++++++++++++++++.......                                               ",
"                                                                                                                         .......:::::::+++++++++++++%%%%%%%%%%%%%%%%%%%%%......+++++++---------------------------@@@@@@@-----------------------------------------@@@@@@*******------------------------------------------------------OOOOOOO++++++++++++++++++++++++++++++++++......%%%%%%%%%%%%%%%%%%%%%%%%%%%%%%%%%%+++++++++++++++++++++++++++++++++++++++++.......                                               ",
"                                                                                                                         .......:::::::+++++++++++++%%%%%%%%%%%%%%%%%%%%%......+++++++---------------------------@@@@@@@-----------------------------------------@@@@@@*******------------------------------------------------------OOOOOOO++++++++++++++++++++++++++++++++++......%%%%%%%%%%%%%%%%%%%%%%%%%%%%%%%%%%+++++++++++++++++++++++++++++++++++++++++.......                                               ",
"                                                                                                                         .......:::::::+++++++++++++%%%%%%%%%%%%%%%%%%%%%......+++++++---------------------------@@@@@@@-----------------------------------------@@@@@@*******------------------------------------------------------OOOOOOO++++++++++++++++++++++++++++++++++......%%%%%%%%%%%%%%%%%%%%%%%%%%%%%%%%%%+++++++++++++++++++++++++++++++++++++++++.......                                               ",
"                                                                                                                   ......+++++++++++++++++++++++++++%%%%%%%%%%%%%%%%%%%%%%%%%%%.......*******--------------@@@@@@:::::::@@@@@@@-------******.......-------@@@@@@@::::::.......-----------------------------------------------*******OOOOOOO+++++++++++++++++++++++++++.......%%%%%%%%%%%%%%%%%%%%%%%%%%%%%%%%%%%%%%%%++++++++++++++++++++++++++++++++++.......                                                      ",
"                                                                                                                   ......+++++++++++++++++++++++++++%%%%%%%%%%%%%%%%%%%%%%%%%%%.......*******--------------@@@@@@:::::::@@@@@@@-------******.......-------@@@@@@@::::::.......-----------------------------------------------*******OOOOOOO+++++++++++++++++++++++++++.......%%%%%%%%%%%%%%%%%%%%%%%%%%%%%%%%%%%%%%%%++++++++++++++++++++++++++++++++++.......                                                      ",
"                                                                                                                   ......+++++++++++++++++++++++++++%%%%%%%%%%%%%%%%%%%%%%%%%%%.......*******--------------@@@@@@:::::::@@@@@@@-------******.......-------@@@@@@@::::::.......-----------------------------------------------*******OOOOOOO+++++++++++++++++++++++++++.......%%%%%%%%%%%%%%%%%%%%%%%%%%%%%%%%%%%%%%%%++++++++++++++++++++++++++++++++++.......                                                      ",
"                                                                                                                   ......+++++++++++++++++++++++++++%%%%%%%%%%%%%%%%%%%%%%%%%%%.......*******--------------@@@@@@:::::::@@@@@@@-------******.......-------@@@@@@@::::::.......-----------------------------------------------*******OOOOOOO+++++++++++++++++++++++++++.......%%%%%%%%%%%%%%%%%%%%%%%%%%%%%%%%%%%%%%%%++++++++++++++++++++++++++++++++++.......                                                      ",
"                                                                                                                   ......+++++++++++++++++++++++++++%%%%%%%%%%%%%%%%%%%%%%%%%%%.......*******--------------@@@@@@:::::::@@@@@@@-------******.......-------@@@@@@@::::::.......-----------------------------------------------*******OOOOOOO+++++++++++++++++++++++++++.......%%%%%%%%%%%%%%%%%%%%%%%%%%%%%%%%%%%%%%%%++++++++++++++++++++++++++++++++++.......                                                      ",
"                                                                                                                   ......+++++++++++++++++++++++++++%%%%%%%%%%%%%%%%%%%%%%%%%%%.......*******--------------@@@@@@:::::::@@@@@@@-------******.......-------@@@@@@@::::::.......-----------------------------------------------*******OOOOOOO+++++++++++++++++++++++++++.......%%%%%%%%%%%%%%%%%%%%%%%%%%%%%%%%%%%%%%%%++++++++++++++++++++++++++++++++++.......                                                      ",
"                                                                                                                   ......+++++++++++++++++++++++++++%%%%%%%%%%%%%%%%%%%%%%%%%%%.......*******--------------@@@@@@:::::::@@@@@@@-------******.......-------@@@@@@@::::::.......-----------------------------------------------*******OOOOOOO+++++++++++++++++++++++++++.......%%%%%%%%%%%%%%%%%%%%%%%%%%%%%%%%%%%%%%%%++++++++++++++++++++++++++++++++++.......                                                      ",
"                                                                                                                   ......+++++++++++++++++++++%%%%%%%%%%%%%%%%%%%%%%%%%%%%%%%%%.......+++++++--------------@@@@@@...........................*******..............@@@@@@*******-----------------------------------------------OOOOOOO++++++++++++++++++++++++++++++++++.......++++++%%%%%%%%%%%%%%%%%%%%%%%%%%%+++++++++++++++++++++++++++++++++++++++++.......                                                      ",
"                                                                                                                   ......+++++++++++++++++++++%%%%%%%%%%%%%%%%%%%%%%%%%%%%%%%%%.......+++++++--------------@@@@@@...........................*******..............@@@@@@*******-----------------------------------------------OOOOOOO++++++++++++++++++++++++++++++++++.......++++++%%%%%%%%%%%%%%%%%%%%%%%%%%%+++++++++++++++++++++++++++++++++++++++++.......                                                      ",
"                                                                                                                   ......+++++++++++++++++++++%%%%%%%%%%%%%%%%%%%%%%%%%%%%%%%%%.......+++++++--------------@@@@@@...........................*******..............@@@@@@*******-----------------------------------------------OOOOOOO++++++++++++++++++++++++++++++++++.......++++++%%%%%%%%%%%%%%%%%%%%%%%%%%%+++++++++++++++++++++++++++++++++++++++++.......                                                      ",
"                                                                                                                   ......+++++++++++++++++++++%%%%%%%%%%%%%%%%%%%%%%%%%%%%%%%%%.......+++++++--------------@@@@@@...........................*******..............@@@@@@*******-----------------------------------------------OOOOOOO++++++++++++++++++++++++++++++++++.......++++++%%%%%%%%%%%%%%%%%%%%%%%%%%%+++++++++++++++++++++++++++++++++++++++++.......                                                      ",
"                                                                                                                   ......+++++++++++++++++++++%%%%%%%%%%%%%%%%%%%%%%%%%%%%%%%%%.......+++++++--------------@@@@@@...........................*******..............@@@@@@*******-----------------------------------------------OOOOOOO++++++++++++++++++++++++++++++++++.......++++++%%%%%%%%%%%%%%%%%%%%%%%%%%%+++++++++++++++++++++++++++++++++++++++++.......                                                      ",
"                                                                                                                   ......+++++++++++++++++++++%%%%%%%%%%%%%%%%%%%%%%%%%%%%%%%%%.......+++++++--------------@@@@@@...........................*******..............@@@@@@*******-----------------------------------------------OOOOOOO++++++++++++++++++++++++++++++++++.......++++++%%%%%%%%%%%%%%%%%%%%%%%%%%%+++++++++++++++++++++++++++++++++++++++++.......                                                      ",
"                                                                                                                   ......+++++++++++++++++++++++++++%%%%%%%%%%%%%%%%%%%%%%%%%%%%%%%%%%.......OOOOOOO-------------------------------------------------------------------------------------------------------------------******OOOOOOO+++++++++++++++++++++++++++OOOOOOO++++++++++++++++++++++++++++++++++%%%%%%++++++++++++++++++++++++++++++++++++++++++++++++.......                                               ",
"                                                                                                                   ......+++++++++++++++++++++++++++%%%%%%%%%%%%%%%%%%%%%%%%%%%%%%%%%%.......OOOOOOO-------------------------------------------------------------------------------------------------------------------******OOOOOOO+++++++++++++++++++++++++++OOOOOOO++++++++++++++++++++++++++++++++++%%%%%%++++++++++++++++++++++++++++++++++++++++++++++++.......                                               ",
"                                                                                                                   ......+++++++++++++++++++++++++++%%%%%%%%%%%%%%%%%%%%%%%%%%%%%%%%%%.......OOOOOOO-------------------------------------------------------------------------------------------------------------------******OOOOOOO+++++++++++++++++++++++++++OOOOOOO++++++++++++++++++++++++++++++++++%%%%%%++++++++++++++++++++++++++++++++++++++++++++++++.......                                               ",
"                                                                                                                   ......+++++++++++++++++++++++++++%%%%%%%%%%%%%%%%%%%%%%%%%%%%%%%%%%.......OOOOOOO-------------------------------------------------------------------------------------------------------------------******OOOOOOO+++++++++++++++++++++++++++OOOOOOO++++++++++++++++++++++++++++++++++%%%%%%++++++++++++++++++++++++++++++++++++++++++++++++.......                                               ",
"                                                                                                                   ......+++++++++++++++++++++++++++%%%%%%%%%%%%%%%%%%%%%%%%%%%%%%%%%%.......OOOOOOO-------------------------------------------------------------------------------------------------------------------******OOOOOOO+++++++++++++++++++++++++++OOOOOOO++++++++++++++++++++++++++++++++++%%%%%%++++++++++++++++++++++++++++++++++++++++++++++++.......                                               ",
"                                                                                                                   ......+++++++++++++++++++++++++++%%%%%%%%%%%%%%%%%%%%%%%%%%%%%%%%%%.......OOOOOOO-------------------------------------------------------------------------------------------------------------------******OOOOOOO+++++++++++++++++++++++++++OOOOOOO++++++++++++++++++++++++++++++++++%%%%%%++++++++++++++++++++++++++++++++++++++++++++++++.......                                               ",
"                                                                                                                   ......+++++++++++++++++++++++++++%%%%%%%%%%%%%%%%%%%%%%%%%%%%%%%%%%.......OOOOOOO-------------------------------------------------------------------------------------------------------------------******OOOOOOO+++++++++++++++++++++++++++OOOOOOO++++++++++++++++++++++++++++++++++%%%%%%++++++++++++++++++++++++++++++++++++++++++++++++.......                                               ",
"                                                                                                                   +++++++++++++++++++++++++++++++++%%%%%%%%%%%%%%%%%%%%%%%%%%%%%%%%%%%%%%%%%OOOOOOO-------------------------------------------------------------------------------------------------------------------OOOOOO++++++++++++++++++++++++++++++++++OOOOOOO.......+++++++++++++++++++++++++++++++++++++++++++++++++++++++++++++++++++++++++++++++++                                                      ",
"                                                                                                                   +++++++++++++++++++++++++++++++++%%%%%%%%%%%%%%%%%%%%%%%%%%%%%%%%%%%%%%%%%OOOOOOO-------------------------------------------------------------------------------------------------------------------OOOOOO++++++++++++++++++++++++++++++++++OOOOOOO.......+++++++++++++++++++++++++++++++++++++++++++++++++++++++++++++++++++++++++++++++++                                                      ",
"                                                                                                                   +++++++++++++++++++++++++++++++++%%%%%%%%%%%%%%%%%%%%%%%%%%%%%%%%%%%%%%%%%OOOOOOO-------------------------------------------------------------------------------------------------------------------OOOOOO++++++++++++++++++++++++++++++++++OOOOOOO.......+++++++++++++++++++++++++++++++++++++++++++++++++++++++++++++++++++++++++++++++++                                                      ",
"                                                                                                                   +++++++++++++++++++++++++++++++++%%%%%%%%%%%%%%%%%%%%%%%%%%%%%%%%%%%%%%%%%OOOOOOO-------------------------------------------------------------------------------------------------------------------OOOOOO++++++++++++++++++++++++++++++++++OOOOOOO.......+++++++++++++++++++++++++++++++++++++++++++++++++++++++++++++++++++++++++++++++++                                                      ",
"                                                                                                                   +++++++++++++++++++++++++++++++++%%%%%%%%%%%%%%%%%%%%%%%%%%%%%%%%%%%%%%%%%OOOOOOO-------------------------------------------------------------------------------------------------------------------OOOOOO++++++++++++++++++++++++++++++++++OOOOOOO.......+++++++++++++++++++++++++++++++++++++++++++++++++++++++++++++++++++++++++++++++++                                                      ",
"                                                                                                                   +++++++++++++++++++++++++++++++++%%%%%%%%%%%%%%%%%%%%%%%%%%%%%%%%%%%%%%%%%OOOOOOO-------------------------------------------------------------------------------------------------------------------OOOOOO++++++++++++++++++++++++++++++++++OOOOOOO.......+++++++++++++++++++++++++++++++++++++++++++++++++++++++++++++++++++++++++++++++++                                                      ",
"                                                                                                                   +++++++++++++++++++++++++++++++++%%%%%%%%%%%%%%%%%%%%%%%%%%%%%%%%%%%%%%%%%OOOOOOO-------------------------------------------------------------------------------------------------------------------OOOOOO++++++++++++++++++++++++++++++++++OOOOOOO.......+++++++++++++++++++++++++++++++++++++++++++++++++++++++++++++++++++++++++++++++++                                                      ",
"                                                                                                                   ......+++++++++++++++++++++++++++%%%%%%%%%%%%%%%%%%%%%%%%%%%%%%%%%%%%%%%%%OOOOOOOOOOOOOO-----------------------------------------------------------------------------------------------------OOOOOOO+++++++++++++++++++++++++++++++++OOOOOOOOOOOOOO.......+++++++++++++++++++++++++++++++++++++++++++++++++++++++++++++++++++++++++++++++++                                                      ",
"                                                                                                                   ......+++++++++++++++++++++++++++%%%%%%%%%%%%%%%%%%%%%%%%%%%%%%%%%%%%%%%%%OOOOOOOOOOOOOO-----------------------------------------------------------------------------------------------------OOOOOOO+++++++++++++++++++++++++++++++++OOOOOOOOOOOOOO.......+++++++++++++++++++++++++++++++++++++++++++++++++++++++++++++++++++++++++++++++++                                                      ",
"                                                                                                                   ......+++++++++++++++++++++++++++%%%%%%%%%%%%%%%%%%%%%%%%%%%%%%%%%%%%%%%%%OOOOOOOOOOOOOO-----------------------------------------------------------------------------------------------------OOOOOOO+++++++++++++++++++++++++++++++++OOOOOOOOOOOOOO.......+++++++++++++++++++++++++++++++++++++++++++++++++++++++++++++++++++++++++++++++++                                                      ",
"                                                                                                                   ......+++++++++++++++++++++++++++%%%%%%%%%%%%%%%%%%%%%%%%%%%%%%%%%%%%%%%%%OOOOOOOOOOOOOO-----------------------------------------------------------------------------------------------------OOOOOOO+++++++++++++++++++++++++++++++++OOOOOOOOOOOOOO.......+++++++++++++++++++++++++++++++++++++++++++++++++++++++++++++++++++++++++++++++++                                                      ",
"                                                                                                                   ......+++++++++++++++++++++++++++%%%%%%%%%%%%%%%%%%%%%%%%%%%%%%%%%%%%%%%%%OOOOOOOOOOOOOO-----------------------------------------------------------------------------------------------------OOOOOOO+++++++++++++++++++++++++++++++++OOOOOOOOOOOOOO.......+++++++++++++++++++++++++++++++++++++++++++++++++++++++++++++++++++++++++++++++++                                                      ",
"                                                                                                                   ......+++++++++++++++++++++++++++%%%%%%%%%%%%%%%%%%%%%%%%%%%%%%%%%%%%%%%%%OOOOOOOOOOOOOO-----------------------------------------------------------------------------------------------------OOOOOOO+++++++++++++++++++++++++++++++++OOOOOOOOOOOOOO.......+++++++++++++++++++++++++++++++++++++++++++++++++++++++++++++++++++++++++++++++++                                                      ",
"                                                                                                                   ......+++++++++++++++++++++++++++%%%%%%%%%%%%%%%%%%%%%%%%%%%%%%%%%%%%%%%%%OOOOOOOOOOOOOO-----------------------------------------------------------------------------------------------------OOOOOOO+++++++++++++++++++++++++++++++++OOOOOOOOOOOOOO.......+++++++++++++++++++++++++++++++++++++++++++++++++++++++++++++++++++++++++++++++++                                                      ",
"                                                                                                                         .......++++++++++++++++++++++++++++++++++%%%%%%%%%%%%%%%%%%%%.......OOOOOOOOOOOOOOOOOOOO#######========------------------------------------------------------------------OOOOOOO+++++++++++++++++++++++++++++++++++++++++++++++OOOOOOO++++++++++++++++++++++++++++++++++++++++++++++++++++++++++++++++++++++++++++++++++++++++.......                                                      ",
"                                                                                                                         .......++++++++++++++++++++++++++++++++++%%%%%%%%%%%%%%%%%%%%.......OOOOOOOOOOOOOOOOOOOO#######========------------------------------------------------------------------OOOOOOO+++++++++++++++++++++++++++++++++++++++++++++++OOOOOOO++++++++++++++++++++++++++++++++++++++++++++++++++++++++++++++++++++++++++++++++++++++++.......                                                      ",
"                                                                                                                         .......++++++++++++++++++++++++++++++++++%%%%%%%%%%%%%%%%%%%%.......OOOOOOOOOOOOOOOOOOOO#######=======-------------------------------------------------------------------OOOOOOO+++++++++++++++++++++++++++++++++++++++++++++++OOOOOOO++++++++++++++++++++++++++++++++++++++++++++++++++++++++++++++++++++++++++++++++++++++++.......                                                      ",
"                                                                                                                         .......++++++++++++++++++++++++++++++++++%%%%%%%%%%%%%%%%%%%%.......OOOOOOOOOOOOOOOOOOOO#######=======-------------------------------------------------------------------OOOOOOO+++++++++++++++++++++++++++++++++++++++++++++++OOOOOOO++++++++++++++++++++++++++++++++++++++++++++++++++++++++++++++++++++++++++++++++++++++++.......                                                      ",
"                                                                                                                         .......++++++++++++++++++++++++++++++++++%%%%%%%%%%%%%%%%%%%%.......OOOOOOOOOOOOOOOOOOOO#######======--------------------------------------------------------------------OOOOOOO+++++++++++++++++++++++++++++++++++++++++++++++OOOOOOO++++++++++++++++++++++++++++++++++++++++++++++++++++++++++++++++++++++++++++++++++++++++.......                                                      ",
"                                                                                                                         .......++++++++++++++++++++++++++++++++++%%%%%%%%%%%%%%%%%%%%.......OOOOOOOOOOOOOOOOOOOO#######=======-------------------------------------------------------------------OOOOOOO+++++++++++++++++++++++++++++++++++++++++++++++OOOOOOO++++++++++++++++++++++++++++++++++++++++++++++++++++++++++++++++++++++++++++++++++++++++.......                                                      ",
"                                                                                                                         ++++++++++++++++++++++++++++++++++%%%%%%%....................----------------------------======********************---------------======********************-------OOOOOO++++++++++++++----------------------------------OOOOOO+++++++++++++++++++++++++++++++++++++++++++++++++++++++++++++++++++++++++++++++++++++++++++++++OOOOOOO                                                      ",
"                                                                                                                         ++++++++++++++++++++++++++++++++++%%%%%%%....................----------------------------======********************---------------======********************-------OOOOOO++++++++++++++----------------------------------OOOOOO+++++++++++++++++++++++++++++++++++++++++++++++++++++++++++++++++++++++++++++++++++++++++++++++OOOOOOO                                                      ",
"                                                                                                                         ++++++++++++++++++++++++++++++++++%%%%%%%....................----------------------------======********************---------------======********************-------OOOOOO++++++++++++++----------------------------------OOOOOO+++++++++++++++++++++++++++++++++++++++++++++++++++++++++++++++++++++++++++++++++++++++++++++++OOOOOOO                                                      ",
"                                                                                                                         ++++++++++++++++++++++++++++++++++%%%%%%%....................----------------------------======********************---------------======********************-------OOOOOO++++++++++++++----------------------------------OOOOOO+++++++++++++++++++++++++++++++++++++++++++++++++++++++++++++++++++++++++++++++++++++++++++++++OOOOOOO                                                      ",
"                                                                                                                         ++++++++++++++++++++++++++++++++++%%%%%%%....................----------------------------======********************---------------======********************-------OOOOOO++++++++++++++----------------------------------OOOOOO+++++++++++++++++++++++++++++++++++++++++++++++++++++++++++++++++++++++++++++++++++++++++++++++OOOOOOO                                                      ",
"                                                                                                                         ++++++++++++++++++++++++++++++++++%%%%%%%....................----------------------------======********************---------------======********************-------OOOOOO++++++++++++++----------------------------------OOOOOO+++++++++++++++++++++++++++++++++++++++++++++++++++++++++++++++++++++++++++++++++++++++++++++++OOOOOOO                                                      ",
"                                                                                                                         ++++++++++++++++++++++++++++++++++%%%%%%%....................----------------------------======********************--------------=======********************-------OOOOOO++++++++++++++----------------------------------OOOOOO+++++++++++++++++++++++++++++++++++++++++++++++++++++++++++++++++++++++++++++++++++++++++++++++OOOOOOO                                                      ",
"                                                                                                                         ++++++++++++++++++++++++++++++++++.......-------------------------------------------------------======****************************************-======--------------------------------------------------------------------******+++++++++++++++++++++++++++++++++++++++++++++++++++++++++++++++++++++++++++++++++++++++++++++++                                                             ",
"                                                                                                                         ++++++++++++++++++++++++++++++++++.......-------------------------------------------------------======****************************************-======--------------------------------------------------------------------******+++++++++++++++++++++++++++++++++++++++++++++++++++++++++++++++++++++++++++++++++++++++++++++++                                                             ",
"                                                                                                                         ++++++++++++++++++++++++++++++++++.......-------------------------------------------------------======****************************************======---------------------------------------------------------------------******+++++++++++++++++++++++++++++++++++++++++++++++++++++++++++++++++++++++++++++++++++++++++++++++                                                             ",
"                                                                                                                         ++++++++++++++++++++++++++++++++++.......-------------------------------------------------------======****************************************-======--------------------------------------------------------------------******+++++++++++++++++++++++++++++++++++++++++++++++++++++++++++++++++++++++++++++++++++++++++++++++                                                             ",
"                                                                                                                         ++++++++++++++++++++++++++++++++++.......-------------------------------------------------------======****************************************======---------------------------------------------------------------------******+++++++++++++++++++++++++++++++++++++++++++++++++++++++++++++++++++++++++++++++++++++++++++++++                                                             ",
"                                                                                                                         ++++++++++++++++++++++++++++++++++.......-------------------------------------------------------======****************************************======---------------------------------------------------------------------******+++++++++++++++++++++++++++++++++++++++++++++++++++++++++++++++++++++++++++++++++++++++++++++++                                                             ",
"                                                                                                                         ++++++++++++++++++++++++++++++++++.......-------------------------------------------------------======****************************************-=======-------------------------------------------------------------------******+++++++++++++++++++++++++++++++++++++++++++++++++++++++++++++++++++++++++++++++++++++++++++++++                                                             ",
"                                                                                                                         .......++++++++++++++++++++.......---------------------------------------------------------------------------********************======-----------------------------------------------------------------------------------------------++++++++++++++++++++++++++++++++++++++++++++++++++++++++++++++++++++++++++++++++++++++++OOOOOOO                                                      ",
"                                                                                                                         .......++++++++++++++++++++.......---------------------------------------------------------------------------********************=======----------------------------------------------------------------------------------------------++++++++++++++++++++++++++++++++++++++++++++++++++++++++++++++++++++++++++++++++++++++++OOOOOOO                                                      ",
"                                                                                                                         .......++++++++++++++++++++.......---------------------------------------------------------------------------********************========---------------------------------------------------------------------------------------------++++++++++++++++++++++++++++++++++++++++++++++++++++++++++++++++++++++++++++++++++++++++OOOOOOO                                                      ",
"                                                                                                                         .......++++++++++++++++++++.......---------------------------------------------------------------------------********************=======----------------------------------------------------------------------------------------------++++++++++++++++++++++++++++++++++++++++++++++++++++++++++++++++++++++++++++++++++++++++OOOOOOO                                                      ",
"                                                                                                                         .......++++++++++++++++++++.......---------------------------------------------------------------------------********************========---------------------------------------------------------------------------------------------++++++++++++++++++++++++++++++++++++++++++++++++++++++++++++++++++++++++++++++++++++++++OOOOOOO                                                      ",
"                                                                                                                         .......++++++++++++++++++++.......---------------------------------------------------------------------------********************=======----------------------------------------------------------------------------------------------++++++++++++++++++++++++++++++++++++++++++++++++++++++++++++++++++++++++++++++++++++++++OOOOOOO                                                      ",
"                                                                                                                         .......++++++++++++++++++++.......---------------------------------------------------------------------------********************=======----------------------------------------------------------------------------------------------++++++++++++++++++++++++++++++++++++++++++++++++++++++++++++++++++++++++++++++++++++++++OOOOOOO                                                      ",
"                                                                                                                         .......++++++++++++++......-----------------------------------------------------------------------------------------------------------------------------------------------------------------------------------------------------------+++++++++++++++++++++++++++++++++++++++++++++++++++++++++++++++++++++++++++++++++++++++++++++++                                                      ",
"                                                                                                                         .......++++++++++++++......-----------------------------------------------------------------------------------------------------------------------------------------------------------------------------------------------------------+++++++++++++++++++++++++++++++++++++++++++++++++++++++++++++++++++++++++++++++++++++++++++++++                                                      ",
"                                                                                                                         .......++++++++++++++......-----------------------------------------------------------------------------------------------------------------------------------------------------------------------------------------------------------+++++++++++++++++++++++++++++++++++++++++++++++++++++++++++++++++++++++++++++++++++++++++++++++                                                      ",
"                                                                                                                         .......++++++++++++++......-----------------------------------------------------------------------------------------------------------------------------------------------------------------------------------------------------------+++++++++++++++++++++++++++++++++++++++++++++++++++++++++++++++++++++++++++++++++++++++++++++++                                                      ",
"                                                                                                                         .......++++++++++++++......-----------------------------------------------------------------------------------------------------------------------------------------------------------------------------------------------------------+++++++++++++++++++++++++++++++++++++++++++++++++++++++++++++++++++++++++++++++++++++++++++++++                                                      ",
"                                                                                                                         .......++++++++++++++......-----------------------------------------------------------------------------------------------------------------------------------------------------------------------------------------------------------+++++++++++++++++++++++++++++++++++++++++++++++++++++++++++++++++++++++++++++++++++++++++++++++                                                      ",
"                                                                                                                         .....................-------------------------------------------------------------------------------------------------------------------------------------------------------------------------------------------------------------------------------------+++++++++++++++++++++++++++++++++++++++++++++++++++++++++++++++++++++++++++.......                                               ",
"                                                                                                                         .....................-------------------------------------------------------------------------------------------------------------------------------------------------------------------------------------------------------------------------------------+++++++++++++++++++++++++++++++++++++++++++++++++++++++++++++++++++++++++++.......                                               ",
"                                                                                                                         .....................-------------------------------------------------------------------------------------------------------------------------------------------------------------------------------------------------------------------------------------+++++++++++++++++++++++++++++++++++++++++++++++++++++++++++++++++++++++++++.......                                               ",
"                                                                                                                         .....................-------------------------------------------------------------------------------------------------------------------------------------------------------------------------------------------------------------------------------------+++++++++++++++++++++++++++++++++++++++++++++++++++++++++++++++++++++++++++.......                                               ",
"                                                                                                                         .....................-------------------------------------------------------------------------------------------------------------------------------------------------------------------------------------------------------------------------------------+++++++++++++++++++++++++++++++++++++++++++++++++++++++++++++++++++++++++++.......                                               ",
"                                                                                                                         .....................-------------------------------------------------------------------------------------------------------------------------------------------------------------------------------------------------------------------------------------+++++++++++++++++++++++++++++++++++++++++++++++++++++++++++++++++++++++++++.......                                               ",
"                                                                                                                         .....................-------------------------------------------------------------------------------------------------------------------------------------------------------------------------------------------------------------------------------------+++++++++++++++++++++++++++++++++++++++++++++++++++++++++++++++++++++++++++.......                                               ",
"                                                                                                                                .......--------------------------------------------------------------------------------------------------------------------------------------------------------------------------------------------------------------------------------------------OOOOOOO++++++++++++++++++++++++++++++++++++++++++++++++++++++++++++++++++++OOOOOOO.............                                  ",
"                                                                                                                                .......--------------------------------------------------------------------------------------------------------------------------------------------------------------------------------------------------------------------------------------------OOOOOOO++++++++++++++++++++++++++++++++++++++++++++++++++++++++++++++++++++OOOOOOO.............                                  ",
"                                                                                                                                .......--------------------------------------------------------------------------------------------------------------------------------------------------------------------------------------------------------------------------------------------OOOOOOO++++++++++++++++++++++++++++++++++++++++++++++++++++++++++++++++++++OOOOOOO.............                                  ",
"                                                                                                                                .......--------------------------------------------------------------------------------------------------------------------------------------------------------------------------------------------------------------------------------------------OOOOOOO++++++++++++++++++++++++++++++++++++++++++++++++++++++++++++++++++++OOOOOOO.............                                  ",
"                                                                                                                                .......--------------------------------------------------------------------------------------------------------------------------------------------------------------------------------------------------------------------------------------------OOOOOOO++++++++++++++++++++++++++++++++++++++++++++++++++++++++++++++++++++OOOOOOO.............                                  ",
"                                                                                                                                .......--------------------------------------------------------------------------------------------------------------------------------------------------------------------------------------------------------------------------------------------OOOOOOO++++++++++++++++++++++++++++++++++++++++++++++++++++++++++++++++++++OOOOOOO.............                                  ",
"                                                                                                                                .......--------------------------------------------------------------------------------------------------------------------------------------------------------------------------------------------------------------------------------------------OOOOOOO++++++++++++++++++++++++++++++++++++++++++++++++++++++++++++++++++++OOOOOOO.............                                  ",
"                                                                                                                                .......---------------------------------------------------------------------------------------------------------------------------------------------------------------------------------------------------------------------------------------------------OOOOOOO++++++++++++++++++++++++++++++++++++++++++++++++++++++OOOOOOO+++++++....................                           ",
"                                                                                                                                .......---------------------------------------------------------------------------------------------------------------------------------------------------------------------------------------------------------------------------------------------------OOOOOOO++++++++++++++++++++++++++++++++++++++++++++++++++++++OOOOOOO+++++++....................                           ",
"                                                                                                                                .......---------------------------------------------------------------------------------------------------------------------------------------------------------------------------------------------------------------------------------------------------OOOOOOO++++++++++++++++++++++++++++++++++++++++++++++++++++++OOOOOOO+++++++....................                           ",
"                                                                                                                                .......---------------------------------------------------------------------------------------------------------------------------------------------------------------------------------------------------------------------------------------------------OOOOOOO++++++++++++++++++++++++++++++++++++++++++++++++++++++OOOOOOO+++++++....................                           ",
"                                                                                                                                .......---------------------------------------------------------------------------------------------------------------------------------------------------------------------------------------------------------------------------------------------------OOOOOOO++++++++++++++++++++++++++++++++++++++++++++++++++++++OOOOOOO+++++++....................                           ",
"                                                                                                                                .......---------------------------------------------------------------------------------------------------------------------------------------------------------------------------------------------------------------------------------------------------OOOOOOO++++++++++++++++++++++++++++++++++++++++++++++++++++++OOOOOOO+++++++....................                           ",
"                                                                                                                                .......---------------------------------------------------------------------------------------------------------------------------------------------------------------------------------------------------------------------------------------------------OOOOOOO++++++++++++++++++++++++++++++++++++++++++++++++++++++OOOOOOO+++++++....................                           ",
"                                                                                                                   .............----------------------------------------------------------------------------------------------------------------------------------------------------------------------------------------------------------------------------------------------------------OOOOOOO+++++++++++++++++++++++++++++++++++++++++++++++OOOOOOOOOOOOOO+++++++OOOOOOOOOOOOO.......                           ",
"                                                                                                                   .............----------------------------------------------------------------------------------------------------------------------------------------------------------------------------------------------------------------------------------------------------------OOOOOOO+++++++++++++++++++++++++++++++++++++++++++++++OOOOOOOOOOOOOO+++++++OOOOOOOOOOOOO.......                           ",
"                                                                                                                   .............----------------------------------------------------------------------------------------------------------------------------------------------------------------------------------------------------------------------------------------------------------OOOOOOO+++++++++++++++++++++++++++++++++++++++++++++++OOOOOOOOOOOOOO+++++++OOOOOOOOOOOOO.......                           ",
"                                                                                                                   .............----------------------------------------------------------------------------------------------------------------------------------------------------------------------------------------------------------------------------------------------------------OOOOOOO+++++++++++++++++++++++++++++++++++++++++++++++OOOOOOOOOOOOOO+++++++OOOOOOOOOOOOO.......                           ",
"                                                                                                                   .............----------------------------------------------------------------------------------------------------------------------------------------------------------------------------------------------------------------------------------------------------------OOOOOOO+++++++++++++++++++++++++++++++++++++++++++++++OOOOOOOOOOOOOO+++++++OOOOOOOOOOOOO.......                           ",
"                                                                                                                   .............----------------------------------------------------------------------------------------------------------------------------------------------------------------------------------------------------------------------------------------------------------OOOOOOO+++++++++++++++++++++++++++++++++++++++++++++++OOOOOOOOOOOOOO+++++++OOOOOOOOOOOOO.......                           ",
"                                                                                                                   .............-----------------------------------------------------------------------------------------------------------------------------------------------------------------------------------------------------------------------------------------------------------======OOOOOOO+++++++++++++++++++++++++++++++++OOOOOOOOOOOOOOOOOOOOOOOOOOOOOOOOOOOOOOOOOOOOOOOO.......                    ",
"                                                                                                                   .............-----------------------------------------------------------------------------------------------------------------------------------------------------------------------------------------------------------------------------------------------------------======OOOOOOO+++++++++++++++++++++++++++++++++OOOOOOOOOOOOOOOOOOOOOOOOOOOOOOOOOOOOOOOOOOOOOOOO.......                    ",
"                                                                                                                   .............-----------------------------------------------------------------------------------------------------------------------------------------------------------------------------------------------------------------------------------------------------------======OOOOOOO+++++++++++++++++++++++++++++++++OOOOOOOOOOOOOOOOOOOOOOOOOOOOOOOOOOOOOOOOOOOOOOOO.......                    ",
"                                                                                                                   .............-----------------------------------------------------------------------------------------------------------------------------------------------------------------------------------------------------------------------------------------------------------======OOOOOOO+++++++++++++++++++++++++++++++++OOOOOOOOOOOOOOOOOOOOOOOOOOOOOOOOOOOOOOOOOOOOOOOO.......                    ",
"                                                                                                                   .............-----------------------------------------------------------------------------------------------------------------------------------------------------------------------------------------------------------------------------------------------------------======OOOOOOO+++++++++++++++++++++++++++++++++OOOOOOOOOOOOOOOOOOOOOOOOOOOOOOOOOOOOOOOOOOOOOOOO.......                    ",
"                                                                                                                   .............-----------------------------------------------------------------------------------------------------------------------------------------------------------------------------------------------------------------------------------------------------------======OOOOOOO+++++++++++++++++++++++++++++++++OOOOOOOOOOOOOOOOOOOOOOOOOOOOOOOOOOOOOOOOOOOOOOOO.......                    ",
"                                                                                                                   .............-----------------------------------------------------------------------------------------------------------------------------------------------------------------------------------------------------------------------------------------------------------======OOOOOOO+++++++++++++++++++++++++++++++++OOOOOOOOOOOOOOOOOOOOOOOOOOOOOOOOOOOOOOOOOOOOOOOO.......                    ",
"                                                                                                            .......------------------------------------------------------------------------------------------------------------------------------------------------------------------------------------------------------------------------------------------------------------------------------OOOOOOO+++++++++++++++++++++++++++OOOOOOOOOOOOOOOOOOOOOOOOOOOOOOOOOOOOOOOOOOOOOOOOOOOOOO.......                    ",
"                                                                                                            .......------------------------------------------------------------------------------------------------------------------------------------------------------------------------------------------------------------------------------------------------------------------------------OOOOOOO+++++++++++++++++++++++++++OOOOOOOOOOOOOOOOOOOOOOOOOOOOOOOOOOOOOOOOOOOOOOOOOOOOOO.......                    ",
"                                                                                                            .......------------------------------------------------------------------------------------------------------------------------------------------------------------------------------------------------------------------------------------------------------------------------------OOOOOOO+++++++++++++++++++++++++++OOOOOOOOOOOOOOOOOOOOOOOOOOOOOOOOOOOOOOOOOOOOOOOOOOOOOO.......                    ",
"                                                                                                            .......------------------------------------------------------------------------------------------------------------------------------------------------------------------------------------------------------------------------------------------------------------------------------OOOOOOO+++++++++++++++++++++++++++OOOOOOOOOOOOOOOOOOOOOOOOOOOOOOOOOOOOOOOOOOOOOOOOOOOOOO.......                    ",
"                                                                                                            .......------------------------------------------------------------------------------------------------------------------------------------------------------------------------------------------------------------------------------------------------------------------------------OOOOOOO+++++++++++++++++++++++++++OOOOOOOOOOOOOOOOOOOOOOOOOOOOOOOOOOOOOOOOOOOOOOOOOOOOOO.......                    ",
"                                                                                                            .......------------------------------------------------------------------------------------------------------------------------------------------------------------------------------------------------------------------------------------------------------------------------------OOOOOOO+++++++++++++++++++++++++++OOOOOOOOOOOOOOOOOOOOOOOOOOOOOOOOOOOOOOOOOOOOOOOOOOOOOO.......                    ",
"                                                                                                            .......------------------------------------------------------------------------------------------------------------------------------------------------------------------------------------------------------------------------------------------------------------------------------OOOOOOO+++++++++++++++++++++++++++OOOOOOOOOOOOOOOOOOOOOOOOOOOOOOOOOOOOOOOOOOOOOOOOOOOOOO.......                    ",
"                                                                                                            .......------------------------------------------------------------------------------------------------------------------------------------------------------------------------------------------------------------------------------------------------------------------------------OOOOOOO++++++OOOOOOOOOOOOOOOOOOOOOOOOOOOOOOOOOOOOOOOOOOOOOOOOOOOOOOOOOOOOOOOOOOOOOOOOOOO.......                    ",
"                                                                                                            .......------------------------------------------------------------------------------------------------------------------------------------------------------------------------------------------------------------------------------------------------------------------------------OOOOOOO++++++OOOOOOOOOOOOOOOOOOOOOOOOOOOOOOOOOOOOOOOOOOOOOOOOOOOOOOOOOOOOOOOOOOOOOOOOOOO.......                    ",
"                                                                                                            .......------------------------------------------------------------------------------------------------------------------------------------------------------------------------------------------------------------------------------------------------------------------------------OOOOOOO++++++OOOOOOOOOOOOOOOOOOOOOOOOOOOOOOOOOOOOOOOOOOOOOOOOOOOOOOOOOOOOOOOOOOOOOOOOOOO.......                    ",
"                                                                                                            .......------------------------------------------------------------------------------------------------------------------------------------------------------------------------------------------------------------------------------------------------------------------------------OOOOOOO++++++OOOOOOOOOOOOOOOOOOOOOOOOOOOOOOOOOOOOOOOOOOOOOOOOOOOOOOOOOOOOOOOOOOOOOOOOOOO.......                    ",
"                                                                                                            .......------------------------------------------------------------------------------------------------------------------------------------------------------------------------------------------------------------------------------------------------------------------------------OOOOOOO++++++OOOOOOOOOOOOOOOOOOOOOOOOOOOOOOOOOOOOOOOOOOOOOOOOOOOOOOOOOOOOOOOOOOOOOOOOOOO.......                    ",
"                                                                                                            .......------------------------------------------------------------------------------------------------------------------------------------------------------------------------------------------------------------------------------------------------------------------------------OOOOOOO++++++OOOOOOOOOOOOOOOOOOOOOOOOOOOOOOOOOOOOOOOOOOOOOOOOOOOOOOOOOOOOOOOOOOOOOOOOOOO.......                    ",
"                                                                                                            .......------------------------------------------------------------------------------------------------------------------------------------------------------------------------------------------------------------------------------------------------------------------------------OOOOOOO++++++OOOOOOOOOOOOOOOOOOOOOOOOOOOOOOOOOOOOOOOOOOOOOOOOOOOOOOOOOOOOOOOOOOOOOOOOOOO.......                    ",
"                                                                                                            .......-------------------------------------------------------------------------------------------------------------------------------------------------------------------------------------------------------------------------------------------------------------------------------------OOOOOOOOOOOOOOOOOOOOOOOOOOOOOOOOOOOOOOOOOOOOOOOOOOOOOOOOOOOOOOOOOOOOOOOOOOOOOOOOOOOOOOOO......              ",
"                                                                                                            .......-------------------------------------------------------------------------------------------------------------------------------------------------------------------------------------------------------------------------------------------------------------------------------------OOOOOOOOOOOOOOOOOOOOOOOOOOOOOOOOOOOOOOOOOOOOOOOOOOOOOOOOOOOOOOOOOOOOOOOOOOOOOOOOOOOOOOOO......              ",
"                                                                                                            .......-------------------------------------------------------------------------------------------------------------------------------------------------------------------------------------------------------------------------------------------------------------------------------------OOOOOOOOOOOOOOOOOOOOOOOOOOOOOOOOOOOOOOOOOOOOOOOOOOOOOOOOOOOOOOOOOOOOOOOOOOOOOOOOOOOOOOOO......              ",
"                                                                                                            .......-------------------------------------------------------------------------------------------------------------------------------------------------------------------------------------------------------------------------------------------------------------------------------------OOOOOOOOOOOOOOOOOOOOOOOOOOOOOOOOOOOOOOOOOOOOOOOOOOOOOOOOOOOOOOOOOOOOOOOOOOOOOOOOOOOOOOOO......              ",
"                                                                                                            .......-------------------------------------------------------------------------------------------------------------------------------------------------------------------------------------------------------------------------------------------------------------------------------------OOOOOOOOOOOOOOOOOOOOOOOOOOOOOOOOOOOOOOOOOOOOOOOOOOOOOOOOOOOOOOOOOOOOOOOOOOOOOOOOOOOOOOOO......              ",
"                                                                                                            .......-------------------------------------------------------------------------------------------------------------------------------------------------------------------------------------------------------------------------------------------------------------------------------------OOOOOOOOOOOOOOOOOOOOOOOOOOOOOOOOOOOOOOOOOOOOOOOOOOOOOOOOOOOOOOOOOOOOOOOOOOOOOOOOOOOOOOOO......              ",
"                                                                                                            .......-------------------------------------------------------------------------------------------------------------------------------------------------------------------------------------------------------------------------------------------------------------------------------------OOOOOOOOOOOOOOOOOOOOOOOOOOOOOOOOOOOOOOOOOOOOOOOOOOOOOOOOOOOOOOOOOOOOOOOOOOOOOOOOOOOOOOOO......              ",
"                                                                                                     .......-------------------------------------------------------------------------------------------------------------------------------------------------------------------------------------------------------------------------------------------------------------------------------------*******OOOOOOOOOOOOOOOOOOOOOOOOOOOOOOOOOOOOOOOOOOOOOOOOOOOOOOOOOOOOOOOOOOOOOOOOOOOOOOOOOOOOOOOO......              ",
"                                                                                                     .......-------------------------------------------------------------------------------------------------------------------------------------------------------------------------------------------------------------------------------------------------------------------------------------*******OOOOOOOOOOOOOOOOOOOOOOOOOOOOOOOOOOOOOOOOOOOOOOOOOOOOOOOOOOOOOOOOOOOOOOOOOOOOOOOOOOOOOOOO......              ",
"                                                                                                     .......-------------------------------------------------------------------------------------------------------------------------------------------------------------------------------------------------------------------------------------------------------------------------------------*******OOOOOOOOOOOOOOOOOOOOOOOOOOOOOOOOOOOOOOOOOOOOOOOOOOOOOOOOOOOOOOOOOOOOOOOOOOOOOOOOOOOOOOOO......              ",
"                                                                                                     .......-------------------------------------------------------------------------------------------------------------------------------------------------------------------------------------------------------------------------------------------------------------------------------------*******OOOOOOOOOOOOOOOOOOOOOOOOOOOOOOOOOOOOOOOOOOOOOOOOOOOOOOOOOOOOOOOOOOOOOOOOOOOOOOOOOOOOOOOO......              ",
"                                                                                                     .......-------------------------------------------------------------------------------------------------------------------------------------------------------------------------------------------------------------------------------------------------------------------------------------*******OOOOOOOOOOOOOOOOOOOOOOOOOOOOOOOOOOOOOOOOOOOOOOOOOOOOOOOOOOOOOOOOOOOOOOOOOOOOOOOOOOOOOOOO......              ",
"                                                                                                     .......-------------------------------------------------------------------------------------------------------------------------------------------------------------------------------------------------------------------------------------------------------------------------------------*******OOOOOOOOOOOOOOOOOOOOOOOOOOOOOOOOOOOOOOOOOOOOOOOOOOOOOOOOOOOOOOOOOOOOOOOOOOOOOOOOOOOOOOOO......              ",
"                                                                                                     .......------------------------------------------------------------------------------------------------------------------------------------------------------------------------------------------------------------------------------------------------------------------------------********************OOOOOOOOOOOOOOOOOOOOOOOOOOOOOOOOOOOOOOOOOOOOOOOOOOOOOOOOOOOOOOOOOOOOOOOOOOOOOOOOOO......              ",
"                                                                                                     .......------------------------------------------------------------------------------------------------------------------------------------------------------------------------------------------------------------------------------------------------------------------------------********************OOOOOOOOOOOOOOOOOOOOOOOOOOOOOOOOOOOOOOOOOOOOOOOOOOOOOOOOOOOOOOOOOOOOOOOOOOOOOOOOOO......              ",
"                                                                                                     .......------------------------------------------------------------------------------------------------------------------------------------------------------------------------------------------------------------------------------------------------------------------------------********************OOOOOOOOOOOOOOOOOOOOOOOOOOOOOOOOOOOOOOOOOOOOOOOOOOOOOOOOOOOOOOOOOOOOOOOOOOOOOOOOOO......              ",
"                                                                                                     .......------------------------------------------------------------------------------------------------------------------------------------------------------------------------------------------------------------------------------------------------------------------------------********************OOOOOOOOOOOOOOOOOOOOOOOOOOOOOOOOOOOOOOOOOOOOOOOOOOOOOOOOOOOOOOOOOOOOOOOOOOOOOOOOOO......              ",
"                                                                                                     .......------------------------------------------------------------------------------------------------------------------------------------------------------------------------------------------------------------------------------------------------------------------------------********************OOOOOOOOOOOOOOOOOOOOOOOOOOOOOOOOOOOOOOOOOOOOOOOOOOOOOOOOOOOOOOOOOOOOOOOOOOOOOOOOOO......              ",
"                                                                                                     .......------------------------------------------------------------------------------------------------------------------------------------------------------------------------------------------------------------------------------------------------------------------------------********************OOOOOOOOOOOOOOOOOOOOOOOOOOOOOOOOOOOOOOOOOOOOOOOOOOOOOOOOOOOOOOOOOOOOOOOOOOOOOOOOOO......              ",
"                                                                                                     .......------------------------------------------------------------------------------------------------------------------------------------------------------------------------------------------------------------------------------------------------------------------------------********************OOOOOOOOOOOOOOOOOOOOOOOOOOOOOOOOOOOOOOOOOOOOOOOOOOOOOOOOOOOOOOOOOOOOOOOOOOOOOOOOOO......              ",
"                                                                                                     .......-======-----------------------------------------------------------------------------------------------------------------------------------------------------------------------------------------------------------------------------------------------------------------------********************OOOOOOOOOOOOOOOOOOOOOOOOOOOOOOOOOOOOOOOOOOOOOOOOOOOOOOOOOOOOOOOOOOOOOOOOOOOOOOOOOO......              ",
"                                                                                                     .......-======-----------------------------------------------------------------------------------------------------------------------------------------------------------------------------------------------------------------------------------------------------------------------********************OOOOOOOOOOOOOOOOOOOOOOOOOOOOOOOOOOOOOOOOOOOOOOOOOOOOOOOOOOOOOOOOOOOOOOOOOOOOOOOOOO......              ",
"                                                                                                     .......-======-----------------------------------------------------------------------------------------------------------------------------------------------------------------------------------------------------------------------------------------------------------------------********************OOOOOOOOOOOOOOOOOOOOOOOOOOOOOOOOOOOOOOOOOOOOOOOOOOOOOOOOOOOOOOOOOOOOOOOOOOOOOOOOOO......              ",
"                                                                                                     .......-======-----------------------------------------------------------------------------------------------------------------------------------------------------------------------------------------------------------------------------------------------------------------------********************OOOOOOOOOOOOOOOOOOOOOOOOOOOOOOOOOOOOOOOOOOOOOOOOOOOOOOOOOOOOOOOOOOOOOOOOOOOOOOOOOO......              ",
"                                                                                                     .......-======-----------------------------------------------------------------------------------------------------------------------------------------------------------------------------------------------------------------------------------------------------------------------********************OOOOOOOOOOOOOOOOOOOOOOOOOOOOOOOOOOOOOOOOOOOOOOOOOOOOOOOOOOOOOOOOOOOOOOOOOOOOOOOOOO......              ",
"                                                                                                     .......-=======----------------------------------------------------------------------------------------------------------------------------------------------------------------------------------------------------------------------------------------------------------------------********************OOOOOOOOOOOOOOOOOOOOOOOOOOOOOOOOOOOOOOOOOOOOOOOOOOOOOOOOOOOOOOOOOOOOOOOOOOOOOOOOOO......              ",
"                                                                                                     .......-======-----------------------------------------------------------------------------------------------------------------------------------------------------------------------------------------------------------------------------------------------------------------------********************OOOOOOOOOOOOOOOOOOOOOOOOOOOOOOOOOOOOOOOOOOOOOOOOOOOOOOOOOOOOOOOOOOOOOOOOOOOOOOOOOO......              ",
"                                                                          .......                    .......-=======--------------------------------------------------------------------------------------------------------------------------------------------------------------------------------------------------------------------------------------------======-======-=====***************************OOOOOOOOOOOOOOOOOOOOOOOOOOOOOOOOOOOOOOOOOOOOOOOOOOOOOOOOOOOOOOOOOOOOOOOOOOOOOOOOOOOOOOOO........      ",
"                                                                          .......                    .......-=======-------------------------------------------------------------------------------------------------------------------------------------------------------------------------------------------------------------------------------------------=========-========-=***************************OOOOOOOOOOOOOOOOOOOOOOOOOOOOOOOOOOOOOOOOOOOOOOOOOOOOOOOOOOOOOOOOOOOOOOOOOOOOOOOOOOOOOOOO........      ",
"                                                                          .......                    .......======---------------------------------------------------------------------------------------------------------------------------------------------------------------------------------------------------------------------------------------------==========-=========***************************OOOOOOOOOOOOOOOOOOOOOOOOOOOOOOOOOOOOOOOOOOOOOOOOOOOOOOOOOOOOOOOOOOOOOOOOOOOOOOOOOOOOOOOO........      ",
"                                                                          .......                    .......-=======--------------------------------------------------------------------------------------------------------------------------------------------------------------------------------------------------------------------------------------------=======-==========-***************************OOOOOOOOOOOOOOOOOOOOOOOOOOOOOOOOOOOOOOOOOOOOOOOOOOOOOOOOOOOOOOOOOOOOOOOOOOOOOOOOOOOOOOOO........      ",
"                                                                          .......                    .......-======---------------------------------------------------------------------------------------------------------------------------------------------------------------------------------------------------------------------------------------------======-===========-***************************OOOOOOOOOOOOOOOOOOOOOOOOOOOOOOOOOOOOOOOOOOOOOOOOOOOOOOOOOOOOOOOOOOOOOOOOOOOOOOOOOOOOOOOO........      ",
"                                                                          .......                    .......=======---------------------------------------------------------------------------------------------------------------------------------------------------------------------------------------------------------------------------------------------======-============***************************OOOOOOOOOOOOOOOOOOOOOOOOOOOOOOOOOOOOOOOOOOOOOOOOOOOOOOOOOOOOOOOOOOOOOOOOOOOOOOOOOOOOOOOO........      ",
"                                                                          .......                    .......========--------------------------------------------------------------------------------------------------------------------------------------------------------------------------------------------------------------------------------------------======-============***************************OOOOOOOOOOOOOOOOOOOOOOOOOOOOOOOOOOOOOOOOOOOOOOOOOOOOOOOOOOOOOOOOOOOOOOOOOOOOOOOOOOOOOOOO........      ",
"                                                                          ..............      .......*******-======------------------------------------------------------------------------------------------------------------------------------------------------------------------------------------------------------------------------------------=========-=====****************************************OOOOOOOOOOOOOOOOOOOOOOOOOOOOOOOOOOOOOOOOOOOOOOOOOOOOOOOOOOOOOOOOOOOOOOOOOOOOOOOOOOOOOOOO........      ",
"                                                                          ..............      .......*******-======--------------------------------------------------------------------------------------------------------------------------------------------------------------------------------------------------------------------------------------==========-==****************************************OOOOOOOOOOOOOOOOOOOOOOOOOOOOOOOOOOOOOOOOOOOOOOOOOOOOOOOOOOOOOOOOOOOOOOOOOOOOOOOOOOOOOOOO........      ",
"                                                                          ..............      .......*******======---------------------------------------------------------------------------------------------------------------------------------------------------------------------------------------------------------------------------------------=======-=====****************************************OOOOOOOOOOOOOOOOOOOOOOOOOOOOOOOOOOOOOOOOOOOOOOOOOOOOOOOOOOOOOOOOOOOOOOOOOOOOOOOOOOOOOOOO........      ",
"                                                                          ..............      .......*******=======--------------------------------------------------------------------------------------------------------------------------------------------------------------------------------------------------------------------------------------======-======****************************************OOOOOOOOOOOOOOOOOOOOOOOOOOOOOOOOOOOOOOOOOOOOOOOOOOOOOOOOOOOOOOOOOOOOOOOOOOOOOOOOOOOOOOOO........      ",
"                                                                          ..............      .......*******======---------------------------------------------------------------------------------------------------------------------------------------------------------------------------------------------------------------------------------------======-======****************************************OOOOOOOOOOOOOOOOOOOOOOOOOOOOOOOOOOOOOOOOOOOOOOOOOOOOOOOOOOOOOOOOOOOOOOOOOOOOOOOOOOOOOOOO........      ",
"                                                                          ..............      .......*******=======--------------------------------------------------------------------------------------------------------------------------------------------------------------------------------------------------------------------------------------======-======****************************************OOOOOOOOOOOOOOOOOOOOOOOOOOOOOOOOOOOOOOOOOOOOOOOOOOOOOOOOOOOOOOOOOOOOOOOOOOOOOOOOOOOOOOOO........      ",
"                                               .......             .......:::::::.......      ..............*******-======-======----------------------------------------------------------------------------------------------------------------------------------------------------------------------------------------------------------------===========-==******************************************************OOOOOOOOOOOOOOOOOOOOOOOOOOOOOOOOOOOOOOOOOOOOOOOOOOOOOOOOOOOOOOOOOOOOOOOOOOOOOOOOO........      ",
"                                               .......             .......:::::::.......      ..............*******-=======-=====-----------------------------------------------------------------------------------------------------------------------------------------------------------------------------------------------------------------============-******************************************************OOOOOOOOOOOOOOOOOOOOOOOOOOOOOOOOOOOOOOOOOOOOOOOOOOOOOOOOOOOOOOOOOOOOOOOOOOOOOOOOO........      ",
"                                               .......             .......:::::::.......      ..............*******-=======-=====------------------------------------------------------------------------------------------------------------------------------------------------------------------------------------------------------------------========-===******************************************************OOOOOOOOOOOOOOOOOOOOOOOOOOOOOOOOOOOOOOOOOOOOOOOOOOOOOOOOOOOOOOOOOOOOOOOOOOOOOOOOO........      ",
"                                               .......             .......:::::::.......      ..............*******-======-=====-------------------------------------------------------------------------------------------------------------------------------------------------------------------------------------------------------------------======-=====******************************************************OOOOOOOOOOOOOOOOOOOOOOOOOOOOOOOOOOOOOOOOOOOOOOOOOOOOOOOOOOOOOOOOOOOOOOOOOOOOOOOOO........      ",
"                                               .......             .......:::::::.......      ..............*******-========-====------------------------------------------------------------------------------------------------------------------------------------------------------------------------------------------------------------------=======-====******************************************************OOOOOOOOOOOOOOOOOOOOOOOOOOOOOOOOOOOOOOOOOOOOOOOOOOOOOOOOOOOOOOOOOOOOOOOOOOOOOOOOO........      ",
"                                               .......             .......:::::::.......      ..............*******-=========-===-----------------------------------------------------------------------------------------------------------------------------------------------------------------------------------------------------------------=======-=====******************************************************OOOOOOOOOOOOOOOOOOOOOOOOOOOOOOOOOOOOOOOOOOOOOOOOOOOOOOOOOOOOOOOOOOOOOOOOOOOOOOOOO........      ",
"                                               .......             .......:::::::.......      ..............*******-==========-==------------------------------------------------------------------------------------------------------------------------------------------------------------------------------------------------------------------========-===******************************************************OOOOOOOOOOOOOOOOOOOOOOOOOOOOOOOOOOOOOOOOOOOOOOOOOOOOOOOOOOOOOOOOOOOOOOOOOOOOOOOOO........      ",
"                                               ...........................::::::::::::::.............:::::::.......*************-======----------------------------------------------------------------------------------------------------------------------------------------------------------------------------------------------======-============*************************************************************.......OOOOOOOOOOOOOOOOOOOOOOOOOOOOOOOOOOOOOOOOOOOOOOOOOOOOOOOOOOOOOOOOOOOOOOOOOO........      ",
"                                               ...........................::::::::::::::.............:::::::.......*************-======----------------------------------------------------------------------------------------------------------------------------------------------------------------------------------------------======-============*************************************************************.......OOOOOOOOOOOOOOOOOOOOOOOOOOOOOOOOOOOOOOOOOOOOOOOOOOOOOOOOOOOOOOOOOOOOOOOOOO........      ",
"                                               ...........................::::::::::::::.............:::::::.......*************======-----------------------------------------------------------------------------------------------------------------------------------------------------------------------------------------------=======-===========*************************************************************.......OOOOOOOOOOOOOOOOOOOOOOOOOOOOOOOOOOOOOOOOOOOOOOOOOOOOOOOOOOOOOOOOOOOOOOOOOO........      ",
"                                               ...........................::::::::::::::.............:::::::.......*************=======----------------------------------------------------------------------------------------------------------------------------------------------------------------------------------------------======-============*************************************************************.......OOOOOOOOOOOOOOOOOOOOOOOOOOOOOOOOOOOOOOOOOOOOOOOOOOOOOOOOOOOOOOOOOOOOOOOOOO........      ",
"                                               ...........................::::::::::::::.............:::::::.......*************=======----------------------------------------------------------------------------------------------------------------------------------------------------------------------------------------------======-============*************************************************************.......OOOOOOOOOOOOOOOOOOOOOOOOOOOOOOOOOOOOOOOOOOOOOOOOOOOOOOOOOOOOOOOOOOOOOOOOOO........      ",
"                                               ...........................::::::::::::::.............:::::::.......*************-=======---------------------------------------------------------------------------------------------------------------------------------------------------------------------------------------------======-============*************************************************************.......OOOOOOOOOOOOOOOOOOOOOOOOOOOOOOOOOOOOOOOOOOOOOOOOOOOOOOOOOOOOOOOOOOOOOOOOOO........      ",
"                                               ...........................::::::::::::::.............:::::::.......*************======----------------------------------------------------------------------------------------------------------------------------------------------------------------------------------------------=======-============*************************************************************.......OOOOOOOOOOOOOOOOOOOOOOOOOOOOOOOOOOOOOOOOOOOOOOOOOOOOOOOOOOOOOOOOOOOOOOOOOO........      ",
"                                                      .......::::::;;;;;;;ooooooo:::::::oooooo.......:::::::;;;;;;;......**************-=========-===------------------------------------------------------------------------------------------------------------------------------------------------------------=======-==================*************************************************************......:::::::.......OOOOOOOOOOOOOOOOOOOOOOOOOOOOOOOOOOOOOOOOOOOOOOOOOOOOOOOOOOOOOOOOOOOOOOOOOO........      ",
"                                                      .......::::::;;;;;;;ooooooo:::::::oooooo.......:::::::;;;;;;;......**************-=======-=====------------------------------------------------------------------------------------------------------------------------------------------------------------========-=================*************************************************************......:::::::.......OOOOOOOOOOOOOOOOOOOOOOOOOOOOOOOOOOOOOOOOOOOOOOOOOOOOOOOOOOOOOOOOOOOOOOOOOO........      ",
"                                                      .......::::::;;;;;;;ooooooo:::::::oooooo.......:::::::;;;;;;;......**************-======-=====-------------------------------------------------------------------------------------------------------------------------------------------------------------=========-================*************************************************************......:::::::.......OOOOOOOOOOOOOOOOOOOOOOOOOOOOOOOOOOOOOOOOOOOOOOOOOOOOOOOOOOOOOOOOOOOOOOOOOO........      ",
"                                                      .......::::::;;;;;;;ooooooo:::::::oooooo.......:::::::;;;;;;;......**************==============------------------------------------------------------------------------------------------------------------------------------------------------------------==========================*************************************************************......:::::::.......OOOOOOOOOOOOOOOOOOOOOOOOOOOOOOOOOOOOOOOOOOOOOOOOOOOOOOOOOOOOOOOOOOOOOOOOOO........      ",
"                                                      .......::::::;;;;;;;ooooooo:::::::oooooo.......:::::::;;;;;;;......**************==============------------------------------------------------------------------------------------------------------------------------------------------------------------==========================*************************************************************......:::::::.......OOOOOOOOOOOOOOOOOOOOOOOOOOOOOOOOOOOOOOOOOOOOOOOOOOOOOOOOOOOOOOOOOOOOOOOOOO........      ",
"                                                      .......::::::;;;;;;;ooooooo:::::::oooooo.......:::::::;;;;;;;......**************==============------------------------------------------------------------------------------------------------------------------------------------------------------------==========================*************************************************************......:::::::.......OOOOOOOOOOOOOOOOOOOOOOOOOOOOOOOOOOOOOOOOOOOOOOOOOOOOOOOOOOOOOOOOOOOOOOOOOO........      ",
"                                                      .......::::::;;;;;;;ooooooo:::::::oooooo.......:::::::;;;;;;;......**************==============------------------------------------------------------------------------------------------------------------------------------------------------------------==============-===========*************************************************************......:::::::.......OOOOOOOOOOOOOOOOOOOOOOOOOOOOOOOOOOOOOOOOOOOOOOOOOOOOOOOOOOOOOOOOOOOOOOOOOO........      ",
"                                                      .......::::::.......-------ooooooo------.......:::::::;;;;;;;;;;;;;.......**************==============-=====---------------------------------------------------------------------------------------------------------------------------==============-================-=======*************************************************************.............:::::::.......OOOOOOOOOOOOOOOOOOOOOOOOOOOOOOOOOO.............OOOOOOOOOOOOOOOOOOOOOOOOOOO........      ",
"                                                      .......::::::.......-------ooooooo------.......:::::::;;;;;;;;;;;;;.......**************===============-====---------------------------------------------------------------------------------------------------------------------------===============-==================-====*************************************************************.............:::::::.......OOOOOOOOOOOOOOOOOOOOOOOOOOOOOOOOOO.............OOOOOOOOOOOOOOOOOOOOOOOOOOO........      ",
"                                                      .......::::::.......-------ooooooo------.......:::::::;;;;;;;;;;;;;.......**************===============-====---------------------------------------------------------------------------------------------------------------------------==============-===================-====*************************************************************.............:::::::.......OOOOOOOOOOOOOOOOOOOOOOOOOOOOOOOOOO.............OOOOOOOOOOOOOOOOOOOOOOOOOOO........      ",
"                                                      .......::::::.......-------ooooooo------.......:::::::;;;;;;;;;;;;;.......**************==============-======--------------------------------------------------------------------------------------------------------------------------==============-======-==============-==*************************************************************.............:::::::.......OOOOOOOOOOOOOOOOOOOOOOOOOOOOOOOOOO.............OOOOOOOOOOOOOOOOOOOOOOOOOOO........      ",
"                                                      .......::::::.......-------ooooooo------.......:::::::;;;;;;;;;;;;;.......**************===============-====---------------------------------------------------------------------------------------------------------------------------==============-======-===============-=*************************************************************.............:::::::.......OOOOOOOOOOOOOOOOOOOOOOOOOOOOOOOOOO.............OOOOOOOOOOOOOOOOOOOOOOOOOOO........      ",
"                                                      .......::::::.......-------ooooooo------.......:::::::;;;;;;;;;;;;;.......**************================-====--------------------------------------------------------------------------------------------------------------------------==============-======-================-*************************************************************.............:::::::.......OOOOOOOOOOOOOOOOOOOOOOOOOOOOOOOOOO.............OOOOOOOOOOOOOOOOOOOOOOOOOOO........      ",
"                                                      ;;;;;;;......---------------------------;;;;;;;;;;;;;;ooooooo......***************************==============-======-=============--------------------------------------------------------------------------===============-======-==================-=====*********************************************************************************.......::::::::::::::::::::OOOOOOOOOOOOOOOOOOOO..............;;;;;;;......OOOOOOOOOOOOOOOOOOOOOOOOOOO........      ",
"                                                      ;;;;;;;......---------------------------;;;;;;;;;;;;;;ooooooo......***************************==============-======-=============---------------------------------------------------------------------------================-======-====================-=*********************************************************************************.......::::::::::::::::::::OOOOOOOOOOOOOOOOOOOO..............;;;;;;;......OOOOOOOOOOOOOOOOOOOOOOOOOOO........      ",
"                                                      ;;;;;;;......---------------------------;;;;;;;;;;;;;;ooooooo......***************************===============-======-===========----------------------------------------------------------------------------==============-======-======================-=*********************************************************************************.......::::::::::::::::::::OOOOOOOOOOOOOOOOOOOO..............;;;;;;;......OOOOOOOOOOOOOOOOOOOOOOOOOOO........      ",
"                                                      ;;;;;;;......---------------------------;;;;;;;;;;;;;;ooooooo......***************************==============-======-=============---------------------------------------------------------------------------===============-======-=======================*********************************************************************************.......::::::::::::::::::::OOOOOOOOOOOOOOOOOOOO..............;;;;;;;......OOOOOOOOOOOOOOOOOOOOOOOOOOO........      ",
"                                                      ;;;;;;;......---------------------------;;;;;;;;;;;;;;ooooooo......***************************==============-======-=============-------------------------------------------------------------------------================-======-========================*********************************************************************************.......::::::::::::::::::::OOOOOOOOOOOOOOOOOOOO..............;;;;;;;......OOOOOOOOOOOOOOOOOOOOOOOOOOO........      ",
"                                                      ;;;;;;;......---------------------------;;;;;;;;;;;;;;ooooooo......***************************===============-======-============--------------------------------------------------------------------------=================-======-======================*********************************************************************************.......::::::::::::::::::::OOOOOOOOOOOOOOOOOOOO..............;;;;;;;......OOOOOOOOOOOOOOOOOOOOOOOOOOO........      ",
"                                                      ;;;;;;;......---------------------------;;;;;;;;;;;;;;ooooooo......***************************==============-======-============----------------------------------------------------------------------------==================-======-====================*********************************************************************************.......::::::::::::::::::::OOOOOOOOOOOOOOOOOOOO..............;;;;;;;......OOOOOOOOOOOOOOOOOOOOOOOOOOO........      ",
"                                                      .......------=======---------------------------ooooooo.......------.......**********************************==============-======-=============================-======-==============================-======-=========================***************************************************************************************.......*******XXXXXXX::::::;;;;;;;...........................::::::::::::::;;;;;;;......OOOOOOOOOOOOOOOOOOOOOOOOOOO........      ",
"                                                      .......------======----------------------------ooooooo.......------.......**********************************===============-======-================================-======-=================================-======-==================***************************************************************************************.......*******XXXXXXX::::::;;;;;;;...........................::::::::::::::;;;;;;;......OOOOOOOOOOOOOOOOOOOOOOOOOOO........      ",
"                                                      .......-------=======--------------------------ooooooo.......------.......**********************************==============-======-==================================-======-===================================-======-===============***************************************************************************************.......*******XXXXXXX::::::;;;;;;;...........................::::::::::::::;;;;;;;......OOOOOOOOOOOOOOOOOOOOOOOOOOO........      ",
"                                                      .......-----========---------------------------ooooooo.......------.......**********************************================-======-====================================-======-=====================================-======-=========***************************************************************************************.......*******XXXXXXX::::::;;;;;;;...........................::::::::::::::;;;;;;;......OOOOOOOOOOOOOOOOOOOOOOOOOOO........      ",
"                                                      .......-------=======--------------------------ooooooo.......------.......**********************************==============-======-======================================-======-=======================================-======-=======***************************************************************************************.......*******XXXXXXX::::::;;;;;;;...........................::::::::::::::;;;;;;;......OOOOOOOOOOOOOOOOOOOOOOOOOOO........      ",
"                                                      .......------========--------------------------ooooooo.......------.......**********************************===============-======-========================================-======-=========================================-======-==***************************************************************************************.......*******XXXXXXX::::::;;;;;;;...........................::::::::::::::;;;;;;;......OOOOOOOOOOOOOOOOOOOOOOOOOOO........      ",
"                                                      .......-------======---------------------------ooooooo.......------.......**********************************================-======-==========================================-======-===========================================-====***************************************************************************************.......*******XXXXXXX::::::;;;;;;;...........................::::::::::::::;;;;;;;......OOOOOOOOOOOOOOOOOOOOOOOOOOO........      ",
"                                                      .......-==============-======-==================-------------------*******.......******************************************************==============-======-============================================-=*****************************************************************************************************.............--------------XXXXXXXXXXXXXXXXXXXX-------*******......;;;;;;;:::::::;;;;;;;.......OOOOOOOOOOOOOOOOOOOOOOOOOOOOOOOOO........      ",
"                                                      .......-==============-======-==================-------------------*******.......******************************************************==============-======-=============================================-*****************************************************************************************************.............--------------XXXXXXXXXXXXXXXXXXXX-------*******......;;;;;;;:::::::;;;;;;;.......OOOOOOOOOOOOOOOOOOOOOOOOOOOOOOOOO........      ",
"                                                      .......-==============-======-==================-------------------*******.......******************************************************===============-======-=============================================*****************************************************************************************************.............--------------XXXXXXXXXXXXXXXXXXXX-------*******......;;;;;;;:::::::;;;;;;;.......OOOOOOOOOOOOOOOOOOOOOOOOOOOOOOOOO........      ",
"                                                      .......-===============-======-=================-------------------*******.......******************************************************==============-======-==============================================*****************************************************************************************************.............--------------XXXXXXXXXXXXXXXXXXXX-------*******......;;;;;;;:::::::;;;;;;;.......OOOOOOOOOOOOOOOOOOOOOOOOOOOOOOOOO........      ",
"                                                      .......-==============-======-==================-------------------*******.......******************************************************==============-======-==============================================*****************************************************************************************************.............--------------XXXXXXXXXXXXXXXXXXXX-------*******......;;;;;;;:::::::;;;;;;;.......OOOOOOOOOOOOOOOOOOOOOOOOOOOOOOOOO........      ",
"                                                      .......-==============-======-==================-------------------*******.......******************************************************===============-======-=============================================*****************************************************************************************************.............--------------XXXXXXXXXXXXXXXXXXXX-------*******......;;;;;;;:::::::;;;;;;;.......OOOOOOOOOOOOOOOOOOOOOOOOOOOOOOOOO........      ",
"                                                      .......-===============-======-=================-------------------*******.......******************************************************===============-======-=============================================*****************************************************************************************************.............--------------XXXXXXXXXXXXXXXXXXXX-------*******......;;;;;;;:::::::;;;;;;;.......OOOOOOOOOOOOOOOOOOOOOOOOOOOOOOOOO........      ",
"                                               .......=======*********************************=--------------------------*******.......************************************************************************************************************************************************************************************************************************.......-------------------------------------------------------------******.......;;;;;;;;;;;;;;.............OOOOOOO..............OOOOOO........      ",
"                                               .......=======*********************************=--------------------------*******.......************************************************************************************************************************************************************************************************************************.......-------------------------------------------------------------******.......;;;;;;;;;;;;;;.............OOOOOOO..............OOOOOO........      ",
"                                               .......-======*********************************=--------------------------*******.......************************************************************************************************************************************************************************************************************************.......-------------------------------------------------------------******.......;;;;;;;;;;;;;;.............OOOOOOO..............OOOOOO........      ",
"                                               .......-======*********************************=--------------------------*******.......************************************************************************************************************************************************************************************************************************.......-------------------------------------------------------------******.......;;;;;;;;;;;;;;.............OOOOOOO..............OOOOOO........      ",
"                                               .......-======*********************************---------------------------*******.......************************************************************************************************************************************************************************************************************************.......-------------------------------------------------------------******.......;;;;;;;;;;;;;;.............OOOOOOO..............OOOOOO........      ",
"                                               .......=======*********************************---------------------------*******.......************************************************************************************************************************************************************************************************************************.......-------------------------------------------------------------******.......;;;;;;;;;;;;;;.............OOOOOOO..............OOOOOO........      ",
"                                               .......****************************************======----------------------------*******.......**********************************************************************************************************************************************************************************************************.......-----------------------------------------------===============-------------======..............*******.............:::::::.............              ",
"                                               .......****************************************======----------------------------*******.......**********************************************************************************************************************************************************************************************************.......------------------------------------------------==============-----------========..............*******.............:::::::.............              ",
"                                               .......****************************************=======---------------------------*******.......**********************************************************************************************************************************************************************************************************.......------------------------------------------------==============------------=======..............*******.............:::::::.............              ",
"                                               .......****************************************========--------------------------*******.......**********************************************************************************************************************************************************************************************************.......-----------------------------------------------===============------------=======..............*******.............:::::::.............              ",
"                                               .......****************************************======----------------------------*******.......**********************************************************************************************************************************************************************************************************.......-----------------------------------------------===============-------------======..............*******.............:::::::.............              ",
"                                               .......****************************************=======---------------------------*******.......**********************************************************************************************************************************************************************************************************.......------------------------------------------------==============-------------======..............*******.............:::::::.............              ",
"                                               .......****************************************=======---------------------------*******.......**********************************************************************************************************************************************************************************************************.......------------------------------------------------==============-----------========..............*******.............:::::::.............              ",
"                                                      .......******XXXXXXX***************************========--------------------======.......****************************************************************************************************************************************************************************************************......*******--------------------------=================-===*******==============******=======**************.......:::::::::::::.......OOOOOOO......              ",
"                                                      .......******XXXXXXX***************************=======---------------------======.......****************************************************************************************************************************************************************************************************......*******=--------------------------==================-=*******==============******=======**************.......:::::::::::::.......OOOOOOO......              ",
"                                                      .......******XXXXXXX***************************========-------------------=======.......****************************************************************************************************************************************************************************************************......*******--------------------------===================-=*******==============******=======**************.......:::::::::::::.......OOOOOOO......              ",
"                                                      .......******XXXXXXX***************************======--------------------========.......****************************************************************************************************************************************************************************************************......*******---------------------------====================*******==============******=======**************.......:::::::::::::.......OOOOOOO......              ",
"                                                      .......******XXXXXXX***************************=======--------------------=======.......****************************************************************************************************************************************************************************************************......*******----------------------------===================*******==============******=======**************.......:::::::::::::.......OOOOOOO......              ",
"                                                      .......******XXXXXXX***************************=======---------------------======.......****************************************************************************************************************************************************************************************************......*******---------------------------===============-====*******==============******=======**************.......:::::::::::::.......OOOOOOO......              ",
"                                                      .......******XXXXXXX***************************=======---------------------======.......****************************************************************************************************************************************************************************************************......*******----------------------------================-==*******==============******=======**************.......:::::::::::::.......OOOOOOO......              ",
"                                               .......XXXXXXX######XXXXXXXXXXXXXX***************************========------=============***********************************************************************************************************************************************************************************************************......----------------------------======***************************************************************************;;;;;;:::::::.......OOOOOOO......              ",
"                                               .......XXXXXXX######XXXXXXXXXXXXXX***************************=======-------=============***********************************************************************************************************************************************************************************************************......----------------------------======***************************************************************************;;;;;;:::::::.......OOOOOOO......              ",
"                                               .......XXXXXXX######XXXXXXXXXXXXXX***************************========------=============***********************************************************************************************************************************************************************************************************......--------------------------========***************************************************************************;;;;;;:::::::.......OOOOOOO......              ",
"                                               .......XXXXXXX######XXXXXXXXXXXXXX***************************========------=============***********************************************************************************************************************************************************************************************************......--------------------------========***************************************************************************;;;;;;:::::::.......OOOOOOO......              ",
"                                               .......XXXXXXX######XXXXXXXXXXXXXX***************************======--------=============***********************************************************************************************************************************************************************************************************......---------------------------=======***************************************************************************;;;;;;:::::::.......OOOOOOO......              ",
"                                               .......XXXXXXX######XXXXXXXXXXXXXX***************************=======-------=============***********************************************************************************************************************************************************************************************************......----------------------------======***************************************************************************;;;;;;:::::::.......OOOOOOO......              ",
"                                               .......XXXXXXX######XXXXXXXXXXXXXX***************************=======------==============***********************************************************************************************************************************************************************************************************......----------------------------======***************************************************************************;;;;;;:::::::.......OOOOOOO......              ",
"                                                      .......####################XXXXXXX***************************======**************.......****************************************************************************************************************************************************************************************************......----------------------=====**********************************************************************************...........................                    ",
"                                                      .......####################XXXXXXX***************************======**************.......****************************************************************************************************************************************************************************************************......---------------------======**********************************************************************************...........................                    ",
"                                                      .......####################XXXXXXX***************************======**************.......****************************************************************************************************************************************************************************************************......----------------------=====**********************************************************************************...........................                    ",
"                                                      .......####################XXXXXXX***************************======**************.......****************************************************************************************************************************************************************************************************......----------------------=====**********************************************************************************...........................                    ",
"                                                      .......####################XXXXXXX***************************======**************.......****************************************************************************************************************************************************************************************************......--------------------=======**********************************************************************************...........................                    ",
"                                                      .......####################XXXXXXX***************************======**************.......****************************************************************************************************************************************************************************************************......---------------------======**********************************************************************************...........................                    ",
"                                                      .......###########################XXXXXX*****************************************.......OOOOOO***************************************************************************************************************************************************************************************.......---------------------======********************XXXXXXXXXXXXX#######XXXXXXXXXXXXXX****************************************.......OOOOOOO.......                    ",
"                                                      .......###########################XXXXXX*****************************************.......OOOOOO***************************************************************************************************************************************************************************************.......---------------------======********************XXXXXXXXXXXXX#######XXXXXXXXXXXXXX****************************************.......OOOOOOO.......                    ",
"                                                      .......###########################XXXXXX*****************************************.......OOOOOO***************************************************************************************************************************************************************************************.......--------------------=======********************XXXXXXXXXXXXX#######XXXXXXXXXXXXXX****************************************.......OOOOOOO.......                    ",
"                                                      .......###########################XXXXXX*****************************************.......OOOOOO***************************************************************************************************************************************************************************************.......---------------------======********************XXXXXXXXXXXXX#######XXXXXXXXXXXXXX****************************************.......OOOOOOO.......                    ",
"                                                      .......###########################XXXXXX*****************************************.......OOOOOO***************************************************************************************************************************************************************************************.......---------------------======********************XXXXXXXXXXXXX#######XXXXXXXXXXXXXX****************************************.......OOOOOOO.......                    ",
"                                                      .......###########################XXXXXX*****************************************.......OOOOOO***************************************************************************************************************************************************************************************.......--------------------=======********************XXXXXXXXXXXXX#######XXXXXXXXXXXXXX****************************************.......OOOOOOO.......                    ",
"                                                      .......###########################XXXXXX*****************************************.......OOOOOO***************************************************************************************************************************************************************************************.......-------------------========********************XXXXXXXXXXXXX#######XXXXXXXXXXXXXX****************************************.......OOOOOOO.......                    ",
"                                                      .......####################XXXXXXXXXXXXX************************************************......OOOOOOO***************************************************************************************************************************************************************************************------------===============*************XXXXXXX##################################XXXXXX**********************************..............                           ",
"                                                      .......####################XXXXXXXXXXXXX************************************************......OOOOOOO***************************************************************************************************************************************************************************************------------===============*************XXXXXXX##################################XXXXXX**********************************..............                           ",
"                                                      .......####################XXXXXXXXXXXXX************************************************......OOOOOOO***************************************************************************************************************************************************************************************------------===============*************XXXXXXX##################################XXXXXX**********************************..............                           ",
"                                                      .......####################XXXXXXXXXXXXX************************************************......OOOOOOO***************************************************************************************************************************************************************************************------------===============*************XXXXXXX##################################XXXXXX**********************************..............                           ",
"                                                      .......####################XXXXXXXXXXXXX************************************************......OOOOOOO***************************************************************************************************************************************************************************************-------------==============*************XXXXXXX##################################XXXXXX**********************************..............                           ",
"                                                      .......####################XXXXXXXXXXXXX************************************************......OOOOOOO***************************************************************************************************************************************************************************************------------===============*************XXXXXXX##################################XXXXXX**********************************..............                           ",
"                                                      .......####################XXXXXXXXXXXXX************************************************......OOOOOOO***************************************************************************************************************************************************************************************------------===============*************XXXXXXX##################################XXXXXX**********************************..............                           ",
"                                                             ###########################***********************************************.......OOOOOOOOOOOOOOOOOOOO********************************************************************************************************************************************************************************......--------======*************XXXXXXX###############################################**********************************.......                                  ",
"                                                             ###########################***********************************************.......OOOOOOOOOOOOOOOOOOOO********************************************************************************************************************************************************************************......--------======*************XXXXXXX###############################################**********************************.......                                  ",
"                                                             ###########################***********************************************.......OOOOOOOOOOOOOOOOOOOO********************************************************************************************************************************************************************************......--------======*************XXXXXXX###############################################**********************************.......                                  ",
"                                                             ###########################***********************************************.......OOOOOOOOOOOOOOOOOOOO********************************************************************************************************************************************************************************......------========*************XXXXXXX###############################################**********************************.......                                  ",
"                                                             ###########################***********************************************.......OOOOOOOOOOOOOOOOOOOO********************************************************************************************************************************************************************************......-------=======*************XXXXXXX###############################################**********************************.......                                  ",
"                                                             ###########################***********************************************.......OOOOOOOOOOOOOOOOOOOO********************************************************************************************************************************************************************************......--------======*************XXXXXXX###############################################**********************************.......                                  ",
"                                                             ###########################***********************************************.......OOOOOOOOOOOOOOOOOOOO********************************************************************************************************************************************************************************......-------=======*************XXXXXXX###############################################**********************************.......                                  ",
"                                                                   #####################XXXXXX*****************************************.......OOOOOOOOOOOOOOOOOOOOOOOOOOOOOOOOO************************************************************************************************************************************************************.......-------======**************XXXXXX################################################XXXXXX*********************.......                                               ",
"                                                                   #####################XXXXXX*****************************************.......OOOOOOOOOOOOOOOOOOOOOOOOOOOOOOOOO************************************************************************************************************************************************************.......-------======**************XXXXXX################################################XXXXXX*********************.......                                               ",
"                                                                   #####################XXXXXX*****************************************.......OOOOOOOOOOOOOOOOOOOOOOOOOOOOOOOOO************************************************************************************************************************************************************.......-------======**************XXXXXX################################################XXXXXX*********************.......                                               ",
"                                                                   #####################XXXXXX*****************************************.......OOOOOOOOOOOOOOOOOOOOOOOOOOOOOOOOO************************************************************************************************************************************************************.......-------======**************XXXXXX################################################XXXXXX*********************.......                                               ",
"                                                                   #####################XXXXXX*****************************************.......OOOOOOOOOOOOOOOOOOOOOOOOOOOOOOOOO************************************************************************************************************************************************************.......-------======**************XXXXXX################################################XXXXXX*********************.......                                               ",
"                                                                   #####################XXXXXX*****************************************.......OOOOOOOOOOOOOOOOOOOOOOOOOOOOOOOOO************************************************************************************************************************************************************.......-------======**************XXXXXX################################################XXXXXX*********************.......                                               ",
"                                                             ......#####################XXXXXX*****************************************.......OOOOOOOOOOOOO..................................$$$$$$$**********************************=-----*******=------*******=------------*******=------******=------*****************************************......***************************XXXXXXX#########################################XXXXXX*********************.......                                               ",
"                                                             ......#####################XXXXXX*****************************************.......OOOOOOOOOOOOO..................................$$$$$$$**********************************=-----*******=------*******=------------*******=------******=------*****************************************......***************************XXXXXXX#########################################XXXXXX*********************.......                                               ",
"                                                             ......#####################XXXXXX*****************************************.......OOOOOOOOOOOOO..................................$$$$$$$**********************************=-----*******=------*******=------------*******=------******=------*****************************************......***************************XXXXXXX#########################################XXXXXX*********************.......                                               ",
"                                                             ......#####################XXXXXX*****************************************.......OOOOOOOOOOOOO..................................$$$$$$$**********************************=-----*******=------*******=------------*******=------******=------*****************************************......***************************XXXXXXX#########################################XXXXXX*********************.......                                               ",
"                                                             ......#####################XXXXXX*****************************************.......OOOOOOOOOOOOO..................................$$$$$$$**********************************=-----*******=------*******=------------*******=------******=------*****************************************......***************************XXXXXXX#########################################XXXXXX*********************.......                                               ",
"                                                             ......#####################XXXXXX*****************************************.......OOOOOOOOOOOOO..................................$$$$$$$**********************************=-----*******=------*******=------------*******=------******=------*****************************************......***************************XXXXXXX#########################################XXXXXX*********************.......                                               ",
"                                                             ......#####################XXXXXX*****************************************.......OOOOOOOOOOOOO..................................$$$$$$$**********************************=-----*******=------*******=------------*******=------******=------*****************************************......***************************XXXXXXX#########################################XXXXXX*********************.......                                               ",
"                                                                   ..............XXXXXXX*********************************..................................                                  .........................................$$$$$$-------*******=------*************=------*******=-----*******......................................................***************************##################################XXXXXXX********************..............                                               ",
"                                                                   ..............XXXXXXX*********************************..................................                                  .........................................$$$$$$-------*******=------*************-------*******=-----*******......................................................***************************##################################XXXXXXX********************..............                                               ",
"                                                                   ..............XXXXXXX*********************************..................................                                  .........................................$$$$$$-------*******-------*************=------*******=-----*******......................................................***************************##################################XXXXXXX********************..............                                               ",
"                                                                   ..............XXXXXXX*********************************..................................                                  .........................................$$$$$$-------*******=------*************-------*******------*******......................................................***************************##################################XXXXXXX********************..............                                               ",
"                                                                   ..............XXXXXXX*********************************..................................                                  .........................................$$$$$$-------*******-------*************=------*******=-----*******......................................................***************************##################################XXXXXXX********************..............                                               ",
"                                                                   ..............XXXXXXX*********************************..................................                                  .........................................$$$$$$-------*******-------*************=------*******=-----*******......................................................***************************##################################XXXXXXX********************..............                                               ",
"                                                                   ..............XXXXXXX*********************************..................................                                  .........................................$$$$$$-------*******-------*************=------*******------*******......................................................***************************##################################XXXXXXX********************..............                                               ",
"                                                                                 ****************************************.......                                                                                                      ...................................................................                                               .......********************XXXXXXXXXXXXXXXXXXXXX######XXXXXXX***************************.......                                                             ",
"                                                                                 ****************************************.......                                                                                                      ...................................................................                                               .......********************XXXXXXXXXXXXXXXXXXXXX######XXXXXXX***************************.......                                                             ",
"                                                                                 ****************************************.......                                                                                                      ...................................................................                                               .......********************XXXXXXXXXXXXXXXXXXXXX######XXXXXXX***************************.......                                                             ",
"                                                                                 ****************************************.......                                                                                                      ...................................................................                                               .......********************XXXXXXXXXXXXXXXXXXXXX######XXXXXXX***************************.......                                                             ",
"                                                                                 ****************************************.......                                                                                                      ...................................................................                                               .......********************XXXXXXXXXXXXXXXXXXXXX######XXXXXXX***************************.......                                                             ",
"                                                                                 ****************************************.......                                                                                                      ...................................................................                                               .......********************XXXXXXXXXXXXXXXXXXXXX######XXXXXXX***************************.......                                                             ",
"                                                                                 ****************************************.......                                                                                                      ...................................................................                                               .......********************XXXXXXXXXXXXXXXXXXXXX######XXXXXXX***************************.......                                                             ",
"                                                                                 ........................................                                                                                                                                                                                                                                      .......*******************************************************************.......                                                                    ",
"                                                                                 ........................................                                                                                                                                                                                                                                      .......*******************************************************************.......                                                                    ",
"                                                                                 ........................................                                                                                                                                                                                                                                      .......*******************************************************************.......                                                                    ",
"                                                                                 ........................................                                                                                                                                                                                                                                      .......*******************************************************************.......                                                                    ",
"                                                                                 ........................................                                                                                                                                                                                                                                      .......*******************************************************************.......                                                                    ",
"                                                                                 ........................................                                                                                                                                                                                                                                      .......*******************************************************************.......                                                                    ",
"                                                                                 ........................................                                                                                                                                                                                                                                      .......*******************************************************************.......                                                                    ",
"                                                                                                                                                                                                                                                                                                                                                                      .............*********************......*******....................                                                                           ",
"                                                                                                                                                                                                                                                                                                                                                                      .............*********************......*******....................                                                                           ",
"                                                                                                                                                                                                                                                                                                                                                                      .............*********************......*******....................                                                                           ",
"                                                                                                                                                                                                                                                                                                                                                                      .............*********************......*******....................                                                                           ",
"                                                                                                                                                                                                                                                                                                                                                                      .............*********************......*******....................                                                                           ",
"                                                                                                                                                                                                                                                                                                                                                                      .............*********************......*******....................                                                                           ",
"                                                                                                                                                                                                                                                                                                                                                                                   ..................................                                                                                               ",
"                                                                                                                                                                                                                                                                                                                                                                                   ..................................                                                                                               ",
"                                                                                                                                                                                                                                                                                                                                                                                   ..................................                                                                                               ",
"                                                                                                                                                                                                                                                                                                                                                                                   ..................................                                                                                               ",
"                                                                                                                                                                                                                                                                                                                                                                                   ..................................                                                                                               ",
"                                                                                                                                                                                                                                                                                                                                                                                   ..................................                                                                                               ",
"                                                                                                                                                                                                                                                                                                                                                                                   ..................................                                                                                               ",
"                                                                                                                                                                                                                                                                                                                                                                                   ..................................                                                                                               ",
"                                                                                                                                                                                                                                                                                                                                                                                                                                                                                                                    ",
"                                                                                                                                                                                                                                                                                                                                                                                                                                                                                                                    "
};
