/* XPM */
static char *eb0f276b441b45bfb5da0e22c4d058ddkMAVm6R7Omnu3Hx4[] = {
/* columns rows colors chars-per-pixel */
"128 128 256 2 ",
"   c #180C0F",
".  c #1C0D12",
"X  c #160B13",
"o  c #151414",
"O  c #1C1313",
"+  c #151C15",
"@  c #1B1C15",
"#  c #161C19",
"$  c #1A1C19",
"%  c #181519",
"&  c #171711",
"*  c #220D14",
"=  c #231415",
"-  c #291615",
";  c #231B15",
":  c #2C1A16",
">  c #251619",
",  c #2C1A19",
"<  c #261819",
"1  c #321D16",
"2  c #321D1A",
"3  c #371D1B",
"4  c #22170E",
"5  c #162315",
"6  c #1B2415",
"7  c #1D2B15",
"8  c #16231A",
"9  c #1C241A",
"0  c #1D2B1A",
"q  c #162A16",
"w  c #1E3315",
"e  c #1D321A",
"r  c #1E3A17",
"t  c #1D2D0D",
"y  c #283B0D",
"u  c #232415",
"i  c #2C2315",
"p  c #222C15",
"a  c #2B2C15",
"s  c #22241A",
"d  c #222C1A",
"f  c #2B271A",
"g  c #332315",
"h  c #35221B",
"j  c #3B241C",
"k  c #3D2A1B",
"l  c #372A16",
"z  c #233415",
"x  c #2A3514",
"c  c #253B15",
"v  c #2A3C14",
"b  c #23331A",
"n  c #2A341A",
"m  c #253A1A",
"M  c #2A3C1A",
"N  c #363715",
"B  c #30300E",
"V  c #3C2620",
"C  c #293421",
"Z  c #1D2620",
"A  c #41261C",
"S  c #442B1D",
"D  c #4A2E1D",
"F  c #432B16",
"G  c #4C331D",
"H  c #45381A",
"J  c #52351D",
"K  c #543A1D",
"L  c #5A3D1E",
"P  c #5A381B",
"I  c #512D1D",
"U  c #452B21",
"Y  c #482D22",
"T  c #4D3221",
"R  c #4D3D22",
"E  c #523522",
"W  c #553A21",
"Q  c #5A3C22",
"!  c #5B3827",
"~  c #613E23",
"^  c #2C440E",
"/  c #2D4A0E",
"(  c #26410E",
")  c #334C0E",
"_  c #37480D",
"`  c #35530D",
"'  c #3A550D",
"]  c #3C5B0D",
"[  c #385A0B",
"{  c #264214",
"}  c #2C4314",
"|  c #2E4A13",
" . c #2C431A",
".. c #2D4A19",
"X. c #264418",
"o. c #324514",
"O. c #334C13",
"+. c #3A4D13",
"@. c #31451A",
"#. c #334B19",
"$. c #3B4716",
"%. c #355213",
"&. c #3B5413",
"*. c #3D5A13",
"=. c #3B5419",
"-. c #385818",
";. c #2E5114",
":. c #3D610C",
">. c #3D6206",
",. c #3D6216",
"<. c #3D5420",
"1. c #425D0D",
"2. c #46580C",
"3. c #484816",
"4. c #58461B",
"5. c #425C13",
"6. c #435B1A",
"7. c #475715",
"8. c #575616",
"9. c #494F0E",
"0. c #65471D",
"q. c #69561A",
"w. c #44630D",
"e. c #4A650D",
"r. c #456A0C",
"t. c #4B6C0C",
"y. c #486906",
"u. c #526D0C",
"i. c #55670C",
"p. c #4D720B",
"a. c #4D7407",
"s. c #53740C",
"d. c #5A760D",
"f. c #557A0B",
"g. c #5B7C0C",
"h. c #557806",
"j. c #446312",
"k. c #4A6413",
"l. c #456A14",
"z. c #4C6B12",
"x. c #47661A",
"c. c #526C12",
"v. c #556916",
"b. c #4D7213",
"n. c #4C7618",
"m. c #547313",
"M. c #5B7513",
"N. c #547B13",
"B. c #5B7C12",
"V. c #57791A",
"C. c #637C0B",
"Z. c #637B15",
"A. c #6D6C15",
"S. c #5D4222",
"D. c #634422",
"F. c #6B4C23",
"G. c #664923",
"H. c #724D26",
"J. c #775726",
"K. c #6B5323",
"L. c #7A6925",
"P. c #557920",
"I. c #815D2A",
"U. c #88662B",
"Y. c #937132",
"T. c #977724",
"R. c #5C8305",
"E. c #5D820B",
"W. c #5A8508",
"Q. c #5C8314",
"!. c #5B8419",
"~. c #62840C",
"^. c #658B0B",
"/. c #6B8B0C",
"(. c #668807",
"). c #6C9409",
"_. c #72940C",
"`. c #789A0B",
"'. c #638313",
"]. c #638B14",
"[. c #6B8C13",
"{. c #648B1A",
"}. c #688717",
"|. c #748C15",
" X c #6C9314",
".X c #6B931B",
"XX c #689517",
"oX c #759B13",
"OX c #749B1A",
"+X c #789716",
"@X c #738C0C",
"#X c #7AA40A",
"$X c #7BA314",
"%X c #7CA31B",
"&X c #79A517",
"*X c #6BA103",
"=X c #6D9321",
"-X c #7BA321",
";X c #5A8320",
":X c #849B16",
">X c #889810",
",X c #85A80B",
"<X c #84AB15",
"1X c #84AB1B",
"2X c #8BAD1B",
"3X c #86A716",
"4X c #8DB314",
"5X c #8CB31B",
"6X c #89B417",
"7X c #94BB15",
"8X c #92B51C",
"9X c #94BA1B",
"0X c #9BBD1B",
"qX c #96B714",
"wX c #92B111",
"eX c #A5B919",
"rX c #86AA22",
"tX c #98BB22",
"yX c #92B223",
"uX c #A19429",
"iX c #9CC21C",
"pX c #9CC215",
"aX c #9DC40E",
"sX c #A3C41C",
"dX c #ABCC1C",
"fX c #A6C916",
"gX c #B1CE1A",
"hX c #AED118",
"jX c #B4D31C",
"kX c #BCDB1B",
"lX c #B7D717",
"zX c #A8CB0D",
"xX c #9DC222",
"cX c #A8C823",
"vX c #B2CE24",
"bX c #BDDA24",
"nX c #B7D424",
"mX c #ADD123",
"MX c #BCE01D",
"NX c #C3DC1B",
"BX c #C8E31C",
"VX c #D5EC1D",
"CX c #C3DC25",
"ZX c #CBDE34",
"AX c #CBE423",
"SX c #C7E327",
"DX c #D5EB27",
"FX c #DDF129",
"GX c #D7EB33",
"HX c #D3EA35",
"JX c #E3F52B",
"KX c #E9F737",
"LX c #F0F838",
"PX c #EEF848",
"IX c #D3E54A",
"UX c #AD8A42",
/* pixels */
"OXiX%X%X X+XtX{.OX,.-XSXsXkX<XQ..X1X%XnXbXjX'.vXlX^.{.5XrX{.2X9XtXHX2X,.[.8X-XnXjXnX3X}.-.B.rXtXsX0X2X.X%XnX2X,.<XSXOXb.3X0XoX0X5X7X2X.X{.Q.CXDX2XOX-XQ.2XqXdXOX{.%XyXyX*.OXbXnX{.&XlXaX Xb.-.$XmXSX`.sXsX].!.9XcXsXoX].dXcXQ.!.xX2XoXxXN.kXjX8XV.!.dXiX2X8X!.5X",
"vXOXV.bXCX5XcXtX3XOX0X0XtXtX%X{.$XiX{.3XbXdX3XSXqX].!.%X0X2XgX4X8XtX3XtX+X+X].].dXiX%XoXV.{.sX9XXXcXvXcXmXbX2X{.qX7X$X XaX XoXkXmX3X1X1X[.'.mXCX0X.XrX%X%X0XBX0X3X3X8X8XB.$X2X0XjX0XoXsX<Xf.].XX X0X3XkX<X&X9XcXcXCX<XQ.sXAX3XW.dX2X$X3Xb.kXdXOXrXbXjX7X3XqX2X].",
"CXcXdXnXrX{.cXPXZXdXbXnX2X.X.X{.sXFX8XQ.cXrXOXsXN.x.{.tXSXDXbXxXmX2XmXCX+XyX0Xn.8XsXbXGXpX3XSXgX4X5X{.1XJXsX!.!.OX%X<X4XAXjXjX0XOX!.jXNX4X!.OXOXsX.X2XAXkX8X.X{.!.dXsXV.{.CXbX.XcX9X2XGXSXpXBXyX1XiXOX5X5XdXFXdXOXoX XOXiX&XOXAXJXvX5X.X$X7X1XV.0XFXcX<X.X0XpX5X",
"9X6XFXBXsX!.$XZXZX8X%XcX2X.X{.n.dXKXSX<X%XyX8X1X{.V.!.1XvXGX$XW.sXbXdX3XCXJXkXOX!.0XDXHXtX.XcXFXzX Xx.9XnX3XV.V.%XKXnXdXGXvXiX[.Q.5XDXDXnX2X{.2XdXbXBXFX0X.XV.{.vXAX5Xn.$XbXHX.XOXyXGXnX{.5XFXGX0XtX%Xb.5XSXKXcX!.&XiXmX%XV.%XSXAX.X{.1XDXvX5X=X$XZXCXQ.{.bXbXcX",
"FXdXbXjX9XoXkXSX0X$X'.oX$XsXsXoX5XnXdX2XqXkXqXOXOX!.OX8XvXxXiXfXBXKXjXcXbX2X9X8X XjXkX0X.X{.oX0XlX3X8XjXSX5X%XoX7XJXcXtXDX8XvXdX7XdXDXCX5X!.!.bXAXvX5XjXjX4X$X<XnXDX5X2X0XSXCX#X,XpXkX Xl..X5XdXsXnXvX2XiXhXSXDXiX5XdXkX2X{..X1X8X1X2X0XnXSX2X{.%XjXfX$X1XjXAXbX",
"jX4X5XtXSXkXBXFXAX2X.XyX%XnXLXvX].sX8X.X0XDXwX9X0X1X5XSXbXtX9XdXDXbXSXcX1X9X8XrX9XdXyXrX%X%XyXvX5X3XVX0X1X5XSXGXgXkX5XOXOX1XCXJXFXiX8XkXkX3X%X<XAXsX{..XsXHXhXdXiXnXbXAXCXpXfXGXHXiX9X8X4XXX-X1X.XtXGXLXkXsX4XSXtX6XfXkXhX8XOX1X%XCXDX7XOXnX8X<X4XbXdXDXAXDXsX-X",
"hX&XN.rX-XBXkXnX6XiX1X9XdXSXGXnX0XAXbXOXSXKXsXCXAXsXSXFXDXlXdX1X5X&XbXbXdXAXkX5X5XfXjXjXXX1XKXKXSX<XAXsX%XyXtXnXFXfX9XcX.XvXAXSXjX1X9XsXGXSXGXvXNXfX6XoXpXSXFXDXcXrX5X5XdXVXkXIXPXDX%X8XFXhX&X!.OXiXdXDXkX8XOXtX5XjXDXDXBXDXgXjXNXSXPXnX2XIX1X1XjXGX0XeXFX0XXX.X",
"dX8X4XfX].wXjXiXrX9XbXFXkXdXkX3X{..X%X8XBXNXDXFX0XxXSXdXfXjXCX0X-X5XjXfXcXtXOX5XkXIXKXVX9XoXfX5XiXAXJXBX2XOXXX7XNXBXjXKXnXkXNXfX&X&XfX0XtXMXKXPXAXfXpXlXFXDXNX3X6X$XOX1XNXJXbX&XkX4XXXfXBXGXZXsXsX1X%XdXdXjX%X%X9XBXjXdXJXGX0X1XBXJXAXhX4X[. X<XbXVX0X5XjX<X<XqX",
"rX5XVXBXkXsXsX1XxX5X9XCX$XtXAXsX%X1XsXBXAXcXBXjX].OXOX%X4X%X1X2X%X6XfX$X%X9X{.%XSXLXDXgXSXCXpXoX6XjXVXBXsX.XcXJXFXAXJXCXcXiXCXKXdX$XwX-X%XkX4XvXAXpX%X5XbXAXAXCXDXFXyXtXVXjXdX2X9X5XsXhX8XSXKXkX1XV.OX7XoXqX2X%X9XpXoX$X4XrX-X%XjXNXAXSX0X<X<X<XhXBXfX4XsXbXhXSX",
"%XOXSXDXSXLXNX$X<X-X1X0XcXPXLXcXXX5XhXhXAXSXjX8X$X0XOXnXAX2X%X{.V.$X$XQ..XiXnXAXCXfXsX6XcXvXKXAXhXDXFXqXOX8XdXjXAXjXdX$X!.-XbXGXkX8XcXcXiX8XOXnXAX7XOX{.oXhXZXPXnXcXcX8X6XSXDX7XcXDXkXsXXXfXBXBX0XiXjX7XOXoX XV.$XiX9XkXpXoXkX9X4XjXGXDX8X5XiX$XCXLXfX'.nXFXlXCX",
"JX2XdXBX<XjXjXiXjX8XQ.tXLXnXfXnX3XdXBXiX1X4XjXbXFXpXxXSXdXsX$X{.{.4X4XOX8XsXsXsX%XOX X4X X3XFXAXiXvXbX3X3XBX6XpX$X$XBXBX3X{.1XfXpXiXSXyXiX.XOX5XlX9X].5XoXlXjX1X1X&XkX0XQ.kXDXiXSXKXbX$XXXoX X<XhX0XmXsX4X5X1X.XXX%XiXfXAXsXzXVXqX2XNX9XcXBXsX8XkXSXtXOXhXoXnXJX",
"0XrXbXlX%XtX%X6XJX2X].bXcXXX.X-XnXbXcXyXOXSXVXiXCX0X0X%XOX.X{.2X{.].Q.{.].'.!.{..X%XcXDXqXkXdX8X9X5X%XOXNXBX7XfXXXdXNXlXhX&XOXtX1XyXsX8X1X!.;X!.7XsXoXiXsXhXJXjXrXrX0XhX$XOXdX9XpXcXDXkXkX9XOXOXXX!.{.{.V.N.!.!.5X.XV.%X5X9X8XlXsXGXkX%X5XhXoX1X0X5X%X%X%X1XAXBX",
"sXKXcXiX!.xX5XCXKX4X<X%XOX{.oX].mXyX9X6XOX5XNX<X$XnXPXN..X8X X9X1XhXlX{.!. XV.pXfX$XFXbX<XAXOX%X5XOX].OX5X5X{.OXoXfX<X<XfXzX<XV.!.%X&X6XOX1XrX$XhXjX7X%XrXBXlXiXOXx.OXhX1X!..XOXoXQ.0XnXxXKX9X9X4Xn.&X].!.5XfX.XhXrXZ.2X!.ZXKX%X1XAX<XQ.OXjX8X3X.X!.&X&X!.SXBXsX",
"FXeX!.5Xn.vXBXCXcX8Xm.x.x.Q.kXjX9X2XOX$XlX4X7X<X XsXAXoX!.DX0X$XjX8XsXkX4X'..X7XoXNXDXoX5XsXN.{.{.Q.pXhX].$X Xb..XfX$XoXwXoXpX7X$X7X].&XhXDX0XoXkX5X3X'.mXNXzX].Q.XX6X%X2X8X.XP.!.j. XjX].bXSX].%XOX.X6XkXlXiXsXpX].kX3XXXDXjX.X1X4X&X7X^.oXBXgX5X{.x.[.7XmXCXgX",
"vXQ.x.{.<XBXfX1X XcX,.!.x.!.fXhX3XV.b.mXNXfXOXP.V.%XiXdX].bXDXfX6Xl.B.SXSXN.x.-. XVXOXn.%XsXOX-.x.4XBXfXQ.V.mX$Xx..X{. X7X,.!.fXzX$Xl.Q.dXNXQ.9X6X!.V.3XAX4XoXj.%XSXN.j.0XjX0X{.-.].oXcXV.Q.bXOXl.V.l.0XVX1Xn.<XkXwXAX$X$XhXoX!.{..XOXdXlXb.8XlX.X!.l.dXjX.X%XBX",
"V.l.,.l.0XhX<Xl.l.fX1XwX'.V.<X7Xl.-.B.zX+XoXB.x.-.!.8XqXQ.cXCX7XXX#.-.8XfX{.-...].4X-.*.].0XdXb.l.9XVX+X%.l.iXkX'.l.b.oXaX*.-.E.zX]. .,.$XaXB.3XN.l.z.dX6Xg.Q.*.cXBXb.{  XhXfX!.V.fX4XOXx.#.OX.X..-.,.2XfXx.#.W.4XaXpX$X$XqXN.-.x.XXb.].zXb.{.pXN...t.SXnX] ,.fX",
"*.b.Q.XXwX3XOX| *.wXBXhX_.B.{.$X*.O.*.4X].Q.x.!.*.m.5XoXl.8X8X4Xn.-...V. Xb.N.b.Q.$X;.j. XoXfX4X[ {.lXB.*.].].4X8X,.| m.,X].'.[ oXV.X.,.f.wXN.N.%Xn.B.wX!.-.,.!.pX4X].%.Q.4X,Xl.7X9X7XQ.j.|  X[.*.n.,.V.].m.#.,.^.wX]. XQ.<XB.%.#.^.~.b.wXn.x. X!.b.#XhX3X{ *. X",
"N.<XXXQ.E.m.{.#.%.$XgX,XN.6.b.m.V.,.*.Q.].8Xb.{.%XoX{.x.*.1X%XB...#.*.%.;.B.wX,X$XpX~.E.Q.*.2XwX{ x.OXj.E.$Xl.].iXm.| ;.-..XkX:.m ;Xj.,.N.{.].N.7X,Xe.z.,.#.x.pXOXz.&XB.z.].*.*.pXB. X].*.r.7X4X).3X`.=.#.b.x...b.#Xx.Q.j.Q.$X^.%.:.6X<XQ.b.,.-.].XX#X4XN...*.b.",
"4XzXQ.b.| *.N.#.#.Q./.oX*.m -.,.-.r.r.%. X4Xm.4X4XoXz.6.x.V.N.j.| ..oX^.,.oXkX,XoX7X$X^.O.q '.#XX. .-.#.[.,X..,.9X XE.*.X.x.pX^.r oXoXX.V.#.b.f.).,X~.%.X.l.#X4Xj.{ 6XB.| l.b | #Xj.*.z.%.[.6XE. XlX,Xb.%._.b...b.g. .b.O.l.oX,X`.p.#X,X*.b...X.Q.E.p.).[ %.l.:.",
"7X,X[ j.e %.,X].,.N.%.z.c O...*.m.>.).r.W.l.N.kXoXQ.V.x.m.m.%.oXj.%.wX,Xs.[.kXt.j.oX$XQ.%.c  .oX| e c m. X[.,.-.3XB.,XE.r l.#Xf.-.%X#X| l.O...X.r.p.<X*.{ Q.wX).| %.B./. X..e c W.v  .%.*.#X).' &.fX[.p.f.wXz.B.$X*.m.m.*.,.Q. XfX#XW.t.*.^.l.p.r.%.X.j./ ].^.f.",
"oXR.[ c 0 j.wX,Xb.oX .C 8 w.z.*.E.] ^.] -...z.0X'.l.....B._._.,X5.j.oX].j.c.7X| ,.g.f.l.j.| e j.s.*.*.wX'.x.| '.0Xj.).` c ~.m.m ,.$Xj.@. XQ. .9 ..%.z.*.E.N.$XB.Q.%.w E.7XM j.j.%.X.C x.O.^.w.|  . X6.b.p.m.N.[.,X~.#XB.-.X.N.,.4X).%.#.c Q.Q.^.w.e 0 } E.7XN.] ",
"j.a.O.e e | ^.).] ).| 0 z z E.s.f.*.%.z ..} ,.'.'.| m X.*.`.7Xm.*.j.j.].*.B.Q.c *.%.[ O.O.:.| r ).z.&.wXz.#.| [ #Xl.g.%.X.#X*.8 %.N.m e '.oX*.O.m #.| r.).f.b.z.].c X./ ).&.p.N. .*.m O.| w.O.O. .=.'.=.5. .l._.s.oXwXz.b c :.| b.p.X.;.7 O.l.^.e.0 0 O.). Xf.| ",
"7 a.*.t.%.c f.O.v E.1.) ] { w.] p.0 $ b %.s.| #.6.| g.%.e [.wX} =.#.#.Q.*.`.W.e %.} c c 0 ' w.w.a.%.*.).l.+ ] f.^.=.j.| e N.E.{ ` ] *.O.j.m.%.oX&.9 ,.] w.z.c p.j.[ r.q m.t.f.&.*.).*.m m m }  .M &.#X5.-...} ^.w ~.#X| v y.%.m ..c ] *.e e c g.5.9 %.p.).v ` | ",
"7 %.*.^.w.c 5.9  .=.w.(.a.^ c z | 0 @ 8 z.^.0 0 M %.s.&.0 b.).O.e C @.b.| ).(.# M } # } w ` R.R.*.*.r.p.,.r ` W.p. .| c X.*.~.z ^ ' :.p.s.7 c Q.o.9 *.m *.=.9 r.*.W.%.q ] ] W.*.E.).r.b b d M b 9 j.).j...c c r.5 t.Q.e 5.y.O.e 0 e r.r.8 m q :.} ) R.] N.0 M m ",
"z # } ).R.q m 9 m m | R.R./ o 6 6 d d # ] z.b 8 %.} c a.v O.f.v # 8 m t.v h.a.# d b z %.%./ 1.#XO.] ^.O.0 ] ` ^ :.c r %.O.t.w.o 7 y.` &.j.+ w X.z c :.m *.c 6 ] O.~.} 0 p r.p.O.).1.( } 9 ..M 0 d *.(.O.b c c b # ` :.| f.{ ` b 0 %.r.] 0 b e 7 + a.R.v *.9 d 5 ",
"b # ` ).W.q 6 &.| ..m :.R.1.% + 6 +.O.9 z r.d.o.c 5 t.#X^ v R.x $ O.{ | 6 :.:.z | O.h.o.c o x ).o.b E.+.@ ] c 8 z w.| | v W.^ @ 8 c ` 5 c z | z c w.W.v z z [ { 0 &.0 m % ] t.7 p.o.% 0 6 :.[ / %.M r.c o c ` 6 + ] / } `.y.5 e ] ).] 6 b :.` 9 6 (.g.6 c %.m e ",
"m 0 r.W.o.b e (.~.X.9 c p.y # 7 X.*.| # o v `.^.0 8 #X_.0 z w.z 0 [ z c 8 p c 0 | a.).v o # @ ' | # } c c :.8 o + h.(.z + :.` z 7 w / c } @ v 6 z g.(.b # | ).c o @ 6 } 8 z #.8 c u $ 0 8 t.(.] X.6 p 7 7 6 / 7 + [ ^ + [.`.7 q R.#X| X # %.[ 0 ^ *X` % 8 R.y.{ ",
"X.8 :.' $ s e R.).c # @ N 6 9 0 *.%.0 o @ o k.$X .6 #Xe.# + z z e w o O.d @ @ 8 p R.#Xv # e # 7 0 o o 5 c ` @ @ o u.`.z o p a.` + c z | v # @ @ 7 W.h.7 + | #X^ o @ @ X.7 # $ # 9 9 d b 6 s.#X] q O @ 5 e @ 7 w 5 y z X 2.#Xy 7 #Xr.q @ #  .*.# z R.z $ % s.R.v ",
"m 0 x v 8 6 o ' (.q 6 d 8 9 m z *.*.6 c b 9 o g.&.o y.v X 6 @ @ 0 @ o } d c @ 8 p e.t.o.7 ` d 0 @ @ 7 @ @ p o 7 o s.R.y 6 o z ) o p 7 @ 6 m d @ q v +.6 ] z ).) % 0 6 @ $ 7 s % O.} b } p t.5.x @ 7 w 7 @ 6 O 7 @ @ o o y ).x p r.6 7 p b z ` z 9 z z b # ' W.6 ",
"9 e e $ z { 7 6 %.z b M  .m | | c 6 c j.} 0 6 6 c O @ @ @ w 7 # 0 0 9 7 @ c ^ ` p 6 + 6 c [ 6 6 @ 5 r 7 o q z c w +.v ` 6 7 6 8 8 @ p # c ` r q 7 + # @ f.) c v p { r @ # c v $ z z m { 6 p @ &.x c ^ y @ 0 7 w 9 O + 5 @ v O 6 + + z O.] z 7 z s % v | ) p v # ",
"o.o r 9 } ] c $ 6 } %.%.O.| y./ 6 @ &.` p z 7 X 6 o $ @ z c z e %.| e 5 s ] ] ] ` 7 o # ( [ z + @ c ( w 7 / ) v %.% 6 c $ z %.b 0 8 @ e X.5.' / c u 8 7 O.%.# 7 / c / d w c O.z 0 v c X.p O p d.u.] :./ 6 7 X.` z 5 r w @ . @ 0 9 o v :.h.) 7 7 0 0 | w.r.5 @ 9 ",
"$.@ z 9 b | 7 @ # c h.a.' %.p.%.9 c 1.k.N o o 7 w 6 0 9 z *.v n f.a.z 7 5.t.e.w.s.v z 7 c a.z # + v ) c w c z + X.z e w z p ] 1.m # 6 c { ] t.t.) d c ` 6 + c } { 9 d 9 c %.O.m ` y.o.z m 0 7 a Z.@X`.z @ b ] y.v } ` 7 @ 7 w c 0 8 $ O.w.} O.] { 8 / h.) 0 @ 8 ",
"@ p | d b 0 + o @ v h.s.f.1.z 8 c a./.,XM.< u c 7 w c r 7 p p @ e.w.z O.W.(.,Xd.d./ / [ p v q / y 9  .c 9 b 8 v [ | | ` y @ { ] p p | %.:.` 1.o.p c v ' | c ] e.} 8 6 8 0 O.} q %.' p 7 z O.v o 8.9.C.9.z z O.r.6 p z 6 7 e } O.e m c z 0 d *.s.v 7 7 r.| 0 b 6 ",
"f b 0 } | &.c $ @ c 1.v t.} 0 d p (.u._ N f c { w c w.] { $ # # p | @ ' s._ ,X%.m | ' ` 7 9 | R.] b b e 0 c 0 ` y.O.O.w.^ o 6 z 6 ` h.+.(.w.o.n m b # +.j.*.e.k.| 0 / z 9 j.w.7 m b 8 7 | ] O.@ a u @ u ] o.$ p # 8 z ) c z ] e.O.| t.w.z % v O.7 b # } z c &.| ",
"k 1.1.] e.1.| r 6 r 6 $ 8 b N 3.M 3.2.. X v ] :.^ { ' y { | c { 7 8 @ p x @ s.v b e.t.y ^ ` v 5.O.p &.*.O./ c 6 ] g.j.*.t 6 7 6 @ / O.o ' ^ + 7 &.&.d @.B.m.e.e.O.| s.&.m *.1.c m c { c v e.w.^ u ; z t v a $ 0 { b } v z 8 5.s.%.M w.*.9 p c r %.%.b 6 8 X.:.` ",
"i g.(.e.x z ] ` w { d 9 $ @ H i @ 7.A.1 i v a.h.[ c c z O.%.%.w.c z 6 9 % @ x | %.^.t.] r.] 6 o o p w.w.t.] { # 1.s.t.h.' O.c 6 ; 6 o w 5 7 %.| e.s.w.{ x.z.&.+.8 %.r.] O.*.%.d O.%.t.w.&.z.^.y.r $ @ 4 o 6 b *.w.%.,.z 0 m O.O.| # z 7 v %.O.c ~.R.c O.z O.%.7 ",
"@ p z u % ` h.] { s.c r 6 > q.0.  3.8.. z 0 o.h.y.y 7 w.| z *.j.*.] v z z 6 @ w.%.z.) e.`.t.v d p } %.:.v x m 0 M 0 v E.d.%.z @ O D M ;.| m 5.5.5.[.~.%.| | 6 # d } r.h.5.b #.6 %.m./.d.*.1.t.` q u l @ 7 c | *.u.%.&.z 7 w.r.| p $ 8 b *.m.g.] B.f.z &.O.r.r.N ",
"# v o.x v b &.v c ' w.w.} H uXU.< h o w 0 e 0 v v 7 z 8 6 y O.O.j.%.b c X.0 @ s.v b 0 z ^.s.w.%.| y.O.c p p ] | e d 9 +.o.0 w { ^ 3.N | *.5.w.&.} *.} p c w c 9 &.' ' p.&.; @ } | t.t.e.&.9 o.1.9.l N 8 c c O.} ) | 6 z v O.e.c p v 0 5.s.z.oXd.O.M  .O.| { %.N ",
"e.d.&.] e.} 8 8 x g.).a.o.l uXK.o i p ;.X.c { } z z } z %./.] j.*.c v v m p x w.x + m 0 e.&.d.s.] ] &.# 9 w.p.r.%.c d 0 0 O.c %.:.v O @ x w.t.O.o./ 7 8 z ` ` b o.t.w.*.# d b ] r.%.| h.' 8 q ^ d.a 0 c X.0 M | *.B.#.-.t.} d p O.| 8 | f.z.+.v o 6 5.r.] 6 # o ",
"~.z.M./.k.5.m 0 @ 2.s.a.z i uX4.X H $.r.] O.] r.s.| 0 %.u.eX~.e.z.] w.5.z 7 | x z %.&.6 c } &.z.R.w.m b @ w.f.y.] v z @.z O.| w.[ v @ @ @ w.f.*.e.(.1.m [ (.g.` z ' s.} 7 c O.s.f.7 y ^.' + r + +.x c |  .#.*.w.d.+Xc.B.g.*.$ x O.b z 6 | O.d 8 d @ t.E.y.z 0 9 ",
"/.c.8XeX}.=.b c 7 0 b o.6 s q.k i 3.N O.v d O.r.O.z 6 O.w.+X3X5._.g.w.%.9 9 m O p w.z 6 z c 9 x k.v z } 7 6 j.z + z v %.c ^ } } %.x z } u r.' ' (.`.u.w. .&.o.v + b z # { } X.&.v o 6 z.+.; p @ O p d b @.t.j.d.+XZ.|.[.@Xc.9 p z v *.c 8 z c { } 6 o.s.z 7 r 6 ",
"c.c _.).j. .6.z.O.*.| 0 @ % , > 3.A.$.c z # @ 7 o.d.' t ' e.3.v s.d.O.6 9 m { 7 @ + v.v.7 9 9 o $ O.w.%.*.v 0 # z j.w.%.*.f.,.&.:.} m c 7 m d ] g.5.v o.c } ' z o 0 d  .O.%.b $ @ @ + 7 # N 8.8 7 e 0 0 z #.%.}.m.+XsX5.k.=.+.=.*.t.] O.| %.%.p.t.v 6 } 9 H 3.& ",
"p o e.t.7 z m.m.w.] | z u u = i 6 c z ' a.` p + e./.g.) ^ x % @ k.5.m |  .*.) / p 6 /.3.6 v 0 0 d &.t.1.s.g.{ 6 } g.~.| +.`.).5.v + c *.o.0 # v / o v +.&.*.s.w.c 0 j.w.w.t.} 8 9 d N @ o 8.+.7 | 8 c ' | %.*.5.7 M.,X#.9 b k.Z.k.g.%.t.h.j.` t.h.j.X.r 0 g k 7 ",
"n o o.O.6 d.`.c.z.g.' u i 8.F s r | z ' w.%.6 z *.7.g.g.) 9 M 6 %.k.&.B.M o.1.] p z *.z *.s.{ | | v t.t.w.w.' z m p.t.'  .5._.#.$ $.e.~.e.p ^ p + z p.~.j.*.} +.O.c j.w.e.E.N b c } e.v + 3.} 6 O.M v *.e.s.5.v 9 | m.c b 5./.~.o.p d ] R.t.w.w.p.] v w.u 7 7 0 ",
"6 $ 6 0 6 g._.*.*.` u s l q.g o M &.c | z z z #.8 z (.~.` ..%.O.7 m j.5.9 M m.&.z X.d 9 O.s.` r.y.} j.f.z X.| 6 n p.w.s.&.0 +.z @.5././.e.5.1.O.8 b s.d.s.j.8 + z d @.s.t.j.z | ] O.O.a.} o 6 p %.%.0 d 5.&.c z } m d 0 b k.d.z.v # # z ' &.R.O.%.O.+ N i 5.#.e ",
"8 0 9 0 # ' ] p o.v , X F A.. $ 0 m | } v %.&.%.p p d.` z m j.g.o.d b o.+.*.d.w.| c 9 6 { p c a.h.^ 6 } 7 X.d s $ +.w.1.O.8 } %.*.5.5.5.O.5.&.&.z # O.r.x 6 7 { 7 $ 6 ] ] p 6 *.r.} p W.&.o m o.*.r.' v 9 0 | %.*.o.b d 9 #.d.*.O.z O.%.c z t.v $ s o j G o.} X.",
"b } m c 7 p } d $ &.|.9.8.8.X 9 c ] f.O.' %.w.t.' d m z 8 0 } e.] *.d M B.w.} v w.O.z z c p % *.y.u o w { 7 7 m 7 7 9 6 m M #.g.t.e.s.=.k.7.&.p.r.z 6 z o 8 } ] } d % 6 c $ 9 v O.6 @ | z b *.O.+.f./ M b M -.c.O.j.k.%.m C v c e.*.e.t.x % x z c n 9 3.H v O.c ",
"} %.O.| 6 $ z 6 # z @X|.4.l @ 7 c ).~.5.~.' z.R.r.} # 9 M b v ] w.%.O.&.%.*.&.d z w.r.} %.' 6 $ n d @ z ] %.c %.a.) # 0 b m z 1.d./.k.c.:XZ.B.s.t.t.a 9 b O.e.t.w.e 0 v m m  .s $ v z % c ' >.) d } c O.j.*.*.z.c e.g.z.%. .0 0 +.s.t.5.d % o z v  .d l N z O.) ",
"&.` c m 9 z / 7 @ @ 6 _ h f 7 | z j.v ^ ,X1.c c.y.1.d b #.*.&.z.(.z.k.k.6 +.e.#.o.1.h.o.v h.z 8 m ..0 c d.g.o.1.,Xe.0 m m | { ' u.k.c '.,X}.'.`.s.5.@.O.O.O.s.~.] m } t.*.#.O.b 0 7 c 9 m w.R.h.z M &.e.`.~.+.@.| v g.B.*.%.&.z 6 #.z.s.O.c 8 O.` X.6 l i.x @ ] ",
"s.' c 0 d O.r.c 9 @ 9 > - @ c ] x 9 + z ~.5.6 d z 1.&.| j.s.#.v c.k.=.c M &.} &.} &.] d o.O.d b  .w.) 7 z.~.5.x oXt.&.) c ' t.5.@.0 O.o.g.d.z g.d.7 *.1.5.w.5.5.' v w.g.j. .0  .m 6 { r 9 z t.s.O.o.5.O.5.m.v #.M + 7.}.c.d.g.1.9 # n t.' p.v v r.h.+.E N u 9 b ",
"*.| ] %.*.l.z.m z z 6 l : . x %.b # c p v } # o @ e.v z j.~.o.8 &.v.|.5.=.m.&.*.%.O.m # x O.c  .%.~./.v *.d.v 6 v v g.w.6.~.`.k.0 o.[.2.o.M | m 6.M 5.t.].c.d 9 z v E./.c v 5.O. .} r.` v 6 6 c y.&.*.}.M.=.c.v.@.| +.+X+X_.t.z v z 8 9 M &.&.c w.C.i V u O. .%.",
"z 7 O.t.a.w.O.b | } 7.A.; = * $.i.' %.p @ r 7 m n o.O.z k.k.z O.k.}.2X}.M.|.d.k.d.k.n p ' r.O.t.s.B.}.z o.o.0 8 o.(.~.O.v.qX/.5.| &.+X_.o.0 |  .#.d z ] e.#.d m b 6 5.o.5 e.~.] o.e.f.p.*.p } 5.*.j.'.wXZ.c.|.+X}.5.%.M.:Xd.) z %.c d O.] O.} z _.i.X @ t.w.O.w.",
"} c 7 w.f.~.5.' &. .p 8.9.z = < 8.+.x 9 b ) w.} *.o.} 8 M  .M j.|.8X:X:X:X+XZ.=.5.=.@.| t.~.*.1./.z.M @.#. .} 0 k./.g.*.v |.m.%.s.d.Z.5.%.O.b | 5.@.0  . .b %.&.O.&.z p v m.d.j.1.w.s.&.d } t.z.O.m.qX+XZ.|.wXwXM.o.#.=.[.v m o.w.} 9 v ^.g.*.z _.[.@ i._.g.g.e.",
"5.z + z *.f.z.w.j.b + O l x l l o $ 0 b  .s.R.c v e.v 9  .@.M  .Z.:X}.yX2Xm.6. .M #.g.&.m } %.*.6.=.O.B.l.j.w.z 9 1.*.m # c } &.f.~.&.c %.~.5.O.e.z.%.b 8 +.N.j.j.'.| ] ) z O.z.s.x n $ o.y.j.z.*.5.V.k.yXM.Z.2XB.+.d =.k.M 9 } *.&.} 7 v.$.v.o.] 5.# Z.,X+Xg.g.",
"#.7 6 + v &.d #.M z 7 6 u = i H i ; o d b &.d.6 @ ) 6 o.k.c.d.+.7._.c.v.+Xk.b +.m &.e.&.b e.g.| C 6.m.g.e.g.g.&.9 d O.#.d 9 v w.E.s.o.*.e.g.*.*.5.*.t.) 6 d.[.'.m.k.k.t.w.z b 5.e.p 7 p x r.O.5.%.k.B.5.Z.v &.c.c.5.c 7.5.M @.5.~.g.=.m } O.%.| | 6 v z d.$.e.(.",
"6 p 6 @ &.j.d | &.O.z *.z = 8.3.l U.0.i $ 6 z p @ 7 9 v j.g.`.k.*.^.o.M c.7.@.B.z.O.b b b 1.1.c M Z.wXC.5.k.g.u.z b &.u./ d @.z.z.&.d 5.g.5.7 t.g.1.g.] 6 m.m.`.C.5.,Xg.c.x M j.O.d %.| d v 6 z v '.+XO.b } e.v M &.&.}.|.m.=.@.B.5.c m.j.t./ | O.8.>X7 9 % *.R.",
"z ` | 6 } &.@ m %.z 9 b 6 ; 8.3.X H N b $ p w.w.v z %.z &.z.c.c.c.u.p b m &.5.m.Z.#.o.k.o.p 9 7 7 5.,Xu.b n z.s.z %.*.O.d @.+.M o.0 9 b j.M 8 &.s.#.z./ v 0 o.`.5.c +Xg.z 8 0 ..z 9 #.O.&.5.p 0  .5.z.k.m %./.M.6.5.z.:X+XB.&.b #.O.k.oXz.C.5.+ x uXuXw 7 % p %.",
"c ] ] } v t.z | %.w w z w n l 5 u % O q 6 *.5.k.5.o.t.*.O.&.&.k.5.s.o.5.m @.w.M.6.#.#.c.O.0 z *.o.z g.%.8 6 v @.0 %.&.m d O.%.v 7 z v v b @.@.z | d d #.=.b x m.v 9 j.N.z v #. .&.@.M O.%.u.5.&.M #.g.5.m c.,X,Xk.#.z.}.B.5.%.O.c v j.5.e./.5.X N 8.n X.d $ @ z ",
"' l.d.m.0 #.v *.m.| ` w.{ z 6 { b d = q %.R.w.5.t.e.g.t.| k.m.&.o.&.m.C.&.O.k.M.6.=.5.c.*.c 5.d.#.7 M b b o.+.Z m -.d.*.@.z.j.c v ] z.5.#.5.5.m M @.m M l.#.b m b b b v 6 | z.s.g.z.O.5.&.5.g.g.O.@.*.O.=.7.}.g.j.m &.M.=.+.&.*.w.' | 7 v g.o.< f @.N s ; 0 0 8 ",
"g.j._.g.c m *.&.z { B.k.c c O.#.0 r f o p e.] ,.=.&.d.z.k.m.j.@.n M Z.B.j.5.c.}.m.c.c.~.M.m.m.k.c +.5.5.m o.1.@.-.c u.j.*.B.B.&.c 5.d.5.k.1.=.&.*.@.z.&.#. .#.M O.%.m d O.z @.j.~.B.=.z.m.x._./.z.*.k.c.5.M m w.5.@.m &.#.5.j.f.R.W.O.+ 5 O.; ; > n v z 9 m #.m ",
"_.c Z.k.0 c *.w.| t.t.%.] j.+.o.o.#.| z O a u  .b v j.c.[.`.g.O.9 o.'.|./.c.v.3Xv.}.|.|.2X3XZ.j.#.k.k.s.o.O.%.5.j.O.j.5.m.|.|.k.&.M.=.x.z.t.+.5.z.j.m.j.b &.t.&.1.e. .@.1.*.+.b m.|.k.}.|.Z.:XrX'.B.k.C.m.v ] s.s.*.z 7.~.Q.&.s.1.s.v ; N N ; @ c 6 ) %.0 | r.| ",
"~.d d @.O.v c } *.~.u.t.t.k.b O.s.t.` z @ @ > ; v *. X'.k.M.B.~.o.O.z.|.|.#.=.v.@.}.2XZ.:X6.c.k.m v.6.M  .*.| O.z.} } j.+XeX:Xc.=.}.k.'.'.~.g.k.'.g.g.5.6.B.g.*.%.}  .#.M e.B.k.z.6.#.+XeX:X6.Z.m.m.#.&.m.5.f.*.*.w.j.m.g.E.%.*.} #.6 4.0.a } | ] y m m 0 | p.] ",
"%.# 0 w m./.O.0  .g.t.1.%.m | %.j.d.v # v z l H j.&./.c.m =.l./.m. .z.B.&.=.=.B.5.Z.eX+Xv.$.6.6.&.&.m.+.0 O.%.&.k.o.5.} M.3X:Xc.O.#.m.,X`.B.+XB._.c.z.~.B.c.j.%.5.} b @.6.&.v.`.>X=.@.5.|.wX|.c.5.&. .j.5.} j.%.w.f.k.@.w.E.v n @.u 4.3.7 w w O.u.&.c | &.| %.| ",
"z 7 c c %._.m.z 6 *.*.b b &.e.t.&.+.0 z %.%.a H o.s k.*.# x f.7.5.@.#.j.*.c.m.@X+XeXzX+X|.+Xk.5.B.k.k.#.p g.d.j.o.k.'.d.[.3X|.5.m.6.#.B./.#.M m./.@.+.E.j.&.g.w.5.M v u.j.5.Z.|.3X=.O.[.wXqX+X2X|.v.V.c.m.5.c z O.s.v 7 o.s.p u f 4.H @ p X.X.X.j.m.*.p w.f.r.{ ",
"c 1.r.' &.%.| x %.w. .m m +.`.(.e.*.b O.1.5.&.d 9 9 a s d 6 5.z b M 0 &.5.c.B.+X|.2XwXk.Z.2X3X'.B.B.k.o.$.z.d.d.M.M.u._.:Xc.5.j.$X}.=.5.z.*.#.w.u.M @.*.&. .z.m.o.0 c.~.|.:XqXk.6.&.=.+XeX:Xj.Z.:X:X|.k.6.+.m d c } s ` x a 6 N ; b 6 6 @ / :.*.m./.O.+.%.1.w.d ",
"r.p.g.~.g.*.b 5./.s.5.*.%.c ^.^.#XM.m  .t.~.&.0 v z z z +.; u p @.@.d &.O.d.[.M.k.7.7.6.=.Z.eX:Xk.5.j.5.m 5.B.+XqXeX+X5.'.c.} c.m.M.B.k.+X`.7.M./.Z.B.k. .O.' O.j.v =.B.|.:XeXc. .M.v.Z.|.v.6.$.M.+XB.M.#.O.%.z r z o m 3., u 7 @ | | z 6 p.R.j.`.~.} 5.+.6 9 n ",
"e.t.~.`.1.O.b @.Z.e.d././.j.s.O.=.| 5.=.&.t.c v 1.%.| z k.7.x | *.] O.O.} O.z.6.5.i.m x.#.6.}.V.k.m.=.m c z.+.Z.+X3X[.&.o.5.| [.:X}.7.z.`.`.3X|.~.x.c.~.k.C.~.5.j.c M o.} M./.5.k.:X|.|.Z.| x.v k.=.=.5.6.m.O.k.t.6 h H H p ' o.p %.r.5.| [.d.c '.B.z z C.i.b O.",
"$ @ &.g.c 1.#.m c.B.@X>X+X} M n 0 1.`._.k.j.w.O.m.s.O.8 p >XA.+.o.o.m.=.c c m -.}.>XV.}.k.c.6.6.#.M.x.M | z o.}.j.z.k.7.7.d.&.m.+Xc.m #.M./.B.k.m.m  .k.B.[.M.6.m &.o.c 5.l.z.#.Z.eXyXZ.v.m.}.M.=.n #. .x.~.=.C.~.N J.j 7 | v p ) ] C.d.O.+.b 0 *.O.@.*.,Xi.b 0 ",
"6 8 z | s.z.n O.`.`.7.@Xj.z 9 0 0 e.5.B.>Xc.5.v $.k. .b l A.3.a 6 v '.v.Z.}.|  .:X3XZ.|.m.+X#.@.b +.6.z.&.z e.z.O.k.7.z B.:Xu.k.j.=.5.#.c.M.+.V.[.#.#.m @.6.<.M $.d.#.&.*. .*.z.Z.eX:X5.c.2X|.Z.6.#.O.=.+.g.o.' 1.N L.@ { c Z m r.t.u.+.@.0 8 d b %.z.*.k.c m 8 ",
"O.z # z w.p s c s.~.7 M #.m 5.j.z p M j._./.v z k.#.M  .N N 6 @ 5.}.M.8.|.>X7.M [.[.k.k.m.Z.'.&.} p m k.t.o.1.&.} [.M.k.m.~.c.z.O.5.m.k.}.m.#.x.'.m.m.x.d <.x.@.5.m.e.j.| O.~.'.k.}.V.@.Z.|.Z.j.Z.|.u.c.#.j.o.v ^ l H u %.1.O.b &.d.| 0 m &.O.| 0 v._.k.0 v %.X.",
"p } p 9 0 0 m d n O.d b  .=./.E.O.# # %.d.d.z #.g.g.=.5.=...z O 9.:XA.8.|.Z.+.9 c.'.=. .l.c.(.s.e.O.| | v v z 0 z g.g.N.l.z.z.=.~.m.5.&.M.5.0 =.B./.m.6.M =.m.k.@.M o.z.&.z ~.M.&.k.#.6.5.g.t.c k. Xd.j.m a n @.O.j o d %.t.y.%.| | *.j.5.j.t.&. .&.Z.=.z e.s.m.",
"} %.o.v } } b m # $ O.5.O.&././.1.7.9 s &.n 8 %.*.k.=.d d M 7 u @ 5.a 6.k.*.p % @.m.b d O.O.d.*.&.e.b.*.M O.0 p 9 ] t.5.c &.k.| ].k.0 O.c.#.0  .'.g.+. .=. .m.d.@.9 o.o.b 5 k.z.@.@.d 6.m *.w.7 M g.%.z 0 b 9 b b < @ + 6 c } m O.e.5.c.z.k.C.s.O.c o.z ,.j./. X",
"*.| %.] r.` m b c 0 z.~.w.*.g.~.d.f.n 0 9 9 d &.@.@.n m 0 m m 7.a   6 $.N @ s o.c | z 6 d 7 5.} c *.b.} v %.' &.b z } b 6 m./.w.*.M 0 c k.&.#.m.j.o.6 o.s.j.5.t.m z l.M m | %.&.Z @.@.e z m O.6 9 *.O.z 0 5.M b d ; @ 6 6 z 9 m j.%.} u.'.|./._.j.0 0 ] W.s./.$X",
"f.*.d.E.w.w.7 O.r.` &.k.1.v $.d.`.e.z | 7 { | 0  .*.O.*.O.-. .N H O i.i.v.i p t.' 8 O.O.} } 0 v *.*.m b w.u.w.O. .M O.8 M B./.' m b %.:.O.O.l.'.o.$ b z.^.z.b O.} } :.&.5.z.@.d Z c.g.M %.c 7 | m 9 } %.m y.5. .b K a | / ] | O.%.b z.M.>X,Xe.5.&.0 ] )./.&.a }.",
").z._.#Xo.b z O.h.R.) C d @ o +.#Xd.} y.O.w.%.m *.w.p.p.O.M 9 + H l M.@X$.$ b  .M b *.t.t.) 8 &.R.j.} O.m.g.O.| w.j.O.b + z.g.z 0 M z.~.5.v w.w.v b M j.).j.# b ] 1.w.+.s.E.$.Z b e.).j.*.m v a.O.M O.z m %.*.c t a s } w.t.O.d b d &.M ~.d.6 9 n 0 O.).5.8 # x ",
"~.&.7.~.p p %...O.} z } O.7 6 5 m.=.9 *.%.O.%.O.W.j.} s.v 0 0 7 k ; o.c.l s m @.O.O.O.c.j.c 8 n 5.b *.t.5.m.k.&.z.u.O.%.p v &.0 } *.O.Z.7.O.C.O.v O.O.M 5.#.9 0 %.s.} v g./.+.m | o.~.#.| m m ' v } O.6 | | | ) ^ @ j < x &.O.d b m d 0 &.v 0 @.v @.m *.#.0 @ v ",
"@.z 0 m b ] a.*.b 0 c ~.w.O.| ^ c d b { w.%.%.p.^.t.0 b n M c m p < f M ; a | 1.w.j.m m #.| M  .m 0 O.t.&.+Xm.z.~.p.u.M.@.9 $  .5.t.o.@.| *.wXv.| t.j.o.0 b d b M o.# v &.z } w.g.j.=.0 w | | v O.%.%.} t.] e.g.] z L g o 9 v %.*.*.#.m 0 a %.e.' k.k.O.m O.b v ",
"$ 7 9 9 b w.).p.m b ] `.w.1.g.y.v 9 d *.`.s.e.,Xc. .X.] *.*.] / v J - ; O 0 b *.s.O.0 O.~.z.&.z.s.%.b j.v 6.d 1.).' O.5.m m # m ' w.5.b.b.k.yX}.o.z.j.t.%.b 0 ] | p z 0 d 7 ` g.^.5.v &.*.O.| ' s.#.O./.`.e.c.(.y.%.p N p 0 O.p.p.w.s.%.O.z &.~./.m.`.s.z b.O.` ",
"^ ` 7 0 9 %.E.s.m } p.^.w.| d.e.8 c *.#./.k.m `.m.0 0 t.y.e.h.5.p l i H s 5 # v o.v %.c.+X5.k.g.g.5.M M c c z z 5.v d z *.*.d 0 1.a.t.z.m.d.[.Z.d.~.t.j.k.z } ] O.e.y.) v } ] E.%.b 0 w.g.%.%.y.5.v z c.,X5.=.o.7 } a N p m X.a.s.*.t.{ z 0 *.~.3X[.c.c.c f.*.%.",
"w.] | b # d  .} X v ] w.v @ O.z b %.z.z.e.w.9 0  .-.0 O.%.o.5.d 0 o H uXa r 0 0 9 j.%.k.Z.d.`.g.*.b 0 d O.] w.O.M b 0 b w.s.c c ` 1.v 0 o.`.qXZ././.m.7 d z t./.d.w.s.' o.0 c 5.' O.m %.t.o.*.w.u.g.o.m ~.~.M.e.v 9 ; i O.%.0 c | d } p 8 } %.x 5.E.6 8 7 u.s.r.",
"w.w.' ] O.9 d 8 $ 9 / c 9 % # d *.O.~./.g.g.z 8 @.z.*.} c b #.b e # i uX$.] c m +.=.z k.k.i.>XC.O.&.5 M e.h.h.5.z | | } %.O.m 0 O. .$ } 1./.c.O.g.k.c.6 8 5 %._._.O.o.x # e d 5.R.t.&.j.%. .M 1.s.d.#.M c.e._.f.) 7 @ O b %.c m b b *.#. . . .$ O.] @ 8 8 m *.%.",
"*.f.5.] ]  .m 0 m 0 7 m m 9 0 9 x m f.B.o.s.b O.j.t.g.w.X.} O.v 8 l l H u O.O.1.O.*.%.&.5.O.C.+.x g.5.c k.R.g.*.1.u.j.5.w.O.X.m 9 b d b 1.u.N s *.j.O.0 M } b b o.z |  .d z 0 ' a.v O.s.1.m 0 e.s.] z.@.#.6 5.s.` + < s b %.' 5.*.=.z.*.o.*.k.n n p @ } | d s @ ",
"z ' 0 z | e.%.X.%.z v O.m e b n # 9 O.o.+ b v w.z.f.(.j.{ ] r.y.c i g k s @ 7 } m *.' m | 5 =.p @ 1.j.z n #.j.p k.C.5.&.5.5...b s m } 0 v c 9 s d M 0 M O.y.v 0 { a.f.%.O.*.z z / # 6 ] %.d 0 O.) o.w.6 # $ 6 v 6 u 4.x | j.O.t.f.5.z.e.z v c.o.# 7 9 } ' n d x ",
"0 # z ) ^ o.%.:.r.%.r.o.b b O.*.m $ f n 9 9 #.B.=.+.).z.*.R.f.s.c : O K @ @ 6 c M | c 6 8 b 0 $ 9 x O.m d d u 9 %.c.m z.z.M b # x k.c c v 0 0 v p # z &.] w.c z (.~.j.*.z.g.1.z 9 $ $ b m | ..d 6 d p 7 7 6 6 e o 3.8.u m  .z &.d.5.[./.o.7 m m v | v c | b m y.",
"#.9 w.g.+.9 m | ] %.v v } e.h.*.O.n +.2. .M b -.m 5 w.} c w.5.v n H g i 7 7 6 ' &.7 @ b O.1.m 0 z p a 6.6.M # b m s m &.5.b m # o.^.%.%.e.O.b m { v c c O.| 0 9 o.b a p j.).h.' 9 d z 0 b ] :.' b # 0 } ' ] v r 0 N ; 0 e %.*.m 6 *.6.+.z %.v { ' ` ' m  .v | ` ",
"p.z | z.d n @.q :.r.O.r.%.5.).s.1.w.5.+.M ..O.%.O.7 8 $ 6 %.z @ 4.S., 9 m | z } O.z b m 1.2.| b c c &.k.d.6.b m  .m b 0 | z.*.0 c.C.i x z.5.O.#.m *.| c O.m } b 8 5 v $ } g.1.p 0 O.] X.9 v ^ 1. .0 v O.] w.a 9 f - 6 r } s.*.9 p &. .8 8 1.p.r.a.] } d b ) f.O.",
"f.c z w.] O.&.5 v %.z p.w.0 *.e.O.w.v 0 # N g.y.a.+.+ + o m 5 f D H n 9 b %.O.9 8 o.O.X.O.0 b m e c s.e.5.=.m %.` O.b | w.&.j.b N 3.@ # m -.m.6.} j.O.o.p j.r.` X.| e.$ d j.m # 7 | s.&.9 @ c b 0 z M e.*.b 0 v i o.m c ' t.%.8 &.R.5.| v p *.s.~.*.%.d %.] s.*.",
"t.{ *._.g.j.w.v 6 o.z v 5.9 0 0 m b 0 c 8 x ).g.a.1.z c c z a i X A.v.^ O.w.' p q 1.u.` &.z 7 X.} c *.z.5.v O.c.e.O.O.s.).&.} m 0 s N z @.&.k.n #.m.j.) 6 t.a.a.w.o.y 6 | z 9 } z 0 5.c 0 d v z z | c &.{ { o.c.a N @ { ] | | o.l.~.*.| b 9 e #.M.j. .} s.r.f.k.",
"z.%.%.d.d.%.} d n O.X.b # b z z | d ' ` c @ O.g.1.O.*.{ v g 0.H f N O.] a.t.%.O.%.e.m.O.B.&.&.e.a.] c n 6 z 5.c./.] f.f.g.5.e b m d l a x C.@X7.@X`.E.r.p p ) ` o.+ 7 z v p } :.r.O.#.*.O.M g.1.} *.&.w.%.{ %.7.- H ; 5 d + { t.f.&.| | c M =.b d v m z.m.' *.w.",
"j.' %.O.d  .9 d s 0 c 7 O.%.O.%.O.*.~.d.v # $ v z 6 x u a l q.i @ o 7 z r.] } &.N.d.O.O.`.j.k.g.(.w.b @.v 6 z O.oXh.s.m.O.h.w.O.m 0 @ g u +X2X}.e.d.1.w.p # b 5 z 7  .%.7 7 } ] R.5. .*.j.c ).E.5.*.%.k.5.r 7 < N N ; o $ | ] ] w.s.*.r.p.O.*.| 7 9 8 O.5.o z ' ",
"b 9 b b 8 d @.O.c 9 + / g.d.j.z. .%.w.t.x d s 9 @ O H L.X 3.8.  @ 6 @ @ | z M 5.c.E.c | E.1.c z.O.c v }.~.z # z R.a.m n 7 5.' *.v 7 v 3.x M.9.5./ x # 6 8 O.w.) ' 1.z &.w.*.c M k.5.d j.p.' z *.m.B.O.0 z { @ k l o 6 d v ` } v o.m x E.e.O.] e.o.8 8 x b 6 + m ",
"8 8 } c b %.z.&.] b 6 [ R.E.1.&.o.z.` j.z.z a a O 3.L.uXo z p + e c 7 @ 6 b k.} o.s.| #.b.x o.r.%.O.m.s.' q v +.e./ # 0 c 9 8  .] ) z z @ @ o.] ) a @ 0 b *./.u.O.m 9 c g.~.] e  .=.Z @.y.w. .@.b 5.&.m %.r.9.N > @ r m *.O.# p +.# z w.O./.).h.%.o } t.w.} z %.",
"e 9 } >.) ] O.O.*.O.6 v p.r.` ] / ~.g.] j.d 0 b o H 9.8.@ @ @ 8 b } z p d o.t.v =.j.O.m *.d p %.l.e.O.} } c ] t.(.] 6 9 j.O.m m | O.m @ u X $.@Xp > i z X.X.5.} m 0 M 0 n g.t.) d d d 0 ' 1.c j.} b o.j.O.) 2.p o 0 m b b m | 1.] 9 ] h.{ c.g.w.v 6 O.z.t.| | h.",
"0 # 7 O.` } s 0  .| 7 % v | c s.O.O.r.X.0 9 b X.7 o N N : - > s x t.o.c w. .O.m -.c 9 b #.M 0 d  .o.9  .j.` ] &.y.e.b M O.5.1.O.d z m 6 u X 9.A.h ; d m | O.m 0 b } w.O.8 &.p.O.$ p O.b w p d l.O.b a &.z $ N o p X.' z 7 | ] | m 6 %.a.c M 5.s @ 0 0 =.o.c } e.",
"+ c 8 9 z @ o 0 9 7 b 8 0 @ 7 5.c b m 0 u 9 o.i.z + a n x 3 k i z u.x + %.m Z $ b v $ Z m O.b $ 0 # p } &.c O. .} }  .*.p.f.r.O.| ] *.{ ; L H 8.; @ 6 e &.e.} | | e.h.e.} 0 } f % %.t.O.M # # | u $ % M 0 s s u M } r.' v &.O.9 9 6 z *.z 8 b $ 9 z 6 0 b b 0 m ",
"c w.c @ @ c ^ m 9 c o.0 0 @ 6 { 6 9 $ 7 O.z  .@XN + @ $ @ ; l @ | ' 9 + 0 b $ d 9 O.m 0 O.a. .# 0 9 6 ) ' c 8 0 @ 0 *.w.y.) | t.e.t.O.7 @ N f N 6 y c 0 p ` z c X.w.(.w.*.b % $ 9 ' R.&.M 0 8 0 b 6 9 M m @ 6 | x p >.w.p p 9 % 0 e c } $ O O d m | z 8 6 9 % 9 ",
"` O.v + m w.) b 9 b } c c b 0 6 0 9 $ b | 7 u 8.x 5 5 t t ; H O c z 0 9 @ 9 d | z v ] v c *.z 7 ` | 0 | O.m 9 ; $ d o.%.p 6 t.g.&.t.%.6 o X H k ; c | u O p $ 9 c z ] O.M u 0 b e m O.M o.O.z c O.z 0  .d o @ p O 6 { v O @ c p / ` 0 9 0 s 0 d X.[ ^ 7 O s s e ",
"{ # 0 @ w O.p o @ { w.] O.m o z %.r 7 9 b $ o e 6 o + y o.D - O 0 9 O o 6 X.] ' z 7 ] p.O.b } z | x o @ p m b s 9  .r.} 8 7 y.' 0 m o.) z 5 G J X X x c 9 6 6 $ 0 9 @ p @ + b ] } p 8 0 v w.) | t.) 8 d @ B _ 0 O @ 0 8 X z { ] r.r.` 0 9 m M $ b | m O O O.%.X.",
"c @ @ o @ c 7 @ o c ] } c @ o m 5.O.X.b @ o 6 q 9 O X 5 p H @ X o p = o 6 c y.] 6 @ ' k.@.e &.c c x 6 @ @ e 7 O @ c } r 6 q ` z @ b 6 O.| +   > g 6 6 r 0 O.v 8 0 o ; @ o 6 6 %.' v O + c | x 7 *.e.p o @ N $.5 . O @ p 0 c d N ` m >.) O p l . 8 b @ = o / O.c ",
"7 o o u O 6 7 = O 6 X.0 7 ; @ 9 x ] v m n X i q.z 7 _ 6 + o O X = $.) w @ @ | y o o.y.a % @ b 0 @ o.` y o $ o u v @ 0 6 . 6 { 6 z / u f n X - O : z w O a 5.N ; + y _ z ; @ 6 e  .z . & ^ | @ . z %.p . ; : l   + q o m m b O z v O M #.> . x ) u ..x : > 6 m @ ",
"+ x u w 7 O o 6 x 6 9 o @ z @ O . { 6 9 m : = 3.i 7 *.O o O O . < N / 6   X q o O | } O ; @ 6 6   7 v z q @ @ ] w.o 7 @ . o @ o ` >.6 X O   F -   O o O | %.O > o r / / c b p o 0 O @ @ 6 z 6 ; O 6 X N 1.o i N @ o & r @ . O | O.o @ @ X ; a ^ { p ; s O @ 9 a ",
"q w.h.y & . O   ' ] X .   w 6 . . q @ X z H . 6 = . + - = & ; . g z 6 * - = o . O 7 @ . u n O o . o @   + w % w.a.7 o O > - . . ' >.o O = ; 8.i @ @ = @ X.6 . > = o y z [ / @ . @ @ > ; . o 6 q . O . N oX4 7 [ i -   & & @ X c { o O = = < =   o O O ; @ @ O y.",
"X y _.s.u . = * p v o 1 . ^ x = = o : 1 ; k = O = . 1 j > = & & 3 O X 1 D j X < g > 2 , = ; - : O . = - . n * _ r.& = - 3 2 O . v ^ . > 2 N 8.O 6 H D . 6 - : > , . p @ _ ^ 6 O = O : k j - . O = h 2 u +.. @ @ h U : - = ; X X.u = - O < S 1 = * v u = = * g i.",
". u s.t.; - = 1 F 8.O h = w a = < = j G : ; O = > , h h < = @ 7 1 A 2 h D h - j S A S h - X > 2 : X < j - > O z t O > 2 E j O > O @ X < < O u O + l g > > J g > > : p @ u o @ O > 1 W S j 2 : = , j j < X - . : U U j 2 j = @ b o = 1 : 2 A 3 g A H i . ; > < B ",
"= O 1.^ * 3 - j G >XH - - @ O O > , A G S.K 1 - > h 3 : : , ; 7 = G D 2 j j D G D.S F S 3 , - = > - k G S = u { X , - : D < > 2 = . = 1 3 - ( 6 ; 3 j ; j g . = > k O O s ; - = h j S J 0.S : = A J j , = j F F.H.j < 2 : . @ + - 2 2 j : h > 1 S j > : g h . l ",
", * x u h 2 . < - H l 2 2 - j k , , , k J D.3 S A J 0.j : O O = = h j S K G L T S.F.0.0.S S A 1 O : H.J.T j , p 2 j > j k < j k 2 - : : J 1 | O . S ! O - < = > > h g - s h E < = O > G U.K j D D.U.G g - K 0.I.J.g : h : = X = j j : < - = = - , O h j D.D.1 J ",
"j , . > 2 j S , : h j : * > k K j : . , h - D H.G J.T.L j 1 > . > , Y D G 0.0.S.J.U.F.4.A S S.S 3 - A D h , = = U S > > j W G.W G S h 1 A = p u t l = 2 S G k V j : D D > = < > < 1 > . F F k j D J S 2 = j K D S - > T Y 2 > k S 2 O , T T G S U : V = j j S ~ ",
"D h > O < j ! 3 F L S j . - K q.K - - 1 S < A 0.S D.I.L j 3 2 > j D W A > G U.Y.Y.Y.U.F.K G.J.K S 2 g 1 = : : = : h > S E U.Y.J.F.G.S S g j O 6 a = : T 4.8.4.L.W : - j g > h S F.S.S 2 : < O = D Q D = g S h 2 > - G U V h 2 j j < 1 G F.U.J.Q h S T S > X h A ",
"E j A 1 : S S J.U.H.W D 3 1 D k k 1 G 0.D S k 1 > 2 3 , , 2 h 2 D E G G G S G J.Y.Y.U.G.L K.K.4.0.G S F Q ~ h : > > : E E F.J.F.G.W j A I J = > l j W J.0.y.8.J.U E J = > D S.W Y.U.D.K j h A = A D j G uXL.h > > U.U.J.J > > > O j L U.Y.Y.H.S F K D.Q T 1 2 E ",
"T 0.J.D 2 T Q Y.U.0.S F.J : . 2 S W J.U.F.Q T A j - : 1 0.S : O > 2 , j D S , j L.Y.K G D D 4.L G S X O J - j S 2 > O , j D 0.Q E Y j f $.9.> . i.g H U.0.^.9.3 k 3.H - D J.Y.I.Y.Y.J.D.j F 0.- > > . H q.G > : < L.4.L J k > X k S.Q Y.UXI.F.G F.K 4.D.W D ; h ",
"T D.D.j > j E D.0.J S K J : , T W K.H.U.U.G.k G U T D J J.E h . : G T S G J W G 4.K.G , , F S.S k 3 X ; : = 0.H.S.j k K = , S S E U : ; a s.g.= M.9.N J.q.oXi 3.B.' u j D.J.U.U.Y.U.J.J.3 k K.F - > X j S - : J.D.G k j W J : = E Q U G.U.D.J.J.U.K S.Q Y Y j G.",
"3 h h = O > 2 j S S j 2 , , F G W L.Y.Y.F.S A G.D G.D.S Y j 0.g 3 J.J.S D K 0.G 2 S W G F K S.S j 1 > D P 0.J.F.D.D G D.< > < j h - j T j g u.3.l 7.x v.8.z.$.[.7.: > D F.T G.J.Y.J.S.T T F.J.L 1 > - F.J.1 F.J.H.Q j j G j > = T Y U 4.F.D.U.I.J.G.F.F.D.U S.I.",
"= X O > F g > 0.h X , - X , G F Q Y.UXU.F.D.Q J.L 0.0.K S . l k = Q D.S 0.G J S , g G L 0.L S S : : S D.Y.Y.U.L F : 4.G A J : O O , : i f $.7.$.. N &.+.7.O.7.v X - = 2 T S Q D.J.J.G.E G J.J.0.j K k 4.K.E T.F.G G j 1 P 2 F 3 j T K G Q Q F.S.G.D.K.J.Q j 8.H ",
"= > j j K.G.j q.S F K L : 2 L j G U.I.J.J.U.U.U.G.G.0.L D > O k > = j : G W S j h L 0.S K K j : , G L U.UXY.J.F.G : 4.L D F.S : j j 1 > > > N 3.f @ | m } z _ O B ' i - j E F.G.W F.F.T Q J.0.K 2 J j : A S G.L S j 3 = 1 - 0.A > S K L F.Q W S K E 4.4.U 2 c.9.",
"Y j J L J.J.G > E I.D.H.j , G L 4.S.S.W U.Y.U.H.S.0.Q S V : - W J 1 > O : j j O O h k j j 2 > = F L G K.U.H.G.K H.J 4.F K D.S j U T D 4.q.q.H i : i z O.) v v 9.(.8.g : U Q F.D.S J S.Q D.L S 3 - g : , U , 3 j j : 2 = k D.j , : h S L G.! G.F.Y Y H i.h . 7.v.",
"W A 0.q.Q J.G.k j U U T g ; Y D.L G S H G.J.4.4.4.G W S : h A H.I.D.S > . - > O > O O > X : : = K G K S.K.J.J.G.K A 0.G L J.W S - : 9.i.Z.M.o.= * : ; { ) 7 c ] N H 3.- 2 T 0.D h J J S j G j > > , S H.! , > 3 2 - > k J.J.L S j > , k k.R Q ! Y V V d.$.X 3.M.",
"J.D.q.q.H.Y.J.8.W j 2 j H : 2 T S.0.E 3.7.Q 3.k 0.q.J A > - = T D.W A j 2 , h 1 J S - = L 0.k = J S 0.S.W F.G.K h S 0.G J G.Y j > > 4 4 u @ = : = = 1 N N o O x x = S j . 2 D j , A k h 2 2 - > > > ! I.I.D H.U.W j 1 J H.S.S.F.W 2 = ; R.H U j V h - 9._.; i B.",
"L.H.q.A.U.I.J.k.H V 2 W S.1 k k S K Y 3.9.G *.k H 8.3 g : S 3 3 S : - W E J U.L J L 3 D.uXK.g = S D K 0.k K K.W j W K S j E j > : D j 3 1 - A k O N +Xg 3.* - N C.J J j = = < : > O = > - g k D S h j ! ~ D.H.Q U 2 j j A Q R F.G.S 4.l f.N * v a - = a `.i.. Q.",
"v.W 4.c.H.~ 8.a.N . i A F C.3.f , j 3 N $.H ` j N ] X u 8.G 4.l i > j S j L F.K S , G U.U.L S > : D S L G S 0.T k S.S j h j 2 O h j j A A 1 l e._ +.(.. N j < O 3.q.D > k S k : . F k > L U.F.K D.L , j V j k 2 = ; > , N A.H K ~ 4.v.l h.u * ] $.* = ; m.M.N e.",
"s.N < t.8.E 7.p.N 3.N - C.C.f ; O : , : s N [ = O t.B X 2.7.3.3.. = W J.D j A j - . D H.Q S 2 h . : D K U T G U L 0.S 3 2 > = g E G.D 3 h - ' e.4 ) y . ; : l K i N 1 - S Q I.F.J U.Q j D.H.E k G S < - : > > - , 2.N - N ).H S S i.+.g a.; . N v.- - O +.1.d.1.",
"[ h.i 1.u.N o.e.2.C.* 3.).N > = 1 3 = O . a :.- = _ C.- N e.+.k.- S 4.G.> = , > D 0.1 U j > U E : - , h h j A j S E j : > = O 2 J.Y.D.S j , a @ = a - = o > u k , ' k , h F.U.D.E W E 2 j ! 2 O j : : D I A A 2 . 3.@X: : t.g.k B h.N g w.i : 4 C.N - O #.N e.5.",
"7 ] 3.5.w.n M &.g.2.* h.a.> = , N 8.j X O u ) > ; v g.N ; ' C.C.$.3.2.> O i . X J.T.k = < 2 E H.Q S G 2 = - 3 2 2 : > O . g K = W J.D D D < X > 2 . 1 > ; :   O ; a h > : W D.U Q j 2 S - S 1 A D.J.1 - 3 7.i.i . g p.$.- o.(.7.v ' v | %.7.B N t.] B   n m ) ` ",
"O m @.&.o.f m &.s.o.N y.| O $.e.2.3.k X = h v ; O } O.v = { 2.~.x N o.- i.7.s n h W k , D.H.E Q S j F - X - < = . U k < = F.J.k 3 E U D.0., > , 1 O : = O : ; = ; z > > > V j j Q h X = . > 1 S E G.: @ ; - e.u.: > ^ ^ i =.z.z.c a a | 1.*.a O.i i 1.2.u f z { ",
"i s  .O.b s m &.&.s N ` d 2.1.B - j 3 o j K o.p 1 o.m d x &.v &.z n 6 2.$.l 7.B = , : j E E S 3 - > O = - 1 A 1 > W L K * S D 2 3 1 j A j : 2 O g h : O X O X 3 S O.k W 2 > j 2 O . = 1 S j > . 2 , - * l N N 5.y.a 9 z o.e.@.%.z : a | ) b 0 s k k > ' 1.i s b ",
"v % } X.d ; b b z > N } o.#.a ; a g O > G 1 u z : h d 8 b 7.b 0 v p x +.v @.n ; O > < j j , - = . X > A D : D J g P , = = = 1 = 2 1 - = : : > : G = - = O : h . - B > D S O - > X - , - J G , > = = = ; o.v z b ) 5.x 0 o.*.d } 7 : m / z 9 = = u s X 6 ) n s 0 ",
"f . z v ; O 6 7 @ . v m c f f z ; = = 2 A j - @ h g f = 6 O.s O c d s z v ; . : < > j 2 h j = > = - > j A j j j < j : 2 1 O = . . = - 2 : - = j D , j h - k U j 1 O - D 3 > j > = j S 2 h 2 > j : . 3 U , * @ d 9 M N $ m o.O 0 9 - b v 6 O 1 h , j : O 7 n s 8 ",
"- * 9 d > O O u = O a 9 9 > s ; * 1 3 = 2 j = X < h : . O m u . 0 u . 9 s = 1 S k j 3 , > j > < 1 P J = = = = : = . = > : : - : : - 2 2 3 > > - - 1 j 1 . > 3 j 3 . - - X < j , 2 , j E j = = , 3 : A T A 2 = , - @ 0 * 6 d * ; ; = s 9 > . h , = S h . > f s = ",
"* * O = = X . = O . O . . . O O X = = . = > . X . > = . . @ O . O .   o = * > = = > . O . = . - k A J 1 X - X = O . . X = = . = = = = . . X > = = = . = X . . * = . . . X : = = - . - 1 : O X X = = X = > . . * . . O . O O . = = X > O . . = . . = . . = = > * "
};
