/* XPM */
static char *out[] = {
/* columns rows colors chars-per-pixel */
"500 456 14 1 ",
"  c #FF00FF",
". c black",
"X c #084252",
"o c #843118",
"O c #E74210",
"+ c #CE5242",
"@ c #F7A510",
"# c #EF8429",
"$ c #FFD610",
"% c #EFB55A",
"& c #EFDE7B",
"* c #217394",
"= c #CECECE",
"- c white",
/* pixels */
"                                                                                                                                                                                                                                                                                                                                                                                                                                                                                                                    ",
"                                                                                                                                                                                                                                                                                                                                                                                                                                                                                                                    ",
"                                                                                                                                                                                                                                                                                                                                                                                                                                                                                                                    ",
"                                                                                                                                                                                                                                                                                                                                                                                                                                                                                                                    ",
"                                                                                                                                                                                                                                                                                                                                                                                                                                                                                                                    ",
"                                                                                                                                                                                                                                                                                                                                                                                                                                                                                                                    ",
"                                                                                                                                                                                                                                                                                                                                                                                                                                                                                                                    ",
"                                                                                                                                                                                                                                                                                                                                                                                                                                                                                                                    ",
"                                                                                                                                                                                                                                                                                                                                                                                                                                                                                                                    ",
"                                                                                                                                                                                                                                                                                                                                                                                                                                                                                                                    ",
"                                                                                                                                                                                                                                                                                                                                                                          OOOOO                                                                                                                                     ",
"                                                                                                                                                                                                                                                                                                                                                                          OOOOO                                                                                                                                     ",
"                                                                                                                                                                                                                                                                                                                                                                          OOOOO                                                                                                                                     ",
"                                                                                                                                                                                                                                                                                                                                                                          OOOOO                                                                                                                                     ",
"                                                                                                                                                                                                                                                                                                                                                                          OOOOO                                                                                                                                     ",
"                                                                                                                                                                                                                                                                                                                  OOOOO                                                                                                                                                                                             ",
"                                                                                                                                                                                                                                                                                                                  OOOOO                                                                                                                                                                                             ",
"                                                                                                                                                                                                                                                                                                                  OOOOO                                                                                                                                                                                             ",
"                                                                                                                                                                                                                                                                                                                  OOOOO                                                                                                                                                                                             ",
"                                                                                                                                                                                                                                                                                                                  OOOOO                                                                                                                                                                                             ",
"                                                                                                                                                                                                                                                                                                             OOOOOOOOOO          OOOOOOOOOO                                                                                                                                                                         ",
"                                                                                                                                                                                                                                                                                                             OOOOOOOOOO          OOOOOOOOOO                                                                                                                                                                         ",
"                                                                                                                                                                                                                                                                                                             OOOOOOOOOO          OOOOOOOOOO                                                                                                                                                                         ",
"                                                                                                                                                                                                                                                                                                             OOOOOOOOOO          OOOOOOOOOO                                                                                                                                                                         ",
"                                                                                                                                                                                                                                                                                                             OOOOOOOOOO          OOOOOOOOOO                                                                                                                                                                         ",
"                                                                                                                                                                                                                                                                                                             OOOOOOOOOOOOOOOOOOOOOOOOOOOOOOOOOOOO                                                                                                                                                                   ",
"                                                                                                                                                                                                                                                                                                             OOOOOOOOOOOOOOOOOOOOOOOOOOOOOOOOOOOO                                                                                                                                                                   ",
"                                                                                                                                                                                                                                                                                                             OOOOOOOOOOOOOOOOOOOOOOOOOOOOOOOOOOOO                                                                                                                                                                   ",
"                                                                                                                                                                                                                                                                                                             OOOOOOOOOOOOOOOOOOOOOOOOOOOOOOOOOOOO                                                                                                                                                                   ",
"                                                                                                                                                                                                                                                                                                             OOOOOOOOOOOOOOOOOOOOOOOOOOOOOOOOOOOO                                                                                                                                                                   ",
"                                                                                                                                                                                                                                                                                                                  OOOOOOOOOOOOOOOOOOOOOOOOOOOOOOO                                                                                                                                                                   ",
"                                                                                                                                                                                                                                                                                                                  OOOOOOOOOOOOOOOOOOOOOOOOOOOOOOO                                                                                                                                                                   ",
"                                                                                                                                                                                                                                                                                                                  OOOOOOOOOOOOOOOOOOOOOOOOOOOOOOO                                                                                                                                                                   ",
"                                                                                                                                                                                                                                                                                                                  OOOOOOOOOOOOOOOOOOOOOOOOOOOOOOO                                                                                                                                                                   ",
"                                                                                                                                                                                                                                                                                                                  OOOOOOOOOOOOOOOOOOOOOOOOOOOOOOO                                                                                                                                                                   ",
"                                                                                                                                                                                                                                                                                                                  OOOOOOOOOOOOOOOOOOOOOOOOOOOOOOO                                                                                                                                                                   ",
"                                                                                                                                                                                                                                                                                                                       OOOOO@@@@@OOOOOOOOOOOOOOOOOOOOO                                                                                                                                                              ",
"                                                                                                                                                                                                                                                                                                                       OOOOO@@@@@OOOOOOOOOOOOOOOOOOOOO                                                                                                                                                              ",
"                                                                                                                                                                                                                                                                                                                       OOOOO@@@@@OOOOOOOOOOOOOOOOOOOOO                                                                                                                                                              ",
"                                                                                                                                                                                                                                                                                                                       OOOOO@@@@@OOOOOOOOOOOOOOOOOOOOO                                                                                                                                                              ",
"                                                                                                                                                                                                                                                                                                                       OOOOO@@@@@OOOOOOOOOOOOOOOOOOOOO                                                                                                                                                              ",
"                                                                                                                                                                                                                                                                                                                            OOOOO$$$$$OOOOOOOOOOOOOOOOOOOOOOOOOO                                                                                                                                                    ",
"                                                                                                                                                                                                                                                                                                                            OOOOO$$$$$OOOOOOOOOOOOOOOOOOOOOOOOOO                                                                                                                                                    ",
"                                                                                                                                                                                                                                                                                                                            OOOOO$$$$$OOOOOOOOOOOOOOOOOOOOOOOOOO                                                                                                                                                    ",
"                                                                                                                                                                                                                                                                                                                            OOOOO$$$$$OOOOOOOOOOOOOOOOOOOOOOOOOO                                                                                                                                                    ",
"                                                                                                                                                                                                                                                                                                                            OOOOO$$$$$OOOOOOOOOOOOOOOOOOOOOOOOOO                                                                                                                                                    ",
"                                                                                                                                                                                                                                                                                                                       OOOOOOOOOO@@@@@$$$$$OOOOOO@@@@@$$$$$OOOOO     OOOOOOOOOO                                                                                                                                     ",
"                                                                                                                                                                                                                                                                                                                       OOOOOOOOOO@@@@@$$$$$OOOOOO@@@@@$$$$$OOOOO     OOOOOOOOOO                                                                                                                                     ",
"                                                                                                                                                                                                                                                                                                                       OOOOOOOOOO@@@@@$$$$$OOOOOO@@@@@$$$$$OOOOO     OOOOOOOOOO                                                                                                                                     ",
"                                                                                                                                                                                                                                                                                                                       OOOOOOOOOO@@@@@$$$$$OOOOOO@@@@@$$$$$OOOOO     OOOOOOOOOO                                                                                                                                     ",
"                                                                                                                                                                                                                                                                                                                       OOOOOOOOOO@@@@@$$$$$OOOOOO@@@@@$$$$$OOOOO     OOOOOOOOOO                                                                                                                                     ",
"                                                                                                                                                                                                                                                                                                                       OOOOOOOOOOOOOOO$$$$$$$$$$$$$$$$$$$$$@@@@@OOOOOOOOOOOOOOO                                                                                                                                     ",
"                                                                                                                                                                                                                                                                                                                       OOOOOOOOOOOOOOO$$$$$$$$$$$$$$$$$$$$$@@@@@OOOOOOOOOOOOOOO                                                                                                                                     ",
"                                                                                                                                                                                                                                                                                                                       OOOOOOOOOOOOOOO$$$$$$$$$$$$$$$$$$$$$@@@@@OOOOOOOOOOOOOOO                                                                                                                                     ",
"                                                                                                                                                                                                                                                                                                                       OOOOOOOOOOOOOOO$$$$$$$$$$$$$$$$$$$$$@@@@@OOOOOOOOOOOOOOO                                                                                                                                     ",
"                                                                                                                                                                                                                                                                                                                       OOOOOOOOOOOOOOO$$$$$$$$$$$$$$$$$$$$$@@@@@OOOOOOOOOOOOOOO                                                                                                                                     ",
"                                                                                                                                                                                                                                                                                                                                 OOOOO@@@@@$$$$$$$$$$$$$$$$$$$$$OOOOOOOOOOOOOOO                                                                                                                                     ",
"                                                                                                                                                                                                                                                                                                                                 OOOOO@@@@@$$$$$$$$$$$$$$$$$$$$$OOOOOOOOOOOOOOO                                                                                                                                     ",
"                                                                                                                                                                                                                                                                                                                                 OOOOO@@@@@$$$$$$$$$$$$$$$$$$$$$OOOOOOOOOOOOOOO                                                                                                                                     ",
"                                                                                                                                                                                                                                                                                                                                 OOOOO@@@@@$$$$$$$$$$$$$$$$$$$$$OOOOOOOOOOOOOOO                                                                                                                                     ",
"                                                                                                                                                                                                                                                                                                                                 OOOOO@@@@@$$$$$$$$$$$$$$$$$$$$$OOOOOOOOOOOOOOO                                                                                                                                     ",
"                                                                                                                                                                                                                                                                                                                            OOOOOOOOOOOOOOO$$$$$$$$$$$$$$$$@@@@@OOOOOOOOOOOOOOOOOOOO                                                                                                                                ",
"                                                                                                                                                                                                                                                                                                                            OOOOOOOOOOOOOOO$$$$$$$$$$$$$$$$@@@@@OOOOOOOOOOOOOOOOOOOO                                                                                                                                ",
"                                                                                                                                                                                                                                                                                                                            OOOOOOOOOOOOOOO$$$$$$$$$$$$$$$$@@@@@OOOOOOOOOOOOOOOOOOOO                                                                                                                                ",
"                                                                                                                                                                                                                                                                                                                            OOOOOOOOOOOOOOO$$$$$$$$$$$$$$$$@@@@@OOOOOOOOOOOOOOOOOOOO                                                                                                                                ",
"                                                                                                                                                                                                                                                                                                                            OOOOOOOOOOOOOOO$$$$$$$$$$$$$$$$@@@@@OOOOOOOOOOOOOOOOOOOO                                                                                                                                ",
"                                                                                                                                                                                                                                                                                                                       OOOOOOOOOO$$$$$OOOOO$$$$$$$$$$$$$$$$OOOOOOOOOOOOOOOOOOOOOOOOOOOOOOOOOOOO                                                                                                                     ",
"                                                                                                                                                                                                                                                                                                                       OOOOOOOOOO$$$$$OOOOO$$$$$$$$$$$$$$$$OOOOOOOOOOOOOOOOOOOOOOOOOOOOOOOOOOOO                                                                                                                     ",
"                                                                                                                                                                                                                                                                                                                       OOOOOOOOOO$$$$$OOOOO$$$$$$$$$$$$$$$$OOOOOOOOOOOOOOOOOOOOOOOOOOOOOOOOOOOO                                                                                                                     ",
"                                                                                                                                                                                                                                                                                                                       OOOOOOOOOO$$$$$OOOOO$$$$$$$$$$$$$$$$OOOOOOOOOOOOOOOOOOOOOOOOOOOOOOOOOOOO                                                                                                                     ",
"                                                                                                                                                                                                                                                                                                                       OOOOOOOOOO$$$$$OOOOO$$$$$$$$$$$$$$$$OOOOOOOOOOOOOOOOOOOOOOOOOOOOOOOOOOOO                                                                                                                     ",
"                                                                                                                                                                                                                                                                                                                       OOOOO@@@@@$$$$$@@@@@$$$$$$$$$$$@@@@@OOOOOOOOOOOOOOO@@@@@OOOOOOOOOOOOOOOO                                                                                                                     ",
"                                                                                                                                                                                                                                                                                                                       OOOOO@@@@@$$$$$@@@@@$$$$$$$$$$$@@@@@OOOOOOOOOOOOOOO@@@@@OOOOOOOOOOOOOOOO                                                                                                                     ",
"                                                                                                                                                                                                                                                                                                                       OOOOO@@@@@$$$$$@@@@@$$$$$$$$$$$@@@@@OOOOOOOOOOOOOOO@@@@@OOOOOOOOOOOOOOOO                                                                                                                     ",
"                                                                                                                                                                                                                                                                                                                       OOOOO@@@@@$$$$$@@@@@$$$$$$$$$$$@@@@@OOOOOOOOOOOOOOO@@@@@OOOOOOOOOOOOOOOO                                                                                                                     ",
"                                                                                                                                                                                                                                                                                                                       OOOOO@@@@@$$$$$@@@@@$$$$$$$$$$$@@@@@OOOOOOOOOOOOOOO@@@@@OOOOOOOOOOOOOOOO                                                                                                                     ",
"                                                                                                                                                                                                                                                                                                                       OOOOO$$$$$$$$$$$$$$$$$$$$$$$$$$OOOOOOOOOOOOOOO@@@@@$$$$$OOOOOOOOOOOOOOOO                                                                                                                     ",
"                                                                                                                                                                                                                                                                                                                       OOOOO$$$$$$$$$$$$$$$$$$$$$$$$$$OOOOOOOOOOOOOOO@@@@@$$$$$OOOOOOOOOOOOOOOO                                                                                                                     ",
"                                                                                                                                                                                                                                                                                                                       OOOOO$$$$$$$$$$$$$$$$$$$$$$$$$$OOOOOOOOOOOOOOO@@@@@$$$$$OOOOOOOOOOOOOOOO                                                                                                                     ",
"                                                                                                                                                                                                                                                                                                                       OOOOO$$$$$$$$$$$$$$$$$$$$$$$$$$OOOOOOOOOOOOOOO@@@@@$$$$$OOOOOOOOOOOOOOOO                                                                                                                     ",
"                                                                                                                                                                                                                                                                                                                       OOOOO$$$$$$$$$$$$$$$$$$$$$$$$$$OOOOOOOOOOOOOOO@@@@@$$$$$OOOOOOOOOOOOOOOO                                                                                                                     ",
"                                                                                                                                                                                                                                                                                                                       OOOOO@@@@@$$$$$$$$$$$$$$$$$$$$$@@@@@OOOOOOOOOO$$$$$$$$$$OOOOOOOOOO                                                                                                                           ",
"                                                                                                                                                                                                                                                                                                                       OOOOO@@@@@$$$$$$$$$$$$$$$$$$$$$@@@@@OOOOOOOOOO$$$$$$$$$$OOOOOOOOOO                                                                                                                           ",
"                                                                                                                                                                                                                                                                                                                       OOOOO@@@@@$$$$$$$$$$$$$$$$$$$$$@@@@@OOOOOOOOOO$$$$$$$$$$OOOOOOOOOO                                                                                                                           ",
"                                                                                                                                                                                                                                                                                                                       OOOOO@@@@@$$$$$$$$$$$$$$$$$$$$$@@@@@OOOOOOOOOO$$$$$$$$$$OOOOOOOOOO                                                                                                                           ",
"                                                                                                                                                                                                                                                                                                                       OOOOO@@@@@$$$$$$$$$$$$$$$$$$$$$@@@@@OOOOOOOOOO$$$$$$$$$$OOOOOOOOOO                                                                                                                           ",
"                                                                                                                                                                                                                                                                                                                       OOOOO@@@@@$$$$$$$$$$$$$$$$$$$$$@@@@@OOOOOOOOOO$$$$$$$$$$OOOOOOOOOO                                                                                                                           ",
"                                                                                                                                                                                                                                                                                                                            OOOOO$$$$$@@@@@oooooo$$$$$$$$$$$$$$$$$$$$$$$$$$$$$$OOOOOOOOOO                                                                                                                           ",
"                                                                                                                                                                                                                                                                                                                            OOOOO$$$$$@@@@@oooooo$$$$$$$$$$$$$$$$$$$$$$$$$$$$$$OOOOOOOOOO                                                                                                                           ",
"                                                                                                                                                                                                                                                                                                                            OOOOO$$$$$@@@@@oooooo$$$$$$$$$$$$$$$$$$$$$$$$$$$$$$OOOOOOOOOO                                                                                                                           ",
"                                                                                                                                                                                                                                                                                                                            OOOOO$$$$$@@@@@oooooo$$$$$$$$$$$$$$$$$$$$$$$$$$$$$$OOOOOOOOOO                                                                                                                           ",
"                                                                                                                                                                                                                                                                                                                            OOOOO$$$$$@@@@@oooooo$$$$$$$$$$$$$$$$$$$$$$$$$$$$$$OOOOOOOOOO                                                                                                                           ",
"                                                                                                                                                                                                                                                                                                                                 OOOOOooooooooooo#####ooooo$$$$$$$$$$$$$$$@@@@@OOOOOOOOOO                                                                                                                           ",
"                                                                                                                                                                                                                                                                                                                                 OOOOOooooooooooo#####ooooo$$$$$$$$$$$$$$$@@@@@OOOOOOOOOO                                                                                                                           ",
"                                                                                                                                                                                                                                                                                                                                 OOOOOooooooooooo#####ooooo$$$$$$$$$$$$$$$@@@@@OOOOOOOOOO                                                                                                                           ",
"                                                                                                                                                                                                                                                                                                                                 OOOOOooooooooooo#####ooooo$$$$$$$$$$$$$$$@@@@@OOOOOOOOOO                                                                                                                           ",
"                                                                                                                                                                                                                                                                                                                                 OOOOOooooooooooo#####ooooo$$$$$$$$$$$$$$$@@@@@OOOOOOOOOO                                                                                                                           ",
"                                                                                                                                                                                             ooooo                                                        ooooo                                                             OOOOOOOOOOooooo######oooooooooo$$$$$@@@@@$$$$$OOOOOOOOOO                                                                                                                                ",
"                                                                                                                                                                                             ooooo                                                        ooooo                                                             OOOOOOOOOOooooo######oooooooooo$$$$$@@@@@$$$$$OOOOOOOOOO                                                                                                                                ",
"                                                                                                                                                                                             ooooo                                                        ooooo                                                             OOOOOOOOOOooooo######oooooooooo$$$$$@@@@@$$$$$OOOOOOOOOO                                                                                                                                ",
"                                                                                                                                                                                             ooooo                                                        ooooo                                                             OOOOOOOOOOooooo######oooooooooo$$$$$@@@@@$$$$$OOOOOOOOOO                                                                                                                                ",
"                                                                                                                                                                                             ooooo                                                        ooooo                                                             OOOOOOOOOOooooo######oooooooooo$$$$$@@@@@$$$$$OOOOOOOOOO                                                                                                                                ",
"                                                                                                                                                                                        ooooo%%%%%ooooo                                              ooooo%%%%%%%%%%ooooo                               ooooooooooooooo     OOOOOOOOOOooooo###########$$$$$$$$$$@@@@@OOOOO                                                                                                                                          ",
"                                                                                                                                                                                        ooooo%%%%%ooooo                                              ooooo%%%%%%%%%%ooooo                               ooooooooooooooo     OOOOOOOOOOooooo###########$$$$$$$$$$@@@@@OOOOO                                                                                                                                          ",
"                                                                                                                                                                                        ooooo%%%%%ooooo                                              ooooo%%%%%%%%%%ooooo                               ooooooooooooooo     OOOOOOOOOOooooo###########$$$$$$$$$$@@@@@OOOOO                                                                                                                                          ",
"                                                                                                                                                                                        ooooo%%%%%ooooo                                              ooooo%%%%%%%%%%ooooo                               ooooooooooooooo     OOOOOOOOOOooooo###########$$$$$$$$$$@@@@@OOOOO                                                                                                                                          ",
"                                                                                                                                                                                        ooooo%%%%%ooooo                                              ooooo%%%%%%%%%%ooooo                               ooooooooooooooo     OOOOOOOOOOooooo###########$$$$$$$$$$@@@@@OOOOO                                                                                                                                          ",
"                                                                                                                                                                                  oooooo+++++%%%%%%%%%%ooooo                                         ooooo%%%%%%%%%%++++++++++                     ooooo###############oooooooooo++++++++++###########$$$$$$$$$$OOOOOOOOOO                                                                                                                                          ",
"                                                                                                                                                                                  oooooo+++++%%%%%%%%%%ooooo                                         ooooo%%%%%%%%%%++++++++++                     ooooo###############oooooooooo++++++++++###########$$$$$$$$$$OOOOOOOOOO                                                                                                                                          ",
"                                                                                                                                                                                  oooooo+++++%%%%%%%%%%ooooo                                         ooooo%%%%%%%%%%++++++++++                     ooooo###############oooooooooo++++++++++###########$$$$$$$$$$OOOOOOOOOO                                                                                                                                          ",
"                                                                                                                                                                                  oooooo+++++%%%%%%%%%%ooooo                                         ooooo%%%%%%%%%%++++++++++                     ooooo###############oooooooooo++++++++++###########$$$$$$$$$$OOOOOOOOOO                                                                                                                                          ",
"                                                                                                                                                                                  oooooo+++++%%%%%%%%%%ooooo                                         ooooo%%%%%%%%%%++++++++++                     ooooo###############oooooooooo++++++++++###########$$$$$$$$$$OOOOOOOOOO                                                                                                                                          ",
"                                                                                                                                                         oooooooooo               oooooo#####%%%%%ooooo                                              .....+++++###############+++++oooooooooooooooo########################################+++++++++++oooooOOOOOOOOOO                                                                                                                                               ",
"                                                                                                                                                         oooooooooo               oooooo#####%%%%%ooooo                                              .....+++++###############+++++oooooooooooooooo########################################+++++++++++oooooOOOOOOOOOO                                                                                                                                               ",
"                                                                                                                                                         oooooooooo               oooooo#####%%%%%ooooo                                              .....+++++###############+++++oooooooooooooooo########################################+++++++++++oooooOOOOOOOOOO                                                                                                                                               ",
"                                                                                                                                                         oooooooooo               oooooo#####%%%%%ooooo                                              .....+++++###############+++++oooooooooooooooo########################################+++++++++++oooooOOOOOOOOOO                                                                                                                                               ",
"                                                                                                                                                         oooooooooo               oooooo#####%%%%%ooooo                                              .....+++++###############+++++oooooooooooooooo########################################+++++++++++oooooOOOOOOOOOO                                                                                                                                               ",
"                                                                                                                                                    ooooo##########          ooooo###########ooooo                                                             .....####################################oooooooooooooooooooo+++++#####################+++++++++++++++                                                                                                                                               ",
"                                                                                                                                                    ooooo##########          ooooo###########ooooo                                                             .....####################################oooooooooooooooooooo+++++#####################+++++++++++++++                                                                                                                                               ",
"                                                                                                                                                    ooooo##########          ooooo###########ooooo                                                             .....####################################oooooooooooooooooooo+++++#####################+++++++++++++++                                                                                                                                               ",
"                                                                                                                                                    ooooo##########          ooooo###########ooooo                                                             .....####################################oooooooooooooooooooo+++++#####################+++++++++++++++                                                                                                                                               ",
"                                                                                                                                                    ooooo##########          ooooo###########ooooo                                                             .....####################################oooooooooooooooooooo+++++#####################+++++++++++++++                                                                                                                                               ",
"                                                                                                                                               ooooo###############oooooooooo###########+++++ooooo                                                             .....###############################+++++XXXXXXXXXXXXXXXXXXXXXXXXX+++++XXXXX++++++#####%%%%%%%%%%%%%%%ooooo                                                                                                                                          ",
"                                                                                                                                               ooooo###############oooooooooo###########+++++ooooo                                                             .....###############################+++++XXXXXXXXXXXXXXXXXXXXXXXXX+++++XXXXX++++++#####%%%%%%%%%%%%%%%ooooo                                                                                                                                          ",
"                                                                                                                                               ooooo###############oooooooooo###########+++++ooooo                                                             .....###############################+++++XXXXXXXXXXXXXXXXXXXXXXXXX+++++XXXXX++++++#####%%%%%%%%%%%%%%%ooooo                                                                                                                                          ",
"                                                                                                                                               ooooo###############oooooooooo###########+++++ooooo                                                             .....###############################+++++XXXXXXXXXXXXXXXXXXXXXXXXX+++++XXXXX++++++#####%%%%%%%%%%%%%%%ooooo                                                                                                                                          ",
"                                                                                                                                               ooooo###############oooooooooo###########+++++ooooo                                                             .....###############################+++++XXXXXXXXXXXXXXXXXXXXXXXXX+++++XXXXX++++++#####%%%%%%%%%%%%%%%ooooo                                                                                                                                          ",
"                                                                                                                                     ooooo##############################################oooooooooo                                                                  ####################...........XXXXXXXXXX********************XXXXX*****XXXXXXXXXXX%%%%%%%%%%#####+++++                                                                                                                                          ",
"                                                                                                                                     ooooo##############################################oooooooooo                                                                  ####################...........XXXXXXXXXX********************XXXXX*****XXXXXXXXXXX%%%%%%%%%%#####+++++                                                                                                                                          ",
"                                                                                                                                     ooooo##############################################oooooooooo                                                                  ####################...........XXXXXXXXXX********************XXXXX*****XXXXXXXXXXX%%%%%%%%%%#####+++++                                                                                                                                          ",
"                                                                                                                                     ooooo##############################################oooooooooo                                                                  ####################...........XXXXXXXXXX********************XXXXX*****XXXXXXXXXXX%%%%%%%%%%#####+++++                                                                                                                                          ",
"                                                                                                                                     ooooo##############################################oooooooooo                                                                  ####################...........XXXXXXXXXX********************XXXXX*****XXXXXXXXXXX%%%%%%%%%%#####+++++                                                                                                                                          ",
"                                                                                                                               oooooo###############..........##########################ooooo                                                                       .....##########.....XXXXXXXXXXXXXXXX**********************************************XXXXX+++++##########+++++                                                                                                                                     ",
"                                                                                                                               oooooo###############..........##########################ooooo                                                                       .....##########.....XXXXXXXXXXXXXXXX**********************************************XXXXX+++++##########+++++                                                                                                                                     ",
"                                                                                                                               oooooo###############..........##########################ooooo                                                                       .....##########.....XXXXXXXXXXXXXXXX**********************************************XXXXX+++++##########+++++                                                                                                                                     ",
"                                                                                                                               oooooo###############..........##########################ooooo                                                                       .....##########.....XXXXXXXXXXXXXXXX**********************************************XXXXX+++++##########+++++                                                                                                                                     ",
"                                                                                                                               oooooo###############..........##########################ooooo                                                                       .....##########.....XXXXXXXXXXXXXXXX**********************************************XXXXX+++++##########+++++                                                                                                                                     ",
"                                                                                                                               oooooo###############..........##########################ooooo                                                                       .....##########.....XXXXXXXXXXXXXXXX**********************************************XXXXX+++++##########+++++                                                                                                                                     ",
"                                                                                                                     oooooooooo###########XXXXXXXXXXXXXXXXXXXX.....+++++################ooooo                                                                            ooooo.....XXXXXXXXXXXXXXXXXXXXX***************************************************XXXXX+++++##########                                                                                                                                     ",
"                                                                                                                     oooooooooo###########XXXXXXXXXXXXXXXXXXXX.....+++++################ooooo                                                                            ooooo.....XXXXXXXXXXXXXXXXXXXXX***************************************************XXXXX+++++##########                                                                                                                                     ",
"                                                                                                                     oooooooooo###########XXXXXXXXXXXXXXXXXXXX.....+++++################ooooo                                                                            ooooo.....XXXXXXXXXXXXXXXXXXXXX***************************************************XXXXX+++++##########                                                                                                                                     ",
"                                                                                                                     oooooooooo###########XXXXXXXXXXXXXXXXXXXX.....+++++################ooooo                                                                            ooooo.....XXXXXXXXXXXXXXXXXXXXX***************************************************XXXXX+++++##########                                                                                                                                     ",
"                                                                                                                     oooooooooo###########XXXXXXXXXXXXXXXXXXXX.....+++++################ooooo                                                                            ooooo.....XXXXXXXXXXXXXXXXXXXXX***************************************************XXXXX+++++##########                                                                                                                                     ",
"                                                                                                                ooooo################XXXXXXXXXXXXXXXXXXXXXXXXXXXXXX.....+++++#####oooooo                                                                                 ooooo.....XXXXXXXXXXXXXXXXXXXXX***************************************************XXXXX++++++++++#####                                                                                                                                     ",
"                                                                                                                ooooo################XXXXXXXXXXXXXXXXXXXXXXXXXXXXXX.....+++++#####oooooo                                                                                 ooooo.....XXXXXXXXXXXXXXXXXXXXX***************************************************XXXXX++++++++++#####                                                                                                                                     ",
"                                                                                                                ooooo################XXXXXXXXXXXXXXXXXXXXXXXXXXXXXX.....+++++#####oooooo                                                                                 ooooo.....XXXXXXXXXXXXXXXXXXXXX***************************************************XXXXX++++++++++#####                                                                                                                                     ",
"                                                                                                                ooooo################XXXXXXXXXXXXXXXXXXXXXXXXXXXXXX.....+++++#####oooooo                                                                                 ooooo.....XXXXXXXXXXXXXXXXXXXXX***************************************************XXXXX++++++++++#####                                                                                                                                     ",
"                                                                                                                ooooo################XXXXXXXXXXXXXXXXXXXXXXXXXXXXXX.....+++++#####oooooo                                                                                 ooooo.....XXXXXXXXXXXXXXXXXXXXX***************************************************XXXXX++++++++++#####                                                                                                                                     ",
"                                                                                                                ooooo#####XXXXXXXXXXXXXXXXXXXXXXXXXXXXXXXXXXXXXXXXXXXXXX.....#####++++++ooooo                                                                            ooooo#####.....XXXXXXXXXXXXXXXX********************************************************XXXXX+++++#####                                                                                                                                     ",
"                                                                                                                ooooo#####XXXXXXXXXXXXXXXXXXXXXXXXXXXXXXXXXXXXXXXXXXXXXX.....#####++++++ooooo                                                                            ooooo#####.....XXXXXXXXXXXXXXXX********************************************************XXXXX+++++#####                                                                                                                                     ",
"                                                                                                                ooooo#####XXXXXXXXXXXXXXXXXXXXXXXXXXXXXXXXXXXXXXXXXXXXXX.....#####++++++ooooo                                                                            ooooo#####.....XXXXXXXXXXXXXXXX********************************************************XXXXX+++++#####                                                                                                                                     ",
"                                                                                                                ooooo#####XXXXXXXXXXXXXXXXXXXXXXXXXXXXXXXXXXXXXXXXXXXXXX.....#####++++++ooooo                                                                            ooooo#####.....XXXXXXXXXXXXXXXX********************************************************XXXXX+++++#####                                                                                                                                     ",
"                                                                                                                ooooo#####XXXXXXXXXXXXXXXXXXXXXXXXXXXXXXXXXXXXXXXXXXXXXX.....#####++++++ooooo                                                                            ooooo#####.....XXXXXXXXXXXXXXXX********************************************************XXXXX+++++#####                                                                                                                                     ",
"                                                                                                                oooooXXXXXXXXXXXXXXXXXXXXXXXXXXXXXXXXXXXXXXXXXXXXXXXXXXXXXXXX.....######ooooo                                                                            ooooo#####.....XXXXXXXXXXXXXXXX********************************************************XXXXXXXXXX#####ooooo                                                                                                                                ",
"                                                                                                                oooooXXXXXXXXXXXXXXXXXXXXXXXXXXXXXXXXXXXXXXXXXXXXXXXXXXXXXXXX.....######ooooo                                                                            ooooo#####.....XXXXXXXXXXXXXXXX********************************************************XXXXXXXXXX#####ooooo                                                                                                                                ",
"                                                                                                                oooooXXXXXXXXXXXXXXXXXXXXXXXXXXXXXXXXXXXXXXXXXXXXXXXXXXXXXXXX.....######ooooo                                                                            ooooo#####.....XXXXXXXXXXXXXXXX********************************************************XXXXXXXXXX#####ooooo                                                                                                                                ",
"                                                                                                                oooooXXXXXXXXXXXXXXXXXXXXXXXXXXXXXXXXXXXXXXXXXXXXXXXXXXXXXXXX.....######ooooo                                                                            ooooo#####.....XXXXXXXXXXXXXXXX********************************************************XXXXXXXXXX#####ooooo                                                                                                                                ",
"                                                                                                                oooooXXXXXXXXXXXXXXXXXXXXXXXXXXXXXXXXXXXXXXXXXXXXXXXXXXXXXXXX.....######ooooo                                                                            ooooo#####.....XXXXXXXXXXXXXXXX********************************************************XXXXXXXXXX#####ooooo                                                                                                                                ",
"                                                                                                           ooooo+++++XXXXXXXXXXXXXXXXXXXXXXXXXXXXXXXXXXXXXXXXXXXXXXXXXXX.....###########ooooo                                                                            ooooo#####.....XXXXXXXXXXXXXXXXXXXXX***************************************************XXXXXXXXXX++++++++++                                                                                                                                ",
"                                                                                                           ooooo+++++XXXXXXXXXXXXXXXXXXXXXXXXXXXXXXXXXXXXXXXXXXXXXXXXXXX.....###########ooooo                                                                            ooooo#####.....XXXXXXXXXXXXXXXXXXXXX***************************************************XXXXXXXXXX++++++++++                                                                                                                                ",
"                                                                                                           ooooo+++++XXXXXXXXXXXXXXXXXXXXXXXXXXXXXXXXXXXXXXXXXXXXXXXXXXX.....###########ooooo                                                                            ooooo#####.....XXXXXXXXXXXXXXXXXXXXX***************************************************XXXXXXXXXX++++++++++                                                                                                                                ",
"                                                                                                           ooooo+++++XXXXXXXXXXXXXXXXXXXXXXXXXXXXXXXXXXXXXXXXXXXXXXXXXXX.....###########ooooo                                                                            ooooo#####.....XXXXXXXXXXXXXXXXXXXXX***************************************************XXXXXXXXXX++++++++++                                                                                                                                ",
"                                                                                                           ooooo+++++XXXXXXXXXXXXXXXXXXXXXXXXXXXXXXXXXXXXXXXXXXXXXXXXXXX.....###########ooooo                                                                            ooooo#####.....XXXXXXXXXXXXXXXXXXXXX***************************************************XXXXXXXXXX++++++++++                                                                                                                                ",
"                                                                                                      ooooo++++++++++XXXXXXXXXXXXXXXXXXXXXXXXXXXXXXXXXXXXXXXXXXXXXXXXXXXXXXXX.....######ooooo                                                                                 ooooo.....XXXXXXXXXXXXXXXXXXXXX********************************************************XXXXXXXXXX++++++++++                                                                                                                           ",
"                                                                                                      ooooo++++++++++XXXXXXXXXXXXXXXXXXXXXXXXXXXXXXXXXXXXXXXXXXXXXXXXXXXXXXXX.....######ooooo                                                                                 ooooo.....XXXXXXXXXXXXXXXXXXXXX********************************************************XXXXXXXXXX++++++++++                                                                                                                           ",
"                                                                                                      ooooo++++++++++XXXXXXXXXXXXXXXXXXXXXXXXXXXXXXXXXXXXXXXXXXXXXXXXXXXXXXXX.....######ooooo                                                                                 ooooo.....XXXXXXXXXXXXXXXXXXXXX********************************************************XXXXXXXXXX++++++++++                                                                                                                           ",
"                                                                                                      ooooo++++++++++XXXXXXXXXXXXXXXXXXXXXXXXXXXXXXXXXXXXXXXXXXXXXXXXXXXXXXXX.....######ooooo                                                                                 ooooo.....XXXXXXXXXXXXXXXXXXXXX********************************************************XXXXXXXXXX++++++++++                                                                                                                           ",
"                                                                                                      ooooo++++++++++XXXXXXXXXXXXXXXXXXXXXXXXXXXXXXXXXXXXXXXXXXXXXXXXXXXXXXXX.....######ooooo                                                                                 ooooo.....XXXXXXXXXXXXXXXXXXXXX********************************************************XXXXXXXXXX++++++++++                                                                                                                           ",
"                                                                                                      ooooo+++++XXXXXXXXXXXXXXXXXXXXXXXXXXXXXXXXXXXXXXXXXXXXXXXXXXXXXXXXXXXXX.....###########                                                                                 ooooo.....XXXXXXXXXXXXXXXXXXXXXXXXXX***************************************************XXXXXXXXXXXXXXX#####oooooo                                                                                                                     ",
"                                                                                                      ooooo+++++XXXXXXXXXXXXXXXXXXXXXXXXXXXXXXXXXXXXXXXXXXXXXXXXXXXXXXXXXXXXX.....###########                                                                                 ooooo.....XXXXXXXXXXXXXXXXXXXXXXXXXX***************************************************XXXXXXXXXXXXXXX#####oooooo                                                                                                                     ",
"                                                                                                      ooooo+++++XXXXXXXXXXXXXXXXXXXXXXXXXXXXXXXXXXXXXXXXXXXXXXXXXXXXXXXXXXXXX.....###########                                                                                 ooooo.....XXXXXXXXXXXXXXXXXXXXXXXXXX***************************************************XXXXXXXXXXXXXXX#####oooooo                                                                                                                     ",
"                                                                                                      ooooo+++++XXXXXXXXXXXXXXXXXXXXXXXXXXXXXXXXXXXXXXXXXXXXXXXXXXXXXXXXXXXXX.....###########                                                                                 ooooo.....XXXXXXXXXXXXXXXXXXXXXXXXXX***************************************************XXXXXXXXXXXXXXX#####oooooo                                                                                                                     ",
"                                                                                                      ooooo+++++XXXXXXXXXXXXXXXXXXXXXXXXXXXXXXXXXXXXXXXXXXXXXXXXXXXXXXXXXXXXX.....###########                                                                                 ooooo.....XXXXXXXXXXXXXXXXXXXXXXXXXX***************************************************XXXXXXXXXXXXXXX#####oooooo                                                                                                                     ",
"                                                                                                 ooooo++++++++++XXXXXXXXXXXXXXXXXXXXXXXXXXXXXXXXXXXXXXXXXXXXXXXXXXXXXXXXXXXXXXXXXX######ooooo                                                                                 +++++.....XXXXXXXXXXXXXXXXXXXXXXXXXX***************************************************XXXXXXXXXXXXXXX#####++++++                                                                                                                     ",
"                                                                                                 ooooo++++++++++XXXXXXXXXXXXXXXXXXXXXXXXXXXXXXXXXXXXXXXXXXXXXXXXXXXXXXXXXXXXXXXXXX######ooooo                                                                                 +++++.....XXXXXXXXXXXXXXXXXXXXXXXXXX***************************************************XXXXXXXXXXXXXXX#####++++++                                                                                                                     ",
"                                                                                                 ooooo++++++++++XXXXXXXXXXXXXXXXXXXXXXXXXXXXXXXXXXXXXXXXXXXXXXXXXXXXXXXXXXXXXXXXXX######ooooo                                                                                 +++++.....XXXXXXXXXXXXXXXXXXXXXXXXXX***************************************************XXXXXXXXXXXXXXX#####++++++                                                                                                                     ",
"                                                                                                 ooooo++++++++++XXXXXXXXXXXXXXXXXXXXXXXXXXXXXXXXXXXXXXXXXXXXXXXXXXXXXXXXXXXXXXXXXX######ooooo                                                                                 +++++.....XXXXXXXXXXXXXXXXXXXXXXXXXX***************************************************XXXXXXXXXXXXXXX#####++++++                                                                                                                     ",
"                                                                                                 ooooo++++++++++XXXXXXXXXXXXXXXXXXXXXXXXXXXXXXXXXXXXXXXXXXXXXXXXXXXXXXXXXXXXXXXXXX######ooooo                                                                                 +++++.....XXXXXXXXXXXXXXXXXXXXXXXXXX***************************************************XXXXXXXXXXXXXXX#####++++++                                                                                                                     ",
"                                                                                            oooooooooo++++++++++XXXXXXXXXXXXXXXXXXXXXXXXXXXXXXXXXXXXXXXXXXXXXXXXXXXXXXXXXXXXXXXXXX######ooooo                                                                                 +++++#####......XXXXXXXXXXXXXXXXXXXXXXXXX*****************************************XXXXXXXXXXXXXXXXXXXX#####++++++                                                                                                                     ",
"                                                                                            oooooooooo++++++++++XXXXXXXXXXXXXXXXXXXXXXXXXXXXXXXXXXXXXXXXXXXXXXXXXXXXXXXXXXXXXXXXXX######ooooo                                                                                 +++++#####......XXXXXXXXXXXXXXXXXXXXXXXXX*****************************************XXXXXXXXXXXXXXXXXXXX#####++++++                                                                                                                     ",
"                                                                                            oooooooooo++++++++++XXXXXXXXXXXXXXXXXXXXXXXXXXXXXXXXXXXXXXXXXXXXXXXXXXXXXXXXXXXXXXXXXX######ooooo                                                                                 +++++#####......XXXXXXXXXXXXXXXXXXXXXXXXX*****************************************XXXXXXXXXXXXXXXXXXXX#####++++++                                                                                                                     ",
"                                                                                            oooooooooo++++++++++XXXXXXXXXXXXXXXXXXXXXXXXXXXXXXXXXXXXXXXXXXXXXXXXXXXXXXXXXXXXXXXXXX######ooooo                                                                                 +++++#####......XXXXXXXXXXXXXXXXXXXXXXXXX*****************************************XXXXXXXXXXXXXXXXXXXX#####++++++                                                                                                                     ",
"                                                                                            oooooooooo++++++++++XXXXXXXXXXXXXXXXXXXXXXXXXXXXXXXXXXXXXXXXXXXXXXXXXXXXXXXXXXXXXXXXXX######ooooo                                                                                 +++++#####......XXXXXXXXXXXXXXXXXXXXXXXXX*****************************************XXXXXXXXXXXXXXXXXXXX#####++++++                                                                                                                     ",
"                                                                                       .....++++++++++XXXXXXXXXXXXXXXXXXXXXXXXXXXXXXXXXXXXXXXXXXXXXXXXXXXXXXXXXXXXXXXXXXXXXXXXXXXX######ooooo                                                                                 #####+++++XXXXXXXXXXXXXXXXXXXXXXXXXXXXXXX*****************************************XXXXXXXXXXXXXXXXXXXX###########ooooo                                                                                                                ",
"                                                                                       .....++++++++++XXXXXXXXXXXXXXXXXXXXXXXXXXXXXXXXXXXXXXXXXXXXXXXXXXXXXXXXXXXXXXXXXXXXXXXXXXXX######ooooo                                                                                 #####+++++XXXXXXXXXXXXXXXXXXXXXXXXXXXXXXX*****************************************XXXXXXXXXXXXXXXXXXXX###########ooooo                                                                                                                ",
"                                                                                       .....++++++++++XXXXXXXXXXXXXXXXXXXXXXXXXXXXXXXXXXXXXXXXXXXXXXXXXXXXXXXXXXXXXXXXXXXXXXXXXXXX######ooooo                                                                                 #####+++++XXXXXXXXXXXXXXXXXXXXXXXXXXXXXXX*****************************************XXXXXXXXXXXXXXXXXXXX###########ooooo                                                                                                                ",
"                                                                                       .....++++++++++XXXXXXXXXXXXXXXXXXXXXXXXXXXXXXXXXXXXXXXXXXXXXXXXXXXXXXXXXXXXXXXXXXXXXXXXXXXX######ooooo                                                                                 #####+++++XXXXXXXXXXXXXXXXXXXXXXXXXXXXXXX*****************************************XXXXXXXXXXXXXXXXXXXX###########ooooo                                                                                                                ",
"                                                                                       .....++++++++++XXXXXXXXXXXXXXXXXXXXXXXXXXXXXXXXXXXXXXXXXXXXXXXXXXXXXXXXXXXXXXXXXXXXXXXXXXXX######ooooo                                                                                 #####+++++XXXXXXXXXXXXXXXXXXXXXXXXXXXXXXX*****************************************XXXXXXXXXXXXXXXXXXXX###########ooooo                                                                                                                ",
"                                                                                       .....++++++++++XXXXXXXXXXXXXXXXXXXXXXXXXXXXXXXXXXXXXXXXXXXXXXXXXXXXXXXXXXXXXXXXXXXXXXXXXXXX######ooooo                                                                                 #####+++++XXXXXXXXXXXXXXXXXXXXXXXXXXXXXXX*****************************************XXXXXXXXXXXXXXXXXXXX###########ooooo                                                                                                                ",
"                                                                                       .....+++++XXXXXXXXXXooooooooooXXXXXXXXXXXXXXXXXXXXXXXXXXXXXXXXXXXXXXXXXXXXXXXXXXXXXXXXXXXXXXXXXXX#####                                                                                 #####XXXXXXXXXXXXXXXXXXXXXXXXXXXXXXXXXXXX*****************************************XXXXXXXXXXXXXXXXXXXX+++++######+++++ooooo                                                                                                           ",
"                                                                                       .....+++++XXXXXXXXXXooooooooooXXXXXXXXXXXXXXXXXXXXXXXXXXXXXXXXXXXXXXXXXXXXXXXXXXXXXXXXXXXXXXXXXXX#####                                                                                 #####XXXXXXXXXXXXXXXXXXXXXXXXXXXXXXXXXXXX*****************************************XXXXXXXXXXXXXXXXXXXX+++++######+++++ooooo                                                                                                           ",
"                                                                                       .....+++++XXXXXXXXXXooooooooooXXXXXXXXXXXXXXXXXXXXXXXXXXXXXXXXXXXXXXXXXXXXXXXXXXXXXXXXXXXXXXXXXXX#####                                                                                 #####XXXXXXXXXXXXXXXXXXXXXXXXXXXXXXXXXXXX*****************************************XXXXXXXXXXXXXXXXXXXX+++++######+++++ooooo                                                                                                           ",
"                                                                                       .....+++++XXXXXXXXXXooooooooooXXXXXXXXXXXXXXXXXXXXXXXXXXXXXXXXXXXXXXXXXXXXXXXXXXXXXXXXXXXXXXXXXXX#####                                                                                 #####XXXXXXXXXXXXXXXXXXXXXXXXXXXXXXXXXXXX*****************************************XXXXXXXXXXXXXXXXXXXX+++++######+++++ooooo                                                                                                           ",
"                                                                                       .....+++++XXXXXXXXXXooooooooooXXXXXXXXXXXXXXXXXXXXXXXXXXXXXXXXXXXXXXXXXXXXXXXXXXXXXXXXXXXXXXXXXXX#####                                                                                 #####XXXXXXXXXXXXXXXXXXXXXXXXXXXXXXXXXXXX*****************************************XXXXXXXXXXXXXXXXXXXX+++++######+++++ooooo                                                                                                           ",
"                                                                                       .....XXXXXXXXXXooooo++++++++++.....XXXXXXXXXXXXXXXXXXXXXXXXXXooooooooooXXXXXXXXXXXXXXXXXXXXXXXXXX#####                                                                            .....++++++++++XXXXXXXXXXXXXXXXXXXXXXXXXXXXXXXXXXXX*****************************************XXXXXXXXXXXXXXXXXXXXXXXXXX##########.....                                                                                                      ",
"                                                                                       .....XXXXXXXXXXooooo++++++++++.....XXXXXXXXXXXXXXXXXXXXXXXXXXooooooooooXXXXXXXXXXXXXXXXXXXXXXXXXX#####                                                                            .....++++++++++XXXXXXXXXXXXXXXXXXXXXXXXXXXXXXXXXXXX*****************************************XXXXXXXXXXXXXXXXXXXXXXXXXX##########.....                                                                                                      ",
"                                                                                       .....XXXXXXXXXXooooo++++++++++.....XXXXXXXXXXXXXXXXXXXXXXXXXXooooooooooXXXXXXXXXXXXXXXXXXXXXXXXXX#####                                                                            .....++++++++++XXXXXXXXXXXXXXXXXXXXXXXXXXXXXXXXXXXX*****************************************XXXXXXXXXXXXXXXXXXXXXXXXXX##########.....                                                                                                      ",
"                                                                                       .....XXXXXXXXXXooooo++++++++++.....XXXXXXXXXXXXXXXXXXXXXXXXXXooooooooooXXXXXXXXXXXXXXXXXXXXXXXXXX#####                                                                            .....++++++++++XXXXXXXXXXXXXXXXXXXXXXXXXXXXXXXXXXXX*****************************************XXXXXXXXXXXXXXXXXXXXXXXXXX##########.....                                                                                                      ",
"                                                                                       .....XXXXXXXXXXooooo++++++++++.....XXXXXXXXXXXXXXXXXXXXXXXXXXooooooooooXXXXXXXXXXXXXXXXXXXXXXXXXX#####                                                                            .....++++++++++XXXXXXXXXXXXXXXXXXXXXXXXXXXXXXXXXXXX*****************************************XXXXXXXXXXXXXXXXXXXXXXXXXX##########.....                                                                                                      ",
"                                                                                       +++++XXXXXXXXXXooooo++++++++++.....XXXXX................ooooo##########.....XXXXXXXXXXXXXXX+++++++++++                                                                       oooooooooo+++++XXXXXXXXXXXXXXXXXXXXXXXXXXXXXXXXXXXXXXXXXXXXXX************************************XXXXXXXXXXXXXXXXXXXXXXXXXX++++++++++.....                                                                                                      ",
"                                                                                       +++++XXXXXXXXXXooooo++++++++++.....XXXXX................ooooo##########.....XXXXXXXXXXXXXXX+++++++++++                                                                       oooooooooo+++++XXXXXXXXXXXXXXXXXXXXXXXXXXXXXXXXXXXXXXXXXXXXXX************************************XXXXXXXXXXXXXXXXXXXXXXXXXX++++++++++.....                                                                                                      ",
"                                                                                       +++++XXXXXXXXXXooooo++++++++++.....XXXXX................ooooo##########.....XXXXXXXXXXXXXXX+++++++++++                                                                       oooooooooo+++++XXXXXXXXXXXXXXXXXXXXXXXXXXXXXXXXXXXXXXXXXXXXXX************************************XXXXXXXXXXXXXXXXXXXXXXXXXX++++++++++.....                                                                                                      ",
"                                                                                       +++++XXXXXXXXXXooooo++++++++++.....XXXXX................ooooo##########.....XXXXXXXXXXXXXXX+++++++++++                                                                       oooooooooo+++++XXXXXXXXXXXXXXXXXXXXXXXXXXXXXXXXXXXXXXXXXXXXXX************************************XXXXXXXXXXXXXXXXXXXXXXXXXX++++++++++.....                                                                                                      ",
"                                                                                       +++++XXXXXXXXXXooooo++++++++++.....XXXXX................ooooo##########.....XXXXXXXXXXXXXXX+++++++++++                                                                       oooooooooo+++++XXXXXXXXXXXXXXXXXXXXXXXXXXXXXXXXXXXXXXXXXXXXXX************************************XXXXXXXXXXXXXXXXXXXXXXXXXX++++++++++.....                                                                                                      ",
"                                                                                       +++++XXXXXooooo+++++++++++++++.....XXXXX           ooooo##########+++++.....XXXXXXXXXXXXXXXoooooo+++++.....                                                                       .....+++++XXXXXXXXXXXXXXXXXXXXXXXXXXXXXXXXXXXXXXXXXXXXXX**************************XXXXXXXXXXXXXXXXXXXXXXXXXXXXXXXXXXXXXXXXX+++++.....                                                                                                      ",
"                                                                                       +++++XXXXXooooo+++++++++++++++.....XXXXX           ooooo##########+++++.....XXXXXXXXXXXXXXXoooooo+++++.....                                                                       .....+++++XXXXXXXXXXXXXXXXXXXXXXXXXXXXXXXXXXXXXXXXXXXXXX**************************XXXXXXXXXXXXXXXXXXXXXXXXXXXXXXXXXXXXXXXXX+++++.....                                                                                                      ",
"                                                                                       +++++XXXXXooooo+++++++++++++++.....XXXXX           ooooo##########+++++.....XXXXXXXXXXXXXXXoooooo+++++.....                                                                       .....+++++XXXXXXXXXXXXXXXXXXXXXXXXXXXXXXXXXXXXXXXXXXXXXX**************************XXXXXXXXXXXXXXXXXXXXXXXXXXXXXXXXXXXXXXXXX+++++.....                                                                                                      ",
"                                                                                       +++++XXXXXooooo+++++++++++++++.....XXXXX           ooooo##########+++++.....XXXXXXXXXXXXXXXoooooo+++++.....                                                                       .....+++++XXXXXXXXXXXXXXXXXXXXXXXXXXXXXXXXXXXXXXXXXXXXXX**************************XXXXXXXXXXXXXXXXXXXXXXXXXXXXXXXXXXXXXXXXX+++++.....                                                                                                      ",
"                                                                                       +++++XXXXXooooo+++++++++++++++.....XXXXX           ooooo##########+++++.....XXXXXXXXXXXXXXXoooooo+++++.....                                                                       .....+++++XXXXXXXXXXXXXXXXXXXXXXXXXXXXXXXXXXXXXXXXXXXXXX**************************XXXXXXXXXXXXXXXXXXXXXXXXXXXXXXXXXXXXXXXXX+++++.....                                                                                                      ",
"                                                                                       ooooo+++++ooooo++++++++++.....     .....      ooooo###############...............XXXXXXXXXXXXXXXXooooo+++++..........                                                   ..........++++++++++XXXXXXXXXXXXXXXXXXXXXXXXXXXXXXXXXXXXXXXXXXXXXXXXXXX****************XXXXX          XXXXXXXXXXXXXXXXXXXXXXXXXXXXXXX+++++.....                                                                                                      ",
"                                                                                       ooooo+++++ooooo++++++++++.....     .....      ooooo###############...............XXXXXXXXXXXXXXXXooooo+++++..........                                                   ..........++++++++++XXXXXXXXXXXXXXXXXXXXXXXXXXXXXXXXXXXXXXXXXXXXXXXXXXX****************XXXXX          XXXXXXXXXXXXXXXXXXXXXXXXXXXXXXX+++++.....                                                                                                      ",
"                                                                                       ooooo+++++ooooo++++++++++.....     .....      ooooo###############...............XXXXXXXXXXXXXXXXooooo+++++..........                                                   ..........++++++++++XXXXXXXXXXXXXXXXXXXXXXXXXXXXXXXXXXXXXXXXXXXXXXXXXXX****************XXXXX          XXXXXXXXXXXXXXXXXXXXXXXXXXXXXXX+++++.....                                                                                                      ",
"                                                                                       ooooo+++++ooooo++++++++++.....     .....      ooooo###############...............XXXXXXXXXXXXXXXXooooo+++++..........                                                   ..........++++++++++XXXXXXXXXXXXXXXXXXXXXXXXXXXXXXXXXXXXXXXXXXXXXXXXXXX****************XXXXX          XXXXXXXXXXXXXXXXXXXXXXXXXXXXXXX+++++.....                                                                                                      ",
"                                                                                       ooooo+++++ooooo++++++++++.....     .....      ooooo###############...............XXXXXXXXXXXXXXXXooooo+++++..........                                                   ..........++++++++++XXXXXXXXXXXXXXXXXXXXXXXXXXXXXXXXXXXXXXXXXXXXXXXXXXX****************XXXXX          XXXXXXXXXXXXXXXXXXXXXXXXXXXXXXX+++++.....                                                                                                      ",
"                                                                                       +++++XXXXXooooo++++++++++.....          oooooo###############..........     .....XXXXXXXXXXXXXXXXXXXXX+++++++++++++++ooooo                                         .....#####++++++++++XXXXXXXXXXXXXXXXXXXXXXXXXXXXXXXXXXXXXXXXXXXXXXXXXXXXXXXX***********XXXXX               .....XXXXXXXXXXXXXXXXXXXXXXXXXX+++++.....ooooo                                                                                                 ",
"                                                                                       +++++XXXXXooooo++++++++++.....          oooooo###############..........     .....XXXXXXXXXXXXXXXXXXXXX+++++++++++++++ooooo                                         .....#####++++++++++XXXXXXXXXXXXXXXXXXXXXXXXXXXXXXXXXXXXXXXXXXXXXXXXXXXXXXXX***********XXXXX               .....XXXXXXXXXXXXXXXXXXXXXXXXXX+++++.....ooooo                                                                                                 ",
"                                                                                       +++++XXXXXooooo++++++++++.....          oooooo###############..........     .....XXXXXXXXXXXXXXXXXXXXX+++++++++++++++ooooo                                         .....#####++++++++++XXXXXXXXXXXXXXXXXXXXXXXXXXXXXXXXXXXXXXXXXXXXXXXXXXXXXXXX***********XXXXX               .....XXXXXXXXXXXXXXXXXXXXXXXXXX+++++.....ooooo                                                                                                 ",
"                                                                                       +++++XXXXXooooo++++++++++.....          oooooo###############..........     .....XXXXXXXXXXXXXXXXXXXXX+++++++++++++++ooooo                                         .....#####++++++++++XXXXXXXXXXXXXXXXXXXXXXXXXXXXXXXXXXXXXXXXXXXXXXXXXXXXXXXX***********XXXXX               .....XXXXXXXXXXXXXXXXXXXXXXXXXX+++++.....ooooo                                                                                                 ",
"                                                                                       +++++XXXXXooooo++++++++++.....          oooooo###############..........     .....XXXXXXXXXXXXXXXXXXXXX+++++++++++++++ooooo                                         .....#####++++++++++XXXXXXXXXXXXXXXXXXXXXXXXXXXXXXXXXXXXXXXXXXXXXXXXXXXXXXXX***********XXXXX               .....XXXXXXXXXXXXXXXXXXXXXXXXXX+++++.....ooooo                                                                                                 ",
"                                                                                       +++++.....+++++++++++++++.....oooooooooo################ooooo.....               .....XXXXXXXXXXXXXXXXXXXXX+++++++++++++++                                         ##########+++++.....XXXXXXXXXXXXXXXXXXXXXXXXXXXXXXXXXXXXXXXXXXXXXXXXXXXXXXXXXXXXX******XXXXX                    ooooo+++++.....XXXXXXXXXXXXXXXX+++++.....                                                                                                 ",
"                                                                                       +++++.....+++++++++++++++.....oooooooooo################ooooo.....               .....XXXXXXXXXXXXXXXXXXXXX+++++++++++++++                                         ##########+++++.....XXXXXXXXXXXXXXXXXXXXXXXXXXXXXXXXXXXXXXXXXXXXXXXXXXXXXXXXXXXXX******XXXXX                    ooooo+++++.....XXXXXXXXXXXXXXXX+++++.....                                                                                                 ",
"                                                                                       +++++.....+++++++++++++++.....oooooooooo################ooooo.....               .....XXXXXXXXXXXXXXXXXXXXX+++++++++++++++                                         ##########+++++.....XXXXXXXXXXXXXXXXXXXXXXXXXXXXXXXXXXXXXXXXXXXXXXXXXXXXXXXXXXXXX******XXXXX                    ooooo+++++.....XXXXXXXXXXXXXXXX+++++.....                                                                                                 ",
"                                                                                       +++++.....+++++++++++++++.....oooooooooo################ooooo.....               .....XXXXXXXXXXXXXXXXXXXXX+++++++++++++++                                         ##########+++++.....XXXXXXXXXXXXXXXXXXXXXXXXXXXXXXXXXXXXXXXXXXXXXXXXXXXXXXXXXXXXX******XXXXX                    ooooo+++++.....XXXXXXXXXXXXXXXX+++++.....                                                                                                 ",
"                                                                                       +++++.....+++++++++++++++.....oooooooooo################ooooo.....               .....XXXXXXXXXXXXXXXXXXXXX+++++++++++++++                                         ##########+++++.....XXXXXXXXXXXXXXXXXXXXXXXXXXXXXXXXXXXXXXXXXXXXXXXXXXXXXXXXXXXXX******XXXXX                    ooooo+++++.....XXXXXXXXXXXXXXXX+++++.....                                                                                                 ",
"                                                                                       ooooo.....+++++oooooooooo#####+++++#####################.....                    .....XXXXXXXXXXXXXXXX....................                                    .....##########.....XXXXXXXXXXXXXXX***********XXXXXXXXXXXXXXXXXXXXXXXXXXXXXXXXXXXXXXXX******XXXXX                         ..........XXXXXXXXXXXXXXXX+++++.....                                                                                                 ",
"                                                                                       ooooo.....+++++oooooooooo#####+++++#####################.....                    .....XXXXXXXXXXXXXXXX....................                                    .....##########.....XXXXXXXXXXXXXXX***********XXXXXXXXXXXXXXXXXXXXXXXXXXXXXXXXXXXXXXXX******XXXXX                         ..........XXXXXXXXXXXXXXXX+++++.....                                                                                                 ",
"                                                                                       ooooo.....+++++oooooooooo#####+++++#####################.....                    .....XXXXXXXXXXXXXXXX....................                                    .....##########.....XXXXXXXXXXXXXXX***********XXXXXXXXXXXXXXXXXXXXXXXXXXXXXXXXXXXXXXXX******XXXXX                         ..........XXXXXXXXXXXXXXXX+++++.....                                                                                                 ",
"                                                                                       ooooo.....+++++oooooooooo#####+++++#####################.....                    .....XXXXXXXXXXXXXXXX....................                                    .....##########.....XXXXXXXXXXXXXXX***********XXXXXXXXXXXXXXXXXXXXXXXXXXXXXXXXXXXXXXXX******XXXXX                         ..........XXXXXXXXXXXXXXXX+++++.....                                                                                                 ",
"                                                                                       ooooo.....+++++oooooooooo#####+++++#####################.....                    .....XXXXXXXXXXXXXXXX....................                                    .....##########.....XXXXXXXXXXXXXXX***********XXXXXXXXXXXXXXXXXXXXXXXXXXXXXXXXXXXXXXXX******XXXXX                         ..........XXXXXXXXXXXXXXXX+++++.....                                                                                                 ",
"                                                                                       .....+++++#########################################.....                         .....................####################...............                     ooooo++++++++++XXXXXXXXXXXXXXXXXXXXXXXXXXXXXXXXXXXXXXXXX.........................XXXXX******                                   .....XXXXXXXXXXXXXXXX+++++.....ooooo                                                                                            ",
"                                                                                       .....+++++#########################################.....                         .....................####################...............                     ooooo++++++++++XXXXXXXXXXXXXXXXXXXXXXXXXXXXXXXXXXXXXXXXX.........................XXXXX******                                   .....XXXXXXXXXXXXXXXX+++++.....ooooo                                                                                            ",
"                                                                                       .....+++++#########################################.....                         .....................####################...............                     ooooo++++++++++XXXXXXXXXXXXXXXXXXXXXXXXXXXXXXXXXXXXXXXXX.........................XXXXX******                                   .....XXXXXXXXXXXXXXXX+++++.....ooooo                                                                                            ",
"                                                                                       .....+++++#########################################.....                         .....................####################...............                     ooooo++++++++++XXXXXXXXXXXXXXXXXXXXXXXXXXXXXXXXXXXXXXXXX.........................XXXXX******                                   .....XXXXXXXXXXXXXXXX+++++.....ooooo                                                                                            ",
"                                                                                       .....+++++#########################################.....                         .....................####################...............                     ooooo++++++++++XXXXXXXXXXXXXXXXXXXXXXXXXXXXXXXXXXXXXXXXX.........................XXXXX******                                   .....XXXXXXXXXXXXXXXX+++++.....ooooo                                                                                            ",
"                                                                                       .....##############################################..........          ...............##############################################+++++...........          ooooo++++++++++.....XXXXXXXXXXXXXXX******XXXXX*****XXXXX                         .....XXXXXXXXXXX                              ...........XXXXXXXXXX+++++.....ooooo                                                                                            ",
"                                                                                       .....##############################################..........          ...............##############################################+++++...........          ooooo++++++++++.....XXXXXXXXXXXXXXX******XXXXX*****XXXXX                         .....XXXXXXXXXXX                              ...........XXXXXXXXXX+++++.....ooooo                                                                                            ",
"                                                                                       .....##############################################..........          ...............##############################################+++++...........          ooooo++++++++++.....XXXXXXXXXXXXXXX******XXXXX*****XXXXX                         .....XXXXXXXXXXX                              ...........XXXXXXXXXX+++++.....ooooo                                                                                            ",
"                                                                                       .....##############################################..........          ...............##############################################+++++...........          ooooo++++++++++.....XXXXXXXXXXXXXXX******XXXXX*****XXXXX                         .....XXXXXXXXXXX                              ...........XXXXXXXXXX+++++.....ooooo                                                                                            ",
"                                                                                       .....##############################################..........          ...............##############################################+++++...........          ooooo++++++++++.....XXXXXXXXXXXXXXX******XXXXX*****XXXXX                         .....XXXXXXXXXXX                              ...........XXXXXXXXXX+++++.....ooooo                                                                                            ",
"                                                                                       .....##############################################..........          ...............##############################################+++++...........          ooooo++++++++++.....XXXXXXXXXXXXXXX******XXXXX*****XXXXX                         .....XXXXXXXXXXX                              ...........XXXXXXXXXX+++++.....ooooo                                                                                            ",
"                                                                                 ......########################################################ooooo...............+++++#############################################################++++++..........ooooo++++++++++XXXXXXXXXXXXXXXXXXXXXXXXXX*****XXXXX                                   ......XXXXX                              ...........XXXXXXXXXX+++++.....+++++                                                                                            ",
"                                                                                 ......########################################################ooooo...............+++++#############################################################++++++..........ooooo++++++++++XXXXXXXXXXXXXXXXXXXXXXXXXX*****XXXXX                                   ......XXXXX                              ...........XXXXXXXXXX+++++.....+++++                                                                                            ",
"                                                                                 ......########################################################ooooo...............+++++#############################################################++++++..........ooooo++++++++++XXXXXXXXXXXXXXXXXXXXXXXXXX*****XXXXX                                   ......XXXXX                              ...........XXXXXXXXXX+++++.....+++++                                                                                            ",
"                                                                                 ......########################################################ooooo...............+++++#############################################################++++++..........ooooo++++++++++XXXXXXXXXXXXXXXXXXXXXXXXXX*****XXXXX                                   ......XXXXX                              ...........XXXXXXXXXX+++++.....+++++                                                                                            ",
"                                                                                 ......########################################################ooooo...............+++++#############################################################++++++..........ooooo++++++++++XXXXXXXXXXXXXXXXXXXXXXXXXX*****XXXXX                                   ......XXXXX                              ...........XXXXXXXXXX+++++.....+++++                                                                                            ",
"                                                                            .....###################################################################ooooo++++++++++++++++++++###################################################################+++++.....++++++++++XXXXXXXXXXXXXXXXXXXXXXXXXXXXXXX                                                                                 ooooo++++++XXXXXXXXXX+++++++++++++++                                                                                            ",
"                                                                            .....###################################################################ooooo++++++++++++++++++++###################################################################+++++.....++++++++++XXXXXXXXXXXXXXXXXXXXXXXXXXXXXXX                                                                                 ooooo++++++XXXXXXXXXX+++++++++++++++                                                                                            ",
"                                                                            .....###################################################################ooooo++++++++++++++++++++###################################################################+++++.....++++++++++XXXXXXXXXXXXXXXXXXXXXXXXXXXXXXX                                                                                 ooooo++++++XXXXXXXXXX+++++++++++++++                                                                                            ",
"                                                                            .....###################################################################ooooo++++++++++++++++++++###################################################################+++++.....++++++++++XXXXXXXXXXXXXXXXXXXXXXXXXXXXXXX                                                                                 ooooo++++++XXXXXXXXXX+++++++++++++++                                                                                            ",
"                                                                            .....###################################################################ooooo++++++++++++++++++++###################################################################+++++.....++++++++++XXXXXXXXXXXXXXXXXXXXXXXXXXXXXXX                                                                                 ooooo++++++XXXXXXXXXX+++++++++++++++                                                                                            ",
"                                                                       .....#############################################################################+++++++++++++++++++++++++########################################################################.....XXXXXXXXXXXXXXXXXXXXXXXXXXXXXXXXXXXX                                                                                      +++++++++++XXXXX+++++++++++++++ooooo                                                                                       ",
"                                                                       .....#############################################################################+++++++++++++++++++++++++########################################################################.....XXXXXXXXXXXXXXXXXXXXXXXXXXXXXXXXXXXX                                                                                      +++++++++++XXXXX+++++++++++++++ooooo                                                                                       ",
"                                                                       .....#############################################################################+++++++++++++++++++++++++########################################################################.....XXXXXXXXXXXXXXXXXXXXXXXXXXXXXXXXXXXX                                                                                      +++++++++++XXXXX+++++++++++++++ooooo                                                                                       ",
"                                                                       .....#############################################################################+++++++++++++++++++++++++########################################################################.....XXXXXXXXXXXXXXXXXXXXXXXXXXXXXXXXXXXX                                                                                      +++++++++++XXXXX+++++++++++++++ooooo                                                                                       ",
"                                                                       .....#############################################################################+++++++++++++++++++++++++########################################################################.....XXXXXXXXXXXXXXXXXXXXXXXXXXXXXXXXXXXX                                                                                      +++++++++++XXXXX+++++++++++++++ooooo                                                                                       ",
"                                                                       .....################+++++%%%%%%%%%%##########ooooo+++++##########################+++++++++++++++++++++++++#############################################################################.....XXXXXXXXXXXXXXXXXXXXXXXXXX                                                                                      ooooo+++++++++++XXXXX+++++.....+++++ooooo                                                                                       ",
"                                                                       .....################+++++%%%%%%%%%%##########ooooo+++++##########################+++++++++++++++++++++++++#############################################################################.....XXXXXXXXXXXXXXXXXXXXXXXXXX                                                                                      ooooo+++++++++++XXXXX+++++.....+++++ooooo                                                                                       ",
"                                                                       .....################+++++%%%%%%%%%%##########ooooo+++++##########################+++++++++++++++++++++++++#############################################################################.....XXXXXXXXXXXXXXXXXXXXXXXXXX                                                                                      ooooo+++++++++++XXXXX+++++.....+++++ooooo                                                                                       ",
"                                                                       .....################+++++%%%%%%%%%%##########ooooo+++++##########################+++++++++++++++++++++++++#############################################################################.....XXXXXXXXXXXXXXXXXXXXXXXXXX                                                                                      ooooo+++++++++++XXXXX+++++.....+++++ooooo                                                                                       ",
"                                                                       .....################+++++%%%%%%%%%%##########ooooo+++++##########################+++++++++++++++++++++++++#############################################################################.....XXXXXXXXXXXXXXXXXXXXXXXXXX                                                                                      ooooo+++++++++++XXXXX+++++.....+++++ooooo                                                                                       ",
"                                                                  .....################+++++%%%%%%%%%%#####+++++=====ooooo####################################+++++++++++++++ooooo...........++++++++++++++++++++########################################################...............oooooo                                                                                      ooooo++++++++++++++++++++++++++++++++++++                                                                                       ",
"                                                                  .....################+++++%%%%%%%%%%#####+++++=====ooooo####################################+++++++++++++++ooooo...........++++++++++++++++++++########################################################...............oooooo                                                                                      ooooo++++++++++++++++++++++++++++++++++++                                                                                       ",
"                                                                  .....################+++++%%%%%%%%%%#####+++++=====ooooo####################################+++++++++++++++ooooo...........++++++++++++++++++++########################################################...............oooooo                                                                                      ooooo++++++++++++++++++++++++++++++++++++                                                                                       ",
"                                                                  .....################+++++%%%%%%%%%%#####+++++=====ooooo####################################+++++++++++++++ooooo...........++++++++++++++++++++########################################################...............oooooo                                                                                      ooooo++++++++++++++++++++++++++++++++++++                                                                                       ",
"                                                                  .....################+++++%%%%%%%%%%#####+++++=====ooooo####################################+++++++++++++++ooooo...........++++++++++++++++++++########################################################...............oooooo                                                                                      ooooo++++++++++++++++++++++++++++++++++++                                                                                       ",
"                                                                  .....ooooo++++++++++++++++##########+++++.....----------####################################+++++oooooooooo           ooooo..........ooooo+++++++++++++++####################################..........##########.....######ooooooooooooooooooooooooooooooooooo..........                                         ooooooooooo++++++++++.....+++++++++++++++ooooo                                                                                  ",
"                                                                  .....ooooo++++++++++++++++##########+++++.....----------####################################+++++oooooooooo           ooooo..........ooooo+++++++++++++++####################################..........##########.....######ooooooooooooooooooooooooooooooooooo..........                                         ooooooooooo++++++++++.....+++++++++++++++ooooo                                                                                  ",
"                                                                  .....ooooo++++++++++++++++##########+++++.....----------####################################+++++oooooooooo           ooooo..........ooooo+++++++++++++++####################################..........##########.....######ooooooooooooooooooooooooooooooooooo..........                                         ooooooooooo++++++++++.....+++++++++++++++ooooo                                                                                  ",
"                                                                  .....ooooo++++++++++++++++##########+++++.....----------####################################+++++oooooooooo           ooooo..........ooooo+++++++++++++++####################################..........##########.....######ooooooooooooooooooooooooooooooooooo..........                                         ooooooooooo++++++++++.....+++++++++++++++ooooo                                                                                  ",
"                                                                  .....ooooo++++++++++++++++##########+++++.....----------####################################+++++oooooooooo           ooooo..........ooooo+++++++++++++++####################################..........##########.....######ooooooooooooooooooooooooooooooooooo..........                                         ooooooooooo++++++++++.....+++++++++++++++ooooo                                                                                  ",
"                                                                       .....+++++++++++ooooo##########*****.....-----+++++####################################oooooooooo+++++oooooooooooooooo++++++++++oooooooooo+++++++++++++++##########################ooooo##################################################################+++++.....                                         ooooo++++++++++++++++++++++++++++++++++++.....                                                                                  ",
"                                                                       .....+++++++++++ooooo##########*****.....-----+++++####################################oooooooooo+++++oooooooooooooooo++++++++++oooooooooo+++++++++++++++##########################ooooo##################################################################+++++.....                                         ooooo++++++++++++++++++++++++++++++++++++.....                                                                                  ",
"                                                                       .....+++++++++++ooooo##########*****.....-----+++++####################################oooooooooo+++++oooooooooooooooo++++++++++oooooooooo+++++++++++++++##########################ooooo##################################################################+++++.....                                         ooooo++++++++++++++++++++++++++++++++++++.....                                                                                  ",
"                                                                       .....+++++++++++ooooo##########*****.....-----+++++####################################oooooooooo+++++oooooooooooooooo++++++++++oooooooooo+++++++++++++++##########################ooooo##################################################################+++++.....                                         ooooo++++++++++++++++++++++++++++++++++++.....                                                                                  ",
"                                                                       .....+++++++++++ooooo##########*****.....-----+++++####################################oooooooooo+++++oooooooooooooooo++++++++++oooooooooo+++++++++++++++##########################ooooo##################################################################+++++.....                                         ooooo++++++++++++++++++++++++++++++++++++.....                                                                                  ",
"                                                                            .....oooooo+++++#####ooooooooooooooo+++++##########++++++ooooo.....ooooo##########ooooo+++++++++++++++++++++++++++++++++++++++++++++++++++++++++++++#################################################################################################+++++.....                                              oooooo+++++.....++++++++++++++++++++ooooooooooo                                                                            ",
"                                                                            .....oooooo+++++#####ooooooooooooooo+++++##########++++++ooooo.....ooooo##########ooooo+++++++++++++++++++++++++++++++++++++++++++++++++++++++++++++#################################################################################################+++++.....                                              oooooo+++++.....++++++++++++++++++++ooooooooooo                                                                            ",
"                                                                            .....oooooo+++++#####ooooooooooooooo+++++##########++++++ooooo.....ooooo##########ooooo+++++++++++++++++++++++++++++++++++++++++++++++++++++++++++++#################################################################################################+++++.....                                              oooooo+++++.....++++++++++++++++++++ooooooooooo                                                                            ",
"                                                                            .....oooooo+++++#####ooooooooooooooo+++++##########++++++ooooo.....ooooo##########ooooo+++++++++++++++++++++++++++++++++++++++++++++++++++++++++++++#################################################################################################+++++.....                                              oooooo+++++.....++++++++++++++++++++ooooooooooo                                                                            ",
"                                                                            .....oooooo+++++#####ooooooooooooooo+++++##########++++++ooooo.....ooooo##########ooooo+++++++++++++++++++++++++++++++++++++++++++++++++++++++++++++#################################################################################################+++++.....                                              oooooo+++++.....++++++++++++++++++++ooooooooooo                                                                            ",
"                                                                                 oooooo+++++###################################................+++++++++++++++ooooo+++++++++++++++++++++++++++++++++++++++++++++++++++++++++++++##########################+++++##############################################.....##########+++++++++++++++......                              oooooooooo++++++++++++++++++++++++++++++++++++.....                                                                                  ",
"                                                                                 oooooo+++++###################################................+++++++++++++++ooooo+++++++++++++++++++++++++++++++++++++++++++++++++++++++++++++##########################+++++##############################################.....##########+++++++++++++++......                              oooooooooo++++++++++++++++++++++++++++++++++++.....                                                                                  ",
"                                                                                 oooooo+++++###################################................+++++++++++++++ooooo+++++++++++++++++++++++++++++++++++++++++++++++++++++++++++++##########################+++++##############################################.....##########+++++++++++++++......                              oooooooooo++++++++++++++++++++++++++++++++++++.....                                                                                  ",
"                                                                                 oooooo+++++###################################................+++++++++++++++ooooo+++++++++++++++++++++++++++++++++++++++++++++++++++++++++++++##########################+++++##############################################.....##########+++++++++++++++......                              oooooooooo++++++++++++++++++++++++++++++++++++.....                                                                                  ",
"                                                                                 oooooo+++++###################################................+++++++++++++++ooooo+++++++++++++++++++++++++++++++++++++++++++++++++++++++++++++##########################+++++##############################################.....##########+++++++++++++++......                              oooooooooo++++++++++++++++++++++++++++++++++++.....                                                                                  ",
"                                                                            ooooo#########################################+++++................ooooo++++++++++oooooooooo++++++++++ooooooooooo++++++++++++++++++++++++++++++########################################################################oooooooooo     oooooooooo.....++++++++++++++++.....                         ooooo++++++++++++++++++++++++++++++++++++++++++++++                                                                                  ",
"                                                                            ooooo#########################################+++++................ooooo++++++++++oooooooooo++++++++++ooooooooooo++++++++++++++++++++++++++++++########################################################################oooooooooo     oooooooooo.....++++++++++++++++.....                         ooooo++++++++++++++++++++++++++++++++++++++++++++++                                                                                  ",
"                                                                            ooooo#########################################+++++................ooooo++++++++++oooooooooo++++++++++ooooooooooo++++++++++++++++++++++++++++++########################################################################oooooooooo     oooooooooo.....++++++++++++++++.....                         ooooo++++++++++++++++++++++++++++++++++++++++++++++                                                                                  ",
"                                                                            ooooo#########################################+++++................ooooo++++++++++oooooooooo++++++++++ooooooooooo++++++++++++++++++++++++++++++########################################################################oooooooooo     oooooooooo.....++++++++++++++++.....                         ooooo++++++++++++++++++++++++++++++++++++++++++++++                                                                                  ",
"                                                                            ooooo#########################################+++++................ooooo++++++++++oooooooooo++++++++++ooooooooooo++++++++++++++++++++++++++++++########################################################################oooooooooo     oooooooooo.....++++++++++++++++.....                         ooooo++++++++++++++++++++++++++++++++++++++++++++++                                                                                  ",
"                                                                            ooooo#########################################+++++................ooooo++++++++++oooooooooo++++++++++ooooooooooo++++++++++++++++++++++++++++++########################################################################oooooooooo     oooooooooo.....++++++++++++++++.....                         ooooo++++++++++++++++++++++++++++++++++++++++++++++                                                                                  ",
"                                                                       ooooo#########################################+++++.....OOOOOO.....++++++++++oooooooooo     oooooooooo     oooooo+++++++++++++++#####++++++++++########################################################################++++++++++ooooo               .....++++++++++++++++.....                              +++++++++++++++++++++++++++++++++++++++++.....                                                                                  ",
"                                                                       ooooo#########################################+++++.....OOOOOO.....++++++++++oooooooooo     oooooooooo     oooooo+++++++++++++++#####++++++++++########################################################################++++++++++ooooo               .....++++++++++++++++.....                              +++++++++++++++++++++++++++++++++++++++++.....                                                                                  ",
"                                                                       ooooo#########################################+++++.....OOOOOO.....++++++++++oooooooooo     oooooooooo     oooooo+++++++++++++++#####++++++++++########################################################################++++++++++ooooo               .....++++++++++++++++.....                              +++++++++++++++++++++++++++++++++++++++++.....                                                                                  ",
"                                                                       ooooo#########################################+++++.....OOOOOO.....++++++++++oooooooooo     oooooooooo     oooooo+++++++++++++++#####++++++++++########################################################################++++++++++ooooo               .....++++++++++++++++.....                              +++++++++++++++++++++++++++++++++++++++++.....                                                                                  ",
"                                                                       ooooo#########################################+++++.....OOOOOO.....++++++++++oooooooooo     oooooooooo     oooooo+++++++++++++++#####++++++++++########################################################################++++++++++ooooo               .....++++++++++++++++.....                              +++++++++++++++++++++++++++++++++++++++++.....                                                                                  ",
"                                                                       ooooo####################################..........OOOOO......++++++++++.....ooooo                         oooooo+++++######################################################################################################+++++ooooo                    +++++++++++++++++++++.....                    ++++++++++++++++++++++++++++++++++++++++++++++                                                                                       ",
"                                                                       ooooo####################################..........OOOOO......++++++++++.....ooooo                         oooooo+++++######################################################################################################+++++ooooo                    +++++++++++++++++++++.....                    ++++++++++++++++++++++++++++++++++++++++++++++                                                                                       ",
"                                                                       ooooo####################################..........OOOOO......++++++++++.....ooooo                         oooooo+++++######################################################################################################+++++ooooo                    +++++++++++++++++++++.....                    ++++++++++++++++++++++++++++++++++++++++++++++                                                                                       ",
"                                                                       ooooo####################################..........OOOOO......++++++++++.....ooooo                         oooooo+++++######################################################################################################+++++ooooo                    +++++++++++++++++++++.....                    ++++++++++++++++++++++++++++++++++++++++++++++                                                                                       ",
"                                                                       ooooo####################################..........OOOOO......++++++++++.....ooooo                         oooooo+++++######################################################################################################+++++ooooo                    +++++++++++++++++++++.....                    ++++++++++++++++++++++++++++++++++++++++++++++                                                                                       ",
"                                                                  ooooo####################################.....OOOOOOOOOOOOOOO......++++++++++.....                         ooooo++++++##########&&&&&&&&&&&&&&&&&&&&#############################################################oooooooooooooooo++++++++++ooooo          .....+++++++++++++++++++++.....                    ooooo+++++++++++++++++++++++++++++++++++++++++.....                                                                                  ",
"                                                                  ooooo####################################.....OOOOOOOOOOOOOOO......++++++++++.....                         ooooo++++++##########&&&&&&&&&&&&&&&&&&&&#############################################################oooooooooooooooo++++++++++ooooo          .....+++++++++++++++++++++.....                    ooooo+++++++++++++++++++++++++++++++++++++++++.....                                                                                  ",
"                                                                  ooooo####################################.....OOOOOOOOOOOOOOO......++++++++++.....                         ooooo++++++##########&&&&&&&&&&&&&&&&&&&&#############################################################oooooooooooooooo++++++++++ooooo          .....+++++++++++++++++++++.....                    ooooo+++++++++++++++++++++++++++++++++++++++++.....                                                                                  ",
"                                                                  ooooo####################################.....OOOOOOOOOOOOOOO......++++++++++.....                         ooooo++++++##########&&&&&&&&&&&&&&&&&&&&#############################################################oooooooooooooooo++++++++++ooooo          .....+++++++++++++++++++++.....                    ooooo+++++++++++++++++++++++++++++++++++++++++.....                                                                                  ",
"                                                                  ooooo####################################.....OOOOOOOOOOOOOOO......++++++++++.....                         ooooo++++++##########&&&&&&&&&&&&&&&&&&&&#############################################################oooooooooooooooo++++++++++ooooo          .....+++++++++++++++++++++.....                    ooooo+++++++++++++++++++++++++++++++++++++++++.....                                                                                  ",
"                                                             ooooo###############oooooo##########+++++.....oooooOOOOO..........oooooo+++++.....                              .....######&&&&&&&&&&&&&&&&&&&&&&&&&&&&&&#############################################################################+++++++++++++++ooooo          ooooo#####++++++#####+++++..........          ooooo++++++++++++++++++++++++++++++++++++ooooo                                                                                       ",
"                                                             ooooo###############oooooo##########+++++.....oooooOOOOO..........oooooo+++++.....                              .....######&&&&&&&&&&&&&&&&&&&&&&&&&&&&&&#############################################################################+++++++++++++++ooooo          ooooo#####++++++#####+++++..........          ooooo++++++++++++++++++++++++++++++++++++ooooo                                                                                       ",
"                                                             ooooo###############oooooo##########+++++.....oooooOOOOO..........oooooo+++++.....                              .....######&&&&&&&&&&&&&&&&&&&&&&&&&&&&&&#############################################################################+++++++++++++++ooooo          ooooo#####++++++#####+++++..........          ooooo++++++++++++++++++++++++++++++++++++ooooo                                                                                       ",
"                                                             ooooo###############oooooo##########+++++.....oooooOOOOO..........oooooo+++++.....                              .....######&&&&&&&&&&&&&&&&&&&&&&&&&&&&&&#############################################################################+++++++++++++++ooooo          ooooo#####++++++#####+++++..........          ooooo++++++++++++++++++++++++++++++++++++ooooo                                                                                       ",
"                                                             ooooo###############oooooo##########+++++.....oooooOOOOO..........oooooo+++++.....                              .....######&&&&&&&&&&&&&&&&&&&&&&&&&&&&&&#############################################################################+++++++++++++++ooooo          ooooo#####++++++#####+++++..........          ooooo++++++++++++++++++++++++++++++++++++ooooo                                                                                       ",
"                                                             .....##########+++++###########+++++-----.....oooooooooo-----#####oooooo.....                              .....+++++&&&&&&&&&&&&&&&&&&&&&&&&&&&&&&&&&&&&&&&&&#############################################################################++++++++++ooooo.....ooooo#####################++++++++++ooooo.....ooooo++++++++++++++++++++++++++++++++++++++++++++++.....                                                                                  ",
"                                                             .....##########+++++###########+++++-----.....oooooooooo-----#####oooooo.....                              .....+++++&&&&&&&&&&&&&&&&&&&&&&&&&&&&&&&&&&&&&&&&&#############################################################################++++++++++ooooo.....ooooo#####################++++++++++ooooo.....ooooo++++++++++++++++++++++++++++++++++++++++++++++.....                                                                                  ",
"                                                             .....##########+++++###########+++++-----.....oooooooooo-----#####oooooo.....                              .....+++++&&&&&&&&&&&&&&&&&&&&&&&&&&&&&&&&&&&&&&&&&#############################################################################++++++++++ooooo.....ooooo#####################++++++++++ooooo.....ooooo++++++++++++++++++++++++++++++++++++++++++++++.....                                                                                  ",
"                                                             .....##########+++++###########+++++-----.....oooooooooo-----#####oooooo.....                              .....+++++&&&&&&&&&&&&&&&&&&&&&&&&&&&&&&&&&&&&&&&&&#############################################################################++++++++++ooooo.....ooooo#####################++++++++++ooooo.....ooooo++++++++++++++++++++++++++++++++++++++++++++++.....                                                                                  ",
"                                                             .....##########+++++###########+++++-----.....oooooooooo-----#####oooooo.....                              .....+++++&&&&&&&&&&&&&&&&&&&&&&&&&&&&&&&&&&&&&&&&&#############################################################################++++++++++ooooo.....ooooo#####################++++++++++ooooo.....ooooo++++++++++++++++++++++++++++++++++++++++++++++.....                                                                                  ",
"                                                                  .....##########+++++++++++...............##########ooooo#####......ooooo                              .....#####&&&&&&&&&&&&&&&&&&&&&&&&&&&&&&&&&&&&&&&&&&&&&&#############################################################################+++++.....###############################+++++++++++++++.....ooooo+++++++++++++++++++++++++++++++++++++++++ooooo                                                                                       ",
"                                                                  .....##########+++++++++++...............##########ooooo#####......ooooo                              .....#####&&&&&&&&&&&&&&&&&&&&&&&&&&&&&&&&&&&&&&&&&&&&&&#############################################################################+++++.....###############################+++++++++++++++.....ooooo+++++++++++++++++++++++++++++++++++++++++ooooo                                                                                       ",
"                                                                  .....##########+++++++++++...............##########ooooo#####......ooooo                              .....#####&&&&&&&&&&&&&&&&&&&&&&&&&&&&&&&&&&&&&&&&&&&&&&#############################################################################+++++.....###############################+++++++++++++++.....ooooo+++++++++++++++++++++++++++++++++++++++++ooooo                                                                                       ",
"                                                                  .....##########+++++++++++...............##########ooooo#####......ooooo                              .....#####&&&&&&&&&&&&&&&&&&&&&&&&&&&&&&&&&&&&&&&&&&&&&&#############################################################################+++++.....###############################+++++++++++++++.....ooooo+++++++++++++++++++++++++++++++++++++++++ooooo                                                                                       ",
"                                                                  .....##########+++++++++++...............##########ooooo#####......ooooo                              .....#####&&&&&&&&&&&&&&&&&&&&&&&&&&&&&&&&&&&&&&&&&&&&&&#############################################################################+++++.....###############################+++++++++++++++.....ooooo+++++++++++++++++++++++++++++++++++++++++ooooo                                                                                       ",
"                                                                            ................     ....................#####...........                              .....+++++&&&&&&&&&&&&&&&&&&&&&&&&&&&&&&&&&&&&&&&&&&&&&&&&&&&&&&&&######&&&&&#############################################################+++++ooooo+++++##########.....###########++++++++++++++++++++.....+++++++++++++++++++++++++++++++++++++++++ooooo                                                                                       ",
"                                                                            ................     ....................#####...........                              .....+++++&&&&&&&&&&&&&&&&&&&&&&&&&&&&&&&&&&&&&&&&&&&&&&&&&&&&&&&&######&&&&&#############################################################+++++ooooo+++++##########.....###########++++++++++++++++++++.....+++++++++++++++++++++++++++++++++++++++++ooooo                                                                                       ",
"                                                                            ................     ....................#####...........                              .....+++++&&&&&&&&&&&&&&&&&&&&&&&&&&&&&&&&&&&&&&&&&&&&&&&&&&&&&&&&######&&&&&#############################################################+++++ooooo+++++##########.....###########++++++++++++++++++++.....+++++++++++++++++++++++++++++++++++++++++ooooo                                                                                       ",
"                                                                            ................     ....................#####...........                              .....+++++&&&&&&&&&&&&&&&&&&&&&&&&&&&&&&&&&&&&&&&&&&&&&&&&&&&&&&&&######&&&&&#############################################################+++++ooooo+++++##########.....###########++++++++++++++++++++.....+++++++++++++++++++++++++++++++++++++++++ooooo                                                                                       ",
"                                                                            ................     ....................#####...........                              .....+++++&&&&&&&&&&&&&&&&&&&&&&&&&&&&&&&&&&&&&&&&&&&&&&&&&&&&&&&&######&&&&&#############################################################+++++ooooo+++++##########.....###########++++++++++++++++++++.....+++++++++++++++++++++++++++++++++++++++++ooooo                                                                                       ",
"                                                                                                      ...............ooooo                                         .....#####&&&&&&&&&&&&&&&&&&&&&&&&&&&&&&&&&&&&&&&&&&&&&&&&&&&&&&&&&&&&&&&&&&&&&&&&#####&&&&&###################################################.....++++++++++ooooo+++++###########ooooo..........=====.....++++++++++++++++#####++++++++++++++++++++ooooo                                                                                       ",
"                                                                                                      ...............ooooo                                         .....#####&&&&&&&&&&&&&&&&&&&&&&&&&&&&&&&&&&&&&&&&&&&&&&&&&&&&&&&&&&&&&&&&&&&&&&&&#####&&&&&###################################################.....++++++++++ooooo+++++###########ooooo..........=====.....++++++++++++++++#####++++++++++++++++++++ooooo                                                                                       ",
"                                                                                                      ...............ooooo                                         .....#####&&&&&&&&&&&&&&&&&&&&&&&&&&&&&&&&&&&&&&&&&&&&&&&&&&&&&&&&&&&&&&&&&&&&&&&&#####&&&&&###################################################.....++++++++++ooooo+++++###########ooooo..........=====.....++++++++++++++++#####++++++++++++++++++++ooooo                                                                                       ",
"                                                                                                      ...............ooooo                                         .....#####&&&&&&&&&&&&&&&&&&&&&&&&&&&&&&&&&&&&&&&&&&&&&&&&&&&&&&&&&&&&&&&&&&&&&&&&#####&&&&&###################################################.....++++++++++ooooo+++++###########ooooo..........=====.....++++++++++++++++#####++++++++++++++++++++ooooo                                                                                       ",
"                                                                                                      ...............ooooo                                         .....#####&&&&&&&&&&&&&&&&&&&&&&&&&&&&&&&&&&&&&&&&&&&&&&&&&&&&&&&&&&&&&&&&&&&&&&&&#####&&&&&###################################################.....++++++++++ooooo+++++###########ooooo..........=====.....++++++++++++++++#####++++++++++++++++++++ooooo                                                                                       ",
"                                                                                                                                                                   .....&&&&&&&&&&&&&&&&&&&&&&&&&&&&&&&&&&&&&&&&&&&&&&&&&&&&&&&&&&&&&&&&&&&&&&&&&&&&&&&&&&&&&&&&&&&&##############################################+++++.....=====ooooo###########+++++ooooooooooooooo..........#####+++++######+++++++++++++++++++++++++ooooo                                                                                       ",
"                                                                                                                                                                   .....&&&&&&&&&&&&&&&&&&&&&&&&&&&&&&&&&&&&&&&&&&&&&&&&&&&&&&&&&&&&&&&&&&&&&&&&&&&&&&&&&&&&&&&&&&&&##############################################+++++.....=====ooooo###########+++++ooooooooooooooo..........#####+++++######+++++++++++++++++++++++++ooooo                                                                                       ",
"                                                                                                                                                                   .....&&&&&&&&&&&&&&&&&&&&&&&&&&&&&&&&&&&&&&&&&&&&&&&&&&&&&&&&&&&&&&&&&&&&&&&&&&&&&&&&&&&&&&&&&&&&##############################################+++++.....=====ooooo###########+++++ooooooooooooooo..........#####+++++######+++++++++++++++++++++++++ooooo                                                                                       ",
"                                                                                                                                                                   .....&&&&&&&&&&&&&&&&&&&&&&&&&&&&&&&&&&&&&&&&&&&&&&&&&&&&&&&&&&&&&&&&&&&&&&&&&&&&&&&&&&&&&&&&&&&&##############################################+++++.....=====ooooo###########+++++ooooooooooooooo..........#####+++++######+++++++++++++++++++++++++ooooo                                                                                       ",
"                                                                                                                                                                   .....&&&&&&&&&&&&&&&&&&&&&&&&&&&&&&&&&&&&&&&&&&&&&&&&&&&&&&&&&&&&&&&&&&&&&&&&&&&&&&&&&&&&&&&&&&&&##############################################+++++.....=====ooooo###########+++++ooooooooooooooo..........#####+++++######+++++++++++++++++++++++++ooooo                                                                                       ",
"                                                                                                                                                                        &&&&&&&&&&&&&&&&&&&&&&&&&&&&&&&&&&&&&&&&&&&&&&&&&&&&&&&&&&&&&&&&&&&&&&&&&&&&&&&&&&&&&&&&&&&&##############################################++++++++++++++++++++ooooooooooo+++++=====ooooo#########################++++++##########+++++++++++++++ooooo                                                                                       ",
"                                                                                                                                                                        &&&&&&&&&&&&&&&&&&&&&&&&&&&&&&&&&&&&&&&&&&&&&&&&&&&&&&&&&&&&&&&&&&&&&&&&&&&&&&&&&&&&&&&&&&&&##############################################++++++++++++++++++++ooooooooooo+++++=====ooooo#########################++++++##########+++++++++++++++ooooo                                                                                       ",
"                                                                                                                                                                        &&&&&&&&&&&&&&&&&&&&&&&&&&&&&&&&&&&&&&&&&&&&&&&&&&&&&&&&&&&&&&&&&&&&&&&&&&&&&&&&&&&&&&&&&&&&##############################################++++++++++++++++++++ooooooooooo+++++=====ooooo#########################++++++##########+++++++++++++++ooooo                                                                                       ",
"                                                                                                                                                                        &&&&&&&&&&&&&&&&&&&&&&&&&&&&&&&&&&&&&&&&&&&&&&&&&&&&&&&&&&&&&&&&&&&&&&&&&&&&&&&&&&&&&&&&&&&&##############################################++++++++++++++++++++ooooooooooo+++++=====ooooo#########################++++++##########+++++++++++++++ooooo                                                                                       ",
"                                                                                                                                                                        &&&&&&&&&&&&&&&&&&&&&&&&&&&&&&&&&&&&&&&&&&&&&&&&&&&&&&&&&&&&&&&&&&&&&&&&&&&&&&&&&&&&&&&&&&&&##############################################++++++++++++++++++++ooooooooooo+++++=====ooooo#########################++++++##########+++++++++++++++ooooo                                                                                       ",
"                                                                                                                                                                        &&&&&&&&&&&&&&&&&&&&&&&&&&&&&&&&&&&&&&&&&&&&&&&&&&&&&&&&&&&&&&&&&&&&&&&&&&&&&&&&&&&&&&&&&&&&##############################################++++++++++++++++++++ooooooooooo+++++=====ooooo#########################++++++##########+++++++++++++++ooooo                                                                                       ",
"                                                                                                                                                              .....#####&&&&&&&&&&&&&&&&&&&&&&&&&&&&&&&&&&&&&&&&&&&&&&&&&&&&&&&&&&&&&&&&&&&&&&&&&&&&&&&&&&&&&&&&&&&&&&&&&##############################################+++++++++++++++ooooooooooo...............#########################+++++++++++++++++++++++++++++++.....                                                                                       ",
"                                                                                                                                                              .....#####&&&&&&&&&&&&&&&&&&&&&&&&&&&&&&&&&&&&&&&&&&&&&&&&&&&&&&&&&&&&&&&&&&&&&&&&&&&&&&&&&&&&&&&&&&&&&&&&&##############################################+++++++++++++++ooooooooooo...............#########################+++++++++++++++++++++++++++++++.....                                                                                       ",
"                                                                                                                                                              .....#####&&&&&&&&&&&&&&&&&&&&&&&&&&&&&&&&&&&&&&&&&&&&&&&&&&&&&&&&&&&&&&&&&&&&&&&&&&&&&&&&&&&&&&&&&&&&&&&&&##############################################+++++++++++++++ooooooooooo...............#########################+++++++++++++++++++++++++++++++.....                                                                                       ",
"                                                                                                                                                              .....#####&&&&&&&&&&&&&&&&&&&&&&&&&&&&&&&&&&&&&&&&&&&&&&&&&&&&&&&&&&&&&&&&&&&&&&&&&&&&&&&&&&&&&&&&&&&&&&&&&##############################################+++++++++++++++ooooooooooo...............#########################+++++++++++++++++++++++++++++++.....                                                                                       ",
"                                                                                                                                                              .....#####&&&&&&&&&&&&&&&&&&&&&&&&&&&&&&&&&&&&&&&&&&&&&&&&&&&&&&&&&&&&&&&&&&&&&&&&&&&&&&&&&&&&&&&&&&&&&&&&&##############################################+++++++++++++++ooooooooooo...............#########################+++++++++++++++++++++++++++++++.....                                                                                       ",
"                                                                                                                                                         ooooo##########&&&&&&&&&&&&&&&&&&&&&&&&&&&&&&&&&&&&&&&&&&&&&&&&&&&&&&&&&&&&&&&&&&&&&&&&&&&&&&&&&&&&&&&&&&&&&&&&&##############################################++++++++++++++++++++oooooo###################################################++++++++++++++++++++.....                                                                                       ",
"                                                                                                                                                         ooooo##########&&&&&&&&&&&&&&&&&&&&&&&&&&&&&&&&&&&&&&&&&&&&&&&&&&&&&&&&&&&&&&&&&&&&&&&&&&&&&&&&&&&&&&&&&&&&&&&&&##############################################++++++++++++++++++++oooooo###################################################++++++++++++++++++++.....                                                                                       ",
"                                                                                                                                                         ooooo##########&&&&&&&&&&&&&&&&&&&&&&&&&&&&&&&&&&&&&&&&&&&&&&&&&&&&&&&&&&&&&&&&&&&&&&&&&&&&&&&&&&&&&&&&&&&&&&&&&##############################################++++++++++++++++++++oooooo###################################################++++++++++++++++++++.....                                                                                       ",
"                                                                                                                                                         ooooo##########&&&&&&&&&&&&&&&&&&&&&&&&&&&&&&&&&&&&&&&&&&&&&&&&&&&&&&&&&&&&&&&&&&&&&&&&&&&&&&&&&&&&&&&&&&&&&&&&&##############################################++++++++++++++++++++oooooo###################################################++++++++++++++++++++.....                                                                                       ",
"                                                                                                                                                         ooooo##########&&&&&&&&&&&&&&&&&&&&&&&&&&&&&&&&&&&&&&&&&&&&&&&&&&&&&&&&&&&&&&&&&&&&&&&&&&&&&&&&&&&&&&&&&&&&&&&&&##############################################++++++++++++++++++++oooooo###################################################++++++++++++++++++++.....                                                                                       ",
"                                                                                                                                                    ooooo###############&&&&&&&&&&&&&&&&&&&&&&&&&&&&&&&&&&&&&&&&&&&&&&&&&&&&&&&&&&&&&&&&&&&&&&&&&&&&&&&&&&&&&&&&&&&&&&&&&&&&&&########################################################+++++oooooo###################################################++++++++++++++++++++.....                                                                                       ",
"                                                                                                                                                    ooooo###############&&&&&&&&&&&&&&&&&&&&&&&&&&&&&&&&&&&&&&&&&&&&&&&&&&&&&&&&&&&&&&&&&&&&&&&&&&&&&&&&&&&&&&&&&&&&&&&&&&&&&&########################################################+++++oooooo###################################################++++++++++++++++++++.....                                                                                       ",
"                                                                                                                                                    ooooo###############&&&&&&&&&&&&&&&&&&&&&&&&&&&&&&&&&&&&&&&&&&&&&&&&&&&&&&&&&&&&&&&&&&&&&&&&&&&&&&&&&&&&&&&&&&&&&&&&&&&&&&########################################################+++++oooooo###################################################++++++++++++++++++++.....                                                                                       ",
"                                                                                                                                                    ooooo###############&&&&&&&&&&&&&&&&&&&&&&&&&&&&&&&&&&&&&&&&&&&&&&&&&&&&&&&&&&&&&&&&&&&&&&&&&&&&&&&&&&&&&&&&&&&&&&&&&&&&&&########################################################+++++oooooo###################################################++++++++++++++++++++.....                                                                                       ",
"                                                                                                                                                    ooooo###############&&&&&&&&&&&&&&&&&&&&&&&&&&&&&&&&&&&&&&&&&&&&&&&&&&&&&&&&&&&&&&&&&&&&&&&&&&&&&&&&&&&&&&&&&&&&&&&&&&&&&&########################################################+++++oooooo###################################################++++++++++++++++++++.....                                                                                       ",
"                                                                                                                                               ooooo####################+++++&&&&&&&&&&&&&&&&&&&&&&&&&&&&&&&&&&&&&&&&&&&&&&&&&&&&&&&&&&&&&&&&&&&&&&&&&&&&&&&&&&&&&&&&&&&&&&&&&########################################################+++++oooooo###################################++++++++++++++++++++++++++++++++++++.....                                                                                       ",
"                                                                                                                                               ooooo####################+++++&&&&&&&&&&&&&&&&&&&&&&&&&&&&&&&&&&&&&&&&&&&&&&&&&&&&&&&&&&&&&&&&&&&&&&&&&&&&&&&&&&&&&&&&&&&&&&&&&########################################################+++++oooooo###################################++++++++++++++++++++++++++++++++++++.....                                                                                       ",
"                                                                                                                                               ooooo####################+++++&&&&&&&&&&&&&&&&&&&&&&&&&&&&&&&&&&&&&&&&&&&&&&&&&&&&&&&&&&&&&&&&&&&&&&&&&&&&&&&&&&&&&&&&&&&&&&&&&########################################################+++++oooooo###################################++++++++++++++++++++++++++++++++++++.....                                                                                       ",
"                                                                                                                                               ooooo####################+++++&&&&&&&&&&&&&&&&&&&&&&&&&&&&&&&&&&&&&&&&&&&&&&&&&&&&&&&&&&&&&&&&&&&&&&&&&&&&&&&&&&&&&&&&&&&&&&&&&########################################################+++++oooooo###################################++++++++++++++++++++++++++++++++++++.....                                                                                       ",
"                                                                                                                                               ooooo####################+++++&&&&&&&&&&&&&&&&&&&&&&&&&&&&&&&&&&&&&&&&&&&&&&&&&&&&&&&&&&&&&&&&&&&&&&&&&&&&&&&&&&&&&&&&&&&&&&&&&########################################################+++++oooooo###################################++++++++++++++++++++++++++++++++++++.....                                                                                       ",
"                                                                                                                                          +++++#########################ooooo%%%%%&&&&&&&&&&&&&&&&&&&&&&&&&&&&&&&&&&&&&&&&&&&&&&&&&&&&&&&&&&&&&&&&&&&&&&&&&&&&&&&&&&&&&&&&&&&&#####+++++##############################################+++++++++++ooooo#####++++++++++++++++++++++++++++++++++++++++++++++++++++++++.....                                                                                            ",
"                                                                                                                                          +++++#########################ooooo%%%%%&&&&&&&&&&&&&&&&&&&&&&&&&&&&&&&&&&&&&&&&&&&&&&&&&&&&&&&&&&&&&&&&&&&&&&&&&&&&&&&&&&&&&&&&&&&&#####+++++##############################################+++++++++++ooooo#####++++++++++++++++++++++++++++++++++++++++++++++++++++++++.....                                                                                            ",
"                                                                                                                                          +++++#########################ooooo%%%%%&&&&&&&&&&&&&&&&&&&&&&&&&&&&&&&&&&&&&&&&&&&&&&&&&&&&&&&&&&&&&&&&&&&&&&&&&&&&&&&&&&&&&&&&&&&&#####+++++##############################################+++++++++++ooooo#####++++++++++++++++++++++++++++++++++++++++++++++++++++++++.....                                                                                            ",
"                                                                                                                                          +++++#########################ooooo%%%%%&&&&&&&&&&&&&&&&&&&&&&&&&&&&&&&&&&&&&&&&&&&&&&&&&&&&&&&&&&&&&&&&&&&&&&&&&&&&&&&&&&&&&&&&&&&&#####+++++##############################################+++++++++++ooooo#####++++++++++++++++++++++++++++++++++++++++++++++++++++++++.....                                                                                            ",
"                                                                                                                                          +++++#########################ooooo%%%%%&&&&&&&&&&&&&&&&&&&&&&&&&&&&&&&&&&&&&&&&&&&&&&&&&&&&&&&&&&&&&&&&&&&&&&&&&&&&&&&&&&&&&&&&&&&&#####+++++##############################################+++++++++++ooooo#####++++++++++++++++++++++++++++++++++++++++++++++++++++++++.....                                                                                            ",
"                                                                                                                                          +++++#########################ooooo%%%%%%%%%%%&&&&&&&&&&&&&&&&&&&&&&&&&&&&&&&&&&&&&&&&&&&&&&&&&&&&&&&&&&&&&&&&&&&&&&&&&&&&&&&&&&&&&&#####+++++##############################################+++++++++++.....++++++++++++++++++++++++++++++++++++++++++++++++++++++++..........                                                                                            ",
"                                                                                                                                          +++++#########################ooooo%%%%%%%%%%%&&&&&&&&&&&&&&&&&&&&&&&&&&&&&&&&&&&&&&&&&&&&&&&&&&&&&&&&&&&&&&&&&&&&&&&&&&&&&&&&&&&&&&#####+++++##############################################+++++++++++.....++++++++++++++++++++++++++++++++++++++++++++++++++++++++..........                                                                                            ",
"                                                                                                                                          +++++#########################ooooo%%%%%%%%%%%&&&&&&&&&&&&&&&&&&&&&&&&&&&&&&&&&&&&&&&&&&&&&&&&&&&&&&&&&&&&&&&&&&&&&&&&&&&&&&&&&&&&&&#####+++++##############################################+++++++++++.....++++++++++++++++++++++++++++++++++++++++++++++++++++++++..........                                                                                            ",
"                                                                                                                                          +++++#########################ooooo%%%%%%%%%%%&&&&&&&&&&&&&&&&&&&&&&&&&&&&&&&&&&&&&&&&&&&&&&&&&&&&&&&&&&&&&&&&&&&&&&&&&&&&&&&&&&&&&&#####+++++##############################################+++++++++++.....++++++++++++++++++++++++++++++++++++++++++++++++++++++++..........                                                                                            ",
"                                                                                                                                          +++++#########################ooooo%%%%%%%%%%%&&&&&&&&&&&&&&&&&&&&&&&&&&&&&&&&&&&&&&&&&&&&&&&&&&&&&&&&&&&&&&&&&&&&&&&&&&&&&&&&&&&&&&#####+++++##############################################+++++++++++.....++++++++++++++++++++++++++++++++++++++++++++++++++++++++..........                                                                                            ",
"                                                                                                                                          +++++##############################ooooo%%%%%%%%%%%&&&&&&&&&&&&&&&&&&&&&&&&&&&&&&&&&&&&&&&&&&&&&&&&&&&&&&&&&&&&&&&&&&&&&&&&&&&&%%%%%ooooo########################################################+++++++++++.....++++++++++++++++++++++++++++++++++++++++++++++%%%%%.....                                                                                                 ",
"                                                                                                                                          +++++##############################ooooo%%%%%%%%%%%&&&&&&&&&&&&&&&&&&&&&&&&&&&&&&&&&&&&&&&&&&&&&&&&&&&&&&&&&&&&&&&&&&&&&&&&&&&&%%%%%ooooo########################################################+++++++++++.....++++++++++++++++++++++++++++++++++++++++++++++%%%%%.....                                                                                                 ",
"                                                                                                                                          +++++##############################ooooo%%%%%%%%%%%&&&&&&&&&&&&&&&&&&&&&&&&&&&&&&&&&&&&&&&&&&&&&&&&&&&&&&&&&&&&&&&&&&&&&&&&&&&&%%%%%ooooo########################################################+++++++++++.....++++++++++++++++++++++++++++++++++++++++++++++%%%%%.....                                                                                                 ",
"                                                                                                                                          +++++##############################ooooo%%%%%%%%%%%&&&&&&&&&&&&&&&&&&&&&&&&&&&&&&&&&&&&&&&&&&&&&&&&&&&&&&&&&&&&&&&&&&&&&&&&&&&&%%%%%ooooo########################################################+++++++++++.....++++++++++++++++++++++++++++++++++++++++++++++%%%%%.....                                                                                                 ",
"                                                                                                                                          +++++##############################ooooo%%%%%%%%%%%&&&&&&&&&&&&&&&&&&&&&&&&&&&&&&&&&&&&&&&&&&&&&&&&&&&&&&&&&&&&&&&&&&&&&&&&&&&&%%%%%ooooo########################################################+++++++++++.....++++++++++++++++++++++++++++++++++++++++++++++%%%%%.....                                                                                                 ",
"                                                                                                                                     ooooo###################################ooooo%%%%%%%%%%%%%%%%%%%%%%%%%%&&&&&&&&&&&&&&&&&&&&&&&&&&&&&&&&&&&&&&&&&%%%%%%%%%%%%%%%%%%%%%%%%%ooooo########################################################+++++++++++.....+++++++++++++++++++++++++++++++++++++++++%%%%%.....                                                                                                      ",
"                                                                                                                                     ooooo###################################ooooo%%%%%%%%%%%%%%%%%%%%%%%%%%&&&&&&&&&&&&&&&&&&&&&&&&&&&&&&&&&&&&&&&&&%%%%%%%%%%%%%%%%%%%%%%%%%ooooo########################################################+++++++++++.....+++++++++++++++++++++++++++++++++++++++++%%%%%.....                                                                                                      ",
"                                                                                                                                     ooooo###################################ooooo%%%%%%%%%%%%%%%%%%%%%%%%%%&&&&&&&&&&&&&&&&&&&&&&&&&&&&&&&&&&&&&&&&&%%%%%%%%%%%%%%%%%%%%%%%%%ooooo########################################################+++++++++++.....+++++++++++++++++++++++++++++++++++++++++%%%%%.....                                                                                                      ",
"                                                                                                                                     ooooo###################################ooooo%%%%%%%%%%%%%%%%%%%%%%%%%%&&&&&&&&&&&&&&&&&&&&&&&&&&&&&&&&&&&&&&&&&%%%%%%%%%%%%%%%%%%%%%%%%%ooooo########################################################+++++++++++.....+++++++++++++++++++++++++++++++++++++++++%%%%%.....                                                                                                      ",
"                                                                                                                                     ooooo###################################ooooo%%%%%%%%%%%%%%%%%%%%%%%%%%&&&&&&&&&&&&&&&&&&&&&&&&&&&&&&&&&&&&&&&&&%%%%%%%%%%%%%%%%%%%%%%%%%ooooo########################################################+++++++++++.....+++++++++++++++++++++++++++++++++++++++++%%%%%.....                                                                                                      ",
"                                                                                                                                     ooooo###################################+++++oooooo%%%%%%%%%%%%%%%%%%%%%%%%%%%%%%%%%%%%%%%%%%%%%%%%%%%%%%%%%%%%%%%%%%%%%%%%%%%%%%%%%%%%%%ooooo+++++###################################################++++++++++++++++.....++++++++++++++++++++%%%%%%%%%%%%%%%%.....                                                                                                           ",
"                                                                                                                                     ooooo###################################+++++oooooo%%%%%%%%%%%%%%%%%%%%%%%%%%%%%%%%%%%%%%%%%%%%%%%%%%%%%%%%%%%%%%%%%%%%%%%%%%%%%%%%%%%%%%ooooo+++++###################################################++++++++++++++++.....++++++++++++++++++++%%%%%%%%%%%%%%%%.....                                                                                                           ",
"                                                                                                                                     ooooo###################################+++++oooooo%%%%%%%%%%%%%%%%%%%%%%%%%%%%%%%%%%%%%%%%%%%%%%%%%%%%%%%%%%%%%%%%%%%%%%%%%%%%%%%%%%%%%%ooooo+++++###################################################++++++++++++++++.....++++++++++++++++++++%%%%%%%%%%%%%%%%.....                                                                                                           ",
"                                                                                                                                     ooooo###################################+++++oooooo%%%%%%%%%%%%%%%%%%%%%%%%%%%%%%%%%%%%%%%%%%%%%%%%%%%%%%%%%%%%%%%%%%%%%%%%%%%%%%%%%%%%%%ooooo+++++###################################################++++++++++++++++.....++++++++++++++++++++%%%%%%%%%%%%%%%%.....                                                                                                           ",
"                                                                                                                                     ooooo###################################+++++oooooo%%%%%%%%%%%%%%%%%%%%%%%%%%%%%%%%%%%%%%%%%%%%%%%%%%%%%%%%%%%%%%%%%%%%%%%%%%%%%%%%%%%%%%ooooo+++++###################################################++++++++++++++++.....++++++++++++++++++++%%%%%%%%%%%%%%%%.....                                                                                                           ",
"                                                                                                                                     ooooo+++++####################+++++++++++++++++++++.....%%%%%%%%%%%%%%%%%%%%%%%%%%%%%%%%%%%%%%%%%%%%%%%%%%%%%%%%%%%%%%%%%%%%%%%%%%%%%%%%%.....+++++###################################################++++++++++++++++.....%%%%%+++++#####%%%%%%%%%%%%%%%%.....                                                                                                                ",
"                                                                                                                                     ooooo+++++####################+++++++++++++++++++++.....%%%%%%%%%%%%%%%%%%%%%%%%%%%%%%%%%%%%%%%%%%%%%%%%%%%%%%%%%%%%%%%%%%%%%%%%%%%%%%%%%.....+++++###################################################++++++++++++++++.....%%%%%+++++#####%%%%%%%%%%%%%%%%.....                                                                                                                ",
"                                                                                                                                     ooooo+++++####################+++++++++++++++++++++.....%%%%%%%%%%%%%%%%%%%%%%%%%%%%%%%%%%%%%%%%%%%%%%%%%%%%%%%%%%%%%%%%%%%%%%%%%%%%%%%%%.....+++++###################################################++++++++++++++++.....%%%%%+++++#####%%%%%%%%%%%%%%%%.....                                                                                                                ",
"                                                                                                                                     ooooo+++++####################+++++++++++++++++++++.....%%%%%%%%%%%%%%%%%%%%%%%%%%%%%%%%%%%%%%%%%%%%%%%%%%%%%%%%%%%%%%%%%%%%%%%%%%%%%%%%%.....+++++###################################################++++++++++++++++.....%%%%%+++++#####%%%%%%%%%%%%%%%%.....                                                                                                                ",
"                                                                                                                                     ooooo+++++####################+++++++++++++++++++++.....%%%%%%%%%%%%%%%%%%%%%%%%%%%%%%%%%%%%%%%%%%%%%%%%%%%%%%%%%%%%%%%%%%%%%%%%%%%%%%%%%.....+++++###################################################++++++++++++++++.....%%%%%+++++#####%%%%%%%%%%%%%%%%.....                                                                                                                ",
"                                                                                                                                     ooooo+++++####################+++++++++++++++++++++.....%%%%%%%%%%%%%%%%%%%%%%%%%%%%%%%%%%%%%%%%%%%%%%%%%%%%%%%%%%%%%%%%%%%%%%%%%%%%%%%%%.....+++++###################################################++++++++++++++++.....%%%%%+++++#####%%%%%%%%%%%%%%%%.....                                                                                                                ",
"                                                                                                                                     ooooo+++++++++++++++++++++++++++++++++++++++++++++++++++.....%%%%%%%%%%%%%%%%%%%%%%%%%%%%%%%%%%%%%%%%%%%%%%%%%%%%%%%%%%%%%%%%%%%%%%%%%%%%.....++++++++++++++++###################################+++++++++++++++++++++.....%%%%%%%%%%%%%%%%%%%%...........                                                                                                                     ",
"                                                                                                                                     ooooo+++++++++++++++++++++++++++++++++++++++++++++++++++.....%%%%%%%%%%%%%%%%%%%%%%%%%%%%%%%%%%%%%%%%%%%%%%%%%%%%%%%%%%%%%%%%%%%%%%%%%%%%.....++++++++++++++++###################################+++++++++++++++++++++.....%%%%%%%%%%%%%%%%%%%%...........                                                                                                                     ",
"                                                                                                                                     ooooo+++++++++++++++++++++++++++++++++++++++++++++++++++.....%%%%%%%%%%%%%%%%%%%%%%%%%%%%%%%%%%%%%%%%%%%%%%%%%%%%%%%%%%%%%%%%%%%%%%%%%%%%.....++++++++++++++++###################################+++++++++++++++++++++.....%%%%%%%%%%%%%%%%%%%%...........                                                                                                                     ",
"                                                                                                                                     ooooo+++++++++++++++++++++++++++++++++++++++++++++++++++.....%%%%%%%%%%%%%%%%%%%%%%%%%%%%%%%%%%%%%%%%%%%%%%%%%%%%%%%%%%%%%%%%%%%%%%%%%%%%.....++++++++++++++++###################################+++++++++++++++++++++.....%%%%%%%%%%%%%%%%%%%%...........                                                                                                                     ",
"                                                                                                                                     ooooo+++++++++++++++++++++++++++++++++++++++++++++++++++.....%%%%%%%%%%%%%%%%%%%%%%%%%%%%%%%%%%%%%%%%%%%%%%%%%%%%%%%%%%%%%%%%%%%%%%%%%%%%.....++++++++++++++++###################################+++++++++++++++++++++.....%%%%%%%%%%%%%%%%%%%%...........                                                                                                                     ",
"                                                                                                                                          ooooo+++++++++++++++++++++++++++++++++++++++++++++++++++.....%%%%%%%%%%%%%%%%%%%%%%%%%%%%%%%%%%%%%%%%%%%%%%%%%%%%%%%%%%%%%%%%%%%%%%%.....++++++++++++++++++++++++++###############+++++++++++++++++++++++++++++++..........%%%%%.....                                                                                                                                     ",
"                                                                                                                                          ooooo+++++++++++++++++++++++++++++++++++++++++++++++++++.....%%%%%%%%%%%%%%%%%%%%%%%%%%%%%%%%%%%%%%%%%%%%%%%%%%%%%%%%%%%%%%%%%%%%%%%.....++++++++++++++++++++++++++###############+++++++++++++++++++++++++++++++..........%%%%%.....                                                                                                                                     ",
"                                                                                                                                          ooooo+++++++++++++++++++++++++++++++++++++++++++++++++++.....%%%%%%%%%%%%%%%%%%%%%%%%%%%%%%%%%%%%%%%%%%%%%%%%%%%%%%%%%%%%%%%%%%%%%%%.....++++++++++++++++++++++++++###############+++++++++++++++++++++++++++++++..........%%%%%.....                                                                                                                                     ",
"                                                                                                                                          ooooo+++++++++++++++++++++++++++++++++++++++++++++++++++.....%%%%%%%%%%%%%%%%%%%%%%%%%%%%%%%%%%%%%%%%%%%%%%%%%%%%%%%%%%%%%%%%%%%%%%%.....++++++++++++++++++++++++++###############+++++++++++++++++++++++++++++++..........%%%%%.....                                                                                                                                     ",
"                                                                                                                                          ooooo+++++++++++++++++++++++++++++++++++++++++++++++++++.....%%%%%%%%%%%%%%%%%%%%%%%%%%%%%%%%%%%%%%%%%%%%%%%%%%%%%%%%%%%%%%%%%%%%%%%.....++++++++++++++++++++++++++###############+++++++++++++++++++++++++++++++..........%%%%%.....                                                                                                                                     ",
"                                                                                                                                               ooooo+++++++++++++++++++++++++++++++++++++++++ooooo     ..........%%%%%%%%%%%%%%%%%%%%%%%%%%%%%%%%%%%%%%%%%%%%%%%%%%%%%%%%%%%%%%%%%%.....++++++++++++++++++++++++++++++++++++++++++++++++++++++++++++++++++++++++..........                                                                                                                                          ",
"                                                                                                                                               ooooo+++++++++++++++++++++++++++++++++++++++++ooooo     ..........%%%%%%%%%%%%%%%%%%%%%%%%%%%%%%%%%%%%%%%%%%%%%%%%%%%%%%%%%%%%%%%%%%.....++++++++++++++++++++++++++++++++++++++++++++++++++++++++++++++++++++++++..........                                                                                                                                          ",
"                                                                                                                                               ooooo+++++++++++++++++++++++++++++++++++++++++ooooo     ..........%%%%%%%%%%%%%%%%%%%%%%%%%%%%%%%%%%%%%%%%%%%%%%%%%%%%%%%%%%%%%%%%%%.....++++++++++++++++++++++++++++++++++++++++++++++++++++++++++++++++++++++++..........                                                                                                                                          ",
"                                                                                                                                               ooooo+++++++++++++++++++++++++++++++++++++++++ooooo     ..........%%%%%%%%%%%%%%%%%%%%%%%%%%%%%%%%%%%%%%%%%%%%%%%%%%%%%%%%%%%%%%%%%%.....++++++++++++++++++++++++++++++++++++++++++++++++++++++++++++++++++++++++..........                                                                                                                                          ",
"                                                                                                                                               ooooo+++++++++++++++++++++++++++++++++++++++++ooooo     ..........%%%%%%%%%%%%%%%%%%%%%%%%%%%%%%%%%%%%%%%%%%%%%%%%%%%%%%%%%%%%%%%%%%.....++++++++++++++++++++++++++++++++++++++++++++++++++++++++++++++++++++++++..........                                                                                                                                          ",
"                                                                                                                                                    .....+++++++++++++++++++++++++++++++++++++++++.....          ..........%%%%%%%%%%%%%%%%%%%%%%%%%%%%%%%%%%%%%%%%%%%%%%oooooooooo.....++++++++++++++++++++++++++++++++++++++++++++++++++++++++++++++++++++++++.....                                                                                                                                               ",
"                                                                                                                                                    .....+++++++++++++++++++++++++++++++++++++++++.....          ..........%%%%%%%%%%%%%%%%%%%%%%%%%%%%%%%%%%%%%%%%%%%%%%oooooooooo.....++++++++++++++++++++++++++++++++++++++++++++++++++++++++++++++++++++++++.....                                                                                                                                               ",
"                                                                                                                                                    .....+++++++++++++++++++++++++++++++++++++++++.....          ..........%%%%%%%%%%%%%%%%%%%%%%%%%%%%%%%%%%%%%%%%%%%%%%oooooooooo.....++++++++++++++++++++++++++++++++++++++++++++++++++++++++++++++++++++++++.....                                                                                                                                               ",
"                                                                                                                                                    .....+++++++++++++++++++++++++++++++++++++++++.....          ..........%%%%%%%%%%%%%%%%%%%%%%%%%%%%%%%%%%%%%%%%%%%%%%oooooooooo.....++++++++++++++++++++++++++++++++++++++++++++++++++++++++++++++++++++++++.....                                                                                                                                               ",
"                                                                                                                                                    .....+++++++++++++++++++++++++++++++++++++++++.....          ..........%%%%%%%%%%%%%%%%%%%%%%%%%%%%%%%%%%%%%%%%%%%%%%oooooooooo.....++++++++++++++++++++++++++++++++++++++++++++++++++++++++++++++++++++++++.....                                                                                                                                               ",
"                                                                                                                                                         .....++++++++++++++++++++++++++++++++++++.....                    ................%%%%%%%%%%%%%%%ooooooooooooooo%%%%%%%%%%%%%%%...........+++++++++++++++++++++++++++++++++++++++++++++++++++++++++++++.....                                                                                                                                               ",
"                                                                                                                                                         .....++++++++++++++++++++++++++++++++++++.....                    ................%%%%%%%%%%%%%%%ooooooooooooooo%%%%%%%%%%%%%%%...........+++++++++++++++++++++++++++++++++++++++++++++++++++++++++++++.....                                                                                                                                               ",
"                                                                                                                                                         .....++++++++++++++++++++++++++++++++++++.....                    ................%%%%%%%%%%%%%%%ooooooooooooooo%%%%%%%%%%%%%%%...........+++++++++++++++++++++++++++++++++++++++++++++++++++++++++++++.....                                                                                                                                               ",
"                                                                                                                                                         .....++++++++++++++++++++++++++++++++++++.....                    ................%%%%%%%%%%%%%%%ooooooooooooooo%%%%%%%%%%%%%%%...........+++++++++++++++++++++++++++++++++++++++++++++++++++++++++++++.....                                                                                                                                               ",
"                                                                                                                                                         .....++++++++++++++++++++++++++++++++++++.....                    ................%%%%%%%%%%%%%%%ooooooooooooooo%%%%%%%%%%%%%%%...........+++++++++++++++++++++++++++++++++++++++++++++++++++++++++++++.....                                                                                                                                               ",
"                                                                                                                                                         =====.....=====+++++++++++++++++++++++++++++++.....                               ooooooooooooooo%%%%%%%%%%%%%%%%%%%%%%%%%%%%%%%%%%%%oooooooooo.....++++++++++++++++++++++++++++++++++++++++++++++++++++++++.....                                                                                                                                          ",
"                                                                                                                                                         =====.....=====+++++++++++++++++++++++++++++++.....                               ooooooooooooooo%%%%%%%%%%%%%%%%%%%%%%%%%%%%%%%%%%%%oooooooooo.....++++++++++++++++++++++++++++++++++++++++++++++++++++++++.....                                                                                                                                          ",
"                                                                                                                                                         =====.....=====+++++++++++++++++++++++++++++++.....                               ooooooooooooooo%%%%%%%%%%%%%%%%%%%%%%%%%%%%%%%%%%%%oooooooooo.....++++++++++++++++++++++++++++++++++++++++++++++++++++++++.....                                                                                                                                          ",
"                                                                                                                                                         =====.....=====+++++++++++++++++++++++++++++++.....                               ooooooooooooooo%%%%%%%%%%%%%%%%%%%%%%%%%%%%%%%%%%%%oooooooooo.....++++++++++++++++++++++++++++++++++++++++++++++++++++++++.....                                                                                                                                          ",
"                                                                                                                                                         =====.....=====+++++++++++++++++++++++++++++++.....                               ooooooooooooooo%%%%%%%%%%%%%%%%%%%%%%%%%%%%%%%%%%%%oooooooooo.....++++++++++++++++++++++++++++++++++++++++++++++++++++++++.....                                                                                                                                          ",
"                                                                                                                                                    -----     ==========     ===========+++++++++++++++.....                                              oooooooooooooooooooooooooooooooooooo               .....+++++++++++++++++++++++++######+++++#####++++++++++.....                                                                                                                                          ",
"                                                                                                                                                    -----     ==========     ===========+++++++++++++++.....                                              oooooooooooooooooooooooooooooooooooo               .....+++++++++++++++++++++++++######+++++#####++++++++++.....                                                                                                                                          ",
"                                                                                                                                                    -----     ==========     ===========+++++++++++++++.....                                              oooooooooooooooooooooooooooooooooooo               .....+++++++++++++++++++++++++######+++++#####++++++++++.....                                                                                                                                          ",
"                                                                                                                                                    -----     ==========     ===========+++++++++++++++.....                                              oooooooooooooooooooooooooooooooooooo               .....+++++++++++++++++++++++++######+++++#####++++++++++.....                                                                                                                                          ",
"                                                                                                                                                    -----     ==========     ===========+++++++++++++++.....                                              oooooooooooooooooooooooooooooooooooo               .....+++++++++++++++++++++++++######+++++#####++++++++++.....                                                                                                                                          ",
"                                                                                                                                               ..........-----=====.....-----=====.....................                                                                                                      .....++++++++++++++++++++++++++++++++++++++++++++++-----.....                                                                                                                                          ",
"                                                                                                                                               ..........-----=====.....-----=====.....................                                                                                                      .....++++++++++++++++++++++++++++++++++++++++++++++-----.....                                                                                                                                          ",
"                                                                                                                                               ..........-----=====.....-----=====.....................                                                                                                      .....++++++++++++++++++++++++++++++++++++++++++++++-----.....                                                                                                                                          ",
"                                                                                                                                               ..........-----=====.....-----=====.....................                                                                                                      .....++++++++++++++++++++++++++++++++++++++++++++++-----.....                                                                                                                                          ",
"                                                                                                                                               ..........-----=====.....-----=====.....................                                                                                                      .....++++++++++++++++++++++++++++++++++++++++++++++-----.....                                                                                                                                          ",
"                                                                                                                                                    ...............     ................                                                                                                                     ..........++++++++++=====ooooo++++++=====-----+++++----------.....                                                                                                                                     ",
"                                                                                                                                                    ...............     ................                                                                                                                     ..........++++++++++=====ooooo++++++=====-----+++++----------.....                                                                                                                                     ",
"                                                                                                                                                    ...............     ................                                                                                                                     ..........++++++++++=====ooooo++++++=====-----+++++----------.....                                                                                                                                     ",
"                                                                                                                                                    ...............     ................                                                                                                                     ..........++++++++++=====ooooo++++++=====-----+++++----------.....                                                                                                                                     ",
"                                                                                                                                                    ...............     ................                                                                                                                     ..........++++++++++=====ooooo++++++=====-----+++++----------.....                                                                                                                                     ",
"                                                                                                                                                                                                                                                                                                                  ..........---------------......---------------     =====.....                                                                                                                                     ",
"                                                                                                                                                                                                                                                                                                                  ..........---------------......---------------     =====.....                                                                                                                                     ",
"                                                                                                                                                                                                                                                                                                                  ..........---------------......---------------     =====.....                                                                                                                                     ",
"                                                                                                                                                                                                                                                                                                                  ..........---------------......---------------     =====.....                                                                                                                                     ",
"                                                                                                                                                                                                                                                                                                                  ..........---------------......---------------     =====.....                                                                                                                                     ",
"                                                                                                                                                                                                                                                                                                                  ..........---------------......---------------     =====.....                                                                                                                                     ",
"                                                                                                                                                                                                                                                                                                                            .....-----.....      .....=====-----...............                                                                                                                                     ",
"                                                                                                                                                                                                                                                                                                                            .....-----.....      .....=====-----...............                                                                                                                                     ",
"                                                                                                                                                                                                                                                                                                                            .....-----.....      .....=====-----...............                                                                                                                                     ",
"                                                                                                                                                                                                                                                                                                                            .....-----.....      .....=====-----...............                                                                                                                                     ",
"                                                                                                                                                                                                                                                                                                                            .....-----.....      .....=====-----...............                                                                                                                                     ",
"                                                                                                                                                                                                                                                                                                                                 ..........           ..........                                                                                                                                                    ",
"                                                                                                                                                                                                                                                                                                                                 ..........           ..........                                                                                                                                                    ",
"                                                                                                                                                                                                                                                                                                                                 ..........           ..........                                                                                                                                                    ",
"                                                                                                                                                                                                                                                                                                                                 ..........           ..........                                                                                                                                                    ",
"                                                                                                                                                                                                                                                                                                                                 ..........           ..........                                                                                                                                                    ",
"                                                                                                                                                                                                                                                                                                                                                                                                                                                                                                                    ",
"                                                                                                                                                                                                                                                                                                                                                                                                                                                                                                                    "
};
