/* XPM */
static char *out[] = {
/* columns rows colors chars-per-pixel */
"500 456 13 1 ",
"  c #FF00FF",
". c black",
"X c #084252",
"o c #843118",
"O c #E74210",
"+ c #CE5242",
"@ c #F7A510",
"# c #EF8429",
"$ c #EFB55A",
"% c #EFDE7B",
"& c #217394",
"* c #CECECE",
"= c white",
/* pixels */
"                                                                                                                                                                                                                                                                                                                                                                                                                                  OOOOO                                                                             ",
"                                                                                                                                                                                                                                                                                                                                                                                                                                  OOOOO                                                                             ",
"                                                                                                                                                                                                                                                                                                                                                                                                                                  OOOOO                                                                             ",
"                                                                                                                                                                                                                                                                                                                                                                                                                                  OOOOO                                                                             ",
"                                                                                                                                                                                                                                                                                                                                                                                                                                  OOOOO                                                                             ",
"                                                                                                                                                                                                                                                                                                                                                                                                                             OOOOOOOOOO                                                                             ",
"                                                                                                                                                                                                                                                                                                                                                                                                                             OOOOOOOOOO                                                                             ",
"                                                                                                                                                                                                                                                                                                                                                                                                                             OOOOOOOOOO                                                                             ",
"                                                                                                                                                                                                                                                                                                                                                                                                                             OOOOOOOOOO                                                                             ",
"                                                                                                                                                                                                                                                                                                                                                                                                                             OOOOOOOOOO                                                                             ",
"                                                                                                                                                                                                                                                                                                                                                                                                                             OOOOO                                                                                  ",
"                                                                                                                                                                                                                                                                                                                                                                                                                             OOOOO                                                                                  ",
"                                                                                                                                                                                                                                                                                                                                                                                                                             OOOOO                                                                                  ",
"                                                                                                                                                                                                                                                                                                                                                                                                                             OOOOO                                                                                  ",
"                                                                                                                                                                                                                                                                                                                                                                                                                             OOOOO                                                                                  ",
"                                                                                                                                                                                                                                                                                                                                                                                                                                                                                                                    ",
"                                                                                                                                                                                                                                                                                                                                                                                                                                                                                                                    ",
"                                                                                                                                                                                                                                                                                                                                                                                                                                                                                                                    ",
"                                                                                                                                                                                                                                                                                                                                                                                                                                                                                                                    ",
"                                                                                                                                                                                                                                                                                                                                                                                                                                                                                                                    ",
"                                                                                                                                                                                                                                                                                                                                                                                                                                                                                                                    ",
"                                                                                                                                                                                                                                                                                                                                                                                                                                                                                                                    ",
"                                                                                                                                                                                                                                                                                                                                                                                                                                                                                                                    ",
"                                                                                                                                                                                                                                                                                                                                                                                                                                                                                                                    ",
"                                                                                                                                                                                                                                                                                                                                                                                                                                                                                                                    ",
"                                                                                                                                                                                                                                                                                                                                                                                                                                                  OOOOO                                                             ",
"                                                                                                                                                                                                                                                                                                                                                                                                                                                  OOOOO                                                             ",
"                                                                                                                                                                                                                                                                                                                                                                                                                                                  OOOOO                                                             ",
"                                                                                                                                                                                                                                                                                                                                                                                                                                                  OOOOO                                                             ",
"                                                                                                                                                                                                                                                                                                                                                                                                                                                  OOOOO                                                             ",
"                                                                                                                                                                                                                                                                                                                                                                                                                                                  OOOOO                    OOOOO                                    ",
"                                                                                                                                                                                                                                                                                                                                                                                                                                                  OOOOO                    OOOOO                                    ",
"                                                                                                                                                                                                                                                                                                                                                                                                                                                  OOOOO                    OOOOO                                    ",
"                                                                                                                                                                                                                                                                                                                                                                                                                                                  OOOOO                    OOOOO                                    ",
"                                                                                                                                                                                                                                                                                                                                                                                                                                                  OOOOO                    OOOOO                                    ",
"                                                                                                                                                                                                                                                                                                                                                                                                                                                  OOOOO                    OOOOO                                    ",
"                                                                                                                                                                                                                                                                                                                                                                                                                                            OOOOOOOOOOO               OOOOOOOOOO                                    ",
"                                                                                                                                                                                                                                                                                                                                                                                                                                            OOOOOOOOOOO               OOOOOOOOOO                                    ",
"                                                                                                                                                                                                                                                                                                                                                                                                                                            OOOOOOOOOOO               OOOOOOOOOO                                    ",
"                                                                                                                                                                                                                                                                                                                                                                                                                                            OOOOOOOOOOO               OOOOOOOOOO                                    ",
"                                                                                                                                                                                                                                                                                                                                                                                                                                            OOOOOOOOOOO               OOOOOOOOOO                                    ",
"                                                                                                                                                                                                                                                                                                                                                                                                                   OOOOO               OOOOOOOOOOOOOOOOOOOOO          OOOOO                                         ",
"                                                                                                                                                                                                                                                                                                                                                                                                                   OOOOO               OOOOOOOOOOOOOOOOOOOOO          OOOOO                                         ",
"                                                                                                                                                                                                                                                                                                                                                                                                                   OOOOO               OOOOOOOOOOOOOOOOOOOOO          OOOOO                                         ",
"                                                                                                                                                                                                                                                                                                                                                                                                                   OOOOO               OOOOOOOOOOOOOOOOOOOOO          OOOOO                                         ",
"                                                                                                                                                                                                                                                                                                                                                                                                                   OOOOO               OOOOOOOOOOOOOOOOOOOOO          OOOOO                                         ",
"                                                                                                                                                                                                                                                                                                                                                                                                                                       OOOOOOOOOOO@@@@@OOOOO                                                        ",
"                                                                                                                                                                                                                                                                                                                                                                                                                                       OOOOOOOOOOO@@@@@OOOOO                                                        ",
"                                                                                                                                                                                                                                                                                                                                                                                                                                       OOOOOOOOOOO@@@@@OOOOO                                                        ",
"                                                                                                                                                                                                                                                                                                                                                                                                                                       OOOOOOOOOOO@@@@@OOOOO                                                        ",
"                                                                                                                                                                                                                                                                                                                                                                                                                                       OOOOOOOOOOO@@@@@OOOOO                                                        ",
"                                                                                                                                                                                                                                                                                                                                                                                                                                  OOOOOOOOOO@@@@@@@@@@@OOOOO                         OOOOOO                         ",
"                                                                                                                                                                                                                                                                                                                                                                                                                                  OOOOOOOOOO@@@@@@@@@@@OOOOO                         OOOOOO                         ",
"                                                                                                                                                                                                                                                                                                                                                                                                                                  OOOOOOOOOO@@@@@@@@@@@OOOOO                         OOOOOO                         ",
"                                                                                                                                                                                                                                                                                                                                                                                                                                  OOOOOOOOOO@@@@@@@@@@@OOOOO                         OOOOOO                         ",
"                                                                                                                                                                                                                                                                                                                                                                                                                                  OOOOOOOOOO@@@@@@@@@@@OOOOO                         OOOOOO                         ",
"                                                                                                                                                                                                                                                                                                                                                                                                                             OOOOOOOOOO@@@@@@@@@@@OOOOOOOOOOOOOOO               OOOOOOOOOOO                         ",
"                                                                                                                                                                                                                                                                                                                                                                                                                             OOOOOOOOOO@@@@@@@@@@@OOOOOOOOOOOOOOO               OOOOOOOOOOO                         ",
"                                                                                                                                                                                                                                                                                                                                                                                                                             OOOOOOOOOO@@@@@@@@@@@OOOOOOOOOOOOOOO               OOOOOOOOOOO                         ",
"                                                                                                                                                                                                                                                                                                                                                                                                                             OOOOOOOOOO@@@@@@@@@@@OOOOOOOOOOOOOOO               OOOOOOOOOOO                         ",
"                                                                                                                                                                                                                                                                                                                                                                                                                             OOOOOOOOOO@@@@@@@@@@@OOOOOOOOOOOOOOO               OOOOOOOOOOO                         ",
"                                                                                                                                                                                                                                                                                                                                                                                                                        OOOOOOOOOOOOOOO@@@@@@@@@@@@@@@@OOOOOOOOOOOOOOO          OOOOO                               ",
"                                                                                                                                                                                                                                                                                                                                                                                                                        OOOOOOOOOOOOOOO@@@@@@@@@@@@@@@@OOOOOOOOOOOOOOO          OOOOO                               ",
"                                                                                                                                                                                                                                                                                                                                                                                                                        OOOOOOOOOOOOOOO@@@@@@@@@@@@@@@@OOOOOOOOOOOOOOO          OOOOO                               ",
"                                                                                                                                                                                                                                                                                                                                                                                                                        OOOOOOOOOOOOOOO@@@@@@@@@@@@@@@@OOOOOOOOOOOOOOO          OOOOO                               ",
"                                                                                                                                                                                                                                                                                                                                                                                                                        OOOOOOOOOOOOOOO@@@@@@@@@@@@@@@@OOOOOOOOOOOOOOO          OOOOO                               ",
"                                                                                                                                                                                                                                                                                                                                                                                                                        OOOOOOOOOOOOOOOOOOOO@@@@@@@@@@@@@@@@OOOOOOOOOO                                              ",
"                                                                                                                                                                                                                                                                                                                                                                                                                        OOOOOOOOOOOOOOOOOOOO@@@@@@@@@@@@@@@@OOOOOOOOOO                                              ",
"                                                                                                                                                                                                                                                                                                                                                                                                                        OOOOOOOOOOOOOOOOOOOO@@@@@@@@@@@@@@@@OOOOOOOOOO                                              ",
"                                                                                                                                                                                                                                                                                                                                                                                                                        OOOOOOOOOOOOOOOOOOOO@@@@@@@@@@@@@@@@OOOOOOOOOO                                              ",
"                                                                                                                                                                                                                                                                                                                                                                                                                        OOOOOOOOOOOOOOOOOOOO@@@@@@@@@@@@@@@@OOOOOOOOOO                                              ",
"                                                                                                                                                                                                                                                                                                                                                                                                                             OOOOOOOOOO@@@@@@@@@@@@@@@@@@@@@OOOOO                                                   ",
"                                                                                                                                                                                                                                                                                                                                                                                                                             OOOOOOOOOO@@@@@@@@@@@@@@@@@@@@@OOOOO                                                   ",
"                                                                                                                                                                                                                                                                                                                                                                                                                             OOOOOOOOOO@@@@@@@@@@@@@@@@@@@@@OOOOO                                                   ",
"                                                                                                                                                                                                                                                                                                                                                                                                                             OOOOOOOOOO@@@@@@@@@@@@@@@@@@@@@OOOOO                                                   ",
"                                                                                                                                                                                                                                                                                                                                                                                                                             OOOOOOOOOO@@@@@@@@@@@@@@@@@@@@@OOOOO                                                   ",
"                                                                                                                                                                                                                                                                                   ooooooooooo                                                                                                                          OOOOOOOOOO@@@@@@@@@@@@@@@@@@@@@OOOOOOOOOOOOOOOOOOOO                                         ",
"                                                                                                                                                                                                                                                                                   ooooooooooo                                                                                                                          OOOOOOOOOO@@@@@@@@@@@@@@@@@@@@@OOOOOOOOOOOOOOOOOOOO                                         ",
"                                                                                                                                                                                                                                                                                   ooooooooooo                                                                                                                          OOOOOOOOOO@@@@@@@@@@@@@@@@@@@@@OOOOOOOOOOOOOOOOOOOO                                         ",
"                                                                                                                                                                                                                                                                                   ooooooooooo                                                                                                                          OOOOOOOOOO@@@@@@@@@@@@@@@@@@@@@OOOOOOOOOOOOOOOOOOOO                                         ",
"                                                                                                                                                                                                                                                                                   ooooooooooo                                                                                                                          OOOOOOOOOO@@@@@@@@@@@@@@@@@@@@@OOOOOOOOOOOOOOOOOOOO                                         ",
"                                                                                                                                                                   oooooooooo                                                                                                 ooooo$$$$$$$$$$$ooooo                                                                                                                     OOOOOOOOOO@@@@@@@@@@ooooooooooo#####OOOOOOOOOOOOOOO                                         ",
"                                                                                                                                                                   oooooooooo                                                                                                 ooooo$$$$$$$$$$$ooooo                                                                                                                     OOOOOOOOOO@@@@@@@@@@ooooooooooo#####OOOOOOOOOOOOOOO                                         ",
"                                                                                                                                                                   oooooooooo                                                                                                 ooooo$$$$$$$$$$$ooooo                                                                                                                     OOOOOOOOOO@@@@@@@@@@ooooooooooo#####OOOOOOOOOOOOOOO                                         ",
"                                                                                                                                                                   oooooooooo                                                                                                 ooooo$$$$$$$$$$$ooooo                                                                                                                     OOOOOOOOOO@@@@@@@@@@ooooooooooo#####OOOOOOOOOOOOOOO                                         ",
"                                                                                                                                                                   oooooooooo                                                                                                 ooooo$$$$$$$$$$$ooooo                                                                                                                     OOOOOOOOOO@@@@@@@@@@ooooooooooo#####OOOOOOOOOOOOOOO                                         ",
"                                                                                                                                                                   oooooooooo                                                                                                 ooooo$$$$$$$$$$$ooooo                                                                                                                     OOOOOOOOOO@@@@@@@@@@ooooooooooo#####OOOOOOOOOOOOOOO                                         ",
"                                                                                                                                                              ooooo$$$$$$$$$$ooooo                                                                                            ooooo$$$$$$$$$$$++++++++++                                                                                                           OOOOOOOOOOOOOOO@@@@@@@@@@###########ooooo@@@@@OOOOOOOOOOOOOOO                                    ",
"                                                                                                                                                              ooooo$$$$$$$$$$ooooo                                                                                            ooooo$$$$$$$$$$$++++++++++                                                                                                           OOOOOOOOOOOOOOO@@@@@@@@@@###########ooooo@@@@@OOOOOOOOOOOOOOO                                    ",
"                                                                                                                                                              ooooo$$$$$$$$$$ooooo                                                                                            ooooo$$$$$$$$$$$++++++++++                                                                                                           OOOOOOOOOOOOOOO@@@@@@@@@@###########ooooo@@@@@OOOOOOOOOOOOOOO                                    ",
"                                                                                                                                                              ooooo$$$$$$$$$$ooooo                                                                                            ooooo$$$$$$$$$$$++++++++++                                                                                                           OOOOOOOOOOOOOOO@@@@@@@@@@###########ooooo@@@@@OOOOOOOOOOOOOOO                                    ",
"                                                                                                                                                              ooooo$$$$$$$$$$ooooo                                                                                            ooooo$$$$$$$$$$$++++++++++                                                                                                           OOOOOOOOOOOOOOO@@@@@@@@@@###########ooooo@@@@@OOOOOOOOOOOOOOO                                    ",
"                                                                                                                                                         ooooo+++++$$$$$$$$$$ooooo                                                                                            .....+++++###########ooooo+++++                    ooooooooooooooooooooooooooooooo                                                   OOOOOOOOOOOOOOOoooooooooo###########ooooo@@@@@OOOOOOOOOOOOOOO                                    ",
"                                                                                                                                                         ooooo+++++$$$$$$$$$$ooooo                                                                                            .....+++++###########ooooo+++++                    ooooooooooooooooooooooooooooooo                                                   OOOOOOOOOOOOOOOoooooooooo###########ooooo@@@@@OOOOOOOOOOOOOOO                                    ",
"                                                                                                                                                         ooooo+++++$$$$$$$$$$ooooo                                                                                            .....+++++###########ooooo+++++                    ooooooooooooooooooooooooooooooo                                                   OOOOOOOOOOOOOOOoooooooooo###########ooooo@@@@@OOOOOOOOOOOOOOO                                    ",
"                                                                                                                                                         ooooo+++++$$$$$$$$$$ooooo                                                                                            .....+++++###########ooooo+++++                    ooooooooooooooooooooooooooooooo                                                   OOOOOOOOOOOOOOOoooooooooo###########ooooo@@@@@OOOOOOOOOOOOOOO                                    ",
"                                                                                                                                                         ooooo+++++$$$$$$$$$$ooooo                                                                                            .....+++++###########ooooo+++++                    ooooooooooooooooooooooooooooooo                                                   OOOOOOOOOOOOOOOoooooooooo###########ooooo@@@@@OOOOOOOOOOOOOOO                                    ",
"                                                                                                                                                         ooooo##########ooooo                                                                                                      .....#####################+++++ooooooooooooooo###############################oooooooooo                                              OOOOOOOOOO################ooooo@@@@@OOOOOOOOOOOOOOOOOOOO                                    ",
"                                                                                                                                                         ooooo##########ooooo                                                                                                      .....#####################+++++ooooooooooooooo###############################oooooooooo                                              OOOOOOOOOO################ooooo@@@@@OOOOOOOOOOOOOOOOOOOO                                    ",
"                                                                                                                                                         ooooo##########ooooo                                                                                                      .....#####################+++++ooooooooooooooo###############################oooooooooo                                              OOOOOOOOOO################ooooo@@@@@OOOOOOOOOOOOOOOOOOOO                                    ",
"                                                                                                                                                         ooooo##########ooooo                                                                                                      .....#####################+++++ooooooooooooooo###############################oooooooooo                                              OOOOOOOOOO################ooooo@@@@@OOOOOOOOOOOOOOOOOOOO                                    ",
"                                                                                                                                                         ooooo##########ooooo                                                                                                      .....#####################+++++ooooooooooooooo###############################oooooooooo                                              OOOOOOOOOO################ooooo@@@@@OOOOOOOOOOOOOOOOOOOO                                    ",
"                                                                                                                          oooooooooooooooo          ooooo###############ooooo                                                                                                      .....++++++############################################################################++++++++++                                         oooooooooo###########OOOOOOOOOOOOOOOOOOOO                                              ",
"                                                                                                                          oooooooooooooooo          ooooo###############ooooo                                                                                                      .....++++++############################################################################++++++++++                                         oooooooooo###########OOOOOOOOOOOOOOOOOOOO                                              ",
"                                                                                                                          oooooooooooooooo          ooooo###############ooooo                                                                                                      .....++++++############################################################################++++++++++                                         oooooooooo###########OOOOOOOOOOOOOOOOOOOO                                              ",
"                                                                                                                          oooooooooooooooo          ooooo###############ooooo                                                                                                      .....++++++############################################################################++++++++++                                         oooooooooo###########OOOOOOOOOOOOOOOOOOOO                                              ",
"                                                                                                                          oooooooooooooooo          ooooo###############ooooo                                                                                                      .....++++++############################################################################++++++++++                                         oooooooooo###########OOOOOOOOOOOOOOOOOOOO                                              ",
"                                                                                                                     ooooo################oooooooooo###############+++++ooooo                                                                                                           ......###################################+++++oooooooooooooooooooooooooo+++++###############++++++++++++++++                         +++++++++++++++++++++          OOOOOOOOOO                                              ",
"                                                                                                                     ooooo################oooooooooo###############+++++ooooo                                                                                                           ......###################################+++++oooooooooooooooooooooooooo+++++###############++++++++++++++++                         +++++++++++++++++++++          OOOOOOOOOO                                              ",
"                                                                                                                     ooooo################oooooooooo###############+++++ooooo                                                                                                           ......###################################+++++oooooooooooooooooooooooooo+++++###############++++++++++++++++                         +++++++++++++++++++++          OOOOOOOOOO                                              ",
"                                                                                                                     ooooo################oooooooooo###############+++++ooooo                                                                                                           ......###################################+++++oooooooooooooooooooooooooo+++++###############++++++++++++++++                         +++++++++++++++++++++          OOOOOOOOOO                                              ",
"                                                                                                                     ooooo################oooooooooo###############+++++ooooo                                                                                                           ......###################################+++++oooooooooooooooooooooooooo+++++###############++++++++++++++++                         +++++++++++++++++++++          OOOOOOOOOO                                              ",
"                                                                                                           oooooooooo##############################################ooooo                                                                                                                ......####################...............XXXXXXXXXXXXXXXXXXXXXXXXXXXXXXXXXXXXooooo+++++#####################++++++++++               +++++++++++++++ooooooooooo                                                             ",
"                                                                                                           oooooooooo##############################################ooooo                                                                                                                ......####################...............XXXXXXXXXXXXXXXXXXXXXXXXXXXXXXXXXXXXooooo+++++#####################++++++++++               +++++++++++++++ooooooooooo                                                             ",
"                                                                                                           oooooooooo##############################################ooooo                                                                                                                ......####################...............XXXXXXXXXXXXXXXXXXXXXXXXXXXXXXXXXXXXooooo+++++#####################++++++++++               +++++++++++++++ooooooooooo                                                             ",
"                                                                                                           oooooooooo##############################################ooooo                                                                                                                ......####################...............XXXXXXXXXXXXXXXXXXXXXXXXXXXXXXXXXXXXooooo+++++#####################++++++++++               +++++++++++++++ooooooooooo                                                             ",
"                                                                                                           oooooooooo##############################################ooooo                                                                                                                ......####################...............XXXXXXXXXXXXXXXXXXXXXXXXXXXXXXXXXXXXooooo+++++#####################++++++++++               +++++++++++++++ooooooooooo                                                             ",
"                                                                                                      ooooo########################################################ooooo                                                                                                                      ooooo##########.....XXXXXXXXXXXXXXXXXXXXXXXXXXXXXXX&&&&&&&&&&&&&&&&&&&&&&&&&XXXXXXXXXX+++++######$$$$$$$$$$$$$$$+++++     ooooo++++++++++ooooo                                                                        ",
"                                                                                                      ooooo########################################################ooooo                                                                                                                      ooooo##########.....XXXXXXXXXXXXXXXXXXXXXXXXXXXXXXX&&&&&&&&&&&&&&&&&&&&&&&&&XXXXXXXXXX+++++######$$$$$$$$$$$$$$$+++++     ooooo++++++++++ooooo                                                                        ",
"                                                                                                      ooooo########################################################ooooo                                                                                                                      ooooo##########.....XXXXXXXXXXXXXXXXXXXXXXXXXXXXXXX&&&&&&&&&&&&&&&&&&&&&&&&&XXXXXXXXXX+++++######$$$$$$$$$$$$$$$+++++     ooooo++++++++++ooooo                                                                        ",
"                                                                                                      ooooo########################################################ooooo                                                                                                                      ooooo##########.....XXXXXXXXXXXXXXXXXXXXXXXXXXXXXXX&&&&&&&&&&&&&&&&&&&&&&&&&XXXXXXXXXX+++++######$$$$$$$$$$$$$$$+++++     ooooo++++++++++ooooo                                                                        ",
"                                                                                                      ooooo########################################################ooooo                                                                                                                      ooooo##########.....XXXXXXXXXXXXXXXXXXXXXXXXXXXXXXX&&&&&&&&&&&&&&&&&&&&&&&&&XXXXXXXXXX+++++######$$$$$$$$$$$$$$$+++++     ooooo++++++++++ooooo                                                                        ",
"                                                                                                 ooooo###############.....................+++++####################ooooo                                                                                                                      ooooo#####.....XXXXXXXXXXXXXXXXXXXXXXXXX&&&&&&&&&&&&&&&&&&&&&&&&&&&&&&&&&&&&&&&&&&&&&&XXXXXXXXXXX+++++$$$$$$$$$$$$$$$oooooooooo+++++++++++++++                                                                        ",
"                                                                                                 ooooo###############.....................+++++####################ooooo                                                                                                                      ooooo#####.....XXXXXXXXXXXXXXXXXXXXXXXXX&&&&&&&&&&&&&&&&&&&&&&&&&&&&&&&&&&&&&&&&&&&&&&XXXXXXXXXXX+++++$$$$$$$$$$$$$$$oooooooooo+++++++++++++++                                                                        ",
"                                                                                                 ooooo###############.....................+++++####################ooooo                                                                                                                      ooooo#####.....XXXXXXXXXXXXXXXXXXXXXXXXX&&&&&&&&&&&&&&&&&&&&&&&&&&&&&&&&&&&&&&&&&&&&&&XXXXXXXXXXX+++++$$$$$$$$$$$$$$$oooooooooo+++++++++++++++                                                                        ",
"                                                                                                 ooooo###############.....................+++++####################ooooo                                                                                                                      ooooo#####.....XXXXXXXXXXXXXXXXXXXXXXXXX&&&&&&&&&&&&&&&&&&&&&&&&&&&&&&&&&&&&&&&&&&&&&&XXXXXXXXXXX+++++$$$$$$$$$$$$$$$oooooooooo+++++++++++++++                                                                        ",
"                                                                                                 ooooo###############.....................+++++####################ooooo                                                                                                                      ooooo#####.....XXXXXXXXXXXXXXXXXXXXXXXXX&&&&&&&&&&&&&&&&&&&&&&&&&&&&&&&&&&&&&&&&&&&&&&XXXXXXXXXXX+++++$$$$$$$$$$$$$$$oooooooooo+++++++++++++++                                                                        ",
"                                                                                            ooooo##########XXXXXXXXXXXXXXXXXXXXXXXXXXXXXXXXXXXX.....+++++##########ooooo                                                                                                                      ooooo#####.....XXXXXXXXXXXXXXXXXXXX&&&&&&&&&&&&&&&&&&&&&&&&&&&&&&&&&&&&&&&&&&&&&&&&&&&&&&&&&&&&&&XXXXX+++++##########++++++++++++++++++++ooooo                                                                        ",
"                                                                                            ooooo##########XXXXXXXXXXXXXXXXXXXXXXXXXXXXXXXXXXXX.....+++++##########ooooo                                                                                                                      ooooo#####.....XXXXXXXXXXXXXXXXXXXX&&&&&&&&&&&&&&&&&&&&&&&&&&&&&&&&&&&&&&&&&&&&&&&&&&&&&&&&&&&&&&XXXXX+++++##########++++++++++++++++++++ooooo                                                                        ",
"                                                                                            ooooo##########XXXXXXXXXXXXXXXXXXXXXXXXXXXXXXXXXXXX.....+++++##########ooooo                                                                                                                      ooooo#####.....XXXXXXXXXXXXXXXXXXXX&&&&&&&&&&&&&&&&&&&&&&&&&&&&&&&&&&&&&&&&&&&&&&&&&&&&&&&&&&&&&&XXXXX+++++##########++++++++++++++++++++ooooo                                                                        ",
"                                                                                            ooooo##########XXXXXXXXXXXXXXXXXXXXXXXXXXXXXXXXXXXX.....+++++##########ooooo                                                                                                                      ooooo#####.....XXXXXXXXXXXXXXXXXXXX&&&&&&&&&&&&&&&&&&&&&&&&&&&&&&&&&&&&&&&&&&&&&&&&&&&&&&&&&&&&&&XXXXX+++++##########++++++++++++++++++++ooooo                                                                        ",
"                                                                                            ooooo##########XXXXXXXXXXXXXXXXXXXXXXXXXXXXXXXXXXXX.....+++++##########ooooo                                                                                                                      ooooo#####.....XXXXXXXXXXXXXXXXXXXX&&&&&&&&&&&&&&&&&&&&&&&&&&&&&&&&&&&&&&&&&&&&&&&&&&&&&&&&&&&&&&XXXXX+++++##########++++++++++++++++++++ooooo                                                                        ",
"                                                                                 ooooooooooo##########XXXXXXXXXXXXXXXXXXXXXXXXXXXXXXXXXXXXXXXXXXXXXX.....##########+++++ooooo                                                                                                                 ooooo#####.....XXXXXXXXXXXXXXXXXXXX&&&&&&&&&&&&&&&&&&&&&&&&&&&&&&&&&&&&&&&&&&&&&&&&&&&&&&&&&&&&&&&&&&&XXXXX+++++#####+++++ooooo+++++++++++++++oooooo                                                                  ",
"                                                                                 ooooooooooo##########XXXXXXXXXXXXXXXXXXXXXXXXXXXXXXXXXXXXXXXXXXXXXX.....##########+++++ooooo                                                                                                                 ooooo#####.....XXXXXXXXXXXXXXXXXXXX&&&&&&&&&&&&&&&&&&&&&&&&&&&&&&&&&&&&&&&&&&&&&&&&&&&&&&&&&&&&&&&&&&&XXXXX+++++#####+++++ooooo+++++++++++++++oooooo                                                                  ",
"                                                                                 ooooooooooo##########XXXXXXXXXXXXXXXXXXXXXXXXXXXXXXXXXXXXXXXXXXXXXX.....##########+++++ooooo                                                                                                                 ooooo#####.....XXXXXXXXXXXXXXXXXXXX&&&&&&&&&&&&&&&&&&&&&&&&&&&&&&&&&&&&&&&&&&&&&&&&&&&&&&&&&&&&&&&&&&&XXXXX+++++#####+++++ooooo+++++++++++++++oooooo                                                                  ",
"                                                                                 ooooooooooo##########XXXXXXXXXXXXXXXXXXXXXXXXXXXXXXXXXXXXXXXXXXXXXX.....##########+++++ooooo                                                                                                                 ooooo#####.....XXXXXXXXXXXXXXXXXXXX&&&&&&&&&&&&&&&&&&&&&&&&&&&&&&&&&&&&&&&&&&&&&&&&&&&&&&&&&&&&&&&&&&&XXXXX+++++#####+++++ooooo+++++++++++++++oooooo                                                                  ",
"                                                                                 ooooooooooo##########XXXXXXXXXXXXXXXXXXXXXXXXXXXXXXXXXXXXXXXXXXXXXX.....##########+++++ooooo                                                                                                                 ooooo#####.....XXXXXXXXXXXXXXXXXXXX&&&&&&&&&&&&&&&&&&&&&&&&&&&&&&&&&&&&&&&&&&&&&&&&&&&&&&&&&&&&&&&&&&&XXXXX+++++#####+++++ooooo+++++++++++++++oooooo                                                                  ",
"                                                                                 ooooooooooo##########XXXXXXXXXXXXXXXXXXXXXXXXXXXXXXXXXXXXXXXXXXXXXX.....##########+++++ooooo                                                                                                                 ooooo#####.....XXXXXXXXXXXXXXXXXXXX&&&&&&&&&&&&&&&&&&&&&&&&&&&&&&&&&&&&&&&&&&&&&&&&&&&&&&&&&&&&&&&&&&&XXXXX+++++#####+++++ooooo+++++++++++++++oooooo                                                                  ",
"                                                                            ooooo################XXXXXXXXXXXXXXXXXXXXXXXXXXXXXXXXXXXXXXXXXXXXXXXXXXXXXXXX.....##########ooooo                                                                                                                 ooooo#####.....XXXXXXXXXXXXXXXXXXXX&&&&&&&&&&&&&&&&&&&&&&&&&&&&&&&&&&&&&&&&&&&&&&&&&&&&&&&&&&&&&&&&&&&XXXXX+++++##########ooooo++++++++++ooooo                                                                        ",
"                                                                            ooooo################XXXXXXXXXXXXXXXXXXXXXXXXXXXXXXXXXXXXXXXXXXXXXXXXXXXXXXXX.....##########ooooo                                                                                                                 ooooo#####.....XXXXXXXXXXXXXXXXXXXX&&&&&&&&&&&&&&&&&&&&&&&&&&&&&&&&&&&&&&&&&&&&&&&&&&&&&&&&&&&&&&&&&&&XXXXX+++++##########ooooo++++++++++ooooo                                                                        ",
"                                                                            ooooo################XXXXXXXXXXXXXXXXXXXXXXXXXXXXXXXXXXXXXXXXXXXXXXXXXXXXXXXX.....##########ooooo                                                                                                                 ooooo#####.....XXXXXXXXXXXXXXXXXXXX&&&&&&&&&&&&&&&&&&&&&&&&&&&&&&&&&&&&&&&&&&&&&&&&&&&&&&&&&&&&&&&&&&&XXXXX+++++##########ooooo++++++++++ooooo                                                                        ",
"                                                                            ooooo################XXXXXXXXXXXXXXXXXXXXXXXXXXXXXXXXXXXXXXXXXXXXXXXXXXXXXXXX.....##########ooooo                                                                                                                 ooooo#####.....XXXXXXXXXXXXXXXXXXXX&&&&&&&&&&&&&&&&&&&&&&&&&&&&&&&&&&&&&&&&&&&&&&&&&&&&&&&&&&&&&&&&&&&XXXXX+++++##########ooooo++++++++++ooooo                                                                        ",
"                                                                            ooooo################XXXXXXXXXXXXXXXXXXXXXXXXXXXXXXXXXXXXXXXXXXXXXXXXXXXXXXXX.....##########ooooo                                                                                                                 ooooo#####.....XXXXXXXXXXXXXXXXXXXX&&&&&&&&&&&&&&&&&&&&&&&&&&&&&&&&&&&&&&&&&&&&&&&&&&&&&&&&&&&&&&&&&&&XXXXX+++++##########ooooo++++++++++ooooo                                                                        ",
"                                                                            ooooo++++++#####XXXXXXXXXXXXXXXXXXXXXXXXXXXXXXXXXXXXXXXXXXXXXXXXXXXXXXXXXXXXX.....##########ooooo                                                                                                                 ooooo#####.....XXXXXXXXXXXXXXXXXXXXXXXXX&&&&&&&&&&&&&&&&&&&&&&&&&&&&&&&&&&&&&&&&&&&&&&&&&&&&&&&&&&&&&&&&&&&XXXXX+++++#####++++++++++++++++++++oooooo                                                                  ",
"                                                                            ooooo++++++#####XXXXXXXXXXXXXXXXXXXXXXXXXXXXXXXXXXXXXXXXXXXXXXXXXXXXXXXXXXXXX.....##########ooooo                                                                                                                 ooooo#####.....XXXXXXXXXXXXXXXXXXXXXXXXX&&&&&&&&&&&&&&&&&&&&&&&&&&&&&&&&&&&&&&&&&&&&&&&&&&&&&&&&&&&&&&&&&&&XXXXX+++++#####++++++++++++++++++++oooooo                                                                  ",
"                                                                            ooooo++++++#####XXXXXXXXXXXXXXXXXXXXXXXXXXXXXXXXXXXXXXXXXXXXXXXXXXXXXXXXXXXXX.....##########ooooo                                                                                                                 ooooo#####.....XXXXXXXXXXXXXXXXXXXXXXXXX&&&&&&&&&&&&&&&&&&&&&&&&&&&&&&&&&&&&&&&&&&&&&&&&&&&&&&&&&&&&&&&&&&&XXXXX+++++#####++++++++++++++++++++oooooo                                                                  ",
"                                                                            ooooo++++++#####XXXXXXXXXXXXXXXXXXXXXXXXXXXXXXXXXXXXXXXXXXXXXXXXXXXXXXXXXXXXX.....##########ooooo                                                                                                                 ooooo#####.....XXXXXXXXXXXXXXXXXXXXXXXXX&&&&&&&&&&&&&&&&&&&&&&&&&&&&&&&&&&&&&&&&&&&&&&&&&&&&&&&&&&&&&&&&&&&XXXXX+++++#####++++++++++++++++++++oooooo                                                                  ",
"                                                                            ooooo++++++#####XXXXXXXXXXXXXXXXXXXXXXXXXXXXXXXXXXXXXXXXXXXXXXXXXXXXXXXXXXXXX.....##########ooooo                                                                                                                 ooooo#####.....XXXXXXXXXXXXXXXXXXXXXXXXX&&&&&&&&&&&&&&&&&&&&&&&&&&&&&&&&&&&&&&&&&&&&&&&&&&&&&&&&&&&&&&&&&&&XXXXX+++++#####++++++++++++++++++++oooooo                                                                  ",
"                                                                            ooooo++++++XXXXXXXXXXXXXXXXXXXXXXXXXXXXXXXXXXXXXXXXXXXXXXXXXXXXXXXXXXXXXXXXXXXXXXX.....#####ooooo                                                                                                                 ooooo#####.....XXXXXXXXXXXXXXXXXXXXXXXXX&&&&&&&&&&&&&&&&&&&&&&&&&&&&&&&&&&&&&&&&&&&&&&&&&&&&&&&&&&&&&&&&&&&XXXXX+++++#####+++++++++++++++ooooo                                                                        ",
"                                                                            ooooo++++++XXXXXXXXXXXXXXXXXXXXXXXXXXXXXXXXXXXXXXXXXXXXXXXXXXXXXXXXXXXXXXXXXXXXXXX.....#####ooooo                                                                                                                 ooooo#####.....XXXXXXXXXXXXXXXXXXXXXXXXX&&&&&&&&&&&&&&&&&&&&&&&&&&&&&&&&&&&&&&&&&&&&&&&&&&&&&&&&&&&&&&&&&&&XXXXX+++++#####+++++++++++++++ooooo                                                                        ",
"                                                                            ooooo++++++XXXXXXXXXXXXXXXXXXXXXXXXXXXXXXXXXXXXXXXXXXXXXXXXXXXXXXXXXXXXXXXXXXXXXXX.....#####ooooo                                                                                                                 ooooo#####.....XXXXXXXXXXXXXXXXXXXXXXXXX&&&&&&&&&&&&&&&&&&&&&&&&&&&&&&&&&&&&&&&&&&&&&&&&&&&&&&&&&&&&&&&&&&&XXXXX+++++#####+++++++++++++++ooooo                                                                        ",
"                                                                            ooooo++++++XXXXXXXXXXXXXXXXXXXXXXXXXXXXXXXXXXXXXXXXXXXXXXXXXXXXXXXXXXXXXXXXXXXXXXX.....#####ooooo                                                                                                                 ooooo#####.....XXXXXXXXXXXXXXXXXXXXXXXXX&&&&&&&&&&&&&&&&&&&&&&&&&&&&&&&&&&&&&&&&&&&&&&&&&&&&&&&&&&&&&&&&&&&XXXXX+++++#####+++++++++++++++ooooo                                                                        ",
"                                                                            ooooo++++++XXXXXXXXXXXXXXXXXXXXXXXXXXXXXXXXXXXXXXXXXXXXXXXXXXXXXXXXXXXXXXXXXXXXXXX.....#####ooooo                                                                                                                 ooooo#####.....XXXXXXXXXXXXXXXXXXXXXXXXX&&&&&&&&&&&&&&&&&&&&&&&&&&&&&&&&&&&&&&&&&&&&&&&&&&&&&&&&&&&&&&&&&&&XXXXX+++++#####+++++++++++++++ooooo                                                                        ",
"                                                                            ooooo++++++XXXXXXXXXXXXXXXXXXXXXXXXXXXXXXXXXXXXXXXXXXXXXXXXXXXXXXXXXXXXXXXXXXXXXXX.....##########ooooo                                                                                                            ooooo#####.....XXXXXXXXXXXXXXXXXXXXXXXXX&&&&&&&&&&&&&&&&&&&&&&&&&&&&&&&&&&&&&&&&&&&&&&&&&&&&&&&&&&&&&&&&&&&XXXXXXXXXX##########ooooo++++++++++oooooo                                                                  ",
"                                                                            ooooo++++++XXXXXXXXXXXXXXXXXXXXXXXXXXXXXXXXXXXXXXXXXXXXXXXXXXXXXXXXXXXXXXXXXXXXXXX.....##########ooooo                                                                                                            ooooo#####.....XXXXXXXXXXXXXXXXXXXXXXXXX&&&&&&&&&&&&&&&&&&&&&&&&&&&&&&&&&&&&&&&&&&&&&&&&&&&&&&&&&&&&&&&&&&&XXXXXXXXXX##########ooooo++++++++++oooooo                                                                  ",
"                                                                            ooooo++++++XXXXXXXXXXXXXXXXXXXXXXXXXXXXXXXXXXXXXXXXXXXXXXXXXXXXXXXXXXXXXXXXXXXXXXX.....##########ooooo                                                                                                            ooooo#####.....XXXXXXXXXXXXXXXXXXXXXXXXX&&&&&&&&&&&&&&&&&&&&&&&&&&&&&&&&&&&&&&&&&&&&&&&&&&&&&&&&&&&&&&&&&&&XXXXXXXXXX##########ooooo++++++++++oooooo                                                                  ",
"                                                                            ooooo++++++XXXXXXXXXXXXXXXXXXXXXXXXXXXXXXXXXXXXXXXXXXXXXXXXXXXXXXXXXXXXXXXXXXXXXXX.....##########ooooo                                                                                                            ooooo#####.....XXXXXXXXXXXXXXXXXXXXXXXXX&&&&&&&&&&&&&&&&&&&&&&&&&&&&&&&&&&&&&&&&&&&&&&&&&&&&&&&&&&&&&&&&&&&XXXXXXXXXX##########ooooo++++++++++oooooo                                                                  ",
"                                                                            ooooo++++++XXXXXXXXXXXXXXXXXXXXXXXXXXXXXXXXXXXXXXXXXXXXXXXXXXXXXXXXXXXXXXXXXXXXXXX.....##########ooooo                                                                                                            ooooo#####.....XXXXXXXXXXXXXXXXXXXXXXXXX&&&&&&&&&&&&&&&&&&&&&&&&&&&&&&&&&&&&&&&&&&&&&&&&&&&&&&&&&&&&&&&&&&&XXXXXXXXXX##########ooooo++++++++++oooooo                                                                  ",
"                                                                       ooooo+++++++++++XXXXXXXXXXXXXXXXXXXXXXXXXXXXXXXXXXXXXXXXXXXXXXXXXXXXXXXXXXXXXXXXXXXXXXXXXXXXXXXXX#####ooooo                                                                                                      oooooo+++++#####.....XXXXXXXXXXXXXXXXXXXXXXXXXXXXXX&&&&&&&&&&&&&&&&&&&&&&&&&&&&&&&&&&&&&&&&&&&&&&&&&&&&&&&&&&&&&&XXXXXXXXXX+++++#####++++++++++ooooo                                                                        ",
"                                                                       ooooo+++++++++++XXXXXXXXXXXXXXXXXXXXXXXXXXXXXXXXXXXXXXXXXXXXXXXXXXXXXXXXXXXXXXXXXXXXXXXXXXXXXXXXX#####ooooo                                                                                                      oooooo+++++#####.....XXXXXXXXXXXXXXXXXXXXXXXXXXXXXX&&&&&&&&&&&&&&&&&&&&&&&&&&&&&&&&&&&&&&&&&&&&&&&&&&&&&&&&&&&&&&XXXXXXXXXX+++++#####++++++++++ooooo                                                                        ",
"                                                                       ooooo+++++++++++XXXXXXXXXXXXXXXXXXXXXXXXXXXXXXXXXXXXXXXXXXXXXXXXXXXXXXXXXXXXXXXXXXXXXXXXXXXXXXXXX#####ooooo                                                                                                      oooooo+++++#####.....XXXXXXXXXXXXXXXXXXXXXXXXXXXXXX&&&&&&&&&&&&&&&&&&&&&&&&&&&&&&&&&&&&&&&&&&&&&&&&&&&&&&&&&&&&&&XXXXXXXXXX+++++#####++++++++++ooooo                                                                        ",
"                                                                       ooooo+++++++++++XXXXXXXXXXXXXXXXXXXXXXXXXXXXXXXXXXXXXXXXXXXXXXXXXXXXXXXXXXXXXXXXXXXXXXXXXXXXXXXXX#####ooooo                                                                                                      oooooo+++++#####.....XXXXXXXXXXXXXXXXXXXXXXXXXXXXXX&&&&&&&&&&&&&&&&&&&&&&&&&&&&&&&&&&&&&&&&&&&&&&&&&&&&&&&&&&&&&&XXXXXXXXXX+++++#####++++++++++ooooo                                                                        ",
"                                                                       ooooo+++++++++++XXXXXXXXXXXXXXXXXXXXXXXXXXXXXXXXXXXXXXXXXXXXXXXXXXXXXXXXXXXXXXXXXXXXXXXXXXXXXXXXX#####ooooo                                                                                                      oooooo+++++#####.....XXXXXXXXXXXXXXXXXXXXXXXXXXXXXX&&&&&&&&&&&&&&&&&&&&&&&&&&&&&&&&&&&&&&&&&&&&&&&&&&&&&&&&&&&&&&XXXXXXXXXX+++++#####++++++++++ooooo                                                                        ",
"                                                                       ooooo+++++XXXXXXXXXXXXXXXXXXXXXXXXXXXXXXXXXXXXXXXXXXXXXXXXXXXXXXXXXXXXXXXXXXXXXXXXXXXXXXXXXXXXXXX#####ooooo                                                                                                      oooooo##########.....XXXXXXXXXXXXXXXXXXXXXXXXXXXXXX&&&&&&&&&&&&&&&&&&&&&&&&&&&&&&&&&&&&&&&&&&&&&&&&&&&&&&&&&&&&&&XXXXXXXXXX+++++#####+++++++++++++++oooooo                                                                  ",
"                                                                       ooooo+++++XXXXXXXXXXXXXXXXXXXXXXXXXXXXXXXXXXXXXXXXXXXXXXXXXXXXXXXXXXXXXXXXXXXXXXXXXXXXXXXXXXXXXXX#####ooooo                                                                                                      oooooo##########.....XXXXXXXXXXXXXXXXXXXXXXXXXXXXXX&&&&&&&&&&&&&&&&&&&&&&&&&&&&&&&&&&&&&&&&&&&&&&&&&&&&&&&&&&&&&&XXXXXXXXXX+++++#####+++++++++++++++oooooo                                                                  ",
"                                                                       ooooo+++++XXXXXXXXXXXXXXXXXXXXXXXXXXXXXXXXXXXXXXXXXXXXXXXXXXXXXXXXXXXXXXXXXXXXXXXXXXXXXXXXXXXXXXX#####ooooo                                                                                                      oooooo##########.....XXXXXXXXXXXXXXXXXXXXXXXXXXXXXX&&&&&&&&&&&&&&&&&&&&&&&&&&&&&&&&&&&&&&&&&&&&&&&&&&&&&&&&&&&&&&XXXXXXXXXX+++++#####+++++++++++++++oooooo                                                                  ",
"                                                                       ooooo+++++XXXXXXXXXXXXXXXXXXXXXXXXXXXXXXXXXXXXXXXXXXXXXXXXXXXXXXXXXXXXXXXXXXXXXXXXXXXXXXXXXXXXXXX#####ooooo                                                                                                      oooooo##########.....XXXXXXXXXXXXXXXXXXXXXXXXXXXXXX&&&&&&&&&&&&&&&&&&&&&&&&&&&&&&&&&&&&&&&&&&&&&&&&&&&&&&&&&&&&&&XXXXXXXXXX+++++#####+++++++++++++++oooooo                                                                  ",
"                                                                       ooooo+++++XXXXXXXXXXXXXXXXXXXXXXXXXXXXXXXXXXXXXXXXXXXXXXXXXXXXXXXXXXXXXXXXXXXXXXXXXXXXXXXXXXXXXXX#####ooooo                                                                                                      oooooo##########.....XXXXXXXXXXXXXXXXXXXXXXXXXXXXXX&&&&&&&&&&&&&&&&&&&&&&&&&&&&&&&&&&&&&&&&&&&&&&&&&&&&&&&&&&&&&&XXXXXXXXXX+++++#####+++++++++++++++oooooo                                                                  ",
"                                                                  ooooo++++++++++XXXXXXXXXXXXXXXXXXXXXXXXXXooooooooooXXXXXXXXXXXXXXXXXXXXXXXXXXXXXXXXXXXXXXXXXXXXXXXXXXX##########oooooo                                                                                                oooooo#####+++++XXXXXXXXXXXXXXXXXXXXXXXXXXXXXXXXXXX&&&&&&&&&&&&&&&&&&&&&&&&&&&&&&&&&&&&&&&&&&&&&&&&&&&&&&&&&&&&&&XXXXXXXXXXXXXXX##########ooooo+++++oooooo                                                                  ",
"                                                                  ooooo++++++++++XXXXXXXXXXXXXXXXXXXXXXXXXXooooooooooXXXXXXXXXXXXXXXXXXXXXXXXXXXXXXXXXXXXXXXXXXXXXXXXXXX##########oooooo                                                                                                oooooo#####+++++XXXXXXXXXXXXXXXXXXXXXXXXXXXXXXXXXXX&&&&&&&&&&&&&&&&&&&&&&&&&&&&&&&&&&&&&&&&&&&&&&&&&&&&&&&&&&&&&&XXXXXXXXXXXXXXX##########ooooo+++++oooooo                                                                  ",
"                                                                  ooooo++++++++++XXXXXXXXXXXXXXXXXXXXXXXXXXooooooooooXXXXXXXXXXXXXXXXXXXXXXXXXXXXXXXXXXXXXXXXXXXXXXXXXXX##########oooooo                                                                                                oooooo#####+++++XXXXXXXXXXXXXXXXXXXXXXXXXXXXXXXXXXX&&&&&&&&&&&&&&&&&&&&&&&&&&&&&&&&&&&&&&&&&&&&&&&&&&&&&&&&&&&&&&XXXXXXXXXXXXXXX##########ooooo+++++oooooo                                                                  ",
"                                                                  ooooo++++++++++XXXXXXXXXXXXXXXXXXXXXXXXXXooooooooooXXXXXXXXXXXXXXXXXXXXXXXXXXXXXXXXXXXXXXXXXXXXXXXXXXX##########oooooo                                                                                                oooooo#####+++++XXXXXXXXXXXXXXXXXXXXXXXXXXXXXXXXXXX&&&&&&&&&&&&&&&&&&&&&&&&&&&&&&&&&&&&&&&&&&&&&&&&&&&&&&&&&&&&&&XXXXXXXXXXXXXXX##########ooooo+++++oooooo                                                                  ",
"                                                                  ooooo++++++++++XXXXXXXXXXXXXXXXXXXXXXXXXXooooooooooXXXXXXXXXXXXXXXXXXXXXXXXXXXXXXXXXXXXXXXXXXXXXXXXXXX##########oooooo                                                                                                oooooo#####+++++XXXXXXXXXXXXXXXXXXXXXXXXXXXXXXXXXXX&&&&&&&&&&&&&&&&&&&&&&&&&&&&&&&&&&&&&&&&&&&&&&&&&&&&&&&&&&&&&&XXXXXXXXXXXXXXX##########ooooo+++++oooooo                                                                  ",
"                                                                  ooooo++++++++++XXXXXXXXXXXXXXXXXXXXXooooo++++++++++.....XXXXXXXXXXXXXXXXXXXXXXXXXXooooooooooXXXXXXXXXXXXXXX#####oooooo                                                                                           .....+++++++++++XXXXXXXXXXXXXXXXXXXXXXXXXXXXXXXXXXXXXXXXXXXXXX&&&&&&&&&&&&&&&&&&&&&&&&&&&&&&&&&&&&&&&&&&&&&&&&&&&XXXXXXXXXXXXXXXXXXXX+++++#####++++++++++++++++ooooo                                                             ",
"                                                                  ooooo++++++++++XXXXXXXXXXXXXXXXXXXXXooooo++++++++++.....XXXXXXXXXXXXXXXXXXXXXXXXXXooooooooooXXXXXXXXXXXXXXX#####oooooo                                                                                           .....+++++++++++XXXXXXXXXXXXXXXXXXXXXXXXXXXXXXXXXXXXXXXXXXXXXX&&&&&&&&&&&&&&&&&&&&&&&&&&&&&&&&&&&&&&&&&&&&&&&&&&&XXXXXXXXXXXXXXXXXXXX+++++#####++++++++++++++++ooooo                                                             ",
"                                                                  ooooo++++++++++XXXXXXXXXXXXXXXXXXXXXooooo++++++++++.....XXXXXXXXXXXXXXXXXXXXXXXXXXooooooooooXXXXXXXXXXXXXXX#####oooooo                                                                                           .....+++++++++++XXXXXXXXXXXXXXXXXXXXXXXXXXXXXXXXXXXXXXXXXXXXXX&&&&&&&&&&&&&&&&&&&&&&&&&&&&&&&&&&&&&&&&&&&&&&&&&&&XXXXXXXXXXXXXXXXXXXX+++++#####++++++++++++++++ooooo                                                             ",
"                                                                  ooooo++++++++++XXXXXXXXXXXXXXXXXXXXXooooo++++++++++.....XXXXXXXXXXXXXXXXXXXXXXXXXXooooooooooXXXXXXXXXXXXXXX#####oooooo                                                                                           .....+++++++++++XXXXXXXXXXXXXXXXXXXXXXXXXXXXXXXXXXXXXXXXXXXXXX&&&&&&&&&&&&&&&&&&&&&&&&&&&&&&&&&&&&&&&&&&&&&&&&&&&XXXXXXXXXXXXXXXXXXXX+++++#####++++++++++++++++ooooo                                                             ",
"                                                                  ooooo++++++++++XXXXXXXXXXXXXXXXXXXXXooooo++++++++++.....XXXXXXXXXXXXXXXXXXXXXXXXXXooooooooooXXXXXXXXXXXXXXX#####oooooo                                                                                           .....+++++++++++XXXXXXXXXXXXXXXXXXXXXXXXXXXXXXXXXXXXXXXXXXXXXX&&&&&&&&&&&&&&&&&&&&&&&&&&&&&&&&&&&&&&&&&&&&&&&&&&&XXXXXXXXXXXXXXXXXXXX+++++#####++++++++++++++++ooooo                                                             ",
"                                                             ooooo++++++++++XXXXXXXXXXXXXXXXXXXXXXXXXXooooo++++++++++.....XXXXXXXXXXXXXXXXXXXXXooooo##########.....XXXXXXXXXX+++++++++++.....                                                                                 oooooooooo+++++++++++XXXXXXXXXXXXXXXXXXXXXXXXXXXXXXXXXXXXXXXXXXXXXX&&&&&&&&&&&&&&&&&&&&&&&&&&&&&&&&&&&&&&&&&&&&&&&&&&&XXXXXXXXXXXXXXXXXXXX+++++#####++++++++++oooooo                                                                  ",
"                                                             ooooo++++++++++XXXXXXXXXXXXXXXXXXXXXXXXXXooooo++++++++++.....XXXXXXXXXXXXXXXXXXXXXooooo##########.....XXXXXXXXXX+++++++++++.....                                                                                 oooooooooo+++++++++++XXXXXXXXXXXXXXXXXXXXXXXXXXXXXXXXXXXXXXXXXXXXXX&&&&&&&&&&&&&&&&&&&&&&&&&&&&&&&&&&&&&&&&&&&&&&&&&&&XXXXXXXXXXXXXXXXXXXX+++++#####++++++++++oooooo                                                                  ",
"                                                             ooooo++++++++++XXXXXXXXXXXXXXXXXXXXXXXXXXooooo++++++++++.....XXXXXXXXXXXXXXXXXXXXXooooo##########.....XXXXXXXXXX+++++++++++.....                                                                                 oooooooooo+++++++++++XXXXXXXXXXXXXXXXXXXXXXXXXXXXXXXXXXXXXXXXXXXXXX&&&&&&&&&&&&&&&&&&&&&&&&&&&&&&&&&&&&&&&&&&&&&&&&&&&XXXXXXXXXXXXXXXXXXXX+++++#####++++++++++oooooo                                                                  ",
"                                                             ooooo++++++++++XXXXXXXXXXXXXXXXXXXXXXXXXXooooo++++++++++.....XXXXXXXXXXXXXXXXXXXXXooooo##########.....XXXXXXXXXX+++++++++++.....                                                                                 oooooooooo+++++++++++XXXXXXXXXXXXXXXXXXXXXXXXXXXXXXXXXXXXXXXXXXXXXX&&&&&&&&&&&&&&&&&&&&&&&&&&&&&&&&&&&&&&&&&&&&&&&&&&&XXXXXXXXXXXXXXXXXXXX+++++#####++++++++++oooooo                                                                  ",
"                                                             ooooo++++++++++XXXXXXXXXXXXXXXXXXXXXXXXXXooooo++++++++++.....XXXXXXXXXXXXXXXXXXXXXooooo##########.....XXXXXXXXXX+++++++++++.....                                                                                 oooooooooo+++++++++++XXXXXXXXXXXXXXXXXXXXXXXXXXXXXXXXXXXXXXXXXXXXXX&&&&&&&&&&&&&&&&&&&&&&&&&&&&&&&&&&&&&&&&&&&&&&&&&&&XXXXXXXXXXXXXXXXXXXX+++++#####++++++++++oooooo                                                                  ",
"                                                        .....++++++++++XXXXXXXXXXXXXXXXXXXXXXXXXXooooo+++++++++++++++.....XXXXXXXXXXXXXXXXooooo##########+++++.....XXXXXXXXXXooooo+++++++++++.....                                                                            .....+++++++++++XXXXXXXXXXXXXXXXXXXXXXXXXXXXXXXXXXXXXXXXXXXXXXXXXXX&&&&&&&&&&&&&&&&&&&&&&&&&&&&&&&&&&&&&&&&&&&&&&&&&&&XXXXXXXXXXXXXXXXXXXXXXXXX##########ooooo++++++ooooo                                                             ",
"                                                        .....++++++++++XXXXXXXXXXXXXXXXXXXXXXXXXXooooo+++++++++++++++.....XXXXXXXXXXXXXXXXooooo##########+++++.....XXXXXXXXXXooooo+++++++++++.....                                                                            .....+++++++++++XXXXXXXXXXXXXXXXXXXXXXXXXXXXXXXXXXXXXXXXXXXXXXXXXXX&&&&&&&&&&&&&&&&&&&&&&&&&&&&&&&&&&&&&&&&&&&&&&&&&&&XXXXXXXXXXXXXXXXXXXXXXXXX##########ooooo++++++ooooo                                                             ",
"                                                        .....++++++++++XXXXXXXXXXXXXXXXXXXXXXXXXXooooo+++++++++++++++.....XXXXXXXXXXXXXXXXooooo##########+++++.....XXXXXXXXXXooooo+++++++++++.....                                                                            .....+++++++++++XXXXXXXXXXXXXXXXXXXXXXXXXXXXXXXXXXXXXXXXXXXXXXXXXXX&&&&&&&&&&&&&&&&&&&&&&&&&&&&&&&&&&&&&&&&&&&&&&&&&&&XXXXXXXXXXXXXXXXXXXXXXXXX##########ooooo++++++ooooo                                                             ",
"                                                        .....++++++++++XXXXXXXXXXXXXXXXXXXXXXXXXXooooo+++++++++++++++.....XXXXXXXXXXXXXXXXooooo##########+++++.....XXXXXXXXXXooooo+++++++++++.....                                                                            .....+++++++++++XXXXXXXXXXXXXXXXXXXXXXXXXXXXXXXXXXXXXXXXXXXXXXXXXXX&&&&&&&&&&&&&&&&&&&&&&&&&&&&&&&&&&&&&&&&&&&&&&&&&&&XXXXXXXXXXXXXXXXXXXXXXXXX##########ooooo++++++ooooo                                                             ",
"                                                        .....++++++++++XXXXXXXXXXXXXXXXXXXXXXXXXXooooo+++++++++++++++.....XXXXXXXXXXXXXXXXooooo##########+++++.....XXXXXXXXXXooooo+++++++++++.....                                                                            .....+++++++++++XXXXXXXXXXXXXXXXXXXXXXXXXXXXXXXXXXXXXXXXXXXXXXXXXXX&&&&&&&&&&&&&&&&&&&&&&&&&&&&&&&&&&&&&&&&&&&&&&&&&&&XXXXXXXXXXXXXXXXXXXXXXXXX##########ooooo++++++ooooo                                                             ",
"                                                        .....++++++++++XXXXXXXXXXXXXXXXXXXXXXXXXXooooo+++++++++++++++.....XXXXXXXXXXXXXXXXooooo##########+++++.....XXXXXXXXXXooooo+++++++++++.....                                                                            .....+++++++++++XXXXXXXXXXXXXXXXXXXXXXXXXXXXXXXXXXXXXXXXXXXXXXXXXXX&&&&&&&&&&&&&&&&&&&&&&&&&&&&&&&&&&&&&&&&&&&&&&&&&&&XXXXXXXXXXXXXXXXXXXXXXXXX##########ooooo++++++ooooo                                                             ",
"                                                        .....+++++XXXXXXXXXXXXXXXXXXXXXXXXXXXXXXXooooo++++++++++...............XXXXXXooooo###############.....XXXXXXXXXXXXXXXXXXXXoooooo++++++++++..........                                                        ..........++++++++++XXXXXXXXXXXXXXXXXXXXXXXXXXXXXXXXXXXXXXXXXXXXXXXXXXXXXXXXXXXXXX&&&&&&&&&&&&&&&&&&&&&&&&&&&&&&&&&&&&&&&&&&&&&&XXXXXXXXXXXXXXXXXXXXXXXXX+++++#####+++++++++++                                                                  ",
"                                                        .....+++++XXXXXXXXXXXXXXXXXXXXXXXXXXXXXXXooooo++++++++++...............XXXXXXooooo###############.....XXXXXXXXXXXXXXXXXXXXoooooo++++++++++..........                                                        ..........++++++++++XXXXXXXXXXXXXXXXXXXXXXXXXXXXXXXXXXXXXXXXXXXXXXXXXXXXXXXXXXXXXX&&&&&&&&&&&&&&&&&&&&&&&&&&&&&&&&&&&&&&&&&&&&&&XXXXXXXXXXXXXXXXXXXXXXXXX+++++#####+++++++++++                                                                  ",
"                                                        .....+++++XXXXXXXXXXXXXXXXXXXXXXXXXXXXXXXooooo++++++++++...............XXXXXXooooo###############.....XXXXXXXXXXXXXXXXXXXXoooooo++++++++++..........                                                        ..........++++++++++XXXXXXXXXXXXXXXXXXXXXXXXXXXXXXXXXXXXXXXXXXXXXXXXXXXXXXXXXXXXXX&&&&&&&&&&&&&&&&&&&&&&&&&&&&&&&&&&&&&&&&&&&&&&XXXXXXXXXXXXXXXXXXXXXXXXX+++++#####+++++++++++                                                                  ",
"                                                        .....+++++XXXXXXXXXXXXXXXXXXXXXXXXXXXXXXXooooo++++++++++...............XXXXXXooooo###############.....XXXXXXXXXXXXXXXXXXXXoooooo++++++++++..........                                                        ..........++++++++++XXXXXXXXXXXXXXXXXXXXXXXXXXXXXXXXXXXXXXXXXXXXXXXXXXXXXXXXXXXXXX&&&&&&&&&&&&&&&&&&&&&&&&&&&&&&&&&&&&&&&&&&&&&&XXXXXXXXXXXXXXXXXXXXXXXXX+++++#####+++++++++++                                                                  ",
"                                                        .....+++++XXXXXXXXXXXXXXXXXXXXXXXXXXXXXXXooooo++++++++++...............XXXXXXooooo###############.....XXXXXXXXXXXXXXXXXXXXoooooo++++++++++..........                                                        ..........++++++++++XXXXXXXXXXXXXXXXXXXXXXXXXXXXXXXXXXXXXXXXXXXXXXXXXXXXXXXXXXXXXX&&&&&&&&&&&&&&&&&&&&&&&&&&&&&&&&&&&&&&&&&&&&&&XXXXXXXXXXXXXXXXXXXXXXXXX+++++#####+++++++++++                                                                  ",
"                                                        .....+++++XXXXXXXXXXXXXXXXXXXXXXXXXXXXXXXooooo++++++++++.....          oooooo###############..........XXXXXXXXXXXXXXXXXXXXXXXXXXXXXXX+++++++++++++++ooooo                                         ..........#####++++++++++XXXXXXXXXXXXXXXXXXXXXXXXXXXXXXXXXXXXXXXXXXXXXXXXXXXXXXXXXXXXXXXXXXX&&&&&&&&&&&&&&&&&&&&&&&&&&&&&&&&&&&&&&&&&&&&&&XXXXXXXXXXXXXXXXXXXXXXXXXXXXXX##########ooooooooooo                                                             ",
"                                                        .....+++++XXXXXXXXXXXXXXXXXXXXXXXXXXXXXXXooooo++++++++++.....          oooooo###############..........XXXXXXXXXXXXXXXXXXXXXXXXXXXXXXX+++++++++++++++ooooo                                         ..........#####++++++++++XXXXXXXXXXXXXXXXXXXXXXXXXXXXXXXXXXXXXXXXXXXXXXXXXXXXXXXXXXXXXXXXXXX&&&&&&&&&&&&&&&&&&&&&&&&&&&&&&&&&&&&&&&&&&&&&&XXXXXXXXXXXXXXXXXXXXXXXXXXXXXX##########ooooooooooo                                                             ",
"                                                        .....+++++XXXXXXXXXXXXXXXXXXXXXXXXXXXXXXXooooo++++++++++.....          oooooo###############..........XXXXXXXXXXXXXXXXXXXXXXXXXXXXXXX+++++++++++++++ooooo                                         ..........#####++++++++++XXXXXXXXXXXXXXXXXXXXXXXXXXXXXXXXXXXXXXXXXXXXXXXXXXXXXXXXXXXXXXXXXXX&&&&&&&&&&&&&&&&&&&&&&&&&&&&&&&&&&&&&&&&&&&&&&XXXXXXXXXXXXXXXXXXXXXXXXXXXXXX##########ooooooooooo                                                             ",
"                                                        .....+++++XXXXXXXXXXXXXXXXXXXXXXXXXXXXXXXooooo++++++++++.....          oooooo###############..........XXXXXXXXXXXXXXXXXXXXXXXXXXXXXXX+++++++++++++++ooooo                                         ..........#####++++++++++XXXXXXXXXXXXXXXXXXXXXXXXXXXXXXXXXXXXXXXXXXXXXXXXXXXXXXXXXXXXXXXXXXX&&&&&&&&&&&&&&&&&&&&&&&&&&&&&&&&&&&&&&&&&&&&&&XXXXXXXXXXXXXXXXXXXXXXXXXXXXXX##########ooooooooooo                                                             ",
"                                                        .....+++++XXXXXXXXXXXXXXXXXXXXXXXXXXXXXXXooooo++++++++++.....          oooooo###############..........XXXXXXXXXXXXXXXXXXXXXXXXXXXXXXX+++++++++++++++ooooo                                         ..........#####++++++++++XXXXXXXXXXXXXXXXXXXXXXXXXXXXXXXXXXXXXXXXXXXXXXXXXXXXXXXXXXXXXXXXXXX&&&&&&&&&&&&&&&&&&&&&&&&&&&&&&&&&&&&&&&&&&&&&&XXXXXXXXXXXXXXXXXXXXXXXXXXXXXX##########ooooooooooo                                                             ",
"                                                        .....+++++XXXXXXXXXXXXXXXXXXXXXXXXXX.....+++++++++++++++.....oooooooooo################ooooo          .....XXXXXXXXXXXXXXXXXXXXXXXXXXXXXXX+++++++++++++++ooooo                               .....###############+++++.....XXXXXXXXXXX&&&&&XXXXXXXXXXXXXXXXXXXXXXXXXXXXXXXXXXXXXXXXXXXXXXXXXXXXXXXX&&&&&&&&&&&&&&&&&&&&&&&&&XXXXXXXXXXXXXXXXXXXXXXXXXXXXXXXXXXXXXXXXXXXXXX++++++++++......+++++                                                             ",
"                                                        .....+++++XXXXXXXXXXXXXXXXXXXXXXXXXX.....+++++++++++++++.....oooooooooo################ooooo          .....XXXXXXXXXXXXXXXXXXXXXXXXXXXXXXX+++++++++++++++ooooo                               .....###############+++++.....XXXXXXXXXXX&&&&&XXXXXXXXXXXXXXXXXXXXXXXXXXXXXXXXXXXXXXXXXXXXXXXXXXXXXXXX&&&&&&&&&&&&&&&&&&&&&&&&&XXXXXXXXXXXXXXXXXXXXXXXXXXXXXXXXXXXXXXXXXXXXXX++++++++++......+++++                                                             ",
"                                                        .....+++++XXXXXXXXXXXXXXXXXXXXXXXXXX.....+++++++++++++++.....oooooooooo################ooooo          .....XXXXXXXXXXXXXXXXXXXXXXXXXXXXXXX+++++++++++++++ooooo                               .....###############+++++.....XXXXXXXXXXX&&&&&XXXXXXXXXXXXXXXXXXXXXXXXXXXXXXXXXXXXXXXXXXXXXXXXXXXXXXXX&&&&&&&&&&&&&&&&&&&&&&&&&XXXXXXXXXXXXXXXXXXXXXXXXXXXXXXXXXXXXXXXXXXXXXX++++++++++......+++++                                                             ",
"                                                        .....+++++XXXXXXXXXXXXXXXXXXXXXXXXXX.....+++++++++++++++.....oooooooooo################ooooo          .....XXXXXXXXXXXXXXXXXXXXXXXXXXXXXXX+++++++++++++++ooooo                               .....###############+++++.....XXXXXXXXXXX&&&&&XXXXXXXXXXXXXXXXXXXXXXXXXXXXXXXXXXXXXXXXXXXXXXXXXXXXXXXX&&&&&&&&&&&&&&&&&&&&&&&&&XXXXXXXXXXXXXXXXXXXXXXXXXXXXXXXXXXXXXXXXXXXXXX++++++++++......+++++                                                             ",
"                                                        .....+++++XXXXXXXXXXXXXXXXXXXXXXXXXX.....+++++++++++++++.....oooooooooo################ooooo          .....XXXXXXXXXXXXXXXXXXXXXXXXXXXXXXX+++++++++++++++ooooo                               .....###############+++++.....XXXXXXXXXXX&&&&&XXXXXXXXXXXXXXXXXXXXXXXXXXXXXXXXXXXXXXXXXXXXXXXXXXXXXXXX&&&&&&&&&&&&&&&&&&&&&&&&&XXXXXXXXXXXXXXXXXXXXXXXXXXXXXXXXXXXXXXXXXXXXXX++++++++++......+++++                                                             ",
"                                                        .....++++++++++XXXXXXXXXXXXXXXXXXXXX.....+++++oooooooooo#####+++++#####################.....               .....XXXXXXXXXXXXXXXXXXXXX....................ooooo                               ooooo##########+++++.....XXXXXXXXXXXXXXXXXXXXX&&&&&XXXXXXXXXXXXXXXXXXXXXXXXXXXXXXXXXXXXXXXXXXXXXXXXXXX&&&&&&&&&&&&&&&&&&&&XXXXX           .....XXXXXXXXXXXXXXXXXXXXXXXXXXXXXXXXXXX+++++......ooooo+++++                                                        ",
"                                                        .....++++++++++XXXXXXXXXXXXXXXXXXXXX.....+++++oooooooooo#####+++++#####################.....               .....XXXXXXXXXXXXXXXXXXXXX....................ooooo                               ooooo##########+++++.....XXXXXXXXXXXXXXXXXXXXX&&&&&XXXXXXXXXXXXXXXXXXXXXXXXXXXXXXXXXXXXXXXXXXXXXXXXXXX&&&&&&&&&&&&&&&&&&&&XXXXX           .....XXXXXXXXXXXXXXXXXXXXXXXXXXXXXXXXXXX+++++......ooooo+++++                                                        ",
"                                                        .....++++++++++XXXXXXXXXXXXXXXXXXXXX.....+++++oooooooooo#####+++++#####################.....               .....XXXXXXXXXXXXXXXXXXXXX....................ooooo                               ooooo##########+++++.....XXXXXXXXXXXXXXXXXXXXX&&&&&XXXXXXXXXXXXXXXXXXXXXXXXXXXXXXXXXXXXXXXXXXXXXXXXXXX&&&&&&&&&&&&&&&&&&&&XXXXX           .....XXXXXXXXXXXXXXXXXXXXXXXXXXXXXXXXXXX+++++......ooooo+++++                                                        ",
"                                                        .....++++++++++XXXXXXXXXXXXXXXXXXXXX.....+++++oooooooooo#####+++++#####################.....               .....XXXXXXXXXXXXXXXXXXXXX....................ooooo                               ooooo##########+++++.....XXXXXXXXXXXXXXXXXXXXX&&&&&XXXXXXXXXXXXXXXXXXXXXXXXXXXXXXXXXXXXXXXXXXXXXXXXXXX&&&&&&&&&&&&&&&&&&&&XXXXX           .....XXXXXXXXXXXXXXXXXXXXXXXXXXXXXXXXXXX+++++......ooooo+++++                                                        ",
"                                                        .....++++++++++XXXXXXXXXXXXXXXXXXXXX.....+++++oooooooooo#####+++++#####################.....               .....XXXXXXXXXXXXXXXXXXXXX....................ooooo                               ooooo##########+++++.....XXXXXXXXXXXXXXXXXXXXX&&&&&XXXXXXXXXXXXXXXXXXXXXXXXXXXXXXXXXXXXXXXXXXXXXXXXXXX&&&&&&&&&&&&&&&&&&&&XXXXX           .....XXXXXXXXXXXXXXXXXXXXXXXXXXXXXXXXXXX+++++......ooooo+++++                                                        ",
"                                                             ooooo+++++XXXXXXXXXXXXXXXX.....+++++#########################################.....                    .....XXXXX................####################...............                ooooo+++++++++++++++.....XXXXXXXXXXXXXXXXXXXXX&&&&&XXXXX&&&&&XXXXXXXXXXXXXXXXXXXXXXXXXXXXXXXXXXXXXXXXXXXXXX&&&&&&&&&&&&&&&XXXXX                     .....XXXXXXXXXXXXXXXXXXXXXXXXXXXXXX+++++......ooooo                                                             ",
"                                                             ooooo+++++XXXXXXXXXXXXXXXX.....+++++#########################################.....                    .....XXXXX................####################...............                ooooo+++++++++++++++.....XXXXXXXXXXXXXXXXXXXXX&&&&&XXXXX&&&&&XXXXXXXXXXXXXXXXXXXXXXXXXXXXXXXXXXXXXXXXXXXXXX&&&&&&&&&&&&&&&XXXXX                     .....XXXXXXXXXXXXXXXXXXXXXXXXXXXXXX+++++......ooooo                                                             ",
"                                                             ooooo+++++XXXXXXXXXXXXXXXX.....+++++#########################################.....                    .....XXXXX................####################...............                ooooo+++++++++++++++.....XXXXXXXXXXXXXXXXXXXXX&&&&&XXXXX&&&&&XXXXXXXXXXXXXXXXXXXXXXXXXXXXXXXXXXXXXXXXXXXXXX&&&&&&&&&&&&&&&XXXXX                     .....XXXXXXXXXXXXXXXXXXXXXXXXXXXXXX+++++......ooooo                                                             ",
"                                                             ooooo+++++XXXXXXXXXXXXXXXX.....+++++#########################################.....                    .....XXXXX................####################...............                ooooo+++++++++++++++.....XXXXXXXXXXXXXXXXXXXXX&&&&&XXXXX&&&&&XXXXXXXXXXXXXXXXXXXXXXXXXXXXXXXXXXXXXXXXXXXXXX&&&&&&&&&&&&&&&XXXXX                     .....XXXXXXXXXXXXXXXXXXXXXXXXXXXXXX+++++......ooooo                                                             ",
"                                                             ooooo+++++XXXXXXXXXXXXXXXX.....+++++#########################################.....                    .....XXXXX................####################...............                ooooo+++++++++++++++.....XXXXXXXXXXXXXXXXXXXXX&&&&&XXXXX&&&&&XXXXXXXXXXXXXXXXXXXXXXXXXXXXXXXXXXXXXXXXXXXXXX&&&&&&&&&&&&&&&XXXXX                     .....XXXXXXXXXXXXXXXXXXXXXXXXXXXXXX+++++......ooooo                                                             ",
"                                                             ooooo+++++XXXXXXXXXXXXXXXX.....##############################################..........          ...............##############################################+++++...........     ooooo+++++++++++++++.....XXXXXXXXXXXXXXXXXXXXXXXXXX&&&&&XXXXXXXXXXXXXXX...............XXXXXXXXXXXXXXXXXXXXXXXXXX&&&&&XXXXX                               .....XXXXXXXXXXXXXXXXXXXXXXXXX+++++......ooooo+++++                                                        ",
"                                                             ooooo+++++XXXXXXXXXXXXXXXX.....##############################################..........          ...............##############################################+++++...........     ooooo+++++++++++++++.....XXXXXXXXXXXXXXXXXXXXXXXXXX&&&&&XXXXXXXXXXXXXXX...............XXXXXXXXXXXXXXXXXXXXXXXXXX&&&&&XXXXX                               .....XXXXXXXXXXXXXXXXXXXXXXXXX+++++......ooooo+++++                                                        ",
"                                                             ooooo+++++XXXXXXXXXXXXXXXX.....##############################################..........          ...............##############################################+++++...........     ooooo+++++++++++++++.....XXXXXXXXXXXXXXXXXXXXXXXXXX&&&&&XXXXXXXXXXXXXXX...............XXXXXXXXXXXXXXXXXXXXXXXXXX&&&&&XXXXX                               .....XXXXXXXXXXXXXXXXXXXXXXXXX+++++......ooooo+++++                                                        ",
"                                                             ooooo+++++XXXXXXXXXXXXXXXX.....##############################################..........          ...............##############################################+++++...........     ooooo+++++++++++++++.....XXXXXXXXXXXXXXXXXXXXXXXXXX&&&&&XXXXXXXXXXXXXXX...............XXXXXXXXXXXXXXXXXXXXXXXXXX&&&&&XXXXX                               .....XXXXXXXXXXXXXXXXXXXXXXXXX+++++......ooooo+++++                                                        ",
"                                                             ooooo+++++XXXXXXXXXXXXXXXX.....##############################################..........          ...............##############################################+++++...........     ooooo+++++++++++++++.....XXXXXXXXXXXXXXXXXXXXXXXXXX&&&&&XXXXXXXXXXXXXXX...............XXXXXXXXXXXXXXXXXXXXXXXXXX&&&&&XXXXX                               .....XXXXXXXXXXXXXXXXXXXXXXXXX+++++......ooooo+++++                                                        ",
"                                                                  ooooo+++++XXXXX......########################################################ooooo...............+++++#############################################################++++++..........++++++++++.....XXXXXXXXXXXXXXXXXXXXXXXXXX&&&&&XXXXX&&&&&XXXXXXXXXX               ................XXXXXXXXXX&&&&&XXXXX                                    .....XXXXXXXXXXXXXXXXXXXX+++++......ooooo+++++                                                        ",
"                                                                  ooooo+++++XXXXX......########################################################ooooo...............+++++#############################################################++++++..........++++++++++.....XXXXXXXXXXXXXXXXXXXXXXXXXX&&&&&XXXXX&&&&&XXXXXXXXXX               ................XXXXXXXXXX&&&&&XXXXX                                    .....XXXXXXXXXXXXXXXXXXXX+++++......ooooo+++++                                                        ",
"                                                                  ooooo+++++XXXXX......########################################################ooooo...............+++++#############################################################++++++..........++++++++++.....XXXXXXXXXXXXXXXXXXXXXXXXXX&&&&&XXXXX&&&&&XXXXXXXXXX               ................XXXXXXXXXX&&&&&XXXXX                                    .....XXXXXXXXXXXXXXXXXXXX+++++......ooooo+++++                                                        ",
"                                                                  ooooo+++++XXXXX......########################################################ooooo...............+++++#############################################################++++++..........++++++++++.....XXXXXXXXXXXXXXXXXXXXXXXXXX&&&&&XXXXX&&&&&XXXXXXXXXX               ................XXXXXXXXXX&&&&&XXXXX                                    .....XXXXXXXXXXXXXXXXXXXX+++++......ooooo+++++                                                        ",
"                                                                  ooooo+++++XXXXX......########################################################ooooo...............+++++#############################################################++++++..........++++++++++.....XXXXXXXXXXXXXXXXXXXXXXXXXX&&&&&XXXXX&&&&&XXXXXXXXXX               ................XXXXXXXXXX&&&&&XXXXX                                    .....XXXXXXXXXXXXXXXXXXXX+++++......ooooo+++++                                                        ",
"                                                                  ooooo+++++.....###################################################################ooooo++++++++++++++++++++###################################################################+++++.....+++++.....XXXXXXXXXXXXXXXXXXXXXXXXXXXXXXX&&&&&XXXXX                                         .....XXXXXXXXXX                                         .....XXXXXXXXXXXXXXXXXXXX+++++......ooooo+++++                                                        ",
"                                                                  ooooo+++++.....###################################################################ooooo++++++++++++++++++++###################################################################+++++.....+++++.....XXXXXXXXXXXXXXXXXXXXXXXXXXXXXXX&&&&&XXXXX                                         .....XXXXXXXXXX                                         .....XXXXXXXXXXXXXXXXXXXX+++++......ooooo+++++                                                        ",
"                                                                  ooooo+++++.....###################################################################ooooo++++++++++++++++++++###################################################################+++++.....+++++.....XXXXXXXXXXXXXXXXXXXXXXXXXXXXXXX&&&&&XXXXX                                         .....XXXXXXXXXX                                         .....XXXXXXXXXXXXXXXXXXXX+++++......ooooo+++++                                                        ",
"                                                                  ooooo+++++.....###################################################################ooooo++++++++++++++++++++###################################################################+++++.....+++++.....XXXXXXXXXXXXXXXXXXXXXXXXXXXXXXX&&&&&XXXXX                                         .....XXXXXXXXXX                                         .....XXXXXXXXXXXXXXXXXXXX+++++......ooooo+++++                                                        ",
"                                                                  ooooo+++++.....###################################################################ooooo++++++++++++++++++++###################################################################+++++.....+++++.....XXXXXXXXXXXXXXXXXXXXXXXXXXXXXXX&&&&&XXXXX                                         .....XXXXXXXXXX                                         .....XXXXXXXXXXXXXXXXXXXX+++++......ooooo+++++                                                        ",
"                                                                       .....#############################################################################+++++++++++++++++++++++++########################################################################.....XXXXXXXXXXXXXXXXXXXXXXXXXXXXXXXXXXXXXXXXX                                                   .....XXXXX                                         .....XXXXXXXXXXXXXXXXXXXX+++++......++++++++++                                                        ",
"                                                                       .....#############################################################################+++++++++++++++++++++++++########################################################################.....XXXXXXXXXXXXXXXXXXXXXXXXXXXXXXXXXXXXXXXXX                                                   .....XXXXX                                         .....XXXXXXXXXXXXXXXXXXXX+++++......++++++++++                                                        ",
"                                                                       .....#############################################################################+++++++++++++++++++++++++########################################################################.....XXXXXXXXXXXXXXXXXXXXXXXXXXXXXXXXXXXXXXXXX                                                   .....XXXXX                                         .....XXXXXXXXXXXXXXXXXXXX+++++......++++++++++                                                        ",
"                                                                       .....#############################################################################+++++++++++++++++++++++++########################################################################.....XXXXXXXXXXXXXXXXXXXXXXXXXXXXXXXXXXXXXXXXX                                                   .....XXXXX                                         .....XXXXXXXXXXXXXXXXXXXX+++++......++++++++++                                                        ",
"                                                                       .....#############################################################################+++++++++++++++++++++++++########################################################################.....XXXXXXXXXXXXXXXXXXXXXXXXXXXXXXXXXXXXXXXXX                                                   .....XXXXX                                         .....XXXXXXXXXXXXXXXXXXXX+++++......++++++++++                                                        ",
"                                                                       .....################+++++$$$$$$$$$$##########ooooo+++++##########################+++++++++++++++++++++++++#############################################################################.....XXXXXXXXXXXXXXXXXXXXXXXXXXXXXXX                                                                                                                .....XXXXXXXXXXXXXXX+++++......+++++ooooo                                                        ",
"                                                                       .....################+++++$$$$$$$$$$##########ooooo+++++##########################+++++++++++++++++++++++++#############################################################################.....XXXXXXXXXXXXXXXXXXXXXXXXXXXXXXX                                                                                                                .....XXXXXXXXXXXXXXX+++++......+++++ooooo                                                        ",
"                                                                       .....################+++++$$$$$$$$$$##########ooooo+++++##########################+++++++++++++++++++++++++#############################################################################.....XXXXXXXXXXXXXXXXXXXXXXXXXXXXXXX                                                                                                                .....XXXXXXXXXXXXXXX+++++......+++++ooooo                                                        ",
"                                                                       .....################+++++$$$$$$$$$$##########ooooo+++++##########################+++++++++++++++++++++++++#############################################################################.....XXXXXXXXXXXXXXXXXXXXXXXXXXXXXXX                                                                                                                .....XXXXXXXXXXXXXXX+++++......+++++ooooo                                                        ",
"                                                                       .....################+++++$$$$$$$$$$##########ooooo+++++##########################+++++++++++++++++++++++++#############################################################################.....XXXXXXXXXXXXXXXXXXXXXXXXXXXXXXX                                                                                                                .....XXXXXXXXXXXXXXX+++++......+++++ooooo                                                        ",
"                                                                       .....################+++++$$$$$$$$$$##########ooooo+++++##########################+++++++++++++++++++++++++#############################################################################.....XXXXXXXXXXXXXXXXXXXXXXXXXXXXXXX                                                                                                                .....XXXXXXXXXXXXXXX+++++......+++++ooooo                                                        ",
"                                                                  .....################+++++$$$$$$$$$$#####+++++*****ooooo####################################+++++++++++++++ooooo...........++++++++++++++++++++###################################################....................XXXXXX                                                                                                                     .....XXXXXXXXXXXXXXX+++++......+++++ooooo                                                        ",
"                                                                  .....################+++++$$$$$$$$$$#####+++++*****ooooo####################################+++++++++++++++ooooo...........++++++++++++++++++++###################################################....................XXXXXX                                                                                                                     .....XXXXXXXXXXXXXXX+++++......+++++ooooo                                                        ",
"                                                                  .....################+++++$$$$$$$$$$#####+++++*****ooooo####################################+++++++++++++++ooooo...........++++++++++++++++++++###################################################....................XXXXXX                                                                                                                     .....XXXXXXXXXXXXXXX+++++......+++++ooooo                                                        ",
"                                                                  .....################+++++$$$$$$$$$$#####+++++*****ooooo####################################+++++++++++++++ooooo...........++++++++++++++++++++###################################################....................XXXXXX                                                                                                                     .....XXXXXXXXXXXXXXX+++++......+++++ooooo                                                        ",
"                                                                  .....################+++++$$$$$$$$$$#####+++++*****ooooo####################################+++++++++++++++ooooo...........++++++++++++++++++++###################################################....................XXXXXX                                                                                                                     .....XXXXXXXXXXXXXXX+++++......+++++ooooo                                                        ",
"                                                                  .....ooooo++++++++++++++++##########+++++.....==========####################################+++++oooooooooo                ..........ooooo+++++++++++++++####################################ooooo####################......ooooo                                                                                                                     .....XXXXXXXXXX+++++......++++++++++                                                        ",
"                                                                  .....ooooo++++++++++++++++##########+++++.....==========####################################+++++oooooooooo                ..........ooooo+++++++++++++++####################################ooooo####################......ooooo                                                                                                                     .....XXXXXXXXXX+++++......++++++++++                                                        ",
"                                                                  .....ooooo++++++++++++++++##########+++++.....==========####################################+++++oooooooooo                ..........ooooo+++++++++++++++####################################ooooo####################......ooooo                                                                                                                     .....XXXXXXXXXX+++++......++++++++++                                                        ",
"                                                                  .....ooooo++++++++++++++++##########+++++.....==========####################################+++++oooooooooo                ..........ooooo+++++++++++++++####################################ooooo####################......ooooo                                                                                                                     .....XXXXXXXXXX+++++......++++++++++                                                        ",
"                                                                  .....ooooo++++++++++++++++##########+++++.....==========####################################+++++oooooooooo                ..........ooooo+++++++++++++++####################################ooooo####################......ooooo                                                                                                                     .....XXXXXXXXXX+++++......++++++++++                                                        ",
"                                                                       .....+++++++++++ooooo##########&&&&&.....=====+++++####################################ooooo               ooooooooooo++++++++++oooooooooo+++++++++++++++##########################+++++####################################ooooo                                                                                                           ooooo.....XXXXX+++++++++++++++++++++                                                             ",
"                                                                       .....+++++++++++ooooo##########&&&&&.....=====+++++####################################ooooo               ooooooooooo++++++++++oooooooooo+++++++++++++++##########################+++++####################################ooooo                                                                                                           ooooo.....XXXXX+++++++++++++++++++++                                                             ",
"                                                                       .....+++++++++++ooooo##########&&&&&.....=====+++++####################################ooooo               ooooooooooo++++++++++oooooooooo+++++++++++++++##########################+++++####################################ooooo                                                                                                           ooooo.....XXXXX+++++++++++++++++++++                                                             ",
"                                                                       .....+++++++++++ooooo##########&&&&&.....=====+++++####################################ooooo               ooooooooooo++++++++++oooooooooo+++++++++++++++##########################+++++####################################ooooo                                                                                                           ooooo.....XXXXX+++++++++++++++++++++                                                             ",
"                                                                       .....+++++++++++ooooo##########&&&&&.....=====+++++####################################ooooo               ooooooooooo++++++++++oooooooooo+++++++++++++++##########################+++++####################################ooooo                                                                                                           ooooo.....XXXXX+++++++++++++++++++++                                                             ",
"                                                                            .....oooooo+++++#####ooooooooooooooo+++++##########++++++ooooo.....ooooo##########ooooo          ooooo++++++++++++++++++++++++++++++++++++++++++++++########################################################################ooooooooooooooo                                                                                            ooooo.....XXXXX+++++.....+++++++++++ooooo                                                        ",
"                                                                            .....oooooo+++++#####ooooooooooooooo+++++##########++++++ooooo.....ooooo##########ooooo          ooooo++++++++++++++++++++++++++++++++++++++++++++++########################################################################ooooooooooooooo                                                                                            ooooo.....XXXXX+++++.....+++++++++++ooooo                                                        ",
"                                                                            .....oooooo+++++#####ooooooooooooooo+++++##########++++++ooooo.....ooooo##########ooooo          ooooo++++++++++++++++++++++++++++++++++++++++++++++########################################################################ooooooooooooooo                                                                                            ooooo.....XXXXX+++++.....+++++++++++ooooo                                                        ",
"                                                                            .....oooooo+++++#####ooooooooooooooo+++++##########++++++ooooo.....ooooo##########ooooo          ooooo++++++++++++++++++++++++++++++++++++++++++++++########################################################################ooooooooooooooo                                                                                            ooooo.....XXXXX+++++.....+++++++++++ooooo                                                        ",
"                                                                            .....oooooo+++++#####ooooooooooooooo+++++##########++++++ooooo.....ooooo##########ooooo          ooooo++++++++++++++++++++++++++++++++++++++++++++++########################################################################ooooooooooooooo                                                                                            ooooo.....XXXXX+++++.....+++++++++++ooooo                                                        ",
"                                                                                 oooooo+++++###################################................+++++++++++++++ooooooooooooooo++++++++++++++++++++++++++++++++++++######################################################################################################oooooooooo.....                                                                             ooooo.....++++++++++++++++++++++++++ooooo                                                        ",
"                                                                                 oooooo+++++###################################................+++++++++++++++ooooooooooooooo++++++++++++++++++++++++++++++++++++######################################################################################################oooooooooo.....                                                                             ooooo.....++++++++++++++++++++++++++ooooo                                                        ",
"                                                                                 oooooo+++++###################################................+++++++++++++++ooooooooooooooo++++++++++++++++++++++++++++++++++++######################################################################################################oooooooooo.....                                                                             ooooo.....++++++++++++++++++++++++++ooooo                                                        ",
"                                                                                 oooooo+++++###################################................+++++++++++++++ooooooooooooooo++++++++++++++++++++++++++++++++++++######################################################################################################oooooooooo.....                                                                             ooooo.....++++++++++++++++++++++++++ooooo                                                        ",
"                                                                                 oooooo+++++###################################................+++++++++++++++ooooooooooooooo++++++++++++++++++++++++++++++++++++######################################################################################################oooooooooo.....                                                                             ooooo.....++++++++++++++++++++++++++ooooo                                                        ",
"                                                                            ooooo#########################################+++++......OOOOO.....ooooo++++++++++ooooo++++++++++++++++++++++++++++++++++++++++++++++################################################################################################################+++++.....                                                                        ooooo.....+++++.....++++++++++++++++                                                             ",
"                                                                            ooooo#########################################+++++......OOOOO.....ooooo++++++++++ooooo++++++++++++++++++++++++++++++++++++++++++++++################################################################################################################+++++.....                                                                        ooooo.....+++++.....++++++++++++++++                                                             ",
"                                                                            ooooo#########################################+++++......OOOOO.....ooooo++++++++++ooooo++++++++++++++++++++++++++++++++++++++++++++++################################################################################################################+++++.....                                                                        ooooo.....+++++.....++++++++++++++++                                                             ",
"                                                                            ooooo#########################################+++++......OOOOO.....ooooo++++++++++ooooo++++++++++++++++++++++++++++++++++++++++++++++################################################################################################################+++++.....                                                                        ooooo.....+++++.....++++++++++++++++                                                             ",
"                                                                            ooooo#########################################+++++......OOOOO.....ooooo++++++++++ooooo++++++++++++++++++++++++++++++++++++++++++++++################################################################################################################+++++.....                                                                        ooooo.....+++++.....++++++++++++++++                                                             ",
"                                                                       ooooo#########################################+++++.....OOOOOOOOOOOOOOOO.....++++++++++ooooo+++++++++++++++++++++ooooo++++++++++++++++++++#############################################################################oooooooooo.....####################+++++.....                                                                   ooooo+++++++++++++++++++++++++++++++ooooo                                                             ",
"                                                                       ooooo#########################################+++++.....OOOOOOOOOOOOOOOO.....++++++++++ooooo+++++++++++++++++++++ooooo++++++++++++++++++++#############################################################################oooooooooo.....####################+++++.....                                                                   ooooo+++++++++++++++++++++++++++++++ooooo                                                             ",
"                                                                       ooooo#########################################+++++.....OOOOOOOOOOOOOOOO.....++++++++++ooooo+++++++++++++++++++++ooooo++++++++++++++++++++#############################################################################oooooooooo.....####################+++++.....                                                                   ooooo+++++++++++++++++++++++++++++++ooooo                                                             ",
"                                                                       ooooo#########################################+++++.....OOOOOOOOOOOOOOOO.....++++++++++ooooo+++++++++++++++++++++ooooo++++++++++++++++++++#############################################################################oooooooooo.....####################+++++.....                                                                   ooooo+++++++++++++++++++++++++++++++ooooo                                                             ",
"                                                                       ooooo#########################################+++++.....OOOOOOOOOOOOOOOO.....++++++++++ooooo+++++++++++++++++++++ooooo++++++++++++++++++++#############################################################################oooooooooo.....####################+++++.....                                                                   ooooo+++++++++++++++++++++++++++++++ooooo                                                             ",
"                                                                       ooooo####################################..........OOOOOOOOOOOOOOOOOOOOO.....++++++++++.....++++++++++ooooooooooo+++++++++++++++#################################################################################+++++++++++ooooo     oooooooooo+++++++++++++++.....                                                              ooooo+++++++++++++++.....++++++++++++++++ooooo                                                             ",
"                                                                       ooooo####################################..........OOOOOOOOOOOOOOOOOOOOO.....++++++++++.....++++++++++ooooooooooo+++++++++++++++#################################################################################+++++++++++ooooo     oooooooooo+++++++++++++++.....                                                              ooooo+++++++++++++++.....++++++++++++++++ooooo                                                             ",
"                                                                       ooooo####################################..........OOOOOOOOOOOOOOOOOOOOO.....++++++++++.....++++++++++ooooooooooo+++++++++++++++#################################################################################+++++++++++ooooo     oooooooooo+++++++++++++++.....                                                              ooooo+++++++++++++++.....++++++++++++++++ooooo                                                             ",
"                                                                       ooooo####################################..........OOOOOOOOOOOOOOOOOOOOO.....++++++++++.....++++++++++ooooooooooo+++++++++++++++#################################################################################+++++++++++ooooo     oooooooooo+++++++++++++++.....                                                              ooooo+++++++++++++++.....++++++++++++++++ooooo                                                             ",
"                                                                       ooooo####################################..........OOOOOOOOOOOOOOOOOOOOO.....++++++++++.....++++++++++ooooooooooo+++++++++++++++#################################################################################+++++++++++ooooo     oooooooooo+++++++++++++++.....                                                              ooooo+++++++++++++++.....++++++++++++++++ooooo                                                             ",
"                                                                  ooooo####################################.....          .....OOOOOOOOOOOOOOOO.....++++++++++.....oooooooooo     oooooo+++++############################################################################+++++oooooooooo++++++++++++++++ooooo          .....++++++++++.....                                                              ooooo++++++++++++++++++++++++++++++++++++                                                                  ",
"                                                                  ooooo####################################.....          .....OOOOOOOOOOOOOOOO.....++++++++++.....oooooooooo     oooooo+++++############################################################################+++++oooooooooo++++++++++++++++ooooo          .....++++++++++.....                                                              ooooo++++++++++++++++++++++++++++++++++++                                                                  ",
"                                                                  ooooo####################################.....          .....OOOOOOOOOOOOOOOO.....++++++++++.....oooooooooo     oooooo+++++############################################################################+++++oooooooooo++++++++++++++++ooooo          .....++++++++++.....                                                              ooooo++++++++++++++++++++++++++++++++++++                                                                  ",
"                                                                  ooooo####################################.....          .....OOOOOOOOOOOOOOOO.....++++++++++.....oooooooooo     oooooo+++++############################################################################+++++oooooooooo++++++++++++++++ooooo          .....++++++++++.....                                                              ooooo++++++++++++++++++++++++++++++++++++                                                                  ",
"                                                                  ooooo####################################.....          .....OOOOOOOOOOOOOOOO.....++++++++++.....oooooooooo     oooooo+++++############################################################################+++++oooooooooo++++++++++++++++ooooo          .....++++++++++.....                                                              ooooo++++++++++++++++++++++++++++++++++++                                                                  ",
"                                                             ooooo###############oooooo##########+++++.....               .....OOOOOOOOOOOOOOOO.....+++++.....ooooo          ooooo++++++##########%%%%%%%%%%%%%%%%%%%%%%%%%###################################################################+++++++++++++++ooooo     .....+++++++++++++++......                                                   ooooo+++++++++++++++++++++++++++++++++++++++++ooooo                                                             ",
"                                                             ooooo###############oooooo##########+++++.....               .....OOOOOOOOOOOOOOOO.....+++++.....ooooo          ooooo++++++##########%%%%%%%%%%%%%%%%%%%%%%%%%###################################################################+++++++++++++++ooooo     .....+++++++++++++++......                                                   ooooo+++++++++++++++++++++++++++++++++++++++++ooooo                                                             ",
"                                                             ooooo###############oooooo##########+++++.....               .....OOOOOOOOOOOOOOOO.....+++++.....ooooo          ooooo++++++##########%%%%%%%%%%%%%%%%%%%%%%%%%###################################################################+++++++++++++++ooooo     .....+++++++++++++++......                                                   ooooo+++++++++++++++++++++++++++++++++++++++++ooooo                                                             ",
"                                                             ooooo###############oooooo##########+++++.....               .....OOOOOOOOOOOOOOOO.....+++++.....ooooo          ooooo++++++##########%%%%%%%%%%%%%%%%%%%%%%%%%###################################################################+++++++++++++++ooooo     .....+++++++++++++++......                                                   ooooo+++++++++++++++++++++++++++++++++++++++++ooooo                                                             ",
"                                                             ooooo###############oooooo##########+++++.....               .....OOOOOOOOOOOOOOOO.....+++++.....ooooo          ooooo++++++##########%%%%%%%%%%%%%%%%%%%%%%%%%###################################################################+++++++++++++++ooooo     .....+++++++++++++++......                                                   ooooo+++++++++++++++++++++++++++++++++++++++++ooooo                                                             ",
"                                                             ooooo###############oooooo##########+++++.....               .....OOOOOOOOOOOOOOOO.....+++++.....ooooo          ooooo++++++##########%%%%%%%%%%%%%%%%%%%%%%%%%###################################################################+++++++++++++++ooooo     .....+++++++++++++++......                                                   ooooo+++++++++++++++++++++++++++++++++++++++++ooooo                                                             ",
"                                                             .....##########+++++###########+++++=====.....               .....OOOOOOOOOOO.....ooooo+++++.....               .....######%%%%%%%%%%%%%%%%%%%%%%%%%%%%%%%%%%%%%%%%%%%%%##############################################################+++++++++++++++.....++++++++++++++++++++......                                        oooooo     ++++++++++++++++++++++++++++++++++++++++oooooo.....                                                             ",
"                                                             .....##########+++++###########+++++=====.....               .....OOOOOOOOOOO.....ooooo+++++.....               .....######%%%%%%%%%%%%%%%%%%%%%%%%%%%%%%%%%%%%%%%%%%%%%##############################################################+++++++++++++++.....++++++++++++++++++++......                                        oooooo     ++++++++++++++++++++++++++++++++++++++++oooooo.....                                                             ",
"                                                             .....##########+++++###########+++++=====.....               .....OOOOOOOOOOO.....ooooo+++++.....               .....######%%%%%%%%%%%%%%%%%%%%%%%%%%%%%%%%%%%%%%%%%%%%%##############################################################+++++++++++++++.....++++++++++++++++++++......                                        oooooo     ++++++++++++++++++++++++++++++++++++++++oooooo.....                                                             ",
"                                                             .....##########+++++###########+++++=====.....               .....OOOOOOOOOOO.....ooooo+++++.....               .....######%%%%%%%%%%%%%%%%%%%%%%%%%%%%%%%%%%%%%%%%%%%%%##############################################################+++++++++++++++.....++++++++++++++++++++......                                        oooooo     ++++++++++++++++++++++++++++++++++++++++oooooo.....                                                             ",
"                                                             .....##########+++++###########+++++=====.....               .....OOOOOOOOOOO.....ooooo+++++.....               .....######%%%%%%%%%%%%%%%%%%%%%%%%%%%%%%%%%%%%%%%%%%%%%##############################################################+++++++++++++++.....++++++++++++++++++++......                                        oooooo     ++++++++++++++++++++++++++++++++++++++++oooooo.....                                                             ",
"                                                                  .....##########+++++++++++...............          .....oooooOOOOOO.....=====#####oooooooooo          .....+++++%%%%%%%%%%%%%%%%%%%%%%%%%%%%%%%%%%%%%%%%%%%%%%%%%%%%%%%%%%%%%%########################################################++++++++++.....++++++++++++++++++++......                              oooooooooo+++++++++++++++++++++++++++++++++++++++++++++++++++oooooo                                                                  ",
"                                                                  .....##########+++++++++++...............          .....oooooOOOOOO.....=====#####oooooooooo          .....+++++%%%%%%%%%%%%%%%%%%%%%%%%%%%%%%%%%%%%%%%%%%%%%%%%%%%%%%%%%%%%%%########################################################++++++++++.....++++++++++++++++++++......                              oooooooooo+++++++++++++++++++++++++++++++++++++++++++++++++++oooooo                                                                  ",
"                                                                  .....##########+++++++++++...............          .....oooooOOOOOO.....=====#####oooooooooo          .....+++++%%%%%%%%%%%%%%%%%%%%%%%%%%%%%%%%%%%%%%%%%%%%%%%%%%%%%%%%%%%%%%########################################################++++++++++.....++++++++++++++++++++......                              oooooooooo+++++++++++++++++++++++++++++++++++++++++++++++++++oooooo                                                                  ",
"                                                                  .....##########+++++++++++...............          .....oooooOOOOOO.....=====#####oooooooooo          .....+++++%%%%%%%%%%%%%%%%%%%%%%%%%%%%%%%%%%%%%%%%%%%%%%%%%%%%%%%%%%%%%%########################################################++++++++++.....++++++++++++++++++++......                              oooooooooo+++++++++++++++++++++++++++++++++++++++++++++++++++oooooo                                                                  ",
"                                                                  .....##########+++++++++++...............          .....oooooOOOOOO.....=====#####oooooooooo          .....+++++%%%%%%%%%%%%%%%%%%%%%%%%%%%%%%%%%%%%%%%%%%%%%%%%%%%%%%%%%%%%%%########################################################++++++++++.....++++++++++++++++++++......                              oooooooooo+++++++++++++++++++++++++++++++++++++++++++++++++++oooooo                                                                  ",
"                                                                            ................          oooooooooooooooooooo=====oooooooooooooooo#####.....               .....#####%%%%%%%%%%%%%%%%%%%%%%%%%%%%%%%%%%%%%%%%%%%%%%%%%%%%%%%%%%%%%%%%%%%###################################################.....oooooooooo#####+++++++++++++++......                              ooooo++++++++++++++++++++++++++++++++++++++++++++++++++++++++......                                                                  ",
"                                                                            ................          oooooooooooooooooooo=====oooooooooooooooo#####.....               .....#####%%%%%%%%%%%%%%%%%%%%%%%%%%%%%%%%%%%%%%%%%%%%%%%%%%%%%%%%%%%%%%%%%%%###################################################.....oooooooooo#####+++++++++++++++......                              ooooo++++++++++++++++++++++++++++++++++++++++++++++++++++++++......                                                                  ",
"                                                                            ................          oooooooooooooooooooo=====oooooooooooooooo#####.....               .....#####%%%%%%%%%%%%%%%%%%%%%%%%%%%%%%%%%%%%%%%%%%%%%%%%%%%%%%%%%%%%%%%%%%%###################################################.....oooooooooo#####+++++++++++++++......                              ooooo++++++++++++++++++++++++++++++++++++++++++++++++++++++++......                                                                  ",
"                                                                            ................          oooooooooooooooooooo=====oooooooooooooooo#####.....               .....#####%%%%%%%%%%%%%%%%%%%%%%%%%%%%%%%%%%%%%%%%%%%%%%%%%%%%%%%%%%%%%%%%%%%###################################################.....oooooooooo#####+++++++++++++++......                              ooooo++++++++++++++++++++++++++++++++++++++++++++++++++++++++......                                                                  ",
"                                                                            ................          oooooooooooooooooooo=====oooooooooooooooo#####.....               .....#####%%%%%%%%%%%%%%%%%%%%%%%%%%%%%%%%%%%%%%%%%%%%%%%%%%%%%%%%%%%%%%%%%%%###################################################.....oooooooooo#####+++++++++++++++......                              ooooo++++++++++++++++++++++++++++++++++++++++++++++++++++++++......                                                                  ",
"                                                                                                 ooooo+++++++++++++++.....#####################.....               .....+++++%%%%%%%%%%%%%%%%%%%%%%%%%%%%%%%%%%%%%%%%%%%%%%%%%%%%%%%%%%%%%%%%%%%%%%%%%%%%%####################################ooooo.....##############################+++++......                    ooooo++++++++++++++++++++++++++++++++++++++++++++++++++++++++++++++++++......                                                                  ",
"                                                                                                 ooooo+++++++++++++++.....#####################.....               .....+++++%%%%%%%%%%%%%%%%%%%%%%%%%%%%%%%%%%%%%%%%%%%%%%%%%%%%%%%%%%%%%%%%%%%%%%%%%%%%%####################################ooooo.....##############################+++++......                    ooooo++++++++++++++++++++++++++++++++++++++++++++++++++++++++++++++++++......                                                                  ",
"                                                                                                 ooooo+++++++++++++++.....#####################.....               .....+++++%%%%%%%%%%%%%%%%%%%%%%%%%%%%%%%%%%%%%%%%%%%%%%%%%%%%%%%%%%%%%%%%%%%%%%%%%%%%%####################################ooooo.....##############################+++++......                    ooooo++++++++++++++++++++++++++++++++++++++++++++++++++++++++++++++++++......                                                                  ",
"                                                                                                 ooooo+++++++++++++++.....#####################.....               .....+++++%%%%%%%%%%%%%%%%%%%%%%%%%%%%%%%%%%%%%%%%%%%%%%%%%%%%%%%%%%%%%%%%%%%%%%%%%%%%%####################################ooooo.....##############################+++++......                    ooooo++++++++++++++++++++++++++++++++++++++++++++++++++++++++++++++++++......                                                                  ",
"                                                                                                 ooooo+++++++++++++++.....#####################.....               .....+++++%%%%%%%%%%%%%%%%%%%%%%%%%%%%%%%%%%%%%%%%%%%%%%%%%%%%%%%%%%%%%%%%%%%%%%%%%%%%%####################################ooooo.....##############################+++++......                    ooooo++++++++++++++++++++++++++++++++++++++++++++++++++++++++++++++++++......                                                                  ",
"                                                                                            ooooo+++++ooooo+++++++++++++++.....................ooooo               .....#####%%%%%%%%%%%%%%%%%%%%%%%%%%%%%%%%%%%%%%%%%%%%%%%%%%%%%%%%%%%%%%%%%%%%%%%%%%%%%%%%%%###############################.....+++++##############################+++++++++++.....     ooooo#####ooooo++++++++++++++++++++++++++++++++++++++++++++++++++++++++ooooo.....                                                                        ",
"                                                                                            ooooo+++++ooooo+++++++++++++++.....................ooooo               .....#####%%%%%%%%%%%%%%%%%%%%%%%%%%%%%%%%%%%%%%%%%%%%%%%%%%%%%%%%%%%%%%%%%%%%%%%%%%%%%%%%%%###############################.....+++++##############################+++++++++++.....     ooooo#####ooooo++++++++++++++++++++++++++++++++++++++++++++++++++++++++ooooo.....                                                                        ",
"                                                                                            ooooo+++++ooooo+++++++++++++++.....................ooooo               .....#####%%%%%%%%%%%%%%%%%%%%%%%%%%%%%%%%%%%%%%%%%%%%%%%%%%%%%%%%%%%%%%%%%%%%%%%%%%%%%%%%%%###############################.....+++++##############################+++++++++++.....     ooooo#####ooooo++++++++++++++++++++++++++++++++++++++++++++++++++++++++ooooo.....                                                                        ",
"                                                                                            ooooo+++++ooooo+++++++++++++++.....................ooooo               .....#####%%%%%%%%%%%%%%%%%%%%%%%%%%%%%%%%%%%%%%%%%%%%%%%%%%%%%%%%%%%%%%%%%%%%%%%%%%%%%%%%%%###############################.....+++++##############################+++++++++++.....     ooooo#####ooooo++++++++++++++++++++++++++++++++++++++++++++++++++++++++ooooo.....                                                                        ",
"                                                                                            ooooo+++++ooooo+++++++++++++++.....................ooooo               .....#####%%%%%%%%%%%%%%%%%%%%%%%%%%%%%%%%%%%%%%%%%%%%%%%%%%%%%%%%%%%%%%%%%%%%%%%%%%%%%%%%%%###############################.....+++++##############################+++++++++++.....     ooooo#####ooooo++++++++++++++++++++++++++++++++++++++++++++++++++++++++ooooo.....                                                                        ",
"                                                                                            ..........+++++++++++++++++++++++++++++++++++++++++.....               .....%%%%%%%%%%%%%%%%%%%%%%%%%%%%%%%%%%%%%%%%%%%%%%%%%%%%%%%%%%%%%%%%%%%%%%%%%%%%%%%%%%%%%%%%%%%%##########################.....++++++++++ooooo.....###############+++++++++++ooooo.....##############################++++++++++++++++++++++++++++++++++++++++++++++                                                                             ",
"                                                                                            ..........+++++++++++++++++++++++++++++++++++++++++.....               .....%%%%%%%%%%%%%%%%%%%%%%%%%%%%%%%%%%%%%%%%%%%%%%%%%%%%%%%%%%%%%%%%%%%%%%%%%%%%%%%%%%%%%%%%%%%%##########################.....++++++++++ooooo.....###############+++++++++++ooooo.....##############################++++++++++++++++++++++++++++++++++++++++++++++                                                                             ",
"                                                                                            ..........+++++++++++++++++++++++++++++++++++++++++.....               .....%%%%%%%%%%%%%%%%%%%%%%%%%%%%%%%%%%%%%%%%%%%%%%%%%%%%%%%%%%%%%%%%%%%%%%%%%%%%%%%%%%%%%%%%%%%%##########################.....++++++++++ooooo.....###############+++++++++++ooooo.....##############################++++++++++++++++++++++++++++++++++++++++++++++                                                                             ",
"                                                                                            ..........+++++++++++++++++++++++++++++++++++++++++.....               .....%%%%%%%%%%%%%%%%%%%%%%%%%%%%%%%%%%%%%%%%%%%%%%%%%%%%%%%%%%%%%%%%%%%%%%%%%%%%%%%%%%%%%%%%%%%%##########################.....++++++++++ooooo.....###############+++++++++++ooooo.....##############################++++++++++++++++++++++++++++++++++++++++++++++                                                                             ",
"                                                                                            ..........+++++++++++++++++++++++++++++++++++++++++.....               .....%%%%%%%%%%%%%%%%%%%%%%%%%%%%%%%%%%%%%%%%%%%%%%%%%%%%%%%%%%%%%%%%%%%%%%%%%%%%%%%%%%%%%%%%%%%%##########################.....++++++++++ooooo.....###############+++++++++++ooooo.....##############################++++++++++++++++++++++++++++++++++++++++++++++                                                                             ",
"                                                                                                 .....+++++++++++++++.....ooooooooooo++++++++++.....          .....#####%%%%%%%%%%%%%%%%%%%%%%%%%%%%%%%%%%%%%%%%%%%%%%%%%%%%%%%%%%%%%%%%%%%%%%%%%%%%%%%%%%%%%%%%%%%%###############################.....*****.....+++++##########+++++++++++++++++++++.....####################################+++++++++++++++++++++++++++++++++++ooooo                                                                             ",
"                                                                                                 .....+++++++++++++++.....ooooooooooo++++++++++.....          .....#####%%%%%%%%%%%%%%%%%%%%%%%%%%%%%%%%%%%%%%%%%%%%%%%%%%%%%%%%%%%%%%%%%%%%%%%%%%%%%%%%%%%%%%%%%%%%###############################.....*****.....+++++##########+++++++++++++++++++++.....####################################+++++++++++++++++++++++++++++++++++ooooo                                                                             ",
"                                                                                                 .....+++++++++++++++.....ooooooooooo++++++++++.....          .....#####%%%%%%%%%%%%%%%%%%%%%%%%%%%%%%%%%%%%%%%%%%%%%%%%%%%%%%%%%%%%%%%%%%%%%%%%%%%%%%%%%%%%%%%%%%%%###############################.....*****.....+++++##########+++++++++++++++++++++.....####################################+++++++++++++++++++++++++++++++++++ooooo                                                                             ",
"                                                                                                 .....+++++++++++++++.....ooooooooooo++++++++++.....          .....#####%%%%%%%%%%%%%%%%%%%%%%%%%%%%%%%%%%%%%%%%%%%%%%%%%%%%%%%%%%%%%%%%%%%%%%%%%%%%%%%%%%%%%%%%%%%%###############################.....*****.....+++++##########+++++++++++++++++++++.....####################################+++++++++++++++++++++++++++++++++++ooooo                                                                             ",
"                                                                                                 .....+++++++++++++++.....ooooooooooo++++++++++.....          .....#####%%%%%%%%%%%%%%%%%%%%%%%%%%%%%%%%%%%%%%%%%%%%%%%%%%%%%%%%%%%%%%%%%%%%%%%%%%%%%%%%%%%%%%%%%%%%###############################.....*****.....+++++##########+++++++++++++++++++++.....####################################+++++++++++++++++++++++++++++++++++ooooo                                                                             ",
"                                                                                                      ooooo++++++++++ooooo           ..........               .....#####%%%%%%%%%%%%%%%%%%%%%%%%%%%%%%%%%%%%%%%%%%%%%%%%%%%%%%%%%%%%%%%%%%%%%%%%%%%%%%%%%%%%%%%%%%%%%%%%%###############################+++++ooooo###############ooooo.....+++++++++++.....##############################+++++++++++#####+++++++++++++++++++++++++                                                                                  ",
"                                                                                                      ooooo++++++++++ooooo           ..........               .....#####%%%%%%%%%%%%%%%%%%%%%%%%%%%%%%%%%%%%%%%%%%%%%%%%%%%%%%%%%%%%%%%%%%%%%%%%%%%%%%%%%%%%%%%%%%%%%%%%%###############################+++++ooooo###############ooooo.....+++++++++++.....##############################+++++++++++#####+++++++++++++++++++++++++                                                                                  ",
"                                                                                                      ooooo++++++++++ooooo           ..........               .....#####%%%%%%%%%%%%%%%%%%%%%%%%%%%%%%%%%%%%%%%%%%%%%%%%%%%%%%%%%%%%%%%%%%%%%%%%%%%%%%%%%%%%%%%%%%%%%%%%%###############################+++++ooooo###############ooooo.....+++++++++++.....##############################+++++++++++#####+++++++++++++++++++++++++                                                                                  ",
"                                                                                                      ooooo++++++++++ooooo           ..........               .....#####%%%%%%%%%%%%%%%%%%%%%%%%%%%%%%%%%%%%%%%%%%%%%%%%%%%%%%%%%%%%%%%%%%%%%%%%%%%%%%%%%%%%%%%%%%%%%%%%%###############################+++++ooooo###############ooooo.....+++++++++++.....##############################+++++++++++#####+++++++++++++++++++++++++                                                                                  ",
"                                                                                                      ooooo++++++++++ooooo           ..........               .....#####%%%%%%%%%%%%%%%%%%%%%%%%%%%%%%%%%%%%%%%%%%%%%%%%%%%%%%%%%%%%%%%%%%%%%%%%%%%%%%%%%%%%%%%%%%%%%%%%%###############################+++++ooooo###############ooooo.....+++++++++++.....##############################+++++++++++#####+++++++++++++++++++++++++                                                                                  ",
"                                                                                                           ..........=====ooooo                          ooooo##########%%%%%%%%%%%%%%%%%%%%%%%%%%%%%%%%%%%%%%%%%%%%%%%%%%%%%%%%%%%%%%%%%%%%%%%%%%%%%%%%%%%%%%%%%%%%%%%%%#########################################ooooo++++++++++oooooooooo......*****.....##############################+++++++++++++++++++++++++++++++oooooooooo                                                                                  ",
"                                                                                                           ..........=====ooooo                          ooooo##########%%%%%%%%%%%%%%%%%%%%%%%%%%%%%%%%%%%%%%%%%%%%%%%%%%%%%%%%%%%%%%%%%%%%%%%%%%%%%%%%%%%%%%%%%%%%%%%%%#########################################ooooo++++++++++oooooooooo......*****.....##############################+++++++++++++++++++++++++++++++oooooooooo                                                                                  ",
"                                                                                                           ..........=====ooooo                          ooooo##########%%%%%%%%%%%%%%%%%%%%%%%%%%%%%%%%%%%%%%%%%%%%%%%%%%%%%%%%%%%%%%%%%%%%%%%%%%%%%%%%%%%%%%%%%%%%%%%%%#########################################ooooo++++++++++oooooooooo......*****.....##############################+++++++++++++++++++++++++++++++oooooooooo                                                                                  ",
"                                                                                                           ..........=====ooooo                          ooooo##########%%%%%%%%%%%%%%%%%%%%%%%%%%%%%%%%%%%%%%%%%%%%%%%%%%%%%%%%%%%%%%%%%%%%%%%%%%%%%%%%%%%%%%%%%%%%%%%%%#########################################ooooo++++++++++oooooooooo......*****.....##############################+++++++++++++++++++++++++++++++oooooooooo                                                                                  ",
"                                                                                                           ..........=====ooooo                          ooooo##########%%%%%%%%%%%%%%%%%%%%%%%%%%%%%%%%%%%%%%%%%%%%%%%%%%%%%%%%%%%%%%%%%%%%%%%%%%%%%%%%%%%%%%%%%%%%%%%%%#########################################ooooo++++++++++oooooooooo......*****.....##############################+++++++++++++++++++++++++++++++oooooooooo                                                                                  ",
"                                                                                                                ooooo..........                     ooooo###############%%%%%%%%%%%%%%%%%%%%%%%%%%%%%%%%%%%%%%%%%%%%%%%%%%%%%%%%%%%%%%%%%%%%%%%%%%%%%%%%%%%%%%%%%%%%%%%%%%%%%%####################################ooooo.....*****ooooo+++++oooooo..........#########################################++++++++++++++++++++ooooo                                                                                       ",
"                                                                                                                ooooo..........                     ooooo###############%%%%%%%%%%%%%%%%%%%%%%%%%%%%%%%%%%%%%%%%%%%%%%%%%%%%%%%%%%%%%%%%%%%%%%%%%%%%%%%%%%%%%%%%%%%%%%%%%%%%%%####################################ooooo.....*****ooooo+++++oooooo..........#########################################++++++++++++++++++++ooooo                                                                                       ",
"                                                                                                                ooooo..........                     ooooo###############%%%%%%%%%%%%%%%%%%%%%%%%%%%%%%%%%%%%%%%%%%%%%%%%%%%%%%%%%%%%%%%%%%%%%%%%%%%%%%%%%%%%%%%%%%%%%%%%%%%%%%####################################ooooo.....*****ooooo+++++oooooo..........#########################################++++++++++++++++++++ooooo                                                                                       ",
"                                                                                                                ooooo..........                     ooooo###############%%%%%%%%%%%%%%%%%%%%%%%%%%%%%%%%%%%%%%%%%%%%%%%%%%%%%%%%%%%%%%%%%%%%%%%%%%%%%%%%%%%%%%%%%%%%%%%%%%%%%%####################################ooooo.....*****ooooo+++++oooooo..........#########################################++++++++++++++++++++ooooo                                                                                       ",
"                                                                                                                ooooo..........                     ooooo###############%%%%%%%%%%%%%%%%%%%%%%%%%%%%%%%%%%%%%%%%%%%%%%%%%%%%%%%%%%%%%%%%%%%%%%%%%%%%%%%%%%%%%%%%%%%%%%%%%%%%%%####################################ooooo.....*****ooooo+++++oooooo..........#########################################++++++++++++++++++++ooooo                                                                                       ",
"                                                                                                                ooooo..........                     ooooo###############%%%%%%%%%%%%%%%%%%%%%%%%%%%%%%%%%%%%%%%%%%%%%%%%%%%%%%%%%%%%%%%%%%%%%%%%%%%%%%%%%%%%%%%%%%%%%%%%%%%%%%####################################ooooo.....*****ooooo+++++oooooo..........#########################################++++++++++++++++++++ooooo                                                                                       ",
"                                                                                                                                               ooooo####################+++++%%%%%%%%%%%%%%%%%%%%%%%%%%%%%%%%%%%%%%%%%%%%%%%%%%%%%%%%%%%%%%%%%%%%%%%%%%%%%%%%%%%%%%%%%%%%%%%%%#####+++++####################################..........+++++++++++ooooo#########################+++++#####+++++++++++++++++++++++++++++++.....                                                                                       ",
"                                                                                                                                               ooooo####################+++++%%%%%%%%%%%%%%%%%%%%%%%%%%%%%%%%%%%%%%%%%%%%%%%%%%%%%%%%%%%%%%%%%%%%%%%%%%%%%%%%%%%%%%%%%%%%%%%%%#####+++++####################################..........+++++++++++ooooo#########################+++++#####+++++++++++++++++++++++++++++++.....                                                                                       ",
"                                                                                                                                               ooooo####################+++++%%%%%%%%%%%%%%%%%%%%%%%%%%%%%%%%%%%%%%%%%%%%%%%%%%%%%%%%%%%%%%%%%%%%%%%%%%%%%%%%%%%%%%%%%%%%%%%%%#####+++++####################################..........+++++++++++ooooo#########################+++++#####+++++++++++++++++++++++++++++++.....                                                                                       ",
"                                                                                                                                               ooooo####################+++++%%%%%%%%%%%%%%%%%%%%%%%%%%%%%%%%%%%%%%%%%%%%%%%%%%%%%%%%%%%%%%%%%%%%%%%%%%%%%%%%%%%%%%%%%%%%%%%%%#####+++++####################################..........+++++++++++ooooo#########################+++++#####+++++++++++++++++++++++++++++++.....                                                                                       ",
"                                                                                                                                               ooooo####################+++++%%%%%%%%%%%%%%%%%%%%%%%%%%%%%%%%%%%%%%%%%%%%%%%%%%%%%%%%%%%%%%%%%%%%%%%%%%%%%%%%%%%%%%%%%%%%%%%%%#####+++++####################################..........+++++++++++ooooo#########################+++++#####+++++++++++++++++++++++++++++++.....                                                                                       ",
"                                                                                                                                               +++++####################ooooo$$$$$%%%%%%%%%%%%%%%%%%%%%%%%%%%%%%%%%%%%%%%%%%%%%%%%%%%%%%%%%%%%%%%%%%%%%%%%%%%%%%%%%%%%%%%%%%%%#####+++++##############################################+++++++++++.....+++++++++++++++++++++++++++++++++++++++++++++++++++++++++++++.....                                                                                            ",
"                                                                                                                                               +++++####################ooooo$$$$$%%%%%%%%%%%%%%%%%%%%%%%%%%%%%%%%%%%%%%%%%%%%%%%%%%%%%%%%%%%%%%%%%%%%%%%%%%%%%%%%%%%%%%%%%%%%#####+++++##############################################+++++++++++.....+++++++++++++++++++++++++++++++++++++++++++++++++++++++++++++.....                                                                                            ",
"                                                                                                                                               +++++####################ooooo$$$$$%%%%%%%%%%%%%%%%%%%%%%%%%%%%%%%%%%%%%%%%%%%%%%%%%%%%%%%%%%%%%%%%%%%%%%%%%%%%%%%%%%%%%%%%%%%%#####+++++##############################################+++++++++++.....+++++++++++++++++++++++++++++++++++++++++++++++++++++++++++++.....                                                                                            ",
"                                                                                                                                               +++++####################ooooo$$$$$%%%%%%%%%%%%%%%%%%%%%%%%%%%%%%%%%%%%%%%%%%%%%%%%%%%%%%%%%%%%%%%%%%%%%%%%%%%%%%%%%%%%%%%%%%%%#####+++++##############################################+++++++++++.....+++++++++++++++++++++++++++++++++++++++++++++++++++++++++++++.....                                                                                            ",
"                                                                                                                                               +++++####################ooooo$$$$$%%%%%%%%%%%%%%%%%%%%%%%%%%%%%%%%%%%%%%%%%%%%%%%%%%%%%%%%%%%%%%%%%%%%%%%%%%%%%%%%%%%%%%%%%%%%#####+++++##############################################+++++++++++.....+++++++++++++++++++++++++++++++++++++++++++++++++++++++++++++.....                                                                                            ",
"                                                                                                                                          +++++#########################ooooo$$$$$$$$$$$%%%%%%%%%%%%%%%%%%%%%%%%%%%%%%%%%%%%%%%%%%%%%%%%%%%%%%%%%%%%%%%%%%%%%%%%%%%%%%%%%%%%%%+++++########################################################+++++++++++.....++++++++++++++++++++++++++++++++++++++++++++++++++++++++.....                                                                                            ",
"                                                                                                                                          +++++#########################ooooo$$$$$$$$$$$%%%%%%%%%%%%%%%%%%%%%%%%%%%%%%%%%%%%%%%%%%%%%%%%%%%%%%%%%%%%%%%%%%%%%%%%%%%%%%%%%%%%%%+++++########################################################+++++++++++.....++++++++++++++++++++++++++++++++++++++++++++++++++++++++.....                                                                                            ",
"                                                                                                                                          +++++#########################ooooo$$$$$$$$$$$%%%%%%%%%%%%%%%%%%%%%%%%%%%%%%%%%%%%%%%%%%%%%%%%%%%%%%%%%%%%%%%%%%%%%%%%%%%%%%%%%%%%%%+++++########################################################+++++++++++.....++++++++++++++++++++++++++++++++++++++++++++++++++++++++.....                                                                                            ",
"                                                                                                                                          +++++#########################ooooo$$$$$$$$$$$%%%%%%%%%%%%%%%%%%%%%%%%%%%%%%%%%%%%%%%%%%%%%%%%%%%%%%%%%%%%%%%%%%%%%%%%%%%%%%%%%%%%%%+++++########################################################+++++++++++.....++++++++++++++++++++++++++++++++++++++++++++++++++++++++.....                                                                                            ",
"                                                                                                                                          +++++#########################ooooo$$$$$$$$$$$%%%%%%%%%%%%%%%%%%%%%%%%%%%%%%%%%%%%%%%%%%%%%%%%%%%%%%%%%%%%%%%%%%%%%%%%%%%%%%%%%%%%%%+++++########################################################+++++++++++.....++++++++++++++++++++++++++++++++++++++++++++++++++++++++.....                                                                                            ",
"                                                                                                                                          +++++##############################ooooo$$$$$$$$$$$%%%%%%%%%%%%%%%%%%%%%%%%%%%%%%%%%%%%%%%%%%%%%%%%%%%%%%%%%%%%%%%%%%%%%%%%%%%%$$$$$ooooo########################################################+++++++++++.....++++++++++++++++++++++++++++++++++++++++++++++$$$$$.....                                                                                                 ",
"                                                                                                                                          +++++##############################ooooo$$$$$$$$$$$%%%%%%%%%%%%%%%%%%%%%%%%%%%%%%%%%%%%%%%%%%%%%%%%%%%%%%%%%%%%%%%%%%%%%%%%%%%%$$$$$ooooo########################################################+++++++++++.....++++++++++++++++++++++++++++++++++++++++++++++$$$$$.....                                                                                                 ",
"                                                                                                                                          +++++##############################ooooo$$$$$$$$$$$%%%%%%%%%%%%%%%%%%%%%%%%%%%%%%%%%%%%%%%%%%%%%%%%%%%%%%%%%%%%%%%%%%%%%%%%%%%%$$$$$ooooo########################################################+++++++++++.....++++++++++++++++++++++++++++++++++++++++++++++$$$$$.....                                                                                                 ",
"                                                                                                                                          +++++##############################ooooo$$$$$$$$$$$%%%%%%%%%%%%%%%%%%%%%%%%%%%%%%%%%%%%%%%%%%%%%%%%%%%%%%%%%%%%%%%%%%%%%%%%%%%%$$$$$ooooo########################################################+++++++++++.....++++++++++++++++++++++++++++++++++++++++++++++$$$$$.....                                                                                                 ",
"                                                                                                                                          +++++##############################ooooo$$$$$$$$$$$%%%%%%%%%%%%%%%%%%%%%%%%%%%%%%%%%%%%%%%%%%%%%%%%%%%%%%%%%%%%%%%%%%%%%%%%%%%%$$$$$ooooo########################################################+++++++++++.....++++++++++++++++++++++++++++++++++++++++++++++$$$$$.....                                                                                                 ",
"                                                                                                                                          +++++##############################ooooo$$$$$$$$$$$$$$$$$$$$$$$$$$%%%%%%%%%%%%%%%%%%%%%%%%%%%%%%%%%%%%%%%%%$$$$$$$$$$$$$$$$$$$$$$$$$ooooo########################################################+++++++++++.....++++++++++++++++++++++++++++++++++++++++++++++..........                                                                                                 ",
"                                                                                                                                          +++++##############################ooooo$$$$$$$$$$$$$$$$$$$$$$$$$$%%%%%%%%%%%%%%%%%%%%%%%%%%%%%%%%%%%%%%%%%$$$$$$$$$$$$$$$$$$$$$$$$$ooooo########################################################+++++++++++.....++++++++++++++++++++++++++++++++++++++++++++++..........                                                                                                 ",
"                                                                                                                                          +++++##############################ooooo$$$$$$$$$$$$$$$$$$$$$$$$$$%%%%%%%%%%%%%%%%%%%%%%%%%%%%%%%%%%%%%%%%%$$$$$$$$$$$$$$$$$$$$$$$$$ooooo########################################################+++++++++++.....++++++++++++++++++++++++++++++++++++++++++++++..........                                                                                                 ",
"                                                                                                                                          +++++##############################ooooo$$$$$$$$$$$$$$$$$$$$$$$$$$%%%%%%%%%%%%%%%%%%%%%%%%%%%%%%%%%%%%%%%%%$$$$$$$$$$$$$$$$$$$$$$$$$ooooo########################################################+++++++++++.....++++++++++++++++++++++++++++++++++++++++++++++..........                                                                                                 ",
"                                                                                                                                          +++++##############################ooooo$$$$$$$$$$$$$$$$$$$$$$$$$$%%%%%%%%%%%%%%%%%%%%%%%%%%%%%%%%%%%%%%%%%$$$$$$$$$$$$$$$$$$$$$$$$$ooooo########################################################+++++++++++.....++++++++++++++++++++++++++++++++++++++++++++++..........                                                                                                 ",
"                                                                                                                                     ooooo########################################oooooo$$$$$$$$$$$$$$$$$$$$$$$$$$$$$$$$$$$$$$$$$$$$$$$$$$$$$$$$$$$$$$$$$$$$$$$$$$$$$$$$$$$$$$ooooo+++++###################################################++++++++++++++++.....+++++++++++++++++++++++++$$$$$$..........                                                                                                           ",
"                                                                                                                                     ooooo########################################oooooo$$$$$$$$$$$$$$$$$$$$$$$$$$$$$$$$$$$$$$$$$$$$$$$$$$$$$$$$$$$$$$$$$$$$$$$$$$$$$$$$$$$$$$ooooo+++++###################################################++++++++++++++++.....+++++++++++++++++++++++++$$$$$$..........                                                                                                           ",
"                                                                                                                                     ooooo########################################oooooo$$$$$$$$$$$$$$$$$$$$$$$$$$$$$$$$$$$$$$$$$$$$$$$$$$$$$$$$$$$$$$$$$$$$$$$$$$$$$$$$$$$$$$ooooo+++++###################################################++++++++++++++++.....+++++++++++++++++++++++++$$$$$$..........                                                                                                           ",
"                                                                                                                                     ooooo########################################oooooo$$$$$$$$$$$$$$$$$$$$$$$$$$$$$$$$$$$$$$$$$$$$$$$$$$$$$$$$$$$$$$$$$$$$$$$$$$$$$$$$$$$$$$ooooo+++++###################################################++++++++++++++++.....+++++++++++++++++++++++++$$$$$$..........                                                                                                           ",
"                                                                                                                                     ooooo########################################oooooo$$$$$$$$$$$$$$$$$$$$$$$$$$$$$$$$$$$$$$$$$$$$$$$$$$$$$$$$$$$$$$$$$$$$$$$$$$$$$$$$$$$$$$ooooo+++++###################################################++++++++++++++++.....+++++++++++++++++++++++++$$$$$$..........                                                                                                           ",
"                                                                                                                                     ooooo########################################++++++.....$$$$$$$$$$$$$$$$$$$$$$$$$$$$$$$$$$$$$$$$$$$$$$$$$$$$$$$$$$$$$$$$$$$$$$$$$$$$$$$$$.....+++++###################################################++++++++++++++++.....#####$$$$$$$$$$$$$$$$$$$$$$$$$$.....                                                                                                                ",
"                                                                                                                                     ooooo########################################++++++.....$$$$$$$$$$$$$$$$$$$$$$$$$$$$$$$$$$$$$$$$$$$$$$$$$$$$$$$$$$$$$$$$$$$$$$$$$$$$$$$$$.....+++++###################################################++++++++++++++++.....#####$$$$$$$$$$$$$$$$$$$$$$$$$$.....                                                                                                                ",
"                                                                                                                                     ooooo########################################++++++.....$$$$$$$$$$$$$$$$$$$$$$$$$$$$$$$$$$$$$$$$$$$$$$$$$$$$$$$$$$$$$$$$$$$$$$$$$$$$$$$$$.....+++++###################################################++++++++++++++++.....#####$$$$$$$$$$$$$$$$$$$$$$$$$$.....                                                                                                                ",
"                                                                                                                                     ooooo########################################++++++.....$$$$$$$$$$$$$$$$$$$$$$$$$$$$$$$$$$$$$$$$$$$$$$$$$$$$$$$$$$$$$$$$$$$$$$$$$$$$$$$$$.....+++++###################################################++++++++++++++++.....#####$$$$$$$$$$$$$$$$$$$$$$$$$$.....                                                                                                                ",
"                                                                                                                                     ooooo########################################++++++.....$$$$$$$$$$$$$$$$$$$$$$$$$$$$$$$$$$$$$$$$$$$$$$$$$$$$$$$$$$$$$$$$$$$$$$$$$$$$$$$$$.....+++++###################################################++++++++++++++++.....#####$$$$$$$$$$$$$$$$$$$$$$$$$$.....                                                                                                                ",
"                                                                                                                                     ooooo###################################++++++++++++++++.....$$$$$$$$$$$$$$$$$$$$$$$$$$$$$$$$$$$$$$$$$$$$$$$$$$$$$$$$$$$$$$$$$$$$$$$$$$$$.....+++++++++++#############################################++++++++++++++++.....$$$$$$$$$$$$$$$..........                                                                                                                           ",
"                                                                                                                                     ooooo###################################++++++++++++++++.....$$$$$$$$$$$$$$$$$$$$$$$$$$$$$$$$$$$$$$$$$$$$$$$$$$$$$$$$$$$$$$$$$$$$$$$$$$$$.....+++++++++++#############################################++++++++++++++++.....$$$$$$$$$$$$$$$..........                                                                                                                           ",
"                                                                                                                                     ooooo###################################++++++++++++++++.....$$$$$$$$$$$$$$$$$$$$$$$$$$$$$$$$$$$$$$$$$$$$$$$$$$$$$$$$$$$$$$$$$$$$$$$$$$$$.....+++++++++++#############################################++++++++++++++++.....$$$$$$$$$$$$$$$..........                                                                                                                           ",
"                                                                                                                                     ooooo###################################++++++++++++++++.....$$$$$$$$$$$$$$$$$$$$$$$$$$$$$$$$$$$$$$$$$$$$$$$$$$$$$$$$$$$$$$$$$$$$$$$$$$$$.....+++++++++++#############################################++++++++++++++++.....$$$$$$$$$$$$$$$..........                                                                                                                           ",
"                                                                                                                                     ooooo###################################++++++++++++++++.....$$$$$$$$$$$$$$$$$$$$$$$$$$$$$$$$$$$$$$$$$$$$$$$$$$$$$$$$$$$$$$$$$$$$$$$$$$$$.....+++++++++++#############################################++++++++++++++++.....$$$$$$$$$$$$$$$..........                                                                                                                           ",
"                                                                                                                                     ooooo+++++####################+++++++++++++++++++++++++++++++.....$$$$$$$$$$$$$$$$$$$$$$$$$$$$$$$$$$$$$$$$$$$$$$$$$$$$$$$$$$$$$$$$$$$$$$$.....++++++++++++++++###################################+++++++++++++++++++++....................                                                                                                                                     ",
"                                                                                                                                     ooooo+++++####################+++++++++++++++++++++++++++++++.....$$$$$$$$$$$$$$$$$$$$$$$$$$$$$$$$$$$$$$$$$$$$$$$$$$$$$$$$$$$$$$$$$$$$$$$.....++++++++++++++++###################################+++++++++++++++++++++....................                                                                                                                                     ",
"                                                                                                                                     ooooo+++++####################+++++++++++++++++++++++++++++++.....$$$$$$$$$$$$$$$$$$$$$$$$$$$$$$$$$$$$$$$$$$$$$$$$$$$$$$$$$$$$$$$$$$$$$$$.....++++++++++++++++###################################+++++++++++++++++++++....................                                                                                                                                     ",
"                                                                                                                                     ooooo+++++####################+++++++++++++++++++++++++++++++.....$$$$$$$$$$$$$$$$$$$$$$$$$$$$$$$$$$$$$$$$$$$$$$$$$$$$$$$$$$$$$$$$$$$$$$$.....++++++++++++++++###################################+++++++++++++++++++++....................                                                                                                                                     ",
"                                                                                                                                     ooooo+++++####################+++++++++++++++++++++++++++++++.....$$$$$$$$$$$$$$$$$$$$$$$$$$$$$$$$$$$$$$$$$$$$$$$$$$$$$$$$$$$$$$$$$$$$$$$.....++++++++++++++++###################################+++++++++++++++++++++....................                                                                                                                                     ",
"                                                                                                                                     ooooo+++++++++++++++++++++++++++++++++++++++++++++++++++++++++++++..........$$$$$$$$$$$$$$$$$$$$$$$$$$$$$$$$$$$$$$$$$$$$$$$$$$$$$$$$$$$$$.....++++++++++++++++++++++++++###############+++++++++++++++++++++++++++++++.....                                                                                                                                                    ",
"                                                                                                                                     ooooo+++++++++++++++++++++++++++++++++++++++++++++++++++++++++++++..........$$$$$$$$$$$$$$$$$$$$$$$$$$$$$$$$$$$$$$$$$$$$$$$$$$$$$$$$$$$$$.....++++++++++++++++++++++++++###############+++++++++++++++++++++++++++++++.....                                                                                                                                                    ",
"                                                                                                                                     ooooo+++++++++++++++++++++++++++++++++++++++++++++++++++++++++++++..........$$$$$$$$$$$$$$$$$$$$$$$$$$$$$$$$$$$$$$$$$$$$$$$$$$$$$$$$$$$$$.....++++++++++++++++++++++++++###############+++++++++++++++++++++++++++++++.....                                                                                                                                                    ",
"                                                                                                                                     ooooo+++++++++++++++++++++++++++++++++++++++++++++++++++++++++++++..........$$$$$$$$$$$$$$$$$$$$$$$$$$$$$$$$$$$$$$$$$$$$$$$$$$$$$$$$$$$$$.....++++++++++++++++++++++++++###############+++++++++++++++++++++++++++++++.....                                                                                                                                                    ",
"                                                                                                                                     ooooo+++++++++++++++++++++++++++++++++++++++++++++++++++++++++++++..........$$$$$$$$$$$$$$$$$$$$$$$$$$$$$$$$$$$$$$$$$$$$$$$$$$$$$$$$$$$$$.....++++++++++++++++++++++++++###############+++++++++++++++++++++++++++++++.....                                                                                                                                                    ",
"                                                                                                                                     ooooo+++++++++++++++++++++++++++++++++++++++++++++++++++++++++++++..........$$$$$$$$$$$$$$$$$$$$$$$$$$$$$$$$$$$$$$$$$$$$$$$$$$$$$$$$$$$$$.....++++++++++++++++++++++++++###############+++++++++++++++++++++++++++++++.....                                                                                                                                                    ",
"                                                                                                                                          ooooo+++++++++++++++++++++++++++++++++++++++++++++++++++.....          ..........$$$$$$$$$$$$$$$$$$$$$$$$$$$$$$$$$$$$$$$$$$$$$$oooooooooo.....++++++++++++++++++++++++++++++++++++++++++++++++++++++++++++++++++++++++.....                                                                                                                                               ",
"                                                                                                                                          ooooo+++++++++++++++++++++++++++++++++++++++++++++++++++.....          ..........$$$$$$$$$$$$$$$$$$$$$$$$$$$$$$$$$$$$$$$$$$$$$$oooooooooo.....++++++++++++++++++++++++++++++++++++++++++++++++++++++++++++++++++++++++.....                                                                                                                                               ",
"                                                                                                                                          ooooo+++++++++++++++++++++++++++++++++++++++++++++++++++.....          ..........$$$$$$$$$$$$$$$$$$$$$$$$$$$$$$$$$$$$$$$$$$$$$$oooooooooo.....++++++++++++++++++++++++++++++++++++++++++++++++++++++++++++++++++++++++.....                                                                                                                                               ",
"                                                                                                                                          ooooo+++++++++++++++++++++++++++++++++++++++++++++++++++.....          ..........$$$$$$$$$$$$$$$$$$$$$$$$$$$$$$$$$$$$$$$$$$$$$$oooooooooo.....++++++++++++++++++++++++++++++++++++++++++++++++++++++++++++++++++++++++.....                                                                                                                                               ",
"                                                                                                                                          ooooo+++++++++++++++++++++++++++++++++++++++++++++++++++.....          ..........$$$$$$$$$$$$$$$$$$$$$$$$$$$$$$$$$$$$$$$$$$$$$$oooooooooo.....++++++++++++++++++++++++++++++++++++++++++++++++++++++++++++++++++++++++.....                                                                                                                                               ",
"                                                                                                                                          ooooo+++++++++++++++++++++++++++++++++++++++++++++++++++ooooo                    ................$$$$$$$$$$$$$$$ooooooooooooooo$$$$$$$$$$.....++++++++++++++++++++++++++++++++++++++++++++++++++++++++++++++++++++++++.....                                                                                                                                               ",
"                                                                                                                                          ooooo+++++++++++++++++++++++++++++++++++++++++++++++++++ooooo                    ................$$$$$$$$$$$$$$$ooooooooooooooo$$$$$$$$$$.....++++++++++++++++++++++++++++++++++++++++++++++++++++++++++++++++++++++++.....                                                                                                                                               ",
"                                                                                                                                          ooooo+++++++++++++++++++++++++++++++++++++++++++++++++++ooooo                    ................$$$$$$$$$$$$$$$ooooooooooooooo$$$$$$$$$$.....++++++++++++++++++++++++++++++++++++++++++++++++++++++++++++++++++++++++.....                                                                                                                                               ",
"                                                                                                                                          ooooo+++++++++++++++++++++++++++++++++++++++++++++++++++ooooo                    ................$$$$$$$$$$$$$$$ooooooooooooooo$$$$$$$$$$.....++++++++++++++++++++++++++++++++++++++++++++++++++++++++++++++++++++++++.....                                                                                                                                               ",
"                                                                                                                                          ooooo+++++++++++++++++++++++++++++++++++++++++++++++++++ooooo                    ................$$$$$$$$$$$$$$$ooooooooooooooo$$$$$$$$$$.....++++++++++++++++++++++++++++++++++++++++++++++++++++++++++++++++++++++++.....                                                                                                                                               ",
"                                                                                                                                               ooooo+++++++++++++++++++++++++++++++++++++++++ooooo                                         ooooooooooooooo$$$$$$$$$$$$$$$$$$$$$$$$$$$$$$...........+++++++++++++++++++++++++++++++++++++++++++++++++++++++++++++.....                                                                                                                                               ",
"                                                                                                                                               ooooo+++++++++++++++++++++++++++++++++++++++++ooooo                                         ooooooooooooooo$$$$$$$$$$$$$$$$$$$$$$$$$$$$$$...........+++++++++++++++++++++++++++++++++++++++++++++++++++++++++++++.....                                                                                                                                               ",
"                                                                                                                                               ooooo+++++++++++++++++++++++++++++++++++++++++ooooo                                         ooooooooooooooo$$$$$$$$$$$$$$$$$$$$$$$$$$$$$$...........+++++++++++++++++++++++++++++++++++++++++++++++++++++++++++++.....                                                                                                                                               ",
"                                                                                                                                               ooooo+++++++++++++++++++++++++++++++++++++++++ooooo                                         ooooooooooooooo$$$$$$$$$$$$$$$$$$$$$$$$$$$$$$...........+++++++++++++++++++++++++++++++++++++++++++++++++++++++++++++.....                                                                                                                                               ",
"                                                                                                                                               ooooo+++++++++++++++++++++++++++++++++++++++++ooooo                                         ooooooooooooooo$$$$$$$$$$$$$$$$$$$$$$$$$$$$$$...........+++++++++++++++++++++++++++++++++++++++++++++++++++++++++++++.....                                                                                                                                               ",
"                                                                                                                                                    .....+++++++++++++++++++++++++++++++++++++++++.....                                                   oooooooooooooooooooooooooooooooooooo     .....+++++++++++++++++++++++++++++++++++++++++++++++++++#####.....                                                                                                                                               ",
"                                                                                                                                                    .....+++++++++++++++++++++++++++++++++++++++++.....                                                   oooooooooooooooooooooooooooooooooooo     .....+++++++++++++++++++++++++++++++++++++++++++++++++++#####.....                                                                                                                                               ",
"                                                                                                                                                    .....+++++++++++++++++++++++++++++++++++++++++.....                                                   oooooooooooooooooooooooooooooooooooo     .....+++++++++++++++++++++++++++++++++++++++++++++++++++#####.....                                                                                                                                               ",
"                                                                                                                                                    .....+++++++++++++++++++++++++++++++++++++++++.....                                                   oooooooooooooooooooooooooooooooooooo     .....+++++++++++++++++++++++++++++++++++++++++++++++++++#####.....                                                                                                                                               ",
"                                                                                                                                                    .....+++++++++++++++++++++++++++++++++++++++++.....                                                   oooooooooooooooooooooooooooooooooooo     .....+++++++++++++++++++++++++++++++++++++++++++++++++++#####.....                                                                                                                                               ",
"                                                                                                                                                         .....++++++++++++++++++++++++++++++++++++.....                                                                                                 .....+++++++++++++++++++++++++++++++++++++++++#####+++++#####.....                                                                                                                                          ",
"                                                                                                                                                         .....++++++++++++++++++++++++++++++++++++.....                                                                                                 .....+++++++++++++++++++++++++++++++++++++++++#####+++++#####.....                                                                                                                                          ",
"                                                                                                                                                         .....++++++++++++++++++++++++++++++++++++.....                                                                                                 .....+++++++++++++++++++++++++++++++++++++++++#####+++++#####.....                                                                                                                                          ",
"                                                                                                                                                         .....++++++++++++++++++++++++++++++++++++.....                                                                                                 .....+++++++++++++++++++++++++++++++++++++++++#####+++++#####.....                                                                                                                                          ",
"                                                                                                                                                         .....++++++++++++++++++++++++++++++++++++.....                                                                                                 .....+++++++++++++++++++++++++++++++++++++++++#####+++++#####.....                                                                                                                                          ",
"                                                                                                                                                         *****.....*****+++++++++++++++++++++++++++++++.....                                                                                                 .....+++++++++++++++++++++++++++++++++++++++++++++++++++.....                                                                                                                                          ",
"                                                                                                                                                         *****.....*****+++++++++++++++++++++++++++++++.....                                                                                                 .....+++++++++++++++++++++++++++++++++++++++++++++++++++.....                                                                                                                                          ",
"                                                                                                                                                         *****.....*****+++++++++++++++++++++++++++++++.....                                                                                                 .....+++++++++++++++++++++++++++++++++++++++++++++++++++.....                                                                                                                                          ",
"                                                                                                                                                         *****.....*****+++++++++++++++++++++++++++++++.....                                                                                                 .....+++++++++++++++++++++++++++++++++++++++++++++++++++.....                                                                                                                                          ",
"                                                                                                                                                         *****.....*****+++++++++++++++++++++++++++++++.....                                                                                                 .....+++++++++++++++++++++++++++++++++++++++++++++++++++.....                                                                                                                                          ",
"                                                                                                                                                    =====     **********     ***********+++++++++++++++.....                                                                                                 .....+++++++++++++++++++++++++######+++++#####++++++++++.....                                                                                                                                          ",
"                                                                                                                                                    =====     **********     ***********+++++++++++++++.....                                                                                                 .....+++++++++++++++++++++++++######+++++#####++++++++++.....                                                                                                                                          ",
"                                                                                                                                                    =====     **********     ***********+++++++++++++++.....                                                                                                 .....+++++++++++++++++++++++++######+++++#####++++++++++.....                                                                                                                                          ",
"                                                                                                                                                    =====     **********     ***********+++++++++++++++.....                                                                                                 .....+++++++++++++++++++++++++######+++++#####++++++++++.....                                                                                                                                          ",
"                                                                                                                                                    =====     **********     ***********+++++++++++++++.....                                                                                                 .....+++++++++++++++++++++++++######+++++#####++++++++++.....                                                                                                                                          ",
"                                                                                                                                               ..........=====*****.....=====*****.....................                                                                                                      .....++++++++++++++++++++++++++++++++++++++++++++++=====.....                                                                                                                                          ",
"                                                                                                                                               ..........=====*****.....=====*****.....................                                                                                                      .....++++++++++++++++++++++++++++++++++++++++++++++=====.....                                                                                                                                          ",
"                                                                                                                                               ..........=====*****.....=====*****.....................                                                                                                      .....++++++++++++++++++++++++++++++++++++++++++++++=====.....                                                                                                                                          ",
"                                                                                                                                               ..........=====*****.....=====*****.....................                                                                                                      .....++++++++++++++++++++++++++++++++++++++++++++++=====.....                                                                                                                                          ",
"                                                                                                                                               ..........=====*****.....=====*****.....................                                                                                                      .....++++++++++++++++++++++++++++++++++++++++++++++=====.....                                                                                                                                          ",
"                                                                                                                                                    ...............     ................                                                                                                                     ..........++++++++++*****ooooo++++++*****=====+++++==========.....                                                                                                                                     ",
"                                                                                                                                                    ...............     ................                                                                                                                     ..........++++++++++*****ooooo++++++*****=====+++++==========.....                                                                                                                                     ",
"                                                                                                                                                    ...............     ................                                                                                                                     ..........++++++++++*****ooooo++++++*****=====+++++==========.....                                                                                                                                     ",
"                                                                                                                                                    ...............     ................                                                                                                                     ..........++++++++++*****ooooo++++++*****=====+++++==========.....                                                                                                                                     ",
"                                                                                                                                                    ...............     ................                                                                                                                     ..........++++++++++*****ooooo++++++*****=====+++++==========.....                                                                                                                                     ",
"                                                                                                                                                                                                                                                                                                                  ..........===============......===============     *****.....                                                                                                                                     ",
"                                                                                                                                                                                                                                                                                                                  ..........===============......===============     *****.....                                                                                                                                     ",
"                                                                                                                                                                                                                                                                                                                  ..........===============......===============     *****.....                                                                                                                                     ",
"                                                                                                                                                                                                                                                                                                                  ..........===============......===============     *****.....                                                                                                                                     ",
"                                                                                                                                                                                                                                                                                                                  ..........===============......===============     *****.....                                                                                                                                     ",
"                                                                                                                                                                                                                                                                                                                  ..........===============......===============     *****.....                                                                                                                                     ",
"                                                                                                                                                                                                                                                                                                                            .....=====.....      .....*****=====...............                                                                                                                                     ",
"                                                                                                                                                                                                                                                                                                                            .....=====.....      .....*****=====...............                                                                                                                                     ",
"                                                                                                                                                                                                                                                                                                                            .....=====.....      .....*****=====...............                                                                                                                                     ",
"                                                                                                                                                                                                                                                                                                                            .....=====.....      .....*****=====...............                                                                                                                                     ",
"                                                                                                                                                                                                                                                                                                                            .....=====.....      .....*****=====...............                                                                                                                                     ",
"                                                                                                                                                                                                                                                                                                                                 ..........           ..........                                                                                                                                                    ",
"                                                                                                                                                                                                                                                                                                                                 ..........           ..........                                                                                                                                                    ",
"                                                                                                                                                                                                                                                                                                                                 ..........           ..........                                                                                                                                                    ",
"                                                                                                                                                                                                                                                                                                                                 ..........           ..........                                                                                                                                                    ",
"                                                                                                                                                                                                                                                                                                                                 ..........           ..........                                                                                                                                                    ",
"                                                                                                                                                                                                                                                                                                                                                                                                                                                                                                                    ",
"                                                                                                                                                                                                                                                                                                                                                                                                                                                                                                                    "
};
