/* XPM */
static char *out[] = {
/* columns rows colors chars-per-pixel */
"500 456 14 1 ",
"  c #FF00FF",
". c black",
"X c #084252",
"o c #843118",
"O c #E74210",
"+ c #CE5242",
"@ c #F7A510",
"# c #EF8429",
"$ c #FFD610",
"% c #EFB55A",
"& c #EFDE7B",
"* c #217394",
"= c #CECECE",
"- c white",
/* pixels */
"                                                                                                                                                                                                                                                                                                                                                                                                                                                                                                                    ",
"                                                                                                                                                                                                                                                                                                                                                                                                                                                                                                                    ",
"                                                                                                                                                                                                                                                                                                                                                                                                                                                                                                                    ",
"                                                                                                                                                                                                                                                                                                                                                                                                                                                                                                                    ",
"                                                                                                                                                                                                                                                                                                                                                                                                                                                                                                                    ",
"                                                                                                                                                                                                                                                                                                                                                                                                                                                                                                                    ",
"                                                                                                                                                                                                                                                                                                                                                                                                                                                                                                                    ",
"                                                                                                                                                                                                                                                                                                                                                                                                                                                                                                                    ",
"                                                                                                                                                                                                                                                                                                                                                                                                                                                                                                                    ",
"                                                                                                                                                                                                                                                                                                                                                                                                                                                                                                                    ",
"                                                                                                                                                                                                                                                                                                                                                                                                                                                                                                                    ",
"                                                                                                                                                                                                                                                                                                                                                                                                                                                                                                                    ",
"                                                                                                                                                                                                                                                                                                                                                                                                                                                                                                                    ",
"                                                                                                                                                                                                                                                                                                                                                                                                                                                                                                                    ",
"                                                                                                                                                                                                                                                                                                                                                                                                                                                                                                                    ",
"                                                                                                                                                                                                                                                                                                                                                                                                                                                                                                                    ",
"                                                                                                                                                                                                                                                                                                                                                                                                                                                                                                                    ",
"                                                                                                                                                                                                                                                                                                                                                                                                                                                                                                                    ",
"                                                                                                                                                                                                                                                                                                                                                                                                                                                                                                                    ",
"                                                                                                                                                                                                                                                                                                                                                                                                                                                                                                                    ",
"                                                                                                                                                                                                                                                                                                                                                                                                                                                                                                                    ",
"                                                                                                                                                                                                                                                                                                                                                                                                                                                                                                                    ",
"                                                                                                                                                                                                                                                                                                                                                                                                                                                                                                                    ",
"                                                                                                                                                                                                                                                                                                                                                                                                                                                                                                                    ",
"                                                                                                                                                                                                                                                                                                                                                                                                                                                                                                                    ",
"                                                                                                                                                                                                                                                                                                                                                                                                                                                                                                                    ",
"                                                                                                                                                                                                                                                                                                                                                                                                                                                                                                                    ",
"                                                                                                                                                                                                                                                                                                                                                                                                                                                                                                                    ",
"                                                                                                                                                                                                                                                                                                                                                                                                                                                                                                                    ",
"                                                                                                                                                                                                                                                                                                                                                                                                                                                                                                                    ",
"                                                                                                                                                                                                                                                                                                                                                                                                                                                                                                                    ",
"                                                                                                                                                                                                                                                                                                                                                                                                                                                                                                                    ",
"                                                                                                                                                                                                                                                                                                                                                                                                                                                                                                                    ",
"                                                                                                                                                                                                                                                                                                                                                                                                                                                                                                                    ",
"                                                                                                                                                                                                                                                                                                                                                                                                                                                                                                                    ",
"                                                                                                                                                                                                                                                                    OOOOO                                                                                                                                                                                                                                           ",
"                                                                                                                                                                                                                                                                    OOOOO                                                                                                                                                                                                                                           ",
"                                                                                                                                                                                                                                                                    OOOOO                                                                                                                                                                                                                                           ",
"                                                                                                                                                                                                                                                                    OOOOO                                                                                                                                                                                                                                           ",
"                                                                                                                                                                                                                                                                    OOOOO                                                                                                                                                                                                                                           ",
"                                                                                                                                                                                                                                                                    OOOOO                                                                                                                                                                                                                                           ",
"                                                                                                                                                                                                            OOOOO                                                                                                                                                                                                                                                                                                   ",
"                                                                                                                                                                                                            OOOOO                                                                                                                                                                                                                                                                                                   ",
"                                                                                                                                                                                                            OOOOO                                                                                                                                                                                                                                                                                                   ",
"                                                                                                                                                                                                            OOOOO                                                                                                                                                                                                                                                                                                   ",
"                                                                                                                                                                                                            OOOOO                                                                                                                                                                                                                                                                                                   ",
"                                                                                                                                                                                                       OOOOOOOOOO          OOOOOOOOOO                                                                                                                                                                                                                                                                               ",
"                                                                                                                                                                                                       OOOOOOOOOO          OOOOOOOOOO                                                                                                                                                                                                                                                                               ",
"                                                                                                                                                                                                       OOOOOOOOOO          OOOOOOOOOO                                                                                                                                                                                                                                                                               ",
"                                                                                                                                                                                                       OOOOOOOOOO          OOOOOOOOOO                                                                                                                                                                                                                                                                               ",
"                                                                                                                                                                                                       OOOOOOOOOO          OOOOOOOOOO                                                                                                                                                                                                                                                                               ",
"                                                                                                                                                                                                       OOOOOOOOOOOOOOOOOOOOOOOOOOOOOOOOOOOO                                                                                                                                                                                                                                                                         ",
"                                                                                                                                                                                                       OOOOOOOOOOOOOOOOOOOOOOOOOOOOOOOOOOOO                                                                                                                                                                                                                                                                         ",
"                                                                                                                                                                                                       OOOOOOOOOOOOOOOOOOOOOOOOOOOOOOOOOOOO                                                                                                                                                                                                                                                                         ",
"                                                                                                                                                                                                       OOOOOOOOOOOOOOOOOOOOOOOOOOOOOOOOOOOO                                                                                                                                                                                                                                                                         ",
"                                                                                                                                                                                                       OOOOOOOOOOOOOOOOOOOOOOOOOOOOOOOOOOOO                                                                                                                                                                                                                                                                         ",
"                                                                                                                                                                                                            OOOOOOOOOOOOOOOOOOOOOOOOOOOOOOO                                                                                                                                                                                                                                                                         ",
"                                                                                                                                                                                                            OOOOOOOOOOOOOOOOOOOOOOOOOOOOOOO                                                                                                                                                                                                                                                                         ",
"                                                                                                                                                                                                            OOOOOOOOOOOOOOOOOOOOOOOOOOOOOOO                                                                                                                                                                                                                                                                         ",
"                                                                                                                                                                                                            OOOOOOOOOOOOOOOOOOOOOOOOOOOOOOO                                                                                                                                                                                                                                                                         ",
"                                                                                                                                                                                                            OOOOOOOOOOOOOOOOOOOOOOOOOOOOOOO                                                                                                                                                                                                                                                                         ",
"                                                                                                                                                                                                                 OOOOO@@@@@OOOOOOOOOOOOOOOOOOOOO                                                                                                                                                                                                                                                                    ",
"                                                                                                                                                                                                                 OOOOO@@@@@OOOOOOOOOOOOOOOOOOOOO                                                                                                                                                                                                                                                                    ",
"                                                                                                                                                                                                                 OOOOO@@@@@OOOOOOOOOOOOOOOOOOOOO                                                                                                                                                                                                                                                                    ",
"                                                                                                                                                                                                                 OOOOO@@@@@OOOOOOOOOOOOOOOOOOOOO                                                                                                                                                                                                                                                                    ",
"                                                                                                                                                                                                                 OOOOO@@@@@OOOOOOOOOOOOOOOOOOOOO                                                                                                                                                                                                                                                                    ",
"                                                                                                                                                                                                                      OOOOO$$$$$OOOOOOOOOOOOOOOOOOOOOOOOOO                                                                                                                                                                                                                                                          ",
"                                                                                                                                                                                                                      OOOOO$$$$$OOOOOOOOOOOOOOOOOOOOOOOOOO                                                                                                                                                                                                                                                          ",
"                                                                                                                                                                                                                      OOOOO$$$$$OOOOOOOOOOOOOOOOOOOOOOOOOO                                                                                                                                                                                                                                                          ",
"                                                                                                                                                                                                                      OOOOO$$$$$OOOOOOOOOOOOOOOOOOOOOOOOOO                                                                                                                                                                                                                                                          ",
"                                                                                                                                                                                                                      OOOOO$$$$$OOOOOOOOOOOOOOOOOOOOOOOOOO                                                                                                                                                                                                                                                          ",
"                                                                                                                                                                                                                 OOOOOOOOOO@@@@@$$$$$OOOOOO@@@@@$$$$$OOOOO     OOOOOOOOOO                                                                                                                                                                                                                                           ",
"                                                                                                                                                                                                                 OOOOOOOOOO@@@@@$$$$$OOOOOO@@@@@$$$$$OOOOO     OOOOOOOOOO                                                                                                                                                                                                                                           ",
"                                                                                                                                                                                                                 OOOOOOOOOO@@@@@$$$$$OOOOOO@@@@@$$$$$OOOOO     OOOOOOOOOO                                                                                                                                                                                                                                           ",
"                                                                                                                                                                                                                 OOOOOOOOOO@@@@@$$$$$OOOOOO@@@@@$$$$$OOOOO     OOOOOOOOOO                                                                                                                                                                                                                                           ",
"                                                                                                                                                                                                                 OOOOOOOOOO@@@@@$$$$$OOOOOO@@@@@$$$$$OOOOO     OOOOOOOOOO                                                                                                                                                                                                                                           ",
"                                                                                                                                                                                                                 OOOOOOOOOOOOOOO$$$$$$$$$$$$$$$$$$$$$@@@@@OOOOOOOOOOOOOOO                                                                                                                                                                                                                                           ",
"                                                                                                                                                                                                                 OOOOOOOOOOOOOOO$$$$$$$$$$$$$$$$$$$$$@@@@@OOOOOOOOOOOOOOO                                                                                                                                                                                                                                           ",
"                                                                                                                                                                                                                 OOOOOOOOOOOOOOO$$$$$$$$$$$$$$$$$$$$$@@@@@OOOOOOOOOOOOOOO                                                                                                                                                                                                                                           ",
"                                                                                                                                                                                                                 OOOOOOOOOOOOOOO$$$$$$$$$$$$$$$$$$$$$@@@@@OOOOOOOOOOOOOOO                                                                                                                                                                                                                                           ",
"                                                                                                                                                                                                                 OOOOOOOOOOOOOOO$$$$$$$$$$$$$$$$$$$$$@@@@@OOOOOOOOOOOOOOO                                                                                                                                                                                                                                           ",
"                                                                                                                                                                                                                           OOOOO@@@@@$$$$$$$$$$$$$$$$$$$$$OOOOOOOOOOOOOOO     oooooooooo                                                                                                                                                                                                                            ",
"                                                                                                                                                                                                                           OOOOO@@@@@$$$$$$$$$$$$$$$$$$$$$OOOOOOOOOOOOOOO     oooooooooo                                                                                                                                                                                                                            ",
"                                                                                                                                                                                                                           OOOOO@@@@@$$$$$$$$$$$$$$$$$$$$$OOOOOOOOOOOOOOO     oooooooooo                                                                                                                                                                                                                            ",
"                                                                                                                                                                                                                           OOOOO@@@@@$$$$$$$$$$$$$$$$$$$$$OOOOOOOOOOOOOOO     oooooooooo                                                                                                                                                                                                                            ",
"                                                                                                                                                                                                                           OOOOO@@@@@$$$$$$$$$$$$$$$$$$$$$OOOOOOOOOOOOOOO     oooooooooo                                                                                                                                                                                                                            ",
"                                                                                                                                                                                                                           OOOOO@@@@@$$$$$$$$$$$$$$$$$$$$$OOOOOOOOOOOOOOO     oooooooooo                                                                                                                                                                                                                            ",
"                                                                                                                                                                        oooooooooo                                    OOOOOOOOOOOOOOO$$$$$$$$$$$$$$$$@@@@@OOOOOOOOOOOOOOOooooo%%%%%%%%%%oooooo                                                                                                                                                                                                                      ",
"                                                                                                                                                                        oooooooooo                                    OOOOOOOOOOOOOOO$$$$$$$$$$$$$$$$@@@@@OOOOOOOOOOOOOOOooooo%%%%%%%%%%oooooo                                                                                                                                                                                                                      ",
"                                                                                                                                                                        oooooooooo                                    OOOOOOOOOOOOOOO$$$$$$$$$$$$$$$$@@@@@OOOOOOOOOOOOOOOooooo%%%%%%%%%%oooooo                                                                                                                                                                                                                      ",
"                                                                                                                                                                        oooooooooo                                    OOOOOOOOOOOOOOO$$$$$$$$$$$$$$$$@@@@@OOOOOOOOOOOOOOOooooo%%%%%%%%%%oooooo                                                                                                                                                                                                                      ",
"                                                                                                                                                                        oooooooooo                                    OOOOOOOOOOOOOOO$$$$$$$$$$$$$$$$@@@@@OOOOOOOOOOOOOOOooooo%%%%%%%%%%oooooo                                                                                                                                                                                                                      ",
"                                                                                                                                                                   ooooo%%%%%%%%%%oooooo                         OOOOOOOOOO$$$$$OOOOO$$$$$$$$$$$$$$$$OOOOOOOOOOOOOOOOOOOOooooo%%%%%%%%%%+++++++++++                         oooooooooooooooooooooooooo                                                                                                                                                              ",
"                                                                                                                                                                   ooooo%%%%%%%%%%oooooo                         OOOOOOOOOO$$$$$OOOOO$$$$$$$$$$$$$$$$OOOOOOOOOOOOOOOOOOOOooooo%%%%%%%%%%+++++++++++                         oooooooooooooooooooooooooo                                                                                                                                                              ",
"                                                                                                                                                                   ooooo%%%%%%%%%%oooooo                         OOOOOOOOOO$$$$$OOOOO$$$$$$$$$$$$$$$$OOOOOOOOOOOOOOOOOOOOooooo%%%%%%%%%%+++++++++++                         oooooooooooooooooooooooooo                                                                                                                                                              ",
"                                                                                                                                                                   ooooo%%%%%%%%%%oooooo                         OOOOOOOOOO$$$$$OOOOO$$$$$$$$$$$$$$$$OOOOOOOOOOOOOOOOOOOOooooo%%%%%%%%%%+++++++++++                         oooooooooooooooooooooooooo                                                                                                                                                              ",
"                                                                                                                                                                   ooooo%%%%%%%%%%oooooo                         OOOOOOOOOO$$$$$OOOOO$$$$$$$$$$$$$$$$OOOOOOOOOOOOOOOOOOOOooooo%%%%%%%%%%+++++++++++                         oooooooooooooooooooooooooo                                                                                                                                                              ",
"                                                                                                                                                              ooooo+++++%%%%%%%%%%oooooo                         OOOOO@@@@@$$$$$@@@@@$$$$$$$$$$$@@@@@OOOOOOOOOOOOOOO@@@@@.....+++++###########ooooo+++++     ooooooooooooooo##########################oooooooooo                                                                                                                                                    ",
"                                                                                                                                                              ooooo+++++%%%%%%%%%%oooooo                         OOOOO@@@@@$$$$$@@@@@$$$$$$$$$$$@@@@@OOOOOOOOOOOOOOO@@@@@.....+++++###########ooooo+++++     ooooooooooooooo##########################oooooooooo                                                                                                                                                    ",
"                                                                                                                                                              ooooo+++++%%%%%%%%%%oooooo                         OOOOO@@@@@$$$$$@@@@@$$$$$$$$$$$@@@@@OOOOOOOOOOOOOOO@@@@@.....+++++###########ooooo+++++     ooooooooooooooo##########################oooooooooo                                                                                                                                                    ",
"                                                                                                                                                              ooooo+++++%%%%%%%%%%oooooo                         OOOOO@@@@@$$$$$@@@@@$$$$$$$$$$$@@@@@OOOOOOOOOOOOOOO@@@@@.....+++++###########ooooo+++++     ooooooooooooooo##########################oooooooooo                                                                                                                                                    ",
"                                                                                                                                                              ooooo+++++%%%%%%%%%%oooooo                         OOOOO@@@@@$$$$$@@@@@$$$$$$$$$$$@@@@@OOOOOOOOOOOOOOO@@@@@.....+++++###########ooooo+++++     ooooooooooooooo##########################oooooooooo                                                                                                                                                    ",
"                                                                                                                                     oooooooooo               ooooo##########ooooo                               OOOOO$$$$$$$$$$$$$$$$$$$$$$$$$$OOOOOOOOOOOOOOO@@@@@$$$$$OOOOO.....#####################+++++###################################################++++++++++                                                                                                                                          ",
"                                                                                                                                     oooooooooo               ooooo##########ooooo                               OOOOO$$$$$$$$$$$$$$$$$$$$$$$$$$OOOOOOOOOOOOOOO@@@@@$$$$$OOOOO.....#####################+++++###################################################++++++++++                                                                                                                                          ",
"                                                                                                                                     oooooooooo               ooooo##########ooooo                               OOOOO$$$$$$$$$$$$$$$$$$$$$$$$$$OOOOOOOOOOOOOOO@@@@@$$$$$OOOOO.....#####################+++++###################################################++++++++++                                                                                                                                          ",
"                                                                                                                                     oooooooooo               ooooo##########ooooo                               OOOOO$$$$$$$$$$$$$$$$$$$$$$$$$$OOOOOOOOOOOOOOO@@@@@$$$$$OOOOO.....#####################+++++###################################################++++++++++                                                                                                                                          ",
"                                                                                                                                     oooooooooo               ooooo##########ooooo                               OOOOO$$$$$$$$$$$$$$$$$$$$$$$$$$OOOOOOOOOOOOOOO@@@@@$$$$$OOOOO.....#####################+++++###################################################++++++++++                                                                                                                                          ",
"                                                                                                                               oooooo##########ooooooooooooooo###############ooooo                               OOOOO@@@@@$$$$$$$$$$$$$$$$$$$$$@@@@@OOOOOOOOOO$$$$$$$$$$OOOOO.....+++++####################################+++++ooooooooooooooooooooo+++++###############+++++++++++++++                                                                                                                           ",
"                                                                                                                               oooooo##########ooooooooooooooo###############ooooo                               OOOOO@@@@@$$$$$$$$$$$$$$$$$$$$$@@@@@OOOOOOOOOO$$$$$$$$$$OOOOO.....+++++####################################+++++ooooooooooooooooooooo+++++###############+++++++++++++++                                                                                                                           ",
"                                                                                                                               oooooo##########ooooooooooooooo###############ooooo                               OOOOO@@@@@$$$$$$$$$$$$$$$$$$$$$@@@@@OOOOOOOOOO$$$$$$$$$$OOOOO.....+++++####################################+++++ooooooooooooooooooooo+++++###############+++++++++++++++                                                                                                                           ",
"                                                                                                                               oooooo##########ooooooooooooooo###############ooooo                               OOOOO@@@@@$$$$$$$$$$$$$$$$$$$$$@@@@@OOOOOOOOOO$$$$$$$$$$OOOOO.....+++++####################################+++++ooooooooooooooooooooo+++++###############+++++++++++++++                                                                                                                           ",
"                                                                                                                               oooooo##########ooooooooooooooo###############ooooo                               OOOOO@@@@@$$$$$$$$$$$$$$$$$$$$$@@@@@OOOOOOOOOO$$$$$$$$$$OOOOO.....+++++####################################+++++ooooooooooooooooooooo+++++###############+++++++++++++++                                                                                                                           ",
"                                                                                                                     oooooooooo#########################################+++++ooooo                                    OOOOO$$$$$@@@@@$$$$$$$$$$$$$$$$$$$$$$$$$$$$$$$$$$$$OOOOOOOOOO.....##########################..........XXXXXXXXXXXXXXXXXXXXXXXXXXXXXXXooooo+++++####################+++++++++++                                                                                                                ",
"                                                                                                                     oooooooooo#########################################+++++ooooo                                    OOOOO$$$$$@@@@@$$$$$$$$$$$$$$$$$$$$$$$$$$$$$$$$$$$$OOOOOOOOOO.....##########################..........XXXXXXXXXXXXXXXXXXXXXXXXXXXXXXXooooo+++++####################+++++++++++                                                                                                                ",
"                                                                                                                     oooooooooo#########################################+++++ooooo                                    OOOOO$$$$$@@@@@$$$$$$$$$$$$$$$$$$$$$$$$$$$$$$$$$$$$OOOOOOOOOO.....##########################..........XXXXXXXXXXXXXXXXXXXXXXXXXXXXXXXooooo+++++####################+++++++++++                                                                                                                ",
"                                                                                                                     oooooooooo#########################################+++++ooooo                                    OOOOO$$$$$@@@@@$$$$$$$$$$$$$$$$$$$$$$$$$$$$$$$$$$$$OOOOOOOOOO.....##########################..........XXXXXXXXXXXXXXXXXXXXXXXXXXXXXXXooooo+++++####################+++++++++++                                                                                                                ",
"                                                                                                                     oooooooooo#########################################+++++ooooo                                    OOOOO$$$$$@@@@@$$$$$$$$$$$$$$$$$$$$$$$$$$$$$$$$$$$$OOOOOOOOOO.....##########################..........XXXXXXXXXXXXXXXXXXXXXXXXXXXXXXXooooo+++++####################+++++++++++                                                                                                                ",
"                                                                                                                ooooo###################################################ooooo                                              OOOOO@@@@@$$$$$$$$$$$$$$$$$$$$$$$$$$$$$$$@@@@@OOOOOOOOOO.....#####################.....XXXXXXXXXXXXXXXXXXXX**************************XXXXXXXXXX+++++#####%%%%%%%%%%%%%%%%+++++                                                                                                           ",
"                                                                                                                ooooo###################################################ooooo                                              OOOOO@@@@@$$$$$$$$$$$$$$$$$$$$$$$$$$$$$$$@@@@@OOOOOOOOOO.....#####################.....XXXXXXXXXXXXXXXXXXXX**************************XXXXXXXXXX+++++#####%%%%%%%%%%%%%%%%+++++                                                                                                           ",
"                                                                                                                ooooo###################################################ooooo                                              OOOOO@@@@@$$$$$$$$$$$$$$$$$$$$$$$$$$$$$$$@@@@@OOOOOOOOOO.....#####################.....XXXXXXXXXXXXXXXXXXXX**************************XXXXXXXXXX+++++#####%%%%%%%%%%%%%%%%+++++                                                                                                           ",
"                                                                                                                ooooo###################################################ooooo                                              OOOOO@@@@@$$$$$$$$$$$$$$$$$$$$$$$$$$$$$$$@@@@@OOOOOOOOOO.....#####################.....XXXXXXXXXXXXXXXXXXXX**************************XXXXXXXXXX+++++#####%%%%%%%%%%%%%%%%+++++                                                                                                           ",
"                                                                                                                ooooo###################################################ooooo                                              OOOOO@@@@@$$$$$$$$$$$$$$$$$$$$$$$$$$$$$$$@@@@@OOOOOOOOOO.....#####################.....XXXXXXXXXXXXXXXXXXXX**************************XXXXXXXXXX+++++#####%%%%%%%%%%%%%%%%+++++                                                                                                           ",
"                                                                                                           ooooo###############................+++++####################ooooo                                         OOOOOOOOOOOOOOO$$$$$$ooooo#####ooooo@@@@@$$$$$OOOOOOOOOO          oooooo##########.....XXXXXXXXXXXXXXXXXXXX*****************************************XXXXXXXXXX+++++%%%%%%%%%%%%%%%%ooooo                                                                                                      ",
"                                                                                                           ooooo###############................+++++####################ooooo                                         OOOOOOOOOOOOOOO$$$$$$ooooo#####ooooo@@@@@$$$$$OOOOOOOOOO          oooooo##########.....XXXXXXXXXXXXXXXXXXXX*****************************************XXXXXXXXXX+++++%%%%%%%%%%%%%%%%ooooo                                                                                                      ",
"                                                                                                           ooooo###############................+++++####################ooooo                                         OOOOOOOOOOOOOOO$$$$$$ooooo#####ooooo@@@@@$$$$$OOOOOOOOOO          oooooo##########.....XXXXXXXXXXXXXXXXXXXX*****************************************XXXXXXXXXX+++++%%%%%%%%%%%%%%%%ooooo                                                                                                      ",
"                                                                                                           ooooo###############................+++++####################ooooo                                         OOOOOOOOOOOOOOO$$$$$$ooooo#####ooooo@@@@@$$$$$OOOOOOOOOO          oooooo##########.....XXXXXXXXXXXXXXXXXXXX*****************************************XXXXXXXXXX+++++%%%%%%%%%%%%%%%%ooooo                                                                                                      ",
"                                                                                                           ooooo###############................+++++####################ooooo                                         OOOOOOOOOOOOOOO$$$$$$ooooo#####ooooo@@@@@$$$$$OOOOOOOOOO          oooooo##########.....XXXXXXXXXXXXXXXXXXXX*****************************************XXXXXXXXXX+++++%%%%%%%%%%%%%%%%ooooo                                                                                                      ",
"                                                                                                      ooooo##########XXXXXXXXXXXXXXXXXXXXXXXXXXXXXXX.....###############ooooo                                         OOOOOOOOOOOOOOO@@@@@@ooooo#####ooooo@@@@@OOOOO                    oooooo#####.....XXXXXXXXXXXXXXXXXXXX********************************************************XXXXX++++++##########+++++                                                                                                      ",
"                                                                                                      ooooo##########XXXXXXXXXXXXXXXXXXXXXXXXXXXXXXX.....###############ooooo                                         OOOOOOOOOOOOOOO@@@@@@ooooo#####ooooo@@@@@OOOOO                    oooooo#####.....XXXXXXXXXXXXXXXXXXXX********************************************************XXXXX++++++##########+++++                                                                                                      ",
"                                                                                                      ooooo##########XXXXXXXXXXXXXXXXXXXXXXXXXXXXXXX.....###############ooooo                                         OOOOOOOOOOOOOOO@@@@@@ooooo#####ooooo@@@@@OOOOO                    oooooo#####.....XXXXXXXXXXXXXXXXXXXX********************************************************XXXXX++++++##########+++++                                                                                                      ",
"                                                                                                      ooooo##########XXXXXXXXXXXXXXXXXXXXXXXXXXXXXXX.....###############ooooo                                         OOOOOOOOOOOOOOO@@@@@@ooooo#####ooooo@@@@@OOOOO                    oooooo#####.....XXXXXXXXXXXXXXXXXXXX********************************************************XXXXX++++++##########+++++                                                                                                      ",
"                                                                                                      ooooo##########XXXXXXXXXXXXXXXXXXXXXXXXXXXXXXX.....###############ooooo                                         OOOOOOOOOOOOOOO@@@@@@ooooo#####ooooo@@@@@OOOOO                    oooooo#####.....XXXXXXXXXXXXXXXXXXXX********************************************************XXXXX++++++##########+++++                                                                                                      ",
"                                                                                            oooooooooo##########XXXXXXXXXXXXXXXXXXXXXXXXXXXXXXXXXXXX.....+++++##########ooooo                                              OOOOOOOOOOOOOOOOooooo##########OOOOOOOOOO                    oooooo#####.....XXXXXXXXXXXXXXXXXXXX*************************************************************XXXXXX+++++#####+++++                                                                                                      ",
"                                                                                            oooooooooo##########XXXXXXXXXXXXXXXXXXXXXXXXXXXXXXXXXXXX.....+++++##########ooooo                                              OOOOOOOOOOOOOOOOooooo##########OOOOOOOOOO                    oooooo#####.....XXXXXXXXXXXXXXXXXXXX*************************************************************XXXXXX+++++#####+++++                                                                                                      ",
"                                                                                            oooooooooo##########XXXXXXXXXXXXXXXXXXXXXXXXXXXXXXXXXXXX.....+++++##########ooooo                                              OOOOOOOOOOOOOOOOooooo##########OOOOOOOOOO                    oooooo#####.....XXXXXXXXXXXXXXXXXXXX*************************************************************XXXXXX+++++#####+++++                                                                                                      ",
"                                                                                            oooooooooo##########XXXXXXXXXXXXXXXXXXXXXXXXXXXXXXXXXXXX.....+++++##########ooooo                                              OOOOOOOOOOOOOOOOooooo##########OOOOOOOOOO                    oooooo#####.....XXXXXXXXXXXXXXXXXXXX*************************************************************XXXXXX+++++#####+++++                                                                                                      ",
"                                                                                            oooooooooo##########XXXXXXXXXXXXXXXXXXXXXXXXXXXXXXXXXXXX.....+++++##########ooooo                                              OOOOOOOOOOOOOOOOooooo##########OOOOOOOOOO                    oooooo#####.....XXXXXXXXXXXXXXXXXXXX*************************************************************XXXXXX+++++#####+++++                                                                                                      ",
"                                                                                            oooooooooo##########XXXXXXXXXXXXXXXXXXXXXXXXXXXXXXXXXXXX.....+++++##########ooooo                                              OOOOOOOOOOOOOOOOooooo##########OOOOOOOOOO                    oooooo#####.....XXXXXXXXXXXXXXXXXXXX*************************************************************XXXXXX+++++#####+++++                                                                                                      ",
"                                                                                       ooooo###############XXXXXXXXXXXXXXXXXXXXXXXXXXXXXXXXXXXXXXXXXXXXXX.....##########+++++ooooo                                                   OOOOOOOOOOOooooo#####ooooo                         oooooo#####.....XXXXXXXXXXXXXXXXXXXX*************************************************************XXXXXX+++++##########ooooo                                                                                                 ",
"                                                                                       ooooo###############XXXXXXXXXXXXXXXXXXXXXXXXXXXXXXXXXXXXXXXXXXXXXX.....##########+++++ooooo                                                   OOOOOOOOOOOooooo#####ooooo                         oooooo#####.....XXXXXXXXXXXXXXXXXXXX*************************************************************XXXXXX+++++##########ooooo                                                                                                 ",
"                                                                                       ooooo###############XXXXXXXXXXXXXXXXXXXXXXXXXXXXXXXXXXXXXXXXXXXXXX.....##########+++++ooooo                                                   OOOOOOOOOOOooooo#####ooooo                         oooooo#####.....XXXXXXXXXXXXXXXXXXXX*************************************************************XXXXXX+++++##########ooooo                                                                                                 ",
"                                                                                       ooooo###############XXXXXXXXXXXXXXXXXXXXXXXXXXXXXXXXXXXXXXXXXXXXXX.....##########+++++ooooo                                                   OOOOOOOOOOOooooo#####ooooo                         oooooo#####.....XXXXXXXXXXXXXXXXXXXX*************************************************************XXXXXX+++++##########ooooo                                                                                                 ",
"                                                                                       ooooo###############XXXXXXXXXXXXXXXXXXXXXXXXXXXXXXXXXXXXXXXXXXXXXX.....##########+++++ooooo                                                   OOOOOOOOOOOooooo#####ooooo                         oooooo#####.....XXXXXXXXXXXXXXXXXXXX*************************************************************XXXXXX+++++##########ooooo                                                                                                 ",
"                                                                                       ooooo+++++#####XXXXXXXXXXXXXXXXXXXXXXXXXXXXXXXXXXXXXXXXXXXXXXXXXXXXXXXX.....##########ooooo                                                         ooooo##########ooooo                         oooooo#####.....XXXXXXXXXXXXXXXXXXXXXXXXX**************************************************************XXXXX+++++#####+++++                                                                                                 ",
"                                                                                       ooooo+++++#####XXXXXXXXXXXXXXXXXXXXXXXXXXXXXXXXXXXXXXXXXXXXXXXXXXXXXXXX.....##########ooooo                                                         ooooo##########ooooo                         oooooo#####.....XXXXXXXXXXXXXXXXXXXXXXXXX**************************************************************XXXXX+++++#####+++++                                                                                                 ",
"                                                                                       ooooo+++++#####XXXXXXXXXXXXXXXXXXXXXXXXXXXXXXXXXXXXXXXXXXXXXXXXXXXXXXXX.....##########ooooo                                                         ooooo##########ooooo                         oooooo#####.....XXXXXXXXXXXXXXXXXXXXXXXXX**************************************************************XXXXX+++++#####+++++                                                                                                 ",
"                                                                                       ooooo+++++#####XXXXXXXXXXXXXXXXXXXXXXXXXXXXXXXXXXXXXXXXXXXXXXXXXXXXXXXX.....##########ooooo                                                         ooooo##########ooooo                         oooooo#####.....XXXXXXXXXXXXXXXXXXXXXXXXX**************************************************************XXXXX+++++#####+++++                                                                                                 ",
"                                                                                       ooooo+++++#####XXXXXXXXXXXXXXXXXXXXXXXXXXXXXXXXXXXXXXXXXXXXXXXXXXXXXXXX.....##########ooooo                                                         ooooo##########ooooo                         oooooo#####.....XXXXXXXXXXXXXXXXXXXXXXXXX**************************************************************XXXXX+++++#####+++++                                                                                                 ",
"                                                                                       ooooo+++++XXXXXXXXXXXXXXXXXXXXXXXXXXXXXXXXXXXXXXXXXXXXXXXXXXXXXXXXXXXXX.....##########ooooo                                                              ooooo++++++++++ooooo                    oooooo#####.....XXXXXXXXXXXXXXXXXXXXXXXXX**************************************************************XXXXX+++++#####+++++                                                                                                 ",
"                                                                                       ooooo+++++XXXXXXXXXXXXXXXXXXXXXXXXXXXXXXXXXXXXXXXXXXXXXXXXXXXXXXXXXXXXX.....##########ooooo                                                              ooooo++++++++++ooooo                    oooooo#####.....XXXXXXXXXXXXXXXXXXXXXXXXX**************************************************************XXXXX+++++#####+++++                                                                                                 ",
"                                                                                       ooooo+++++XXXXXXXXXXXXXXXXXXXXXXXXXXXXXXXXXXXXXXXXXXXXXXXXXXXXXXXXXXXXX.....##########ooooo                                                              ooooo++++++++++ooooo                    oooooo#####.....XXXXXXXXXXXXXXXXXXXXXXXXX**************************************************************XXXXX+++++#####+++++                                                                                                 ",
"                                                                                       ooooo+++++XXXXXXXXXXXXXXXXXXXXXXXXXXXXXXXXXXXXXXXXXXXXXXXXXXXXXXXXXXXXX.....##########ooooo                                                              ooooo++++++++++ooooo                    oooooo#####.....XXXXXXXXXXXXXXXXXXXXXXXXX**************************************************************XXXXX+++++#####+++++                                                                                                 ",
"                                                                                       ooooo+++++XXXXXXXXXXXXXXXXXXXXXXXXXXXXXXXXXXXXXXXXXXXXXXXXXXXXXXXXXXXXX.....##########ooooo                                                              ooooo++++++++++ooooo                    oooooo#####.....XXXXXXXXXXXXXXXXXXXXXXXXX**************************************************************XXXXX+++++#####+++++                                                                                                 ",
"                                                                                 oooooo+++++XXXXXXXXXXXXXXXXXXXXXXXXXXXXXXXXXXXXXXXXXXXXXXXXXXXXXXXXXXXXXXXXXXXXXXX.....#####ooooo                                                              ooooo+++++++++++++++ooooo               oooooo#####.....XXXXXXXXXXXXXXXXXXXXXXXXX**************************************************************XXXXXXXXXX##########ooooo                                                                                            ",
"                                                                                 oooooo+++++XXXXXXXXXXXXXXXXXXXXXXXXXXXXXXXXXXXXXXXXXXXXXXXXXXXXXXXXXXXXXXXXXXXXXXX.....#####ooooo                                                              ooooo+++++++++++++++ooooo               oooooo#####.....XXXXXXXXXXXXXXXXXXXXXXXXX**************************************************************XXXXXXXXXX##########ooooo                                                                                            ",
"                                                                                 oooooo+++++XXXXXXXXXXXXXXXXXXXXXXXXXXXXXXXXXXXXXXXXXXXXXXXXXXXXXXXXXXXXXXXXXXXXXXX.....#####ooooo                                                              ooooo+++++++++++++++ooooo               oooooo#####.....XXXXXXXXXXXXXXXXXXXXXXXXX**************************************************************XXXXXXXXXX##########ooooo                                                                                            ",
"                                                                                 oooooo+++++XXXXXXXXXXXXXXXXXXXXXXXXXXXXXXXXXXXXXXXXXXXXXXXXXXXXXXXXXXXXXXXXXXXXXXX.....#####ooooo                                                              ooooo+++++++++++++++ooooo               oooooo#####.....XXXXXXXXXXXXXXXXXXXXXXXXX**************************************************************XXXXXXXXXX##########ooooo                                                                                            ",
"                                                                                 oooooo+++++XXXXXXXXXXXXXXXXXXXXXXXXXXXXXXXXXXXXXXXXXXXXXXXXXXXXXXXXXXXXXXXXXXXXXXX.....#####ooooo                                                              ooooo+++++++++++++++ooooo               oooooo#####.....XXXXXXXXXXXXXXXXXXXXXXXXX**************************************************************XXXXXXXXXX##########ooooo                                                                                            ",
"                                                                            ooooo+++++++++++XXXXXXXXXXXXXXXXXXXXXXXXXXXXXXXXXXXXXXXXXXXXXXXXXXXXXXXXXXXXXXXXXX.....##########ooooo                                                                   ooooo+++++++++++++++oooooooooo     oooooo#####.....XXXXXXXXXXXXXXXXXXXXXXXXXXXXXX*********************************************************XXXXXXXXXX+++++#####+++++                                                                                            ",
"                                                                            ooooo+++++++++++XXXXXXXXXXXXXXXXXXXXXXXXXXXXXXXXXXXXXXXXXXXXXXXXXXXXXXXXXXXXXXXXXX.....##########ooooo                                                                   ooooo+++++++++++++++oooooooooo     oooooo#####.....XXXXXXXXXXXXXXXXXXXXXXXXXXXXXX*********************************************************XXXXXXXXXX+++++#####+++++                                                                                            ",
"                                                                            ooooo+++++++++++XXXXXXXXXXXXXXXXXXXXXXXXXXXXXXXXXXXXXXXXXXXXXXXXXXXXXXXXXXXXXXXXXX.....##########ooooo                                                                   ooooo+++++++++++++++oooooooooo     oooooo#####.....XXXXXXXXXXXXXXXXXXXXXXXXXXXXXX*********************************************************XXXXXXXXXX+++++#####+++++                                                                                            ",
"                                                                            ooooo+++++++++++XXXXXXXXXXXXXXXXXXXXXXXXXXXXXXXXXXXXXXXXXXXXXXXXXXXXXXXXXXXXXXXXXX.....##########ooooo                                                                   ooooo+++++++++++++++oooooooooo     oooooo#####.....XXXXXXXXXXXXXXXXXXXXXXXXXXXXXX*********************************************************XXXXXXXXXX+++++#####+++++                                                                                            ",
"                                                                            ooooo+++++++++++XXXXXXXXXXXXXXXXXXXXXXXXXXXXXXXXXXXXXXXXXXXXXXXXXXXXXXXXXXXXXXXXXX.....##########ooooo                                                                   ooooo+++++++++++++++oooooooooo     oooooo#####.....XXXXXXXXXXXXXXXXXXXXXXXXXXXXXX*********************************************************XXXXXXXXXX+++++#####+++++                                                                                            ",
"                                                                            ooooo++++++XXXXXXXXXXXXXXXXXXXXXXXXXXXXXXXXXXXXXXXXXXXXXXXXXXXXXXXXXXXXXXXXXXXXXXXXXXXXXXXXX#####ooooo                                                                        +++++++++++++++++++++++++ooooo++++++#####.....XXXXXXXXXXXXXXXXXXXXXXXXXXXXXX*********************************************************XXXXXXXXXX+++++#####+++++                                                                                            ",
"                                                                            ooooo++++++XXXXXXXXXXXXXXXXXXXXXXXXXXXXXXXXXXXXXXXXXXXXXXXXXXXXXXXXXXXXXXXXXXXXXXXXXXXXXXXXX#####ooooo                                                                        +++++++++++++++++++++++++ooooo++++++#####.....XXXXXXXXXXXXXXXXXXXXXXXXXXXXXX*********************************************************XXXXXXXXXX+++++#####+++++                                                                                            ",
"                                                                            ooooo++++++XXXXXXXXXXXXXXXXXXXXXXXXXXXXXXXXXXXXXXXXXXXXXXXXXXXXXXXXXXXXXXXXXXXXXXXXXXXXXXXXX#####ooooo                                                                        +++++++++++++++++++++++++ooooo++++++#####.....XXXXXXXXXXXXXXXXXXXXXXXXXXXXXX*********************************************************XXXXXXXXXX+++++#####+++++                                                                                            ",
"                                                                            ooooo++++++XXXXXXXXXXXXXXXXXXXXXXXXXXXXXXXXXXXXXXXXXXXXXXXXXXXXXXXXXXXXXXXXXXXXXXXXXXXXXXXXX#####ooooo                                                                        +++++++++++++++++++++++++ooooo++++++#####.....XXXXXXXXXXXXXXXXXXXXXXXXXXXXXX*********************************************************XXXXXXXXXX+++++#####+++++                                                                                            ",
"                                                                            ooooo++++++XXXXXXXXXXXXXXXXXXXXXXXXXXXXXXXXXXXXXXXXXXXXXXXXXXXXXXXXXXXXXXXXXXXXXXXXXXXXXXXXX#####ooooo                                                                        +++++++++++++++++++++++++ooooo++++++#####.....XXXXXXXXXXXXXXXXXXXXXXXXXXXXXX*********************************************************XXXXXXXXXX+++++#####+++++                                                                                            ",
"                                                                       ooooo+++++++++++XXXXXXXXXXXXXXXXXXXXXXXXXXXXXXXXXXXXXXXXXXXXXXXXXXXXXXXXXXXXXXXXXXXXXXXXXXXXXXXXX#####ooooo                                                                        ooooo++++++++++++++++++++ooooo###########.....XXXXXXXXXXXXXXXXXXXXXXXXXXXXXX*********************************************************XXXXXXXXXXXXXXX##########ooooo                                                                                       ",
"                                                                       ooooo+++++++++++XXXXXXXXXXXXXXXXXXXXXXXXXXXXXXXXXXXXXXXXXXXXXXXXXXXXXXXXXXXXXXXXXXXXXXXXXXXXXXXXX#####ooooo                                                                        ooooo++++++++++++++++++++ooooo###########.....XXXXXXXXXXXXXXXXXXXXXXXXXXXXXX*********************************************************XXXXXXXXXXXXXXX##########ooooo                                                                                       ",
"                                                                       ooooo+++++++++++XXXXXXXXXXXXXXXXXXXXXXXXXXXXXXXXXXXXXXXXXXXXXXXXXXXXXXXXXXXXXXXXXXXXXXXXXXXXXXXXX#####ooooo                                                                        ooooo++++++++++++++++++++ooooo###########.....XXXXXXXXXXXXXXXXXXXXXXXXXXXXXX*********************************************************XXXXXXXXXXXXXXX##########ooooo                                                                                       ",
"                                                                       ooooo+++++++++++XXXXXXXXXXXXXXXXXXXXXXXXXXXXXXXXXXXXXXXXXXXXXXXXXXXXXXXXXXXXXXXXXXXXXXXXXXXXXXXXX#####ooooo                                                                        ooooo++++++++++++++++++++ooooo###########.....XXXXXXXXXXXXXXXXXXXXXXXXXXXXXX*********************************************************XXXXXXXXXXXXXXX##########ooooo                                                                                       ",
"                                                                       ooooo+++++++++++XXXXXXXXXXXXXXXXXXXXXXXXXXXXXXXXXXXXXXXXXXXXXXXXXXXXXXXXXXXXXXXXXXXXXXXXXXXXXXXXX#####ooooo                                                                        ooooo++++++++++++++++++++ooooo###########.....XXXXXXXXXXXXXXXXXXXXXXXXXXXXXX*********************************************************XXXXXXXXXXXXXXX##########ooooo                                                                                       ",
"                                                                       ooooo+++++++++++XXXXXXXXXXXXXXXXXXXXooooooooooXXXXXXXXXXXXXXXXXXXXXXXXXXXXXXXXXXXXXXXXXXXXXXXXXXX##########oooooo                                                                       ooooo+++++++++++++++ooooo######+++++XXXXXXXXXXXXXXXXXXXXXXXXXXXXXXXXXXX***************************************************XXXXXXXXXXXXXXXXXXXXX+++++#####+++++                                                                                       ",
"                                                                       ooooo+++++++++++XXXXXXXXXXXXXXXXXXXXooooooooooXXXXXXXXXXXXXXXXXXXXXXXXXXXXXXXXXXXXXXXXXXXXXXXXXXX##########oooooo                                                                       ooooo+++++++++++++++ooooo######+++++XXXXXXXXXXXXXXXXXXXXXXXXXXXXXXXXXXX***************************************************XXXXXXXXXXXXXXXXXXXXX+++++#####+++++                                                                                       ",
"                                                                       ooooo+++++++++++XXXXXXXXXXXXXXXXXXXXooooooooooXXXXXXXXXXXXXXXXXXXXXXXXXXXXXXXXXXXXXXXXXXXXXXXXXXX##########oooooo                                                                       ooooo+++++++++++++++ooooo######+++++XXXXXXXXXXXXXXXXXXXXXXXXXXXXXXXXXXX***************************************************XXXXXXXXXXXXXXXXXXXXX+++++#####+++++                                                                                       ",
"                                                                       ooooo+++++++++++XXXXXXXXXXXXXXXXXXXXooooooooooXXXXXXXXXXXXXXXXXXXXXXXXXXXXXXXXXXXXXXXXXXXXXXXXXXX##########oooooo                                                                       ooooo+++++++++++++++ooooo######+++++XXXXXXXXXXXXXXXXXXXXXXXXXXXXXXXXXXX***************************************************XXXXXXXXXXXXXXXXXXXXX+++++#####+++++                                                                                       ",
"                                                                       ooooo+++++++++++XXXXXXXXXXXXXXXXXXXXooooooooooXXXXXXXXXXXXXXXXXXXXXXXXXXXXXXXXXXXXXXXXXXXXXXXXXXX##########oooooo                                                                       ooooo+++++++++++++++ooooo######+++++XXXXXXXXXXXXXXXXXXXXXXXXXXXXXXXXXXX***************************************************XXXXXXXXXXXXXXXXXXXXX+++++#####+++++                                                                                       ",
"                                                                  ooooo++++++++++XXXXXXXXXXXXXXXXXXXXXooooo++++++++++.....XXXXXXXXXXXXXXXXXXXXXXXXXXooooooooooXXXXXXXXXXXXXXX#####oooooo                                                                       oooooooooo+++++.....+++++++++++XXXXXXXXXXXXXXXXXXXXXXXXXXXXXXXXXXXXXXXX***************************************************XXXXXXXXXXXXXXXXXXXXX+++++#####+++++                                                                                       ",
"                                                                  ooooo++++++++++XXXXXXXXXXXXXXXXXXXXXooooo++++++++++.....XXXXXXXXXXXXXXXXXXXXXXXXXXooooooooooXXXXXXXXXXXXXXX#####oooooo                                                                       oooooooooo+++++.....+++++++++++XXXXXXXXXXXXXXXXXXXXXXXXXXXXXXXXXXXXXXXX***************************************************XXXXXXXXXXXXXXXXXXXXX+++++#####+++++                                                                                       ",
"                                                                  ooooo++++++++++XXXXXXXXXXXXXXXXXXXXXooooo++++++++++.....XXXXXXXXXXXXXXXXXXXXXXXXXXooooooooooXXXXXXXXXXXXXXX#####oooooo                                                                       oooooooooo+++++.....+++++++++++XXXXXXXXXXXXXXXXXXXXXXXXXXXXXXXXXXXXXXXX***************************************************XXXXXXXXXXXXXXXXXXXXX+++++#####+++++                                                                                       ",
"                                                                  ooooo++++++++++XXXXXXXXXXXXXXXXXXXXXooooo++++++++++.....XXXXXXXXXXXXXXXXXXXXXXXXXXooooooooooXXXXXXXXXXXXXXX#####oooooo                                                                       oooooooooo+++++.....+++++++++++XXXXXXXXXXXXXXXXXXXXXXXXXXXXXXXXXXXXXXXX***************************************************XXXXXXXXXXXXXXXXXXXXX+++++#####+++++                                                                                       ",
"                                                                  ooooo++++++++++XXXXXXXXXXXXXXXXXXXXXooooo++++++++++.....XXXXXXXXXXXXXXXXXXXXXXXXXXooooooooooXXXXXXXXXXXXXXX#####oooooo                                                                       oooooooooo+++++.....+++++++++++XXXXXXXXXXXXXXXXXXXXXXXXXXXXXXXXXXXXXXXX***************************************************XXXXXXXXXXXXXXXXXXXXX+++++#####+++++                                                                                       ",
"                                                             .....++++++++++XXXXXXXXXXXXXXXXXXXXXXXXXXooooo++++++++++.....XXXXXXXXXXXXXXXXXXXXXooooo##########.....XXXXXXXXXX+++++++++++.....                                                                       oooooooooooooooooooo+++++++++++XXXXXXXXXXXXXXXXXXXXXXXXXXXXXXXXXXXXXXXX****************************************************XXXXXXXXXXXXXXXXXXXXXXXXX##########ooooo                                                                             ",
"                                                             .....++++++++++XXXXXXXXXXXXXXXXXXXXXXXXXXooooo++++++++++.....XXXXXXXXXXXXXXXXXXXXXooooo##########.....XXXXXXXXXX+++++++++++.....                                                                       oooooooooooooooooooo+++++++++++XXXXXXXXXXXXXXXXXXXXXXXXXXXXXXXXXXXXXXXX****************************************************XXXXXXXXXXXXXXXXXXXXXXXXX##########ooooo                                                                             ",
"                                                             .....++++++++++XXXXXXXXXXXXXXXXXXXXXXXXXXooooo++++++++++.....XXXXXXXXXXXXXXXXXXXXXooooo##########.....XXXXXXXXXX+++++++++++.....                                                                       oooooooooooooooooooo+++++++++++XXXXXXXXXXXXXXXXXXXXXXXXXXXXXXXXXXXXXXXX****************************************************XXXXXXXXXXXXXXXXXXXXXXXXX##########ooooo                                                                             ",
"                                                             .....++++++++++XXXXXXXXXXXXXXXXXXXXXXXXXXooooo++++++++++.....XXXXXXXXXXXXXXXXXXXXXooooo##########.....XXXXXXXXXX+++++++++++.....                                                                       oooooooooooooooooooo+++++++++++XXXXXXXXXXXXXXXXXXXXXXXXXXXXXXXXXXXXXXXX****************************************************XXXXXXXXXXXXXXXXXXXXXXXXX##########ooooo                                                                             ",
"                                                             .....++++++++++XXXXXXXXXXXXXXXXXXXXXXXXXXooooo++++++++++.....XXXXXXXXXXXXXXXXXXXXXooooo##########.....XXXXXXXXXX+++++++++++.....                                                                       oooooooooooooooooooo+++++++++++XXXXXXXXXXXXXXXXXXXXXXXXXXXXXXXXXXXXXXXX****************************************************XXXXXXXXXXXXXXXXXXXXXXXXX##########ooooo                                                                             ",
"                                                             .....++++++++++XXXXXXXXXXXXXXXXXXXXXXXXXXooooo++++++++++.....XXXXXXXXXXXXXXXXXXXXXooooo##########.....XXXXXXXXXX+++++++++++.....                                                                       oooooooooooooooooooo+++++++++++XXXXXXXXXXXXXXXXXXXXXXXXXXXXXXXXXXXXXXXX****************************************************XXXXXXXXXXXXXXXXXXXXXXXXX##########ooooo                                                                             ",
"                                                             .....+++++XXXXXXXXXXXXXXXXXXXXXXXXXXooooo+++++++++++++++................XXXXXooooo##########+++++.....XXXXXXXXXXooooo+++++++++++.....                                                                            .....+++++++++++XXXXXXXXXXXXXXXXXXXXXXXXXXXXXXXXXXXXXXXXXXXXXXXXXXX**********************************************XXXXXXXXXXXXXXXXXXXXXXXXX+++++#####+++++                                                                             ",
"                                                             .....+++++XXXXXXXXXXXXXXXXXXXXXXXXXXooooo+++++++++++++++................XXXXXooooo##########+++++.....XXXXXXXXXXooooo+++++++++++.....                                                                            .....+++++++++++XXXXXXXXXXXXXXXXXXXXXXXXXXXXXXXXXXXXXXXXXXXXXXXXXXX**********************************************XXXXXXXXXXXXXXXXXXXXXXXXX+++++#####+++++                                                                             ",
"                                                             .....+++++XXXXXXXXXXXXXXXXXXXXXXXXXXooooo+++++++++++++++................XXXXXooooo##########+++++.....XXXXXXXXXXooooo+++++++++++.....                                                                            .....+++++++++++XXXXXXXXXXXXXXXXXXXXXXXXXXXXXXXXXXXXXXXXXXXXXXXXXXX**********************************************XXXXXXXXXXXXXXXXXXXXXXXXX+++++#####+++++                                                                             ",
"                                                             .....+++++XXXXXXXXXXXXXXXXXXXXXXXXXXooooo+++++++++++++++................XXXXXooooo##########+++++.....XXXXXXXXXXooooo+++++++++++.....                                                                            .....+++++++++++XXXXXXXXXXXXXXXXXXXXXXXXXXXXXXXXXXXXXXXXXXXXXXXXXXX**********************************************XXXXXXXXXXXXXXXXXXXXXXXXX+++++#####+++++                                                                             ",
"                                                             .....+++++XXXXXXXXXXXXXXXXXXXXXXXXXXooooo+++++++++++++++................XXXXXooooo##########+++++.....XXXXXXXXXXooooo+++++++++++.....                                                                            .....+++++++++++XXXXXXXXXXXXXXXXXXXXXXXXXXXXXXXXXXXXXXXXXXXXXXXXXXX**********************************************XXXXXXXXXXXXXXXXXXXXXXXXX+++++#####+++++                                                                             ",
"                                                             .....+++++XXXXXXXXXXXXXXXXXXXXXXXXXXooooo++++++++++.....                ooooo###############.....XXXXXXXXXXXXXXXXXXXXoooooo++++++++++..........                                                        ..........++++++++++XXXXXXXXXXXXXXXXXXXXXXXXXXXXXXXXXXXXXXXXXXXXXXXXXXXXXXXXX**********************************************XXXXXXXXXXXXXXXXXXXXXXXXXXXXXX##########oooooo                                                                       ",
"                                                             .....+++++XXXXXXXXXXXXXXXXXXXXXXXXXXooooo++++++++++.....                ooooo###############.....XXXXXXXXXXXXXXXXXXXXoooooo++++++++++..........                                                        ..........++++++++++XXXXXXXXXXXXXXXXXXXXXXXXXXXXXXXXXXXXXXXXXXXXXXXXXXXXXXXXX**********************************************XXXXXXXXXXXXXXXXXXXXXXXXXXXXXX##########oooooo                                                                       ",
"                                                             .....+++++XXXXXXXXXXXXXXXXXXXXXXXXXXooooo++++++++++.....                ooooo###############.....XXXXXXXXXXXXXXXXXXXXoooooo++++++++++..........                                                        ..........++++++++++XXXXXXXXXXXXXXXXXXXXXXXXXXXXXXXXXXXXXXXXXXXXXXXXXXXXXXXXX**********************************************XXXXXXXXXXXXXXXXXXXXXXXXXXXXXX##########oooooo                                                                       ",
"                                                             .....+++++XXXXXXXXXXXXXXXXXXXXXXXXXXooooo++++++++++.....                ooooo###############.....XXXXXXXXXXXXXXXXXXXXoooooo++++++++++..........                                                        ..........++++++++++XXXXXXXXXXXXXXXXXXXXXXXXXXXXXXXXXXXXXXXXXXXXXXXXXXXXXXXXX**********************************************XXXXXXXXXXXXXXXXXXXXXXXXXXXXXX##########oooooo                                                                       ",
"                                                             .....+++++XXXXXXXXXXXXXXXXXXXXXXXXXXooooo++++++++++.....                ooooo###############.....XXXXXXXXXXXXXXXXXXXXoooooo++++++++++..........                                                        ..........++++++++++XXXXXXXXXXXXXXXXXXXXXXXXXXXXXXXXXXXXXXXXXXXXXXXXXXXXXXXXX**********************************************XXXXXXXXXXXXXXXXXXXXXXXXXXXXXX##########oooooo                                                                       ",
"                                                             .....+++++XXXXXXXXXXXXXXXXXXXXXXXXXXooooo++++++++++.....          oooooo###############..........XXXXXXXXXXXXXXXXXXXXXXXXXXXXXXX+++++++++++++++ooooo                                         ..........#####++++++++++XXXXXXXXXXXXXXXXXXXXXXXXXXXXXXXXXXXXXXXXXXXXXXXXXXXXXXXXXXXXXXXXXXX*************************XXXXXXXXXXXXXXXXXXXXXXXXXXXXXXXXXXXXXXXXXXXXXX++++++++++......                                                                       ",
"                                                             .....+++++XXXXXXXXXXXXXXXXXXXXXXXXXXooooo++++++++++.....          oooooo###############..........XXXXXXXXXXXXXXXXXXXXXXXXXXXXXXX+++++++++++++++ooooo                                         ..........#####++++++++++XXXXXXXXXXXXXXXXXXXXXXXXXXXXXXXXXXXXXXXXXXXXXXXXXXXXXXXXXXXXXXXXXXX*************************XXXXXXXXXXXXXXXXXXXXXXXXXXXXXXXXXXXXXXXXXXXXXX++++++++++......                                                                       ",
"                                                             .....+++++XXXXXXXXXXXXXXXXXXXXXXXXXXooooo++++++++++.....          oooooo###############..........XXXXXXXXXXXXXXXXXXXXXXXXXXXXXXX+++++++++++++++ooooo                                         ..........#####++++++++++XXXXXXXXXXXXXXXXXXXXXXXXXXXXXXXXXXXXXXXXXXXXXXXXXXXXXXXXXXXXXXXXXXX*************************XXXXXXXXXXXXXXXXXXXXXXXXXXXXXXXXXXXXXXXXXXXXXX++++++++++......                                                                       ",
"                                                             .....+++++XXXXXXXXXXXXXXXXXXXXXXXXXXooooo++++++++++.....          oooooo###############..........XXXXXXXXXXXXXXXXXXXXXXXXXXXXXXX+++++++++++++++ooooo                                         ..........#####++++++++++XXXXXXXXXXXXXXXXXXXXXXXXXXXXXXXXXXXXXXXXXXXXXXXXXXXXXXXXXXXXXXXXXXX*************************XXXXXXXXXXXXXXXXXXXXXXXXXXXXXXXXXXXXXXXXXXXXXX++++++++++......                                                                       ",
"                                                             .....+++++XXXXXXXXXXXXXXXXXXXXXXXXXXooooo++++++++++.....          oooooo###############..........XXXXXXXXXXXXXXXXXXXXXXXXXXXXXXX+++++++++++++++ooooo                                         ..........#####++++++++++XXXXXXXXXXXXXXXXXXXXXXXXXXXXXXXXXXXXXXXXXXXXXXXXXXXXXXXXXXXXXXXXXXX*************************XXXXXXXXXXXXXXXXXXXXXXXXXXXXXXXXXXXXXXXXXXXXXX++++++++++......                                                                       ",
"                                                             .....++++++++++XXXXXXXXXXXXXXXX.....+++++++++++++++.....oooooooooo################ooooo          .....XXXXXXXXXXXXXXXXXXXXXXXXXXXXXXX+++++++++++++++ooooo                               .....###############+++++.....XXXXXXXXXXX*****XXXXXXXXXXXXXXXXXXXXXXXXXXXXXXXXXXXXXXXXXXXXXXXXXXX********************XXXXX          ......XXXXXXXXXXXXXXXXXXXXXXXXXXXXXXXXXXX+++++......                                                                       ",
"                                                             .....++++++++++XXXXXXXXXXXXXXXX.....+++++++++++++++.....oooooooooo################ooooo          .....XXXXXXXXXXXXXXXXXXXXXXXXXXXXXXX+++++++++++++++ooooo                               .....###############+++++.....XXXXXXXXXXX*****XXXXXXXXXXXXXXXXXXXXXXXXXXXXXXXXXXXXXXXXXXXXXXXXXXX********************XXXXX          ......XXXXXXXXXXXXXXXXXXXXXXXXXXXXXXXXXXX+++++......                                                                       ",
"                                                             .....++++++++++XXXXXXXXXXXXXXXX.....+++++++++++++++.....oooooooooo################ooooo          .....XXXXXXXXXXXXXXXXXXXXXXXXXXXXXXX+++++++++++++++ooooo                               .....###############+++++.....XXXXXXXXXXX*****XXXXXXXXXXXXXXXXXXXXXXXXXXXXXXXXXXXXXXXXXXXXXXXXXXX********************XXXXX          ......XXXXXXXXXXXXXXXXXXXXXXXXXXXXXXXXXXX+++++......                                                                       ",
"                                                             .....++++++++++XXXXXXXXXXXXXXXX.....+++++++++++++++.....oooooooooo################ooooo          .....XXXXXXXXXXXXXXXXXXXXXXXXXXXXXXX+++++++++++++++ooooo                               .....###############+++++.....XXXXXXXXXXX*****XXXXXXXXXXXXXXXXXXXXXXXXXXXXXXXXXXXXXXXXXXXXXXXXXXX********************XXXXX          ......XXXXXXXXXXXXXXXXXXXXXXXXXXXXXXXXXXX+++++......                                                                       ",
"                                                             .....++++++++++XXXXXXXXXXXXXXXX.....+++++++++++++++.....oooooooooo################ooooo          .....XXXXXXXXXXXXXXXXXXXXXXXXXXXXXXX+++++++++++++++ooooo                               .....###############+++++.....XXXXXXXXXXX*****XXXXXXXXXXXXXXXXXXXXXXXXXXXXXXXXXXXXXXXXXXXXXXXXXXX********************XXXXX          ......XXXXXXXXXXXXXXXXXXXXXXXXXXXXXXXXXXX+++++......                                                                       ",
"                                                                  ooooo+++++XXXXXXXXXXXXXXXX.....+++++oooooooooo#####+++++#####################.....               .....XXXXXXXXXXXXXXXXXXXXX....................ooooo                               ooooo##########+++++.....XXXXXXXXXXXXXXXXXXXXX*****XXXXXXXXXXXXXXXXXXXXXXXXXXXXXXXXXXXXXXXXXXXXXX***************XXXXX                     .....XXXXXXXXXXXXXXXXXXXXXXXXXXXXXX+++++......                                                                       ",
"                                                                  ooooo+++++XXXXXXXXXXXXXXXX.....+++++oooooooooo#####+++++#####################.....               .....XXXXXXXXXXXXXXXXXXXXX....................ooooo                               ooooo##########+++++.....XXXXXXXXXXXXXXXXXXXXX*****XXXXXXXXXXXXXXXXXXXXXXXXXXXXXXXXXXXXXXXXXXXXXX***************XXXXX                     .....XXXXXXXXXXXXXXXXXXXXXXXXXXXXXX+++++......                                                                       ",
"                                                                  ooooo+++++XXXXXXXXXXXXXXXX.....+++++oooooooooo#####+++++#####################.....               .....XXXXXXXXXXXXXXXXXXXXX....................ooooo                               ooooo##########+++++.....XXXXXXXXXXXXXXXXXXXXX*****XXXXXXXXXXXXXXXXXXXXXXXXXXXXXXXXXXXXXXXXXXXXXX***************XXXXX                     .....XXXXXXXXXXXXXXXXXXXXXXXXXXXXXX+++++......                                                                       ",
"                                                                  ooooo+++++XXXXXXXXXXXXXXXX.....+++++oooooooooo#####+++++#####################.....               .....XXXXXXXXXXXXXXXXXXXXX....................ooooo                               ooooo##########+++++.....XXXXXXXXXXXXXXXXXXXXX*****XXXXXXXXXXXXXXXXXXXXXXXXXXXXXXXXXXXXXXXXXXXXXX***************XXXXX                     .....XXXXXXXXXXXXXXXXXXXXXXXXXXXXXX+++++......                                                                       ",
"                                                                  ooooo+++++XXXXXXXXXXXXXXXX.....+++++oooooooooo#####+++++#####################.....               .....XXXXXXXXXXXXXXXXXXXXX....................ooooo                               ooooo##########+++++.....XXXXXXXXXXXXXXXXXXXXX*****XXXXXXXXXXXXXXXXXXXXXXXXXXXXXXXXXXXXXXXXXXXXXX***************XXXXX                     .....XXXXXXXXXXXXXXXXXXXXXXXXXXXXXX+++++......                                                                       ",
"                                                                  ooooo+++++XXXXXXXXXXX.....+++++#########################################.....                    .....XXXXX................####################...............                ooooo+++++++++++++++.....XXXXXXXXXXXXXXXXXXXXX*****XXXXX*****XXXXXXXXXXXXXXXXXXXXXXXXXXXXXXXXXXXXXXXXXXXXXX*****XXXXX                               .....XXXXXXXXXXXXXXXXXXXXXXXXX+++++......                                                                       ",
"                                                                  ooooo+++++XXXXXXXXXXX.....+++++#########################################.....                    .....XXXXX................####################...............                ooooo+++++++++++++++.....XXXXXXXXXXXXXXXXXXXXX*****XXXXX*****XXXXXXXXXXXXXXXXXXXXXXXXXXXXXXXXXXXXXXXXXXXXXX*****XXXXX                               .....XXXXXXXXXXXXXXXXXXXXXXXXX+++++......                                                                       ",
"                                                                  ooooo+++++XXXXXXXXXXX.....+++++#########################################.....                    .....XXXXX................####################...............                ooooo+++++++++++++++.....XXXXXXXXXXXXXXXXXXXXX*****XXXXX*****XXXXXXXXXXXXXXXXXXXXXXXXXXXXXXXXXXXXXXXXXXXXXX*****XXXXX                               .....XXXXXXXXXXXXXXXXXXXXXXXXX+++++......                                                                       ",
"                                                                  ooooo+++++XXXXXXXXXXX.....+++++#########################################.....                    .....XXXXX................####################...............                ooooo+++++++++++++++.....XXXXXXXXXXXXXXXXXXXXX*****XXXXX*****XXXXXXXXXXXXXXXXXXXXXXXXXXXXXXXXXXXXXXXXXXXXXX*****XXXXX                               .....XXXXXXXXXXXXXXXXXXXXXXXXX+++++......                                                                       ",
"                                                                  ooooo+++++XXXXXXXXXXX.....+++++#########################################.....                    .....XXXXX................####################...............                ooooo+++++++++++++++.....XXXXXXXXXXXXXXXXXXXXX*****XXXXX*****XXXXXXXXXXXXXXXXXXXXXXXXXXXXXXXXXXXXXXXXXXXXXX*****XXXXX                               .....XXXXXXXXXXXXXXXXXXXXXXXXX+++++......                                                                       ",
"                                                                       ooooo+++++XXXXXX.....##############################################..........          ...............##############################################+++++...........     ooooo+++++++++++++++.....XXXXXXXXXXXXXXXXXXXXXXXXXX*****XXXXXXXXXXXXXXX..........................XXXXXXXXXX*****XXXXXooooo                               .....XXXXXXXXXXXXXXXXXXXX+++++......                                                                       ",
"                                                                       ooooo+++++XXXXXX.....##############################################..........          ...............##############################################+++++...........     ooooo+++++++++++++++.....XXXXXXXXXXXXXXXXXXXXXXXXXX*****XXXXXXXXXXXXXXX..........................XXXXXXXXXX*****XXXXXooooo                               .....XXXXXXXXXXXXXXXXXXXX+++++......                                                                       ",
"                                                                       ooooo+++++XXXXXX.....##############################################..........          ...............##############################################+++++...........     ooooo+++++++++++++++.....XXXXXXXXXXXXXXXXXXXXXXXXXX*****XXXXXXXXXXXXXXX..........................XXXXXXXXXX*****XXXXXooooo                               .....XXXXXXXXXXXXXXXXXXXX+++++......                                                                       ",
"                                                                       ooooo+++++XXXXXX.....##############################################..........          ...............##############################################+++++...........     ooooo+++++++++++++++.....XXXXXXXXXXXXXXXXXXXXXXXXXX*****XXXXXXXXXXXXXXX..........................XXXXXXXXXX*****XXXXXooooo                               .....XXXXXXXXXXXXXXXXXXXX+++++......                                                                       ",
"                                                                       ooooo+++++XXXXXX.....##############################################..........          ...............##############################################+++++...........     ooooo+++++++++++++++.....XXXXXXXXXXXXXXXXXXXXXXXXXX*****XXXXXXXXXXXXXXX..........................XXXXXXXXXX*****XXXXXooooo                               .....XXXXXXXXXXXXXXXXXXXX+++++......                                                                       ",
"                                                                       ooooo+++++......########################################################ooooo...............+++++#############################################################++++++..........++++++++++.....XXXXXXXXXXXXXXXXXXXXXXXXXX*****XXXXX*****XXXXXXXXXX          ++++++++++++++++.....XXXXXXXXXX++++++++++ooooo                          .....XXXXXXXXXXXXXXXXXXXX+++++......                                                                       ",
"                                                                       ooooo+++++......########################################################ooooo...............+++++#############################################################++++++..........++++++++++.....XXXXXXXXXXXXXXXXXXXXXXXXXX*****XXXXX*****XXXXXXXXXX          ++++++++++++++++.....XXXXXXXXXX++++++++++ooooo                          .....XXXXXXXXXXXXXXXXXXXX+++++......                                                                       ",
"                                                                       ooooo+++++......########################################################ooooo...............+++++#############################################################++++++..........++++++++++.....XXXXXXXXXXXXXXXXXXXXXXXXXX*****XXXXX*****XXXXXXXXXX          ++++++++++++++++.....XXXXXXXXXX++++++++++ooooo                          .....XXXXXXXXXXXXXXXXXXXX+++++......                                                                       ",
"                                                                       ooooo+++++......########################################################ooooo...............+++++#############################################################++++++..........++++++++++.....XXXXXXXXXXXXXXXXXXXXXXXXXX*****XXXXX*****XXXXXXXXXX          ++++++++++++++++.....XXXXXXXXXX++++++++++ooooo                          .....XXXXXXXXXXXXXXXXXXXX+++++......                                                                       ",
"                                                                       ooooo+++++......########################################################ooooo...............+++++#############################################################++++++..........++++++++++.....XXXXXXXXXXXXXXXXXXXXXXXXXX*****XXXXX*****XXXXXXXXXX          ++++++++++++++++.....XXXXXXXXXX++++++++++ooooo                          .....XXXXXXXXXXXXXXXXXXXX+++++......                                                                       ",
"                                                                            .....###################################################################ooooo++++++++++++++++++++###################################################################+++++.....+++++.....XXXXXXXXXXXXXXXXXXXXXXXXXXXXXXX*****XXXXX                         .....+++++++++++.....XXXXX+++++++++++++++ooooo                     .....XXXXXXXXXXXXXXXXXXXX+++++......                                                                       ",
"                                                                            .....###################################################################ooooo++++++++++++++++++++###################################################################+++++.....+++++.....XXXXXXXXXXXXXXXXXXXXXXXXXXXXXXX*****XXXXX                         .....+++++++++++.....XXXXX+++++++++++++++ooooo                     .....XXXXXXXXXXXXXXXXXXXX+++++......                                                                       ",
"                                                                            .....###################################################################ooooo++++++++++++++++++++###################################################################+++++.....+++++.....XXXXXXXXXXXXXXXXXXXXXXXXXXXXXXX*****XXXXX                         .....+++++++++++.....XXXXX+++++++++++++++ooooo                     .....XXXXXXXXXXXXXXXXXXXX+++++......                                                                       ",
"                                                                            .....###################################################################ooooo++++++++++++++++++++###################################################################+++++.....+++++.....XXXXXXXXXXXXXXXXXXXXXXXXXXXXXXX*****XXXXX                         .....+++++++++++.....XXXXX+++++++++++++++ooooo                     .....XXXXXXXXXXXXXXXXXXXX+++++......                                                                       ",
"                                                                            .....###################################################################ooooo++++++++++++++++++++###################################################################+++++.....+++++.....XXXXXXXXXXXXXXXXXXXXXXXXXXXXXXX*****XXXXX                         .....+++++++++++.....XXXXX+++++++++++++++ooooo                     .....XXXXXXXXXXXXXXXXXXXX+++++......                                                                       ",
"                                                                       .....#############################################################################+++++++++++++++++++++++++########################################################################.....XXXXXXXXXXXXXXXXXXXXXXXXXXXXXXXXXXXXXXXXX                              .....++++++++++++++++++++++++++++++++++++ooooo                          .....XXXXXXXXXXXXXXX+++++......                                                                       ",
"                                                                       .....#############################################################################+++++++++++++++++++++++++########################################################################.....XXXXXXXXXXXXXXXXXXXXXXXXXXXXXXXXXXXXXXXXX                              .....++++++++++++++++++++++++++++++++++++ooooo                          .....XXXXXXXXXXXXXXX+++++......                                                                       ",
"                                                                       .....#############################################################################+++++++++++++++++++++++++########################################################################.....XXXXXXXXXXXXXXXXXXXXXXXXXXXXXXXXXXXXXXXXX                              .....++++++++++++++++++++++++++++++++++++ooooo                          .....XXXXXXXXXXXXXXX+++++......                                                                       ",
"                                                                       .....#############################################################################+++++++++++++++++++++++++########################################################################.....XXXXXXXXXXXXXXXXXXXXXXXXXXXXXXXXXXXXXXXXX                              .....++++++++++++++++++++++++++++++++++++ooooo                          .....XXXXXXXXXXXXXXX+++++......                                                                       ",
"                                                                       .....#############################################################################+++++++++++++++++++++++++########################################################################.....XXXXXXXXXXXXXXXXXXXXXXXXXXXXXXXXXXXXXXXXX                              .....++++++++++++++++++++++++++++++++++++ooooo                          .....XXXXXXXXXXXXXXX+++++......                                                                       ",
"                                                                       .....#############################################################################+++++++++++++++++++++++++########################################################################.....XXXXXXXXXXXXXXXXXXXXXXXXXXXXXXXXXXXXXXXXX                              .....++++++++++++++++++++++++++++++++++++ooooo                          .....XXXXXXXXXXXXXXX+++++......                                                                       ",
"                                                                       .....################+++++%%%%%%%%%%##########ooooo+++++##########################+++++++++++++++++++++++++#############################################################################.....XXXXXXXXXXXXXXXXXXXXXXXXXXXXXXX                                        ......+++++++++++++++++++++++++++++++++++ooooo                     .....XXXXXXXXXXXXXXX+++++......                                                                       ",
"                                                                       .....################+++++%%%%%%%%%%##########ooooo+++++##########################+++++++++++++++++++++++++#############################################################################.....XXXXXXXXXXXXXXXXXXXXXXXXXXXXXXX                                        ......+++++++++++++++++++++++++++++++++++ooooo                     .....XXXXXXXXXXXXXXX+++++......                                                                       ",
"                                                                       .....################+++++%%%%%%%%%%##########ooooo+++++##########################+++++++++++++++++++++++++#############################################################################.....XXXXXXXXXXXXXXXXXXXXXXXXXXXXXXX                                        ......+++++++++++++++++++++++++++++++++++ooooo                     .....XXXXXXXXXXXXXXX+++++......                                                                       ",
"                                                                       .....################+++++%%%%%%%%%%##########ooooo+++++##########################+++++++++++++++++++++++++#############################################################################.....XXXXXXXXXXXXXXXXXXXXXXXXXXXXXXX                                        ......+++++++++++++++++++++++++++++++++++ooooo                     .....XXXXXXXXXXXXXXX+++++......                                                                       ",
"                                                                       .....################+++++%%%%%%%%%%##########ooooo+++++##########################+++++++++++++++++++++++++#############################################################################.....XXXXXXXXXXXXXXXXXXXXXXXXXXXXXXX                                        ......+++++++++++++++++++++++++++++++++++ooooo                     .....XXXXXXXXXXXXXXX+++++......                                                                       ",
"                                                                  .....################+++++%%%%%%%%%%#####+++++=====ooooo####################################+++++++++++++++ooooo...........++++++++++++++++++++##############################################.........................XXXXXX                                                   ooooo+++++++++++++++++++++++++++++++++++oooooo                    .....XXXXXXXXXX+++++......                                                                       ",
"                                                                  .....################+++++%%%%%%%%%%#####+++++=====ooooo####################################+++++++++++++++ooooo...........++++++++++++++++++++##############################################.........................XXXXXX                                                   ooooo+++++++++++++++++++++++++++++++++++oooooo                    .....XXXXXXXXXX+++++......                                                                       ",
"                                                                  .....################+++++%%%%%%%%%%#####+++++=====ooooo####################################+++++++++++++++ooooo...........++++++++++++++++++++##############################################.........................XXXXXX                                                   ooooo+++++++++++++++++++++++++++++++++++oooooo                    .....XXXXXXXXXX+++++......                                                                       ",
"                                                                  .....################+++++%%%%%%%%%%#####+++++=====ooooo####################################+++++++++++++++ooooo...........++++++++++++++++++++##############################################.........................XXXXXX                                                   ooooo+++++++++++++++++++++++++++++++++++oooooo                    .....XXXXXXXXXX+++++......                                                                       ",
"                                                                  .....################+++++%%%%%%%%%%#####+++++=====ooooo####################################+++++++++++++++ooooo...........++++++++++++++++++++##############################################.........................XXXXXX                                                   ooooo+++++++++++++++++++++++++++++++++++oooooo                    .....XXXXXXXXXX+++++......                                                                       ",
"                                                                  .....ooooo++++++++++++++++##########+++++.....----------####################################+++++oooooooooo                ..........ooooo+++++++++++++++###############################ooooo####################.....oooooo                                                        ooooo++++++++++++++++++++++++++++++++++++.....               .....XXXXX++++++++++                                                                             ",
"                                                                  .....ooooo++++++++++++++++##########+++++.....----------####################################+++++oooooooooo                ..........ooooo+++++++++++++++###############################ooooo####################.....oooooo                                                        ooooo++++++++++++++++++++++++++++++++++++.....               .....XXXXX++++++++++                                                                             ",
"                                                                  .....ooooo++++++++++++++++##########+++++.....----------####################################+++++oooooooooo                ..........ooooo+++++++++++++++###############################ooooo####################.....oooooo                                                        ooooo++++++++++++++++++++++++++++++++++++.....               .....XXXXX++++++++++                                                                             ",
"                                                                  .....ooooo++++++++++++++++##########+++++.....----------####################################+++++oooooooooo                ..........ooooo+++++++++++++++###############################ooooo####################.....oooooo                                                        ooooo++++++++++++++++++++++++++++++++++++.....               .....XXXXX++++++++++                                                                             ",
"                                                                  .....ooooo++++++++++++++++##########+++++.....----------####################################+++++oooooooooo                ..........ooooo+++++++++++++++###############################ooooo####################.....oooooo                                                        ooooo++++++++++++++++++++++++++++++++++++.....               .....XXXXX++++++++++                                                                             ",
"                                                                       .....+++++++++++ooooo##########*****.....-----+++++####################################ooooo               ooooooooooo++++++++++oooooooooo+++++++++++++++##############################################################ooooo                                                   ooooo++++++++++++++++++++++++++++++++++++oooooooooo          .....XXXXX+++++.....                                                                             ",
"                                                                       .....+++++++++++ooooo##########*****.....-----+++++####################################ooooo               ooooooooooo++++++++++oooooooooo+++++++++++++++##############################################################ooooo                                                   ooooo++++++++++++++++++++++++++++++++++++oooooooooo          .....XXXXX+++++.....                                                                             ",
"                                                                       .....+++++++++++ooooo##########*****.....-----+++++####################################ooooo               ooooooooooo++++++++++oooooooooo+++++++++++++++##############################################################ooooo                                                   ooooo++++++++++++++++++++++++++++++++++++oooooooooo          .....XXXXX+++++.....                                                                             ",
"                                                                       .....+++++++++++ooooo##########*****.....-----+++++####################################ooooo               ooooooooooo++++++++++oooooooooo+++++++++++++++##############################################################ooooo                                                   ooooo++++++++++++++++++++++++++++++++++++oooooooooo          .....XXXXX+++++.....                                                                             ",
"                                                                       .....+++++++++++ooooo##########*****.....-----+++++####################################ooooo               ooooooooooo++++++++++oooooooooo+++++++++++++++##############################################################ooooo                                                   ooooo++++++++++++++++++++++++++++++++++++oooooooooo          .....XXXXX+++++.....                                                                             ",
"                                                                            .....oooooo+++++#####ooooooooooooooo+++++##########++++++ooooo.....ooooo##########oooooooooooooooooooo++++++++++++++++++++++++++++++++++++++++++++++########################################################################ooooooooooooooooooooooooo.....                     +++++++++++++++++++++++++++++++++++++++++.....          .....++++++++++                                                                                  ",
"                                                                            .....oooooo+++++#####ooooooooooooooo+++++##########++++++ooooo.....ooooo##########oooooooooooooooooooo++++++++++++++++++++++++++++++++++++++++++++++########################################################################ooooooooooooooooooooooooo.....                     +++++++++++++++++++++++++++++++++++++++++.....          .....++++++++++                                                                                  ",
"                                                                            .....oooooo+++++#####ooooooooooooooo+++++##########++++++ooooo.....ooooo##########oooooooooooooooooooo++++++++++++++++++++++++++++++++++++++++++++++########################################################################ooooooooooooooooooooooooo.....                     +++++++++++++++++++++++++++++++++++++++++.....          .....++++++++++                                                                                  ",
"                                                                            .....oooooo+++++#####ooooooooooooooo+++++##########++++++ooooo.....ooooo##########oooooooooooooooooooo++++++++++++++++++++++++++++++++++++++++++++++########################################################################ooooooooooooooooooooooooo.....                     +++++++++++++++++++++++++++++++++++++++++.....          .....++++++++++                                                                                  ",
"                                                                            .....oooooo+++++#####ooooooooooooooo+++++##########++++++ooooo.....ooooo##########oooooooooooooooooooo++++++++++++++++++++++++++++++++++++++++++++++########################################################################ooooooooooooooooooooooooo.....                     +++++++++++++++++++++++++++++++++++++++++.....          .....++++++++++                                                                                  ",
"                                                                                 oooooo+++++###################################................+++++++++++++++ooooo+++++++++++++++++++++++++++++++++++++++++++++++++++++++++++++#################################################################################################+++++.....                ooooo+++++++++++++++++++++++++++++++++++++++++          .....+++++.....                                                                                  ",
"                                                                                 oooooo+++++###################################................+++++++++++++++ooooo+++++++++++++++++++++++++++++++++++++++++++++++++++++++++++++#################################################################################################+++++.....                ooooo+++++++++++++++++++++++++++++++++++++++++          .....+++++.....                                                                                  ",
"                                                                                 oooooo+++++###################################................+++++++++++++++ooooo+++++++++++++++++++++++++++++++++++++++++++++++++++++++++++++#################################################################################################+++++.....                ooooo+++++++++++++++++++++++++++++++++++++++++          .....+++++.....                                                                                  ",
"                                                                                 oooooo+++++###################################................+++++++++++++++ooooo+++++++++++++++++++++++++++++++++++++++++++++++++++++++++++++#################################################################################################+++++.....                ooooo+++++++++++++++++++++++++++++++++++++++++          .....+++++.....                                                                                  ",
"                                                                                 oooooo+++++###################################................+++++++++++++++ooooo+++++++++++++++++++++++++++++++++++++++++++++++++++++++++++++#################################################################################################+++++.....                ooooo+++++++++++++++++++++++++++++++++++++++++          .....+++++.....                                                                                  ",
"                                                                            ooooo#########################################+++++......OOOOO.....ooooo++++++++++ooooo++++++++++++++++++++++++++++++++++++++++++++++################################################################################################################+++++.....                ooooo+++++++++++++++++++++++++++++++++++++++++.....          +++++                                                                                       ",
"                                                                            ooooo#########################################+++++......OOOOO.....ooooo++++++++++ooooo++++++++++++++++++++++++++++++++++++++++++++++################################################################################################################+++++.....                ooooo+++++++++++++++++++++++++++++++++++++++++.....          +++++                                                                                       ",
"                                                                            ooooo#########################################+++++......OOOOO.....ooooo++++++++++ooooo++++++++++++++++++++++++++++++++++++++++++++++################################################################################################################+++++.....                ooooo+++++++++++++++++++++++++++++++++++++++++.....          +++++                                                                                       ",
"                                                                            ooooo#########################################+++++......OOOOO.....ooooo++++++++++ooooo++++++++++++++++++++++++++++++++++++++++++++++################################################################################################################+++++.....                ooooo+++++++++++++++++++++++++++++++++++++++++.....          +++++                                                                                       ",
"                                                                            ooooo#########################################+++++......OOOOO.....ooooo++++++++++ooooo++++++++++++++++++++++++++++++++++++++++++++++################################################################################################################+++++.....                ooooo+++++++++++++++++++++++++++++++++++++++++.....          +++++                                                                                       ",
"                                                                       ooooo#########################################+++++.....OOOOOOOOOOOOOOOO.....++++++++++.....+++++++++++++++++++++ooooo++++++++++++++++++++#############################################################################oooooooooo.....###############++++++++++.....                     ooooo++++++++++++++++++++++++++++++++++++ooooo          .....                                                                                       ",
"                                                                       ooooo#########################################+++++.....OOOOOOOOOOOOOOOO.....++++++++++.....+++++++++++++++++++++ooooo++++++++++++++++++++#############################################################################oooooooooo.....###############++++++++++.....                     ooooo++++++++++++++++++++++++++++++++++++ooooo          .....                                                                                       ",
"                                                                       ooooo#########################################+++++.....OOOOOOOOOOOOOOOO.....++++++++++.....+++++++++++++++++++++ooooo++++++++++++++++++++#############################################################################oooooooooo.....###############++++++++++.....                     ooooo++++++++++++++++++++++++++++++++++++ooooo          .....                                                                                       ",
"                                                                       ooooo#########################################+++++.....OOOOOOOOOOOOOOOO.....++++++++++.....+++++++++++++++++++++ooooo++++++++++++++++++++#############################################################################oooooooooo.....###############++++++++++.....                     ooooo++++++++++++++++++++++++++++++++++++ooooo          .....                                                                                       ",
"                                                                       ooooo#########################################+++++.....OOOOOOOOOOOOOOOO.....++++++++++.....+++++++++++++++++++++ooooo++++++++++++++++++++#############################################################################oooooooooo.....###############++++++++++.....                     ooooo++++++++++++++++++++++++++++++++++++ooooo          .....                                                                                       ",
"                                                                       ooooo####################################..........OOOOOOOOOOOOOOOO.....++++++++++.....+++++ooooo+++++ooooooooooo+++++++++++++++#################################################################################+++++++++++ooooo     oooooooooo+++++++++++++++.....                ooooo+++++++++++++++++++++++++++++++++++++++++.....                                                                                                      ",
"                                                                       ooooo####################################..........OOOOOOOOOOOOOOOO.....++++++++++.....+++++ooooo+++++ooooooooooo+++++++++++++++#################################################################################+++++++++++ooooo     oooooooooo+++++++++++++++.....                ooooo+++++++++++++++++++++++++++++++++++++++++.....                                                                                                      ",
"                                                                       ooooo####################################..........OOOOOOOOOOOOOOOO.....++++++++++.....+++++ooooo+++++ooooooooooo+++++++++++++++#################################################################################+++++++++++ooooo     oooooooooo+++++++++++++++.....                ooooo+++++++++++++++++++++++++++++++++++++++++.....                                                                                                      ",
"                                                                       ooooo####################################..........OOOOOOOOOOOOOOOO.....++++++++++.....+++++ooooo+++++ooooooooooo+++++++++++++++#################################################################################+++++++++++ooooo     oooooooooo+++++++++++++++.....                ooooo+++++++++++++++++++++++++++++++++++++++++.....                                                                                                      ",
"                                                                       ooooo####################################..........OOOOOOOOOOOOOOOO.....++++++++++.....+++++ooooo+++++ooooooooooo+++++++++++++++#################################################################################+++++++++++ooooo     oooooooooo+++++++++++++++.....                ooooo+++++++++++++++++++++++++++++++++++++++++.....                                                                                                      ",
"                                                                  ooooo####################################.....     .....OOOOOOOOOOOOOOOO.....+++++.....ooooo     ooooo          oooooo+++++############################################################################+++++oooooooooo++++++++++++++++ooooo          .....+++++++++++++++......          ooooo+++++++++++++++++++++++++++++++++++++++++ooooo                                                                                                      ",
"                                                                  ooooo####################################.....     .....OOOOOOOOOOOOOOOO.....+++++.....ooooo     ooooo          oooooo+++++############################################################################+++++oooooooooo++++++++++++++++ooooo          .....+++++++++++++++......          ooooo+++++++++++++++++++++++++++++++++++++++++ooooo                                                                                                      ",
"                                                                  ooooo####################################.....     .....OOOOOOOOOOOOOOOO.....+++++.....ooooo     ooooo          oooooo+++++############################################################################+++++oooooooooo++++++++++++++++ooooo          .....+++++++++++++++......          ooooo+++++++++++++++++++++++++++++++++++++++++ooooo                                                                                                      ",
"                                                                  ooooo####################################.....     .....OOOOOOOOOOOOOOOO.....+++++.....ooooo     ooooo          oooooo+++++############################################################################+++++oooooooooo++++++++++++++++ooooo          .....+++++++++++++++......          ooooo+++++++++++++++++++++++++++++++++++++++++ooooo                                                                                                      ",
"                                                                  ooooo####################################.....     .....OOOOOOOOOOOOOOOO.....+++++.....ooooo     ooooo          oooooo+++++############################################################################+++++oooooooooo++++++++++++++++ooooo          .....+++++++++++++++......          ooooo+++++++++++++++++++++++++++++++++++++++++ooooo                                                                                                      ",
"                                                                  ooooo####################################.....     .....OOOOOOOOOOOOOOOO.....+++++.....ooooo     ooooo          oooooo+++++############################################################################+++++oooooooooo++++++++++++++++ooooo          .....+++++++++++++++......          ooooo+++++++++++++++++++++++++++++++++++++++++ooooo                                                                                                      ",
"                                                             ooooo###############oooooo##########+++++.....          .....OOOOOOOOOOO.....ooooo+++++.....                    ooooo++++++##########&&&&&&&&&&&&&&&&&&&&########################################################################+++++++++++++++ooooo     .....+++++++++++++++......               ++++++++++++++++++++++++++++++++++++++++++++++.....                                                                                                 ",
"                                                             ooooo###############oooooo##########+++++.....          .....OOOOOOOOOOO.....ooooo+++++.....                    ooooo++++++##########&&&&&&&&&&&&&&&&&&&&########################################################################+++++++++++++++ooooo     .....+++++++++++++++......               ++++++++++++++++++++++++++++++++++++++++++++++.....                                                                                                 ",
"                                                             ooooo###############oooooo##########+++++.....          .....OOOOOOOOOOO.....ooooo+++++.....                    ooooo++++++##########&&&&&&&&&&&&&&&&&&&&########################################################################+++++++++++++++ooooo     .....+++++++++++++++......               ++++++++++++++++++++++++++++++++++++++++++++++.....                                                                                                 ",
"                                                             ooooo###############oooooo##########+++++.....          .....OOOOOOOOOOO.....ooooo+++++.....                    ooooo++++++##########&&&&&&&&&&&&&&&&&&&&########################################################################+++++++++++++++ooooo     .....+++++++++++++++......               ++++++++++++++++++++++++++++++++++++++++++++++.....                                                                                                 ",
"                                                             ooooo###############oooooo##########+++++.....          .....OOOOOOOOOOO.....ooooo+++++.....                    ooooo++++++##########&&&&&&&&&&&&&&&&&&&&########################################################################+++++++++++++++ooooo     .....+++++++++++++++......               ++++++++++++++++++++++++++++++++++++++++++++++.....                                                                                                 ",
"                                                             .....##########+++++###########+++++-----.....     .....oooooOOOOO......-----#####oooooooooo                    .....######&&&&&&&&&&&&&&&&&&&&&&&&&&&&&&&&&&&&&&&&###################################################################+++++++++++++++.....++++++++++++++++++++......               ++++++++++++++++++++++++++++++++++++++++++++++oooooooooo                                                                                            ",
"                                                             .....##########+++++###########+++++-----.....     .....oooooOOOOO......-----#####oooooooooo                    .....######&&&&&&&&&&&&&&&&&&&&&&&&&&&&&&&&&&&&&&&&###################################################################+++++++++++++++.....++++++++++++++++++++......               ++++++++++++++++++++++++++++++++++++++++++++++oooooooooo                                                                                            ",
"                                                             .....##########+++++###########+++++-----.....     .....oooooOOOOO......-----#####oooooooooo                    .....######&&&&&&&&&&&&&&&&&&&&&&&&&&&&&&&&&&&&&&&&###################################################################+++++++++++++++.....++++++++++++++++++++......               ++++++++++++++++++++++++++++++++++++++++++++++oooooooooo                                                                                            ",
"                                                             .....##########+++++###########+++++-----.....     .....oooooOOOOO......-----#####oooooooooo                    .....######&&&&&&&&&&&&&&&&&&&&&&&&&&&&&&&&&&&&&&&&###################################################################+++++++++++++++.....++++++++++++++++++++......               ++++++++++++++++++++++++++++++++++++++++++++++oooooooooo                                                                                            ",
"                                                             .....##########+++++###########+++++-----.....     .....oooooOOOOO......-----#####oooooooooo                    .....######&&&&&&&&&&&&&&&&&&&&&&&&&&&&&&&&&&&&&&&&###################################################################+++++++++++++++.....++++++++++++++++++++......               ++++++++++++++++++++++++++++++++++++++++++++++oooooooooo                                                                                            ",
"                                                                  .....##########+++++++++++...............oooooooooo-----oooooooooooooooo#####.....                    .....+++++&&&&&&&&&&&&&&&&&&&&&&&&&&&&&&&&&&&&&&&&&&&&&&&&&&&###################################################################++++++++++.....++++++++++++++++++++......          ooooo++++++++++++++++++++++++++++++++++++++++++++++oooooooooo                                                                                            ",
"                                                                  .....##########+++++++++++...............oooooooooo-----oooooooooooooooo#####.....                    .....+++++&&&&&&&&&&&&&&&&&&&&&&&&&&&&&&&&&&&&&&&&&&&&&&&&&&&###################################################################++++++++++.....++++++++++++++++++++......          ooooo++++++++++++++++++++++++++++++++++++++++++++++oooooooooo                                                                                            ",
"                                                                  .....##########+++++++++++...............oooooooooo-----oooooooooooooooo#####.....                    .....+++++&&&&&&&&&&&&&&&&&&&&&&&&&&&&&&&&&&&&&&&&&&&&&&&&&&&###################################################################++++++++++.....++++++++++++++++++++......          ooooo++++++++++++++++++++++++++++++++++++++++++++++oooooooooo                                                                                            ",
"                                                                  .....##########+++++++++++...............oooooooooo-----oooooooooooooooo#####.....                    .....+++++&&&&&&&&&&&&&&&&&&&&&&&&&&&&&&&&&&&&&&&&&&&&&&&&&&&###################################################################++++++++++.....++++++++++++++++++++......          ooooo++++++++++++++++++++++++++++++++++++++++++++++oooooooooo                                                                                            ",
"                                                                  .....##########+++++++++++...............oooooooooo-----oooooooooooooooo#####.....                    .....+++++&&&&&&&&&&&&&&&&&&&&&&&&&&&&&&&&&&&&&&&&&&&&&&&&&&&###################################################################++++++++++.....++++++++++++++++++++......          ooooo++++++++++++++++++++++++++++++++++++++++++++++oooooooooo                                                                                            ",
"                                                                            ................+++++ooooo++++++++++.....#####################.....                         .....#####&&&&&&&&&&&&&&&&&&&&&&&&&&&&&&&&&&&&&&&&&&&&&&&&&&&&&&&&&&&&&&&&&&&###################################################.....oooooooooo###############+++++......          ooooo+++++##########++++++++++######++++++++++++++++++++ooooo                                                                                            ",
"                                                                            ................+++++ooooo++++++++++.....#####################.....                         .....#####&&&&&&&&&&&&&&&&&&&&&&&&&&&&&&&&&&&&&&&&&&&&&&&&&&&&&&&&&&&&&&&&&&&###################################################.....oooooooooo###############+++++......          ooooo+++++##########++++++++++######++++++++++++++++++++ooooo                                                                                            ",
"                                                                            ................+++++ooooo++++++++++.....#####################.....                         .....#####&&&&&&&&&&&&&&&&&&&&&&&&&&&&&&&&&&&&&&&&&&&&&&&&&&&&&&&&&&&&&&&&&&&###################################################.....oooooooooo###############+++++......          ooooo+++++##########++++++++++######++++++++++++++++++++ooooo                                                                                            ",
"                                                                            ................+++++ooooo++++++++++.....#####################.....                         .....#####&&&&&&&&&&&&&&&&&&&&&&&&&&&&&&&&&&&&&&&&&&&&&&&&&&&&&&&&&&&&&&&&&&&###################################################.....oooooooooo###############+++++......          ooooo+++++##########++++++++++######++++++++++++++++++++ooooo                                                                                            ",
"                                                                            ................+++++ooooo++++++++++.....#####################.....                         .....#####&&&&&&&&&&&&&&&&&&&&&&&&&&&&&&&&&&&&&&&&&&&&&&&&&&&&&&&&&&&&&&&&&&&###################################################.....oooooooooo###############+++++......          ooooo+++++##########++++++++++######++++++++++++++++++++ooooo                                                                                            ",
"                                                                                       ..........++++++++++++++++++++.....................ooooo                    .....+++++&&&&&&&&&&&&&&&&&&&&&&&&&&&&&&&&&&&&&&&&&&&&&&&&&&&&&&&&&&&&&&&&&&&&&&&&&&&&&####################################ooooo.....##############################+++++++++++.....ooooo##############################++++++#####++++++++++++++++++++.....                                                                                       ",
"                                                                                       ..........++++++++++++++++++++.....................ooooo                    .....+++++&&&&&&&&&&&&&&&&&&&&&&&&&&&&&&&&&&&&&&&&&&&&&&&&&&&&&&&&&&&&&&&&&&&&&&&&&&&&&####################################ooooo.....##############################+++++++++++.....ooooo##############################++++++#####++++++++++++++++++++.....                                                                                       ",
"                                                                                       ..........++++++++++++++++++++.....................ooooo                    .....+++++&&&&&&&&&&&&&&&&&&&&&&&&&&&&&&&&&&&&&&&&&&&&&&&&&&&&&&&&&&&&&&&&&&&&&&&&&&&&&####################################ooooo.....##############################+++++++++++.....ooooo##############################++++++#####++++++++++++++++++++.....                                                                                       ",
"                                                                                       ..........++++++++++++++++++++.....................ooooo                    .....+++++&&&&&&&&&&&&&&&&&&&&&&&&&&&&&&&&&&&&&&&&&&&&&&&&&&&&&&&&&&&&&&&&&&&&&&&&&&&&&####################################ooooo.....##############################+++++++++++.....ooooo##############################++++++#####++++++++++++++++++++.....                                                                                       ",
"                                                                                       ..........++++++++++++++++++++.....................ooooo                    .....+++++&&&&&&&&&&&&&&&&&&&&&&&&&&&&&&&&&&&&&&&&&&&&&&&&&&&&&&&&&&&&&&&&&&&&&&&&&&&&&####################################ooooo.....##############################+++++++++++.....ooooo##############################++++++#####++++++++++++++++++++.....                                                                                       ",
"                                                                                            .....+++++++++++++++++++++++++++++++++++++++++.....                    .....#####&&&&&&&&&&&&&&&&&&&&&&&&&&&&&&&&&&&&&&&&&&&&&&&&&&&&&&&&&&&&&&&&&&&&&&&&&&&&&&&&&&####################################.....+++++##############################+++++++++++ooooo.....####################+++++######+++++++++++++++++++++++++.....                                                                                       ",
"                                                                                            .....+++++++++++++++++++++++++++++++++++++++++.....                    .....#####&&&&&&&&&&&&&&&&&&&&&&&&&&&&&&&&&&&&&&&&&&&&&&&&&&&&&&&&&&&&&&&&&&&&&&&&&&&&&&&&&&####################################.....+++++##############################+++++++++++ooooo.....####################+++++######+++++++++++++++++++++++++.....                                                                                       ",
"                                                                                            .....+++++++++++++++++++++++++++++++++++++++++.....                    .....#####&&&&&&&&&&&&&&&&&&&&&&&&&&&&&&&&&&&&&&&&&&&&&&&&&&&&&&&&&&&&&&&&&&&&&&&&&&&&&&&&&&####################################.....+++++##############################+++++++++++ooooo.....####################+++++######+++++++++++++++++++++++++.....                                                                                       ",
"                                                                                            .....+++++++++++++++++++++++++++++++++++++++++.....                    .....#####&&&&&&&&&&&&&&&&&&&&&&&&&&&&&&&&&&&&&&&&&&&&&&&&&&&&&&&&&&&&&&&&&&&&&&&&&&&&&&&&&&####################################.....+++++##############################+++++++++++ooooo.....####################+++++######+++++++++++++++++++++++++.....                                                                                       ",
"                                                                                            .....+++++++++++++++++++++++++++++++++++++++++.....                    .....#####&&&&&&&&&&&&&&&&&&&&&&&&&&&&&&&&&&&&&&&&&&&&&&&&&&&&&&&&&&&&&&&&&&&&&&&&&&&&&&&&&&####################################.....+++++##############################+++++++++++ooooo.....####################+++++######+++++++++++++++++++++++++.....                                                                                       ",
"                                                                                                 ooooo++++++++++.....oooooooooo+++++++++++.....                    .....&&&&&&&&&&&&&&&&&&&&&&&&&&&&&&&&&&&&&&&&&&&&&&&&&&&&&&&&&&&&&&&&&&&&&&&&&&&&&&&&&&&&&&&&&&&&###############################.....++++++++++ooooo.....##########+++++++++++++++++++++.....#########################++++++#####++++++++++++++++++++.....                                                                                       ",
"                                                                                                 ooooo++++++++++.....oooooooooo+++++++++++.....                    .....&&&&&&&&&&&&&&&&&&&&&&&&&&&&&&&&&&&&&&&&&&&&&&&&&&&&&&&&&&&&&&&&&&&&&&&&&&&&&&&&&&&&&&&&&&&&###############################.....++++++++++ooooo.....##########+++++++++++++++++++++.....#########################++++++#####++++++++++++++++++++.....                                                                                       ",
"                                                                                                 ooooo++++++++++.....oooooooooo+++++++++++.....                    .....&&&&&&&&&&&&&&&&&&&&&&&&&&&&&&&&&&&&&&&&&&&&&&&&&&&&&&&&&&&&&&&&&&&&&&&&&&&&&&&&&&&&&&&&&&&&###############################.....++++++++++ooooo.....##########+++++++++++++++++++++.....#########################++++++#####++++++++++++++++++++.....                                                                                       ",
"                                                                                                 ooooo++++++++++.....oooooooooo+++++++++++.....                    .....&&&&&&&&&&&&&&&&&&&&&&&&&&&&&&&&&&&&&&&&&&&&&&&&&&&&&&&&&&&&&&&&&&&&&&&&&&&&&&&&&&&&&&&&&&&&###############################.....++++++++++ooooo.....##########+++++++++++++++++++++.....#########################++++++#####++++++++++++++++++++.....                                                                                       ",
"                                                                                                 ooooo++++++++++.....oooooooooo+++++++++++.....                    .....&&&&&&&&&&&&&&&&&&&&&&&&&&&&&&&&&&&&&&&&&&&&&&&&&&&&&&&&&&&&&&&&&&&&&&&&&&&&&&&&&&&&&&&&&&&&###############################.....++++++++++ooooo.....##########+++++++++++++++++++++.....#########################++++++#####++++++++++++++++++++.....                                                                                       ",
"                                                                                                      ++++++++++ooooo          ...........                    .....#####&&&&&&&&&&&&&&&&&&&&&&&&&&&&&&&&&&&&&&&&&&&&&&&&&&&&&&&&&&&&&&&&&&&&&&&&&&&&&&&&&&&&&&&&&&&&####################################.....=====.....+++++##########ooooo......++++++++++.....####################################++++++++++++++++++++.....                                                                                       ",
"                                                                                                      ++++++++++ooooo          ...........                    .....#####&&&&&&&&&&&&&&&&&&&&&&&&&&&&&&&&&&&&&&&&&&&&&&&&&&&&&&&&&&&&&&&&&&&&&&&&&&&&&&&&&&&&&&&&&&&&####################################.....=====.....+++++##########ooooo......++++++++++.....####################################++++++++++++++++++++.....                                                                                       ",
"                                                                                                      ++++++++++ooooo          ...........                    .....#####&&&&&&&&&&&&&&&&&&&&&&&&&&&&&&&&&&&&&&&&&&&&&&&&&&&&&&&&&&&&&&&&&&&&&&&&&&&&&&&&&&&&&&&&&&&&####################################.....=====.....+++++##########ooooo......++++++++++.....####################################++++++++++++++++++++.....                                                                                       ",
"                                                                                                      ++++++++++ooooo          ...........                    .....#####&&&&&&&&&&&&&&&&&&&&&&&&&&&&&&&&&&&&&&&&&&&&&&&&&&&&&&&&&&&&&&&&&&&&&&&&&&&&&&&&&&&&&&&&&&&&####################################.....=====.....+++++##########ooooo......++++++++++.....####################################++++++++++++++++++++.....                                                                                       ",
"                                                                                                      ++++++++++ooooo          ...........                    .....#####&&&&&&&&&&&&&&&&&&&&&&&&&&&&&&&&&&&&&&&&&&&&&&&&&&&&&&&&&&&&&&&&&&&&&&&&&&&&&&&&&&&&&&&&&&&&####################################.....=====.....+++++##########ooooo......++++++++++.....####################################++++++++++++++++++++.....                                                                                       ",
"                                                                                                      ..........-----ooooo                                    .....#####&&&&&&&&&&&&&&&&&&&&&&&&&&&&&&&&&&&&&&&&&&&&&&&&&&&&&&&&&&&&&&&&&&&&&&&&&&&&&&&&&&&&&&&&&&&&&&&&&####################################+++++ooooo##########+++++ooooooooooo.....=====.....###############################+++++++++++++++++++++++++.....                                                                                       ",
"                                                                                                      ..........-----ooooo                                    .....#####&&&&&&&&&&&&&&&&&&&&&&&&&&&&&&&&&&&&&&&&&&&&&&&&&&&&&&&&&&&&&&&&&&&&&&&&&&&&&&&&&&&&&&&&&&&&&&&&&####################################+++++ooooo##########+++++ooooooooooo.....=====.....###############################+++++++++++++++++++++++++.....                                                                                       ",
"                                                                                                      ..........-----ooooo                                    .....#####&&&&&&&&&&&&&&&&&&&&&&&&&&&&&&&&&&&&&&&&&&&&&&&&&&&&&&&&&&&&&&&&&&&&&&&&&&&&&&&&&&&&&&&&&&&&&&&&&####################################+++++ooooo##########+++++ooooooooooo.....=====.....###############################+++++++++++++++++++++++++.....                                                                                       ",
"                                                                                                      ..........-----ooooo                                    .....#####&&&&&&&&&&&&&&&&&&&&&&&&&&&&&&&&&&&&&&&&&&&&&&&&&&&&&&&&&&&&&&&&&&&&&&&&&&&&&&&&&&&&&&&&&&&&&&&&&####################################+++++ooooo##########+++++ooooooooooo.....=====.....###############################+++++++++++++++++++++++++.....                                                                                       ",
"                                                                                                      ..........-----ooooo                                    .....#####&&&&&&&&&&&&&&&&&&&&&&&&&&&&&&&&&&&&&&&&&&&&&&&&&&&&&&&&&&&&&&&&&&&&&&&&&&&&&&&&&&&&&&&&&&&&&&&&&####################################+++++ooooo##########+++++ooooooooooo.....=====.....###############################+++++++++++++++++++++++++.....                                                                                       ",
"                                                                                                           ooooo..........                               ooooo##########&&&&&&&&&&&&&&&&&&&&&&&&&&&&&&&&&&&&&&&&&&&&&&&&&&&&&&&&&&&&&&&&&&&&&&&&&&&&&&&&&&&&&&&&&&&&&&&&&##############################################ooooo+++++=====oooooooooooooooo..........##########+++++++++++++++++++++++++++++++++++++++++%%%%%.....                                                                                       ",
"                                                                                                           ooooo..........                               ooooo##########&&&&&&&&&&&&&&&&&&&&&&&&&&&&&&&&&&&&&&&&&&&&&&&&&&&&&&&&&&&&&&&&&&&&&&&&&&&&&&&&&&&&&&&&&&&&&&&&&##############################################ooooo+++++=====oooooooooooooooo..........##########+++++++++++++++++++++++++++++++++++++++++%%%%%.....                                                                                       ",
"                                                                                                           ooooo..........                               ooooo##########&&&&&&&&&&&&&&&&&&&&&&&&&&&&&&&&&&&&&&&&&&&&&&&&&&&&&&&&&&&&&&&&&&&&&&&&&&&&&&&&&&&&&&&&&&&&&&&&&##############################################ooooo+++++=====oooooooooooooooo..........##########+++++++++++++++++++++++++++++++++++++++++%%%%%.....                                                                                       ",
"                                                                                                           ooooo..........                               ooooo##########&&&&&&&&&&&&&&&&&&&&&&&&&&&&&&&&&&&&&&&&&&&&&&&&&&&&&&&&&&&&&&&&&&&&&&&&&&&&&&&&&&&&&&&&&&&&&&&&&##############################################ooooo+++++=====oooooooooooooooo..........##########+++++++++++++++++++++++++++++++++++++++++%%%%%.....                                                                                       ",
"                                                                                                           ooooo..........                               ooooo##########&&&&&&&&&&&&&&&&&&&&&&&&&&&&&&&&&&&&&&&&&&&&&&&&&&&&&&&&&&&&&&&&&&&&&&&&&&&&&&&&&&&&&&&&&&&&&&&&&##############################################ooooo+++++=====oooooooooooooooo..........##########+++++++++++++++++++++++++++++++++++++++++%%%%%.....                                                                                       ",
"                                                                                                           ooooo..........                               ooooo##########&&&&&&&&&&&&&&&&&&&&&&&&&&&&&&&&&&&&&&&&&&&&&&&&&&&&&&&&&&&&&&&&&&&&&&&&&&&&&&&&&&&&&&&&&&&&&&&&&##############################################ooooo+++++=====oooooooooooooooo..........##########+++++++++++++++++++++++++++++++++++++++++%%%%%.....                                                                                       ",
"                                                                                                                                                    ooooo###############&&&&&&&&&&&&&&&&&&&&&&&&&&&&&&&&&&&&&&&&&&&&&&&&&&&&&&&&&&&&&&&&&&&&&&&&&&&&&&&&&&&&&&&&&&&&&&&&&&&&&&#########################################ooooo...............oooooo###############+++++++++++++++++++++++++++++++++++++++++++++++++++.....                                                                                            ",
"                                                                                                                                                    ooooo###############&&&&&&&&&&&&&&&&&&&&&&&&&&&&&&&&&&&&&&&&&&&&&&&&&&&&&&&&&&&&&&&&&&&&&&&&&&&&&&&&&&&&&&&&&&&&&&&&&&&&&&#########################################ooooo...............oooooo###############+++++++++++++++++++++++++++++++++++++++++++++++++++.....                                                                                            ",
"                                                                                                                                                    ooooo###############&&&&&&&&&&&&&&&&&&&&&&&&&&&&&&&&&&&&&&&&&&&&&&&&&&&&&&&&&&&&&&&&&&&&&&&&&&&&&&&&&&&&&&&&&&&&&&&&&&&&&&#########################################ooooo...............oooooo###############+++++++++++++++++++++++++++++++++++++++++++++++++++.....                                                                                            ",
"                                                                                                                                                    ooooo###############&&&&&&&&&&&&&&&&&&&&&&&&&&&&&&&&&&&&&&&&&&&&&&&&&&&&&&&&&&&&&&&&&&&&&&&&&&&&&&&&&&&&&&&&&&&&&&&&&&&&&&#########################################ooooo...............oooooo###############+++++++++++++++++++++++++++++++++++++++++++++++++++.....                                                                                            ",
"                                                                                                                                                    ooooo###############&&&&&&&&&&&&&&&&&&&&&&&&&&&&&&&&&&&&&&&&&&&&&&&&&&&&&&&&&&&&&&&&&&&&&&&&&&&&&&&&&&&&&&&&&&&&&&&&&&&&&&#########################################ooooo...............oooooo###############+++++++++++++++++++++++++++++++++++++++++++++++++++.....                                                                                            ",
"                                                                                                                                               ooooo####################+++++&&&&&&&&&&&&&&&&&&&&&&&&&&&&&&&&&&&&&&&&&&&&&&&&&&&&&&&&&&&&&&&&&&&&&&&&&&&&&&&&&&&&&&&&&&&&&&&&&#####+++++##############################################+++++++++++ooooo++++++++++++++++++++++++++++++++++++++++++++++++++++++++%%%%%.....                                                                                            ",
"                                                                                                                                               ooooo####################+++++&&&&&&&&&&&&&&&&&&&&&&&&&&&&&&&&&&&&&&&&&&&&&&&&&&&&&&&&&&&&&&&&&&&&&&&&&&&&&&&&&&&&&&&&&&&&&&&&&#####+++++##############################################+++++++++++ooooo++++++++++++++++++++++++++++++++++++++++++++++++++++++++%%%%%.....                                                                                            ",
"                                                                                                                                               ooooo####################+++++&&&&&&&&&&&&&&&&&&&&&&&&&&&&&&&&&&&&&&&&&&&&&&&&&&&&&&&&&&&&&&&&&&&&&&&&&&&&&&&&&&&&&&&&&&&&&&&&&#####+++++##############################################+++++++++++ooooo++++++++++++++++++++++++++++++++++++++++++++++++++++++++%%%%%.....                                                                                            ",
"                                                                                                                                               ooooo####################+++++&&&&&&&&&&&&&&&&&&&&&&&&&&&&&&&&&&&&&&&&&&&&&&&&&&&&&&&&&&&&&&&&&&&&&&&&&&&&&&&&&&&&&&&&&&&&&&&&&#####+++++##############################################+++++++++++ooooo++++++++++++++++++++++++++++++++++++++++++++++++++++++++%%%%%.....                                                                                            ",
"                                                                                                                                               ooooo####################+++++&&&&&&&&&&&&&&&&&&&&&&&&&&&&&&&&&&&&&&&&&&&&&&&&&&&&&&&&&&&&&&&&&&&&&&&&&&&&&&&&&&&&&&&&&&&&&&&&&#####+++++##############################################+++++++++++ooooo++++++++++++++++++++++++++++++++++++++++++++++++++++++++%%%%%.....                                                                                            ",
"                                                                                                                                               +++++####################ooooo%%%%%&&&&&&&&&&&&&&&&&&&&&&&&&&&&&&&&&&&&&&&&&&&&&&&&&&&&&&&&&&&&&&&&&&&&&&&&&&&&&&&&&&&&&&&&&&&&#####+++++##############################################+++++++++++.....+++++++++++++++++++++++++++++++++++++++++++++++++++%%%%%.....                                                                                                 ",
"                                                                                                                                               +++++####################ooooo%%%%%&&&&&&&&&&&&&&&&&&&&&&&&&&&&&&&&&&&&&&&&&&&&&&&&&&&&&&&&&&&&&&&&&&&&&&&&&&&&&&&&&&&&&&&&&&&&#####+++++##############################################+++++++++++.....+++++++++++++++++++++++++++++++++++++++++++++++++++%%%%%.....                                                                                                 ",
"                                                                                                                                               +++++####################ooooo%%%%%&&&&&&&&&&&&&&&&&&&&&&&&&&&&&&&&&&&&&&&&&&&&&&&&&&&&&&&&&&&&&&&&&&&&&&&&&&&&&&&&&&&&&&&&&&&&#####+++++##############################################+++++++++++.....+++++++++++++++++++++++++++++++++++++++++++++++++++%%%%%.....                                                                                                 ",
"                                                                                                                                               +++++####################ooooo%%%%%&&&&&&&&&&&&&&&&&&&&&&&&&&&&&&&&&&&&&&&&&&&&&&&&&&&&&&&&&&&&&&&&&&&&&&&&&&&&&&&&&&&&&&&&&&&&#####+++++##############################################+++++++++++.....+++++++++++++++++++++++++++++++++++++++++++++++++++%%%%%.....                                                                                                 ",
"                                                                                                                                               +++++####################ooooo%%%%%&&&&&&&&&&&&&&&&&&&&&&&&&&&&&&&&&&&&&&&&&&&&&&&&&&&&&&&&&&&&&&&&&&&&&&&&&&&&&&&&&&&&&&&&&&&&#####+++++##############################################+++++++++++.....+++++++++++++++++++++++++++++++++++++++++++++++++++%%%%%.....                                                                                                 ",
"                                                                                                                                          +++++#########################ooooo%%%%%%%%%%%&&&&&&&&&&&&&&&&&&&&&&&&&&&&&&&&&&&&&&&&&&&&&&&&&&&&&&&&&&&&&&&&&&&&&&&&&&&&&&&&&&&&&&+++++########################################################+++++++++++.....++++++++++++++++++++++++++++++++++++%%%%%%%%%%.....                                                                                                      ",
"                                                                                                                                          +++++#########################ooooo%%%%%%%%%%%&&&&&&&&&&&&&&&&&&&&&&&&&&&&&&&&&&&&&&&&&&&&&&&&&&&&&&&&&&&&&&&&&&&&&&&&&&&&&&&&&&&&&&+++++########################################################+++++++++++.....++++++++++++++++++++++++++++++++++++%%%%%%%%%%.....                                                                                                      ",
"                                                                                                                                          +++++#########################ooooo%%%%%%%%%%%&&&&&&&&&&&&&&&&&&&&&&&&&&&&&&&&&&&&&&&&&&&&&&&&&&&&&&&&&&&&&&&&&&&&&&&&&&&&&&&&&&&&&&+++++########################################################+++++++++++.....++++++++++++++++++++++++++++++++++++%%%%%%%%%%.....                                                                                                      ",
"                                                                                                                                          +++++#########################ooooo%%%%%%%%%%%&&&&&&&&&&&&&&&&&&&&&&&&&&&&&&&&&&&&&&&&&&&&&&&&&&&&&&&&&&&&&&&&&&&&&&&&&&&&&&&&&&&&&&+++++########################################################+++++++++++.....++++++++++++++++++++++++++++++++++++%%%%%%%%%%.....                                                                                                      ",
"                                                                                                                                          +++++#########################ooooo%%%%%%%%%%%&&&&&&&&&&&&&&&&&&&&&&&&&&&&&&&&&&&&&&&&&&&&&&&&&&&&&&&&&&&&&&&&&&&&&&&&&&&&&&&&&&&&&&+++++########################################################+++++++++++.....++++++++++++++++++++++++++++++++++++%%%%%%%%%%.....                                                                                                      ",
"                                                                                                                                          +++++##############################ooooo%%%%%%%%%%%&&&&&&&&&&&&&&&&&&&&&&&&&&&&&&&&&&&&&&&&&&&&&&&&&&&&&&&&&&&&&&&&&&&&&&&&&&&&%%%%%ooooo########################################################+++++++++++.....++++++++++++++++++++++++++++++%%%%%%%%%%%.....                                                                                                           ",
"                                                                                                                                          +++++##############################ooooo%%%%%%%%%%%&&&&&&&&&&&&&&&&&&&&&&&&&&&&&&&&&&&&&&&&&&&&&&&&&&&&&&&&&&&&&&&&&&&&&&&&&&&&%%%%%ooooo########################################################+++++++++++.....++++++++++++++++++++++++++++++%%%%%%%%%%%.....                                                                                                           ",
"                                                                                                                                          +++++##############################ooooo%%%%%%%%%%%&&&&&&&&&&&&&&&&&&&&&&&&&&&&&&&&&&&&&&&&&&&&&&&&&&&&&&&&&&&&&&&&&&&&&&&&&&&&%%%%%ooooo########################################################+++++++++++.....++++++++++++++++++++++++++++++%%%%%%%%%%%.....                                                                                                           ",
"                                                                                                                                          +++++##############################ooooo%%%%%%%%%%%&&&&&&&&&&&&&&&&&&&&&&&&&&&&&&&&&&&&&&&&&&&&&&&&&&&&&&&&&&&&&&&&&&&&&&&&&&&&%%%%%ooooo########################################################+++++++++++.....++++++++++++++++++++++++++++++%%%%%%%%%%%.....                                                                                                           ",
"                                                                                                                                          +++++##############################ooooo%%%%%%%%%%%&&&&&&&&&&&&&&&&&&&&&&&&&&&&&&&&&&&&&&&&&&&&&&&&&&&&&&&&&&&&&&&&&&&&&&&&&&&&%%%%%ooooo########################################################+++++++++++.....++++++++++++++++++++++++++++++%%%%%%%%%%%.....                                                                                                           ",
"                                                                                                                                          +++++##############################ooooo%%%%%%%%%%%%%%%%%%%%%%%%%%&&&&&&&&&&&&&&&&&&&&&&&&&&&&&&&&&&&&&&&&&%%%%%%%%%%%%%%%%%%%%%%%%%ooooo########################################################+++++++++++.....+++++#####%%%%%+++++#####%%%%%%%%%%%.....                                                                                                                ",
"                                                                                                                                          +++++##############################ooooo%%%%%%%%%%%%%%%%%%%%%%%%%%&&&&&&&&&&&&&&&&&&&&&&&&&&&&&&&&&&&&&&&&&%%%%%%%%%%%%%%%%%%%%%%%%%ooooo########################################################+++++++++++.....+++++#####%%%%%+++++#####%%%%%%%%%%%.....                                                                                                                ",
"                                                                                                                                          +++++##############################ooooo%%%%%%%%%%%%%%%%%%%%%%%%%%&&&&&&&&&&&&&&&&&&&&&&&&&&&&&&&&&&&&&&&&&%%%%%%%%%%%%%%%%%%%%%%%%%ooooo########################################################+++++++++++.....+++++#####%%%%%+++++#####%%%%%%%%%%%.....                                                                                                                ",
"                                                                                                                                          +++++##############################ooooo%%%%%%%%%%%%%%%%%%%%%%%%%%&&&&&&&&&&&&&&&&&&&&&&&&&&&&&&&&&&&&&&&&&%%%%%%%%%%%%%%%%%%%%%%%%%ooooo########################################################+++++++++++.....+++++#####%%%%%+++++#####%%%%%%%%%%%.....                                                                                                                ",
"                                                                                                                                          +++++##############################ooooo%%%%%%%%%%%%%%%%%%%%%%%%%%&&&&&&&&&&&&&&&&&&&&&&&&&&&&&&&&&&&&&&&&&%%%%%%%%%%%%%%%%%%%%%%%%%ooooo########################################################+++++++++++.....+++++#####%%%%%+++++#####%%%%%%%%%%%.....                                                                                                                ",
"                                                                                                                                     ooooo########################################oooooo%%%%%%%%%%%%%%%%%%%%%%%%%%%%%%%%%%%%%%%%%%%%%%%%%%%%%%%%%%%%%%%%%%%%%%%%%%%%%%%%%%%%%%ooooo+++++###################################################++++++++++++++++.....%%%%%%%%%%%%%%%%%%%%%%%%%......                                                                                                                     ",
"                                                                                                                                     ooooo########################################oooooo%%%%%%%%%%%%%%%%%%%%%%%%%%%%%%%%%%%%%%%%%%%%%%%%%%%%%%%%%%%%%%%%%%%%%%%%%%%%%%%%%%%%%%ooooo+++++###################################################++++++++++++++++.....%%%%%%%%%%%%%%%%%%%%%%%%%......                                                                                                                     ",
"                                                                                                                                     ooooo########################################oooooo%%%%%%%%%%%%%%%%%%%%%%%%%%%%%%%%%%%%%%%%%%%%%%%%%%%%%%%%%%%%%%%%%%%%%%%%%%%%%%%%%%%%%%ooooo+++++###################################################++++++++++++++++.....%%%%%%%%%%%%%%%%%%%%%%%%%......                                                                                                                     ",
"                                                                                                                                     ooooo########################################oooooo%%%%%%%%%%%%%%%%%%%%%%%%%%%%%%%%%%%%%%%%%%%%%%%%%%%%%%%%%%%%%%%%%%%%%%%%%%%%%%%%%%%%%%ooooo+++++###################################################++++++++++++++++.....%%%%%%%%%%%%%%%%%%%%%%%%%......                                                                                                                     ",
"                                                                                                                                     ooooo########################################oooooo%%%%%%%%%%%%%%%%%%%%%%%%%%%%%%%%%%%%%%%%%%%%%%%%%%%%%%%%%%%%%%%%%%%%%%%%%%%%%%%%%%%%%%ooooo+++++###################################################++++++++++++++++.....%%%%%%%%%%%%%%%%%%%%%%%%%......                                                                                                                     ",
"                                                                                                                                     ooooo########################################++++++.....%%%%%%%%%%%%%%%%%%%%%%%%%%%%%%%%%%%%%%%%%%%%%%%%%%%%%%%%%%%%%%%%%%%%%%%%%%%%%%%%%.....+++++###################################################++++++++++++++++.....%%%%%%%%%%%%%%%%%%%%.....                                                                                                                           ",
"                                                                                                                                     ooooo########################################++++++.....%%%%%%%%%%%%%%%%%%%%%%%%%%%%%%%%%%%%%%%%%%%%%%%%%%%%%%%%%%%%%%%%%%%%%%%%%%%%%%%%%.....+++++###################################################++++++++++++++++.....%%%%%%%%%%%%%%%%%%%%.....                                                                                                                           ",
"                                                                                                                                     ooooo########################################++++++.....%%%%%%%%%%%%%%%%%%%%%%%%%%%%%%%%%%%%%%%%%%%%%%%%%%%%%%%%%%%%%%%%%%%%%%%%%%%%%%%%%.....+++++###################################################++++++++++++++++.....%%%%%%%%%%%%%%%%%%%%.....                                                                                                                           ",
"                                                                                                                                     ooooo########################################++++++.....%%%%%%%%%%%%%%%%%%%%%%%%%%%%%%%%%%%%%%%%%%%%%%%%%%%%%%%%%%%%%%%%%%%%%%%%%%%%%%%%%.....+++++###################################################++++++++++++++++.....%%%%%%%%%%%%%%%%%%%%.....                                                                                                                           ",
"                                                                                                                                     ooooo########################################++++++.....%%%%%%%%%%%%%%%%%%%%%%%%%%%%%%%%%%%%%%%%%%%%%%%%%%%%%%%%%%%%%%%%%%%%%%%%%%%%%%%%%.....+++++###################################################++++++++++++++++.....%%%%%%%%%%%%%%%%%%%%.....                                                                                                                           ",
"                                                                                                                                     ooooo###################################++++++++++++++++.....%%%%%%%%%%%%%%%%%%%%%%%%%%%%%%%%%%%%%%%%%%%%%%%%%%%%%%%%%%%%%%%%%%%%%%%%%%%%.....+++++++++++#############################################++++++++++++++++.........................                                                                                                                                ",
"                                                                                                                                     ooooo###################################++++++++++++++++.....%%%%%%%%%%%%%%%%%%%%%%%%%%%%%%%%%%%%%%%%%%%%%%%%%%%%%%%%%%%%%%%%%%%%%%%%%%%%.....+++++++++++#############################################++++++++++++++++.........................                                                                                                                                ",
"                                                                                                                                     ooooo###################################++++++++++++++++.....%%%%%%%%%%%%%%%%%%%%%%%%%%%%%%%%%%%%%%%%%%%%%%%%%%%%%%%%%%%%%%%%%%%%%%%%%%%%.....+++++++++++#############################################++++++++++++++++.........................                                                                                                                                ",
"                                                                                                                                     ooooo###################################++++++++++++++++.....%%%%%%%%%%%%%%%%%%%%%%%%%%%%%%%%%%%%%%%%%%%%%%%%%%%%%%%%%%%%%%%%%%%%%%%%%%%%.....+++++++++++#############################################++++++++++++++++.........................                                                                                                                                ",
"                                                                                                                                     ooooo###################################++++++++++++++++.....%%%%%%%%%%%%%%%%%%%%%%%%%%%%%%%%%%%%%%%%%%%%%%%%%%%%%%%%%%%%%%%%%%%%%%%%%%%%.....+++++++++++#############################################++++++++++++++++.........................                                                                                                                                ",
"                                                                                                                                     ooooo++++++++++++++++++++++++++++++++++++++++++++++++++++++++.....%%%%%%%%%%%%%%%%%%%%%%%%%%%%%%%%%%%%%%%%%%%%%%%%%%%%%%%%%%%%%%%%%%%%%%%.....++++++++++++++++###################################+++++++++++++++++++++.....                                                                                                                                                    ",
"                                                                                                                                     ooooo++++++++++++++++++++++++++++++++++++++++++++++++++++++++.....%%%%%%%%%%%%%%%%%%%%%%%%%%%%%%%%%%%%%%%%%%%%%%%%%%%%%%%%%%%%%%%%%%%%%%%.....++++++++++++++++###################################+++++++++++++++++++++.....                                                                                                                                                    ",
"                                                                                                                                     ooooo++++++++++++++++++++++++++++++++++++++++++++++++++++++++.....%%%%%%%%%%%%%%%%%%%%%%%%%%%%%%%%%%%%%%%%%%%%%%%%%%%%%%%%%%%%%%%%%%%%%%%.....++++++++++++++++###################################+++++++++++++++++++++.....                                                                                                                                                    ",
"                                                                                                                                     ooooo++++++++++++++++++++++++++++++++++++++++++++++++++++++++.....%%%%%%%%%%%%%%%%%%%%%%%%%%%%%%%%%%%%%%%%%%%%%%%%%%%%%%%%%%%%%%%%%%%%%%%.....++++++++++++++++###################################+++++++++++++++++++++.....                                                                                                                                                    ",
"                                                                                                                                     ooooo++++++++++++++++++++++++++++++++++++++++++++++++++++++++.....%%%%%%%%%%%%%%%%%%%%%%%%%%%%%%%%%%%%%%%%%%%%%%%%%%%%%%%%%%%%%%%%%%%%%%%.....++++++++++++++++###################################+++++++++++++++++++++.....                                                                                                                                                    ",
"                                                                                                                                     ooooo++++++++++++++++++++++++++++++++++++++++++++++++++++++++.....%%%%%%%%%%%%%%%%%%%%%%%%%%%%%%%%%%%%%%%%%%%%%%%%%%%%%%%%%%%%%%%%%%%%%%%.....++++++++++++++++###################################+++++++++++++++++++++.....                                                                                                                                                    ",
"                                                                                                                                          ooooo+++++++++++++++++++++++++++++++++++++++++++++++++++...............%%%%%%%%%%%%%%%%%%%%%%%%%%%%%%%%%%%%%%%%%%%%%%%%%%%%%%%%%%%%%.....++++++++++++++++++++++++++###############+++++++++++++++++++++++++++++++.....                                                                                                                                                    ",
"                                                                                                                                          ooooo+++++++++++++++++++++++++++++++++++++++++++++++++++...............%%%%%%%%%%%%%%%%%%%%%%%%%%%%%%%%%%%%%%%%%%%%%%%%%%%%%%%%%%%%%.....++++++++++++++++++++++++++###############+++++++++++++++++++++++++++++++.....                                                                                                                                                    ",
"                                                                                                                                          ooooo+++++++++++++++++++++++++++++++++++++++++++++++++++...............%%%%%%%%%%%%%%%%%%%%%%%%%%%%%%%%%%%%%%%%%%%%%%%%%%%%%%%%%%%%%.....++++++++++++++++++++++++++###############+++++++++++++++++++++++++++++++.....                                                                                                                                                    ",
"                                                                                                                                          ooooo+++++++++++++++++++++++++++++++++++++++++++++++++++...............%%%%%%%%%%%%%%%%%%%%%%%%%%%%%%%%%%%%%%%%%%%%%%%%%%%%%%%%%%%%%.....++++++++++++++++++++++++++###############+++++++++++++++++++++++++++++++.....                                                                                                                                                    ",
"                                                                                                                                          ooooo+++++++++++++++++++++++++++++++++++++++++++++++++++...............%%%%%%%%%%%%%%%%%%%%%%%%%%%%%%%%%%%%%%%%%%%%%%%%%%%%%%%%%%%%%.....++++++++++++++++++++++++++###############+++++++++++++++++++++++++++++++.....                                                                                                                                                    ",
"                                                                                                                                          ooooo+++++++++++++++++++++++++++++++++++++++++++++++++++ooooo          ..........%%%%%%%%%%%%%%%%%%%%%%%%%%%%%%%%%%%%%%%%%%%%%%oooooooooo.....++++++++++++++++++++++++++++++++++++++++++++++++++++++++++++++++++++++++.....                                                                                                                                               ",
"                                                                                                                                          ooooo+++++++++++++++++++++++++++++++++++++++++++++++++++ooooo          ..........%%%%%%%%%%%%%%%%%%%%%%%%%%%%%%%%%%%%%%%%%%%%%%oooooooooo.....++++++++++++++++++++++++++++++++++++++++++++++++++++++++++++++++++++++++.....                                                                                                                                               ",
"                                                                                                                                          ooooo+++++++++++++++++++++++++++++++++++++++++++++++++++ooooo          ..........%%%%%%%%%%%%%%%%%%%%%%%%%%%%%%%%%%%%%%%%%%%%%%oooooooooo.....++++++++++++++++++++++++++++++++++++++++++++++++++++++++++++++++++++++++.....                                                                                                                                               ",
"                                                                                                                                          ooooo+++++++++++++++++++++++++++++++++++++++++++++++++++ooooo          ..........%%%%%%%%%%%%%%%%%%%%%%%%%%%%%%%%%%%%%%%%%%%%%%oooooooooo.....++++++++++++++++++++++++++++++++++++++++++++++++++++++++++++++++++++++++.....                                                                                                                                               ",
"                                                                                                                                          ooooo+++++++++++++++++++++++++++++++++++++++++++++++++++ooooo          ..........%%%%%%%%%%%%%%%%%%%%%%%%%%%%%%%%%%%%%%%%%%%%%%oooooooooo.....++++++++++++++++++++++++++++++++++++++++++++++++++++++++++++++++++++++++.....                                                                                                                                               ",
"                                                                                                                                               ooooo+++++++++++++++++++++++++++++++++++++++++ooooo                         ................%%%%%%%%%%%%%%%ooooooooooooooo%%%%%%%%%%.....++++++++++++++++++++++++++++++++++++++++++++++++++++++++++++++++++++++++.....                                                                                                                                               ",
"                                                                                                                                               ooooo+++++++++++++++++++++++++++++++++++++++++ooooo                         ................%%%%%%%%%%%%%%%ooooooooooooooo%%%%%%%%%%.....++++++++++++++++++++++++++++++++++++++++++++++++++++++++++++++++++++++++.....                                                                                                                                               ",
"                                                                                                                                               ooooo+++++++++++++++++++++++++++++++++++++++++ooooo                         ................%%%%%%%%%%%%%%%ooooooooooooooo%%%%%%%%%%.....++++++++++++++++++++++++++++++++++++++++++++++++++++++++++++++++++++++++.....                                                                                                                                               ",
"                                                                                                                                               ooooo+++++++++++++++++++++++++++++++++++++++++ooooo                         ................%%%%%%%%%%%%%%%ooooooooooooooo%%%%%%%%%%.....++++++++++++++++++++++++++++++++++++++++++++++++++++++++++++++++++++++++.....                                                                                                                                               ",
"                                                                                                                                               ooooo+++++++++++++++++++++++++++++++++++++++++ooooo                         ................%%%%%%%%%%%%%%%ooooooooooooooo%%%%%%%%%%.....++++++++++++++++++++++++++++++++++++++++++++++++++++++++++++++++++++++++.....                                                                                                                                               ",
"                                                                                                                                                    .....+++++++++++++++++++++++++++++++++++++++++.....                                    ooooooooooooooo%%%%%%%%%%%%%%%%%%%%%%%%%%%%%%...........+++++++++++++++++++++++++++++++++++++++++++++++++++++++++++++.....                                                                                                                                               ",
"                                                                                                                                                    .....+++++++++++++++++++++++++++++++++++++++++.....                                    ooooooooooooooo%%%%%%%%%%%%%%%%%%%%%%%%%%%%%%...........+++++++++++++++++++++++++++++++++++++++++++++++++++++++++++++.....                                                                                                                                               ",
"                                                                                                                                                    .....+++++++++++++++++++++++++++++++++++++++++.....                                    ooooooooooooooo%%%%%%%%%%%%%%%%%%%%%%%%%%%%%%...........+++++++++++++++++++++++++++++++++++++++++++++++++++++++++++++.....                                                                                                                                               ",
"                                                                                                                                                    .....+++++++++++++++++++++++++++++++++++++++++.....                                    ooooooooooooooo%%%%%%%%%%%%%%%%%%%%%%%%%%%%%%...........+++++++++++++++++++++++++++++++++++++++++++++++++++++++++++++.....                                                                                                                                               ",
"                                                                                                                                                    .....+++++++++++++++++++++++++++++++++++++++++.....                                    ooooooooooooooo%%%%%%%%%%%%%%%%%%%%%%%%%%%%%%...........+++++++++++++++++++++++++++++++++++++++++++++++++++++++++++++.....                                                                                                                                               ",
"                                                                                                                                                         .....++++++++++++++++++++++++++++++++++++.....                                                   oooooooooooooooooooooooooooooooooooo     .....+++++++++++++++++++++++++++++++++++++++++++++++++++#####.....                                                                                                                                               ",
"                                                                                                                                                         .....++++++++++++++++++++++++++++++++++++.....                                                   oooooooooooooooooooooooooooooooooooo     .....+++++++++++++++++++++++++++++++++++++++++++++++++++#####.....                                                                                                                                               ",
"                                                                                                                                                         .....++++++++++++++++++++++++++++++++++++.....                                                   oooooooooooooooooooooooooooooooooooo     .....+++++++++++++++++++++++++++++++++++++++++++++++++++#####.....                                                                                                                                               ",
"                                                                                                                                                         .....++++++++++++++++++++++++++++++++++++.....                                                   oooooooooooooooooooooooooooooooooooo     .....+++++++++++++++++++++++++++++++++++++++++++++++++++#####.....                                                                                                                                               ",
"                                                                                                                                                         .....++++++++++++++++++++++++++++++++++++.....                                                   oooooooooooooooooooooooooooooooooooo     .....+++++++++++++++++++++++++++++++++++++++++++++++++++#####.....                                                                                                                                               ",
"                                                                                                                                                         =====.....=====+++++++++++++++++++++++++++++++.....                                                                                            .....++++++++++++++++++++++++++++++++++++++++++++++++++++++++.....                                                                                                                                          ",
"                                                                                                                                                         =====.....=====+++++++++++++++++++++++++++++++.....                                                                                            .....++++++++++++++++++++++++++++++++++++++++++++++++++++++++.....                                                                                                                                          ",
"                                                                                                                                                         =====.....=====+++++++++++++++++++++++++++++++.....                                                                                            .....++++++++++++++++++++++++++++++++++++++++++++++++++++++++.....                                                                                                                                          ",
"                                                                                                                                                         =====.....=====+++++++++++++++++++++++++++++++.....                                                                                            .....++++++++++++++++++++++++++++++++++++++++++++++++++++++++.....                                                                                                                                          ",
"                                                                                                                                                         =====.....=====+++++++++++++++++++++++++++++++.....                                                                                            .....++++++++++++++++++++++++++++++++++++++++++++++++++++++++.....                                                                                                                                          ",
"                                                                                                                                                    -----     ==========     ===========+++++++++++++++.....                                                                                                 .....+++++++++++++++++++++++++######+++++#####++++++++++.....                                                                                                                                          ",
"                                                                                                                                                    -----     ==========     ===========+++++++++++++++.....                                                                                                 .....+++++++++++++++++++++++++######+++++#####++++++++++.....                                                                                                                                          ",
"                                                                                                                                                    -----     ==========     ===========+++++++++++++++.....                                                                                                 .....+++++++++++++++++++++++++######+++++#####++++++++++.....                                                                                                                                          ",
"                                                                                                                                                    -----     ==========     ===========+++++++++++++++.....                                                                                                 .....+++++++++++++++++++++++++######+++++#####++++++++++.....                                                                                                                                          ",
"                                                                                                                                                    -----     ==========     ===========+++++++++++++++.....                                                                                                 .....+++++++++++++++++++++++++######+++++#####++++++++++.....                                                                                                                                          ",
"                                                                                                                                               ..........-----=====.....-----=====.....................                                                                                                      .....++++++++++++++++++++++++++++++++++++++++++++++-----.....                                                                                                                                          ",
"                                                                                                                                               ..........-----=====.....-----=====.....................                                                                                                      .....++++++++++++++++++++++++++++++++++++++++++++++-----.....                                                                                                                                          ",
"                                                                                                                                               ..........-----=====.....-----=====.....................                                                                                                      .....++++++++++++++++++++++++++++++++++++++++++++++-----.....                                                                                                                                          ",
"                                                                                                                                               ..........-----=====.....-----=====.....................                                                                                                      .....++++++++++++++++++++++++++++++++++++++++++++++-----.....                                                                                                                                          ",
"                                                                                                                                               ..........-----=====.....-----=====.....................                                                                                                      .....++++++++++++++++++++++++++++++++++++++++++++++-----.....                                                                                                                                          ",
"                                                                                                                                                    ...............     ................                                                                                                                     ..........++++++++++=====ooooo++++++=====-----+++++----------.....                                                                                                                                     ",
"                                                                                                                                                    ...............     ................                                                                                                                     ..........++++++++++=====ooooo++++++=====-----+++++----------.....                                                                                                                                     ",
"                                                                                                                                                    ...............     ................                                                                                                                     ..........++++++++++=====ooooo++++++=====-----+++++----------.....                                                                                                                                     ",
"                                                                                                                                                    ...............     ................                                                                                                                     ..........++++++++++=====ooooo++++++=====-----+++++----------.....                                                                                                                                     ",
"                                                                                                                                                    ...............     ................                                                                                                                     ..........++++++++++=====ooooo++++++=====-----+++++----------.....                                                                                                                                     ",
"                                                                                                                                                                                                                                                                                                                  ..........---------------......---------------     =====.....                                                                                                                                     ",
"                                                                                                                                                                                                                                                                                                                  ..........---------------......---------------     =====.....                                                                                                                                     ",
"                                                                                                                                                                                                                                                                                                                  ..........---------------......---------------     =====.....                                                                                                                                     ",
"                                                                                                                                                                                                                                                                                                                  ..........---------------......---------------     =====.....                                                                                                                                     ",
"                                                                                                                                                                                                                                                                                                                  ..........---------------......---------------     =====.....                                                                                                                                     ",
"                                                                                                                                                                                                                                                                                                                  ..........---------------......---------------     =====.....                                                                                                                                     ",
"                                                                                                                                                                                                                                                                                                                            .....-----.....      .....=====-----...............                                                                                                                                     ",
"                                                                                                                                                                                                                                                                                                                            .....-----.....      .....=====-----...............                                                                                                                                     ",
"                                                                                                                                                                                                                                                                                                                            .....-----.....      .....=====-----...............                                                                                                                                     ",
"                                                                                                                                                                                                                                                                                                                            .....-----.....      .....=====-----...............                                                                                                                                     ",
"                                                                                                                                                                                                                                                                                                                            .....-----.....      .....=====-----...............                                                                                                                                     ",
"                                                                                                                                                                                                                                                                                                                                 ..........           ..........                                                                                                                                                    ",
"                                                                                                                                                                                                                                                                                                                                 ..........           ..........                                                                                                                                                    ",
"                                                                                                                                                                                                                                                                                                                                 ..........           ..........                                                                                                                                                    ",
"                                                                                                                                                                                                                                                                                                                                 ..........           ..........                                                                                                                                                    ",
"                                                                                                                                                                                                                                                                                                                                 ..........           ..........                                                                                                                                                    ",
"                                                                                                                                                                                                                                                                                                                                                                                                                                                                                                                    ",
"                                                                                                                                                                                                                                                                                                                                                                                                                                                                                                                    "
};
