/* XPM */
static char *out[] = {
/* columns rows colors chars-per-pixel */
"293 414 251 2 ",
"   c None",
".  c #050104",
"X  c #0E0203",
"o  c #160102",
"O  c #1F0203",
"+  c #170807",
"@  c #060616",
"#  c #140F11",
"$  c #17161E",
"%  c #280203",
"&  c #2C0C09",
"*  c #320206",
"=  c #3C0508",
"-  c #311814",
";  c #1E1E23",
":  c #1B2038",
">  c #272329",
",  c #2C2932",
"<  c #33313B",
"1  c #49030B",
"2  c #59050E",
"3  c #451412",
"4  c #5C1B11",
"5  c #700712",
"6  c #47221A",
"7  c #5E1B30",
"8  c #620B27",
"9  c #6D052D",
"0  c #7E052C",
"q  c #741229",
"w  c #750530",
"e  c #731D37",
"r  c #4A2C2C",
"t  c #5D2920",
"y  c #49373F",
"u  c #762D20",
"i  c #60362F",
"p  c #743A32",
"a  c #61453D",
"s  c #78463D",
"d  c #393B46",
"f  c #43424B",
"g  c #4C4D5F",
"h  c #735448",
"j  c #5B5E72",
"k  c #6D7079",
"l  c #890C1A",
"z  c #9A1426",
"x  c #8B0631",
"c  c #9C0833",
"v  c #841436",
"b  c #A90E23",
"n  c #B40721",
"m  c #BE0421",
"M  c #BF0F27",
"N  c #B31A28",
"B  c #AA0737",
"V  c #B30334",
"C  c #BA0331",
"Z  c #87382A",
"A  c #983A26",
"S  c #8D2035",
"D  c #BC2F36",
"F  c #D4061D",
"G  c #DA061D",
"H  c #E4081F",
"J  c #CB0622",
"K  c #CD0F2E",
"L  c #CD1E2D",
"P  c #DD1622",
"I  c #E41F2A",
"U  c #D42B31",
"Y  c #DD3B36",
"T  c #E52D2E",
"R  c #ED2730",
"E  c #F12C34",
"W  c #F03537",
"Q  c #9D442E",
"!  c #8C4334",
"~  c #984D3D",
"^  c #AA4829",
"/  c #A8463D",
"(  c #A64D38",
")  c #B44C32",
"_  c #AA5435",
"`  c #B85138",
"'  c #BE573B",
"]  c #B45B38",
"[  c #BE603E",
"{  c #BD693D",
"}  c #EE403C",
"|  c #874D41",
" . c #8A574B",
".. c #9C5747",
"X. c #AA5B46",
"o. c #8E6355",
"O. c #B3664A",
"+. c #BE774A",
"@. c #A36753",
"#. c #B56F52",
"$. c #967262",
"%. c #AD7664",
"&. c #BC7C60",
"*. c #DB5547",
"=. c #E84B42",
"-. c #F54B45",
";. c #F4584D",
":. c #C96747",
">. c #C7704A",
",. c #CD7948",
"<. c #D4724E",
"1. c #DA7E4E",
"2. c #CB7B57",
"3. c #D97851",
"4. c #F26658",
"5. c #E37F5B",
"6. c #AB8772",
"7. c #C28149",
"8. c #CF824B",
"9. c #C8894D",
"0. c #D8834D",
"q. c #CE835E",
"w. c #D98650",
"e. c #DF8652",
"r. c #D98257",
"t. c #D28950",
"y. c #DC8851",
"u. c #DC8B53",
"i. c #DB865D",
"p. c #DD8B5F",
"a. c #CB9052",
"s. c #D59056",
"d. c #DF915B",
"f. c #DB975D",
"g. c #D0985A",
"h. c #E08351",
"j. c #E58657",
"k. c #E08954",
"l. c #E38C58",
"z. c #E78A5F",
"x. c #C28569",
"c. c #D08B64",
"v. c #D89F60",
"b. c #D4916D",
"n. c #DC966B",
"m. c #C38E75",
"M. c #DC9E77",
"N. c #E99062",
"B. c #E79965",
"V. c #D9A667",
"C. c #E6A168",
"Z. c #E3A96A",
"A. c #EDAA70",
"S. c #E5B070",
"D. c #EBB977",
"F. c #F3B275",
"G. c #F7BA7B",
"H. c #F1C17B",
"J. c #F3C67C",
"K. c #F8C17F",
"L. c #FAC77E",
"P. c #F6CA7E",
"I. c #F6CD7D",
"U. c #FACA7F",
"Y. c #5F6C9F",
"T. c #73789D",
"R. c #455FA5",
"E. c #4C66B0",
"W. c #536DB5",
"Q. c #5E74BD",
"!. c #6678B1",
"~. c #657CC4",
"^. c #E07692",
"/. c #7C818D",
"(. c #7082B3",
"). c #6C84C3",
"_. c #6C84CF",
"`. c #778BC2",
"'. c #728AD1",
"]. c #7A92D4",
"[. c #878C96",
"{. c #B29987",
"}. c #8F96A1",
"|. c #99A0AF",
" X c #A9ABB0",
".X c #B6B8BD",
"XX c #CD9A81",
"oX c #CDA78C",
"OX c #DEB591",
"+X c #E4A584",
"@X c #F1B98C",
"#X c #FD9EBA",
"$X c #EFBEA9",
"%X c #EBC28C",
"&X c #F7C784",
"*X c #FEC082",
"=X c #FEC586",
"-X c #F5CB82",
";X c #F5CF82",
":X c #FBCB83",
">X c #F8CC82",
",X c #FBCC82",
"<X c #FEC884",
"1X c #F9CE87",
"2X c #FECE84",
"3X c #F0C88C",
"4X c #FECA8B",
"5X c #F8CC88",
"6X c #FECD8A",
"7X c #FBD084",
"8X c #F7D189",
"9X c #FDD08A",
"0X c #FED48C",
"qX c #EECB9D",
"wX c #FDCF93",
"eX c #FBD495",
"rX c #FCDA9A",
"tX c #F2CEB4",
"yX c #F7DEBA",
"uX c #8797C0",
"iX c #869CD4",
"pX c #90A4D7",
"aX c #97ABDA",
"sX c #A4AFC6",
"dX c #ADB9CA",
"fX c #ABBADA",
"gX c #9DB3E6",
"hX c #A7BAE5",
"jX c #ABBEE7",
"kX c #A3B9F0",
"lX c #B7C1D2",
"zX c #B9C9E6",
"xX c #B0C3E8",
"cX c #ADC1F4",
"vX c #B6CAF8",
"bX c #C3C8CF",
"nX c #C9D1D9",
"mX c #D4D9DE",
"MX c #FDDCD5",
"NX c #C7D5F3",
"BX c #D6E1F5",
"VX c #E1E5EA",
"CX c #FFECE6",
"ZX c #E7EDF6",
"AX c #EFF3F6",
"SX c gray97",
"DX c #F2F9FE",
"FX c #F7FDFE",
"GX c #FAFAF9",
"HX c #FAFFFE",
"JX c gray99",
/* pixels */
"                                                                                                                                                                                                                                                                                                                                                                                                                                                                                                                                                                                                          ",
"                                                                                                                                                                                                                                                                                                                                                                                                                                                                                                                                                                                                          ",
"                                                                                                                                                                                                                                                                                                                                                                                                                                                                                                                                                                                                          ",
"                                                                                                                                                                                                                                                                                                                                                                                                                                                                                                                                                                                                          ",
"                                                                                                                                                                                                                                                                                                                                                                                                                                                                                                                                                                                                          ",
"                                                                                                                                                                                                                                                                                                                                                                                                                                                                                                                                                                                                          ",
"                                                                                                                                                                                                                                                                                                                                                                                                                                                                                                                                                                                                          ",
"                                                                                                                                                                                                                                                                                                                                                                                                                                                                                                                                                                                                          ",
"                                                                                                                                                                                                                                                                                                                                                                                                                                                                                                                                                                                                          ",
"                                                                                                                                                                                                                                                                                                                                                                                                                                                                                                                                                                                                          ",
"                                                                                                                                                                                                                                                                                                                                                                                                                                                                                                                                                                                                          ",
"                                                                                                                                                                                                                                                                                                                                                                                                                                                                                                                                                                                                          ",
"                                                                                                                                                                                                                                                                                                                                                                                                                                                                                                                                                                                                          ",
"                                                                                                                                                                                                                                                                                                                                                                                                                                                                                                                                                                                                          ",
"                                                                                                                                                                                                                                                                                                                                                                                                                                                                                                                                                                                                          ",
"                                                                                                                                                                                                                                                                                                                                                                                                                                                                                                                                                                                                          ",
"                                                                                                                                                                                                                                                                                                                                                                                                                                                                                                                                                                                                          ",
"                                                                                                                                                                                                                                                                                                                                                                                                                                                                                                                                                                                                          ",
"                                                                                                                                                                                                                                                                                                                                                                                                                                                                                                                                                                                                          ",
"                                                                                                                                                                                                                                                                                                                                                                                                                                                                                                                                                                                                          ",
"                                                                                                                                                                                                                                                                                                                                                                                                                                                                                                                                                                                                          ",
"                                                                                                                                                                                                                                                                                                                                                                                                                                                                                                                                                                                                          ",
"                                                                                                                                                                                                                                                                                                                                                                                                                                                                                                                                                                                                          ",
"                                                                                                                                                                                                                                                                                                                                                                                                                                                                                                                                                                                                          ",
"                                                                                                                                                                                                                                                                                                                                                                                                                                                                                                                                                                                                          ",
"                                                                                                                                                                                                                                                                                                                                                                                                                                                                                                                                                                                                          ",
"                                                                                                                                                                                                                                                                                                                                                                                                                                                                                                                                                                                                          ",
"                                                                                                                                                                                                                                                                                                                                                                                                                                                                                                                                                                                                          ",
"                                                                                                                                                                                                                                                                                                                                                                                                                                                                                                                                                                                                          ",
"                                                                                                                                                                                                                                                                                                                                                                                                                                                                                                                                                                                                          ",
"                                                                                                                                                                                                                                                                                                                                                                                                                                                                                                                                                                                                          ",
"                                                                                                                                                                                                                                                                                                                                                                                                                                                                                                                                                                                                          ",
"                                                                                                                                                                                                                                                                                                                                                                                                                                                                                                                                                                                                          ",
"                                                                                                                                                                                                                                                                                                                                                                                                                                                                                                                                                                                                          ",
"                                                                                                                                                                                                                                                                                                                                                                                                                                                                                                                                                                                                          ",
"                                                                                                                                                                                                                                                                                                                                                                                                                                                                                                                                                                                                          ",
"                                                                                                                                                                                                                                                                                                                                                                                                                                                                                                                                                                                                          ",
"                                                                                                                                                                                                                                                                                                                                                                                                                                                                                                                                                                                                          ",
"                                                                                                                                                                                                                                                                                                                                                                                                                                                                                                                                                                                                          ",
"                                                                                                                                                                                                                                                                                                                                                                                                                                                                                                                                                                                                          ",
"                                                                                                                                                                                                                                                                                                                                                                                                                                                                                                                                                                                                          ",
"                                                                                                                                                                                                                                                                                                                                                                                                                                                                                                                                                                                                          ",
"                                                                                                                                                                                                                                                                                                                                                                                                                                                                                                                                                                                                          ",
"                                                                                                                                                                                                                                                                                                                                                                                                                                                                                                                                                                                                          ",
"                                                                                                                                                                                                                                                                                                                                                                                                                                                                                                                                                                                                          ",
"                                                                                                                                                                                                                                                                                                                                                                                                                                                                                                                                                                                                          ",
"                                                                                                                                                                                                                                                                                                                                                                                                                                                                                                                                                                                                          ",
"                                                                                                                                                                                                                                                                                                                                                                                                                                                                                                                                                                                                          ",
"                                                                                                                                                                                                                                                                                                                                                                                                                                                                                                                                                                                                          ",
"                                                                                                                                                                                                                                                                                                                                                                                                                                                                                                                                                                                                          ",
"                                                                                                                                                                                                                                                                                                                                              . # . . X X X X X X X X X X X X X + X + # + + X X X +                                                                                                                                                                                                       ",
"                                                                                                                                                                                                                                                                                                                                            j X . # X . X X X + + + + + + + # # + + # # # + + # . + +                                                                                                                                                                                                     ",
"                                                                                                                                                                                                                                                                                                                                        $ # $ . + k $.$.$.h $.o.o.o.$.$.$.$.$.$.6.6.6.6.6.6.6.6.f X X y                                                                                                                                                                                                   ",
"                                                                                                                                                                                                                                                                                                                                      ; X X + + a MXyXCXyXyXyXyXyXyXyXyXyXyXyXyXyXyXyXyXyXyXCXCX$.& - - X X .                                                                                                                                                                                             ",
"                                                                                                                                                                                                                                                                                                                                < , > [.6.{.{.oX$XtXqXtXqXqXqX%XqXqXqXqXqXqXeXtXrXtXqXyXtXtXyXyXOX{.$XoX- - # X                                                                                                                                                                                           ",
"                                                                                                                                                                                                . . . . . X . . . . . . . . . . . . . . . . . . . . . . . . . .                                                             . . + + X bXyXyXyXqXtXOXqX%X%X3XeX8X3X3X3X3X3X3XqXqX8XqXqXeXqXqXeXqXyXrXyXtX%X$X{.y X . +                                                                                                                                                                                     ",
"                                                                                                                                                                                              ; . . . . . X . . . . . . . . . . . . . . X X X X X X . X X X X X #                                                           X . X X & $XtXqXeXeXqX5X3X1XJ.-X-XJ.5X5X5X5X5X5X5X8XwX8X8XwXwXqXqX3XeX3XrXrXrXoXtX{.+ + . X                                                                                                                                                                                   ",
"                                                                                                                                                                                              o o + o + + X + X + + o + o o o X X + + + + + + + + + o o o o X X #                                                         g X X + + & {.yXqX3X8XJ.7XJ.U.U.7X2XL.L.L.L.:X:XU.:X1X5X5X5X5X1X5X&X3XrX;X-X3X3XOXyXOX& + X #                                                                                                                                                                                   ",
"                                                                                                                                                                                        X X & $.{.{.{.{.{.{.oXoX{.{.{.{.{.{.{.{.{.{.{.{.{.{.{.{.{.{.{.{.{.{.6.{.j # < d                                                 h a k 6.6.6.6.qXeX3XrXJ.7XP.2XL.H.L.L.L.U.U.:X:X2X2X2X2X>X>X9X5X9X0X5X8X-X0XrXH.4XeXqXOXh 6 - #                                                                                                                                                                                   ",
"                                                                                                                                                                                      . # o o oXtXtXtXtXtXtXtXtXtXtXtXtXtXtXtXtXtXtXtXyXtXyXyXyXyXtXyXtXtXtXtXtX$.X + X .                                         . X X o y tXMXyXtXqXeXeX3X-X;X0XD.H.>X9XL.H.9X:X>X>X>X>X>X7X9X-X8X0X;X8XeX8X0XrXJ.8XwX4X%X3XqX$XoXOXoXy X o .                                                                                                                                                                           ",
"                                                                                                                                                                                . # X X o o & oXtXqXtXqXqXeX3XqXqXqXqXqXqXqX%XqXqX%X%X%X%XqXqXqXqXtXtXtXqXtXqX$X$.& O X +                                     . . + X + & i MXtX$XtXyXqX3XeX-X0XJ.9X:X&X:X6X&X6X9X9X1X1X1X1X8X8X8X0X0X;X8XeX;XeX-XrX%XeXwX4X=X=X@X$XoXOXh O X + <                                                                                                                                                                         ",
"                                                                                                                                                                              < . + o o O O - OXqXqXrX3X3XrX8XeXrX8XwXqX3XqX3X3X3X4XwXwXeX3X3XeXqXrXeXwXqXqX%XqX6.- % & o                                     . . X X & O s $XtXqXrX5X3X8X8X0X6X&XwXH.K.6X&X4X6X6X5X0X5X9X5X1X8X8X8XeX8X8X8XeX8XeXeXwXeXwXwX%X@XF.M.m.oXs % O o <                                                                                                                                                                         ",
"                                                                                                                                                                              ; X X - 6.6.6.6.%XeX3XeX8XeX8X-X;X5X-X8X8X8XeX8X5X6X4X6X5XeX5XwXeXwXeXwXwX3XqX3X%XoX| o.o.o.a                                 ; . X + o.o.h %.@X@XD.3X&X&XH.D.D.D.D.K.S.S.S.V.D.9X9X5X9X1X0X1X8X8X8X8X8X8XeX8X8X8X8X8X5X1X3XwX=X*XM.c.M.OX .% % + a                                                                                                                                                                         ",
"                                                                                                                                                                          f > X + o r tXtXtXrXqXwX3X5XwX0X-X5X9X1X5X6X&X&X4X5X6X9X&X5X5X8X8XeXeX8XeX8XeX3X3X%XS.V.x.OXm.oXa o o +                       > $ X + + - oXOXM.Z.S.Z.V.Z.S.S.S.V.V.Z.V.S.V.Z.Z.v.S.J.>X:X>X:X9X:X>X7X>X;X8X8X8X8X8X8X0X0X8X8X-X9X<XG.t.8.n.c.#.| $.o.h > + +                                                                                                                                                                   ",
"                                                                                                                                                                      . . $ # + + - h OXtXeX3XOXD.%X&XH.H.D.K.H.D.D.D.S.S.H.K.6X6X5X9X9X8X8XeX8X8XeXwXeX5X4X%Xg.9.7.x.%.XXs & & o X                     . X o + & a oX%X@XZ.v.Z.Z.Z.Z.S.S.Z.Z.S.Z.Z.V.Z.V.v.S.L.2X6XL.L.2XU.U.>X>X>X>X8X8X8X8X;X>X;XI.8X-X9XK.F.t.>.r.p.b.x.m.$.o.O o # .                                                                                                                                                                 ",
"                                                                                                                                                                      . X . - 6.oXoXOX%X3X%XV.V.g.Z.S.Z.V.v.V.v.v.v.v.g.Z.G.=X6X:X5X0X0X5X1X9X8XwX5X%X4XK.4X@Xg.q.7.#.x.+Xs * O & X                   . o & h OXXXoXM.V.V.v.g.V.v.Z.S.S.S.V.V.S.D.S.S.V.g.g.Z.L.L.2XH.K.:XU.U.U.U.>X2X7X0X7X7X7X0X0X7X7XJ.<X=XG.d.k.l.r.2.&.&.o.o.3 O + X                                                                                                                                                                 ",
"                                                                                                                                                                      . # X a $X%X%X%X%XD.D.OXS.S.S.S.S.S.V.S.Z.S.Z.g.a.V.G.K.<X&X6X9X9X-X1X9X0X&XS.v.v.n.A.C.c.2.2.#.&.b.| 3 6 r a r r               - O & %.@X@X+XV.Z.D.D.S.V.D.D.&X&X&XH.H.&X&X%XH.D.S.S.S.S.S.D.Z.D.L.L.L.>XU.>X2X7X7X7X7X7X7X7X7XP.V.v.C.C.u.e.l.B.q.q.&.#.o.3 O O X                                                                                                                                                                 ",
"                                                                                                                                                                      + X # a oX%X3X&X5XD.S.@X3XrX8XJ.8X5X1X1X0X6X&XS.g.v.Z.S.L.L.9X4X6X&X9X6X9XD.a.7.8.8.p.r.r.p.c.#.#.%.@.@.6.oXtXh X + X . . $ . o {.6.m.+X+XA.C.F.F.F.@X%X3XeXeXeX8XrXrXeXrXeXeXeXrXeXeXH.V.v.S.v.S.L.:X:X2X:X>X7X8X8X8X8X8X0X9XwX=Xf.t.t.w.u.l.N.p.,.p.&.#.o.= % & X                                                                                                                                                                 ",
"                                                                                                                                                                      . X o h OXOXS.H.S.V.V.OXeXeXrX8XrX8XeX5XeX&X5XD.V.g.g.v.H.L.9X<X:X:X0X<X<XG.9.7.t.r.k.1.N.n.+.! Z !  .m.XX$XOXr o o . X X . + - {.$XOXM.n.C.B.C.Z.Z.@XD.3XrXrXrXeXeXrXeXrXrXrXrXwXeXeX3XS.V.D.V.D.6X6X:X:X1X1X7X8X8X8X8X8X0X&X=XG.f.t.p.k.N.k.k.N.r.q.>.&...= * O +                                                                                                                                                                 ",
"                                                                                                                                                                    f X X o h OX@XS.G.S.S.S.OXqXrX8X8XeXeX8XeX5X5X&X6XS.v.g.S.6XL.:X:X2XJ.9X6X*XF.t.w.p.r.,.>.1.i.q.u t t p m.m.OXoX6 % o X X X . o & 6.M.M.n.B.f.C.A.Z.S.D.3XeXeXwXeXrXrXeXrXrXrXeXrXeXrXrX3XV.Z.S.V.H.:X>X2X>XU.P.9X0X1X9X9X&X-X4X=XG.d.w.N.e.N.N.N.i.z.r.>.2.O.3 3 & o                                                                                                                                                                 ",
"                                                                                                                                                                    f X + - h oX*XA.A.v.V.S.%XeXrXrXrXrXeXeXeX5XwX&X&XD.v.v.D.<X<X:X6X6XH.D.F.F.C.d.l.i.r.3.>.,.p.#.u 4 4 | x.x.m.m.t % & o X X X & - m.b.c.s.s.d.A.<X&X&XeXrXrXeXeXeXrXrXeXeXrXeXrXrXrXrXeX5XD.D.D.V.H.:X:X:X&X2X>X1X>XJ.5X0X0X&XZ.C.C.u.1.z.N.z.N.B.p.1.3.1.r.b.%.%.$.$.                                                                                                                                                                ",
"                                                                                                                                                                  a r $.6.{.XXM.g.Z.=X<XK.5X3XeXrXeXeXeX8XeXeXeX3X&X4X&XZ.S.=XK.=X&X4X4XK.Z.g.s.d.d.l.3.r.,.2.q.2.O.p t t  .&.&.x.m.6.%.o.6 + o O O 3 XXM.a.f.f.g.S.wXeX0XeXwXwXrXrXeXrXrXrXeXrXeXrXrXeXeXeXH.D.D.S.V.D.>X>X:XU.>X2X2X:X:X6X:X&XF.s.8.w.h.j.j.j.N.z.B.p.>.,.N.N.2.+X@XXX$Xh X . +                                                                                                                                                         ",
"                                                                                                                                                              . + o a OXOXOX@Xv.v.D.wXeXwXrX0X0XrXeX8XrXrXeXwXeX5XH.S.S.g.S.9X<X=XK.<X<X=XC.a.t.w.8.>.>.r.>.#.+.#.@.u t p p #.#.#.%.%.m.o.O O - i 6 i M.V.a.a.9.a.Z.5XeX0X0XeXeXrXeXeXeXeXrXrXrXrXrXrXrXeXwXD.V.S.Z.V.D.2X2X:XU.>X2X:XU.2X6X&XK.A.t.,.1.h.j.1.5.N.i.r.2.] { i.r.2.c.M.x.oXa o # .                                                                                                                                                         ",
"                                                                                                                                                              X X o h 6.XX@XS.g.g.D.wXeXwXrX0X0XeXrXrXrXrXeXwX5X5XZ.g.v.g.S.9X6X<X=XK.D.S.f.s.d.u.0.+.>.c.#.....@. .3 = t 3 ! ..#.x.@.$.r O O i XX%.m.S.Z.V.V.g.v.D.0X0X0XrXrXrXrXrXrXrXrXrXrXrXrXrXeXrXeX3XS.Z.D.D.D.H.9X:X&X&X9X2XL.K.L.L.=X=XA.8.,.r.j.5.1.N.z.i.p.r.{ { 1.p.,.r.b.x.XXh & X .                                                                                                                                                         ",
"                                                                                                                                                              X + r oXXXa.Z.Z.Z.a.D.rXrXrXrX0X0XeXrXrXeXwXeXeXeXH.v.g.D.H.&X:X&X4X<X*XS.v.9.8.w.8.8.+.#.&.@. .@.6. .3 = 3 3 u ..x.%.$.o.% % & a OXXX+XZ.Z.G.G.D.D.3X0X0X8X0X0XeXrXrXrXrXrXrXrXrXrXrXrXeXH.D.D.&X6X:X:X:X9XU.&XU.2X2X2X<XG.F.A.A.B.8.1.j.5.5.5.5.5.r.N.r.[ _ [ ,.j.i.N.+XM.t % O X                                                                                                                                                         ",
"                                                                                                                                                            - + o 6 oXoXg.v.S.D.3XeXrXeXeXeXrX0XeXrXrXeX5X3X&XeXD.Z.Z.H.9X6X&X&X4X*XF.A.f.8.,.,.{ +.2.#.&.@. .$.$.h - & % 3 t | %.@.$.$.& % % p OXM.M.C.S.=XK.&X&XH.J.-X;X-X&X8X5XeXrXrXrXrXrXrXrXrXrX3XV.V.3XwX9X9X0X-X9X>X>X2XJ.D.G.G.A.f.s.t.0.0.w.h.3.5.5.:.^ Q ] ] ( [ <.z.e.i.r.p.b.p * O X                                                                                                                                                         ",
"                                                                                                                                                            + o - h 6.M.a.a.S.6X3XeXrXrXyXeXrXrXeXrXrXrX3Xv.g.S.D.H.6X&X0X0X&X4XG.Z.g.f.t.8.>.>.[ [ O.#.&. .4 3 6 - o o O % = = % 6 - 6 & % %  .$X$XS.Z.V.*XG.K.H.D.D.S.S.D.D.D.D.3XeXrXrXrXrXrXrXrXrX%XV.D.8X-X5X5X0X&X1X:X6X2XD.v.s.f.d.u.u.0.0.,.,.1.3.3.5.:.Z 5 u Z A >.i.N.N.p.p.d.p.&...$.$.- X @ .                                                                                                                                                 ",
"                                                                                                                                                            # & h {.+Xn.f.v.S.4X5XeXrXeXeXeXrXeXrXeXrXrXV.g.a.S.D.K.&XwX&X6X4X9XG.a.a.d.u.,.,.[ ( [ X...%.p = % o X X X o o O % & o & & O % O | $X%Xv.V.Z.G.*X=XG.D.D.D.D.D.D.D.H.H.5XeXrXrXrXeXrXeXeX3XS.H.eX8X0X5X0X5X5X:X:X=XS.s.8.u.u.h.e.,.1.>.,.1.3.<.>.:.u u A Q u { r.N.N.p.N.d.r.b.+Xm.oX6 + X . ,                                                                                                                                               ",
"                                                                                                                                                          a y {.XXoX+XM.v.v.F.K.K.&X3X3X3X3X&X-XJ.3X5X&Xv.g.g.S.G.K.&X&X&X4XwXwXS.f.t.+.,.{ >.2.O.#.#.%.x.p * O o X X . X o O O O O O o O O % | qX@XV.V.s.A.F.A.S.K.H.D.H.H.D.H.H.D.H.5X5XD.S.V.V.g.S.3X8X8XeX0X8X1X0X9X0X6X<X=XF.f.8.u.0.h.z.j.>.<.1.3.<.>.:.>.A u Z Q u >.r.p.p.i.p.p.i.r.b.M.XX6 O X X ,                                                                                                                                               ",
"                                                                                                                                                        # X a oXoXb.M.f.A.G.G.F.F.G.D.D.D.H.H.H.H.H.H.D.H.K.H.G.<X4XwX=X4X=X=XG.A.f.s.p.p.{ 2.2.#.@.@.o.$.i % O o X X X X o O O % & O % % % = o.$XOXZ.V.v.A.B.C.C.G.G.H.J.H.D.H.K.H.&X9X4XS.g.a.a.9.g.H.8X8X-X-X8X9X0X&X6X=XG.*XA.d.w.l.j.h.5.3.:.:.:.>.<.>.O.#.~ u ! ~ Z O.q.q.p.i.r.r.N.r.i.M.x.3 & % X <                                                                                                                                               ",
"                                                                                                                                                        + & r oXOXc.n.7.s.G.F.F.F.G.G.G.G.G.G.G.G.K.4XK.K.K.4X=X=XK.K.D.K.F.S.C.M.n.n.q.{ #.c.O.p 4 6 6 6 & o X o o o o o O % * * = * * * * *  .$X@XV.C.Z.C.f.C.C.A.K.<XH.H.K.K.K.G.G.K.K.H.H.H.H.D.H.5X0X0X9X0X9X9X&XV.Z.v.f.f.B.0.,.r.1.3.3.<.[ ) ^ _ O.O.( ..Z 4 4 Z Z #.n.c.i.p.r.r.N.N.i.n.c.| 3 i a > y                                                                                                                                             ",
"                                                                                                                                                      , X o r oXOXm.c.s.s.B.f.F.F.F.F.F.F.F.F.D.G.D.D.F.K.K.K.D.K.S.S.Z.A.v.9.+.+.2.q.#._ #.x.#.3 % & O o o o + O % % % % = 3 4 4 8 e 7 1 = = ..$XOXM.A.C.C.C.B.f.Z.K.<XK.K.=X=X<X<X:X6X6X4X4X:X:X6X6X:X4X:X&X&X6X6XG.a.t.s.t.u.p.r.r.5.1.<.3.>.[ _ ] X.X.O.! u 1 2 u O.X.O.p.d.i.l.e.k.k.B.i.p.b.b.m.XX{.r # X +                                                                                                                                         ",
"                                                                                                                                                      + + & r oXXXM.b.n.8.,.w.A.F.F.F.F.F.F.F.G.F.G.*XK.K.D.=X=X=XG.F.S.F.+Xb.7.q.q.2.2.&.&.%.%.4 % % O O O O % % * % * * 1 e S v q S e 1 1 1 ..$X@X+XC.C.f.B.t.f.F.K.L.<X=XK.<XG.H.H.G.H.<X6X9X<X<X<X4X6X4X<X6X*X=XF.t.8.u.u.i.r.j.j.r.3.>.>.{ X.O.#.~ ..#...u 2 1 4 #.2.>.p.e.h.e.z.z.r.N.i.N.p.q.x.XXm.r o X .                                                                                                                                         ",
"                                                                                                                                                      $ X o r OXoXoXXXn.8.,.d.F.G.G.G.*X*XG.*X*X*X*XG.*XK.G.=XH.4XK.F.C.F.A.+Xb.+X+Xb.&.x.x.#.#.4 1 = = = = 1 = = = = 1 1 2 v v l z S q 2 2 1 ..$X@X+XM.A.C.B.C.v.G.K.K.<XK.G.=XK.H.J.L.L.L.K.K.K.K.G.G.G.G.*X*X*X*XG.f.l.l.l.j.j.z.r.<.>.2.2.+.#.&.x.@...o.p 4 4 4 Z >.r.3.1.1.1.h.N.j.i.p.r.N.p.c.b.&.XXi & X # ;                                                                                                                                       ",
"                                                                                                                                                      # X + - h a i $.M.C.B.d.A.F.F.F.F.F.G.F.G.F.F.F.G.G.D.&XK.K.G.@Xb.c.#...u u 4 t 4 4 4 2 2 2 4 4 8 8 q q q 8 q 8 q q q S z c N z l q 5 2 Z X...+.n.+XC.f.C.g.v.S.D.S.F.G.F.D.S.S.S.S.S.S.S.Z.A.A.C.f.B.C.B.f.d.d.8.8.0.e.r.1.r.>.[ O.O.X.~ u t t 3 = * = p #.#.>.r.3.1.3.3.3.h.N.1.N.z.r.p.p.p.b.c.XXi % + . >                                                                                                                                       ",
"                                                                                                            # # . . . . . . . . X . X + + + X . # . X . . + + O % % | M.M.s.s.B.f.s.f.s.d.N.l.N.d.d.B.f.F.Z.V.V.D.D.M.q.+.Z 4 1 1 = = = = = 1 1 2 q S v v l v S v S S S S z z c N c N N z S S q 4 4 ~ +XM.b.a.g.s.v.C.Z.F.G.F.A.S.S.S.S.Z.Z.C.A.C.A.d.,.,.8.,.,.>.,.,.,.u.0.,.0.i.r.{ O.X.X.#.t = % * O % % % t &.q.2.i.1.r.h.3.1.r.N.z.h.z.h.z.N.i.n.b.XXp O o + >                                                                                                                                       ",
"                                                                                                          X . . . . . . X X X X . . X X o o X X X . X X . X o o O &  .+Xc.c.s.s.s.t.s.s.d.l.j.j.N.d.d.s.v.V.V.OX+X@X@Xq.X.Z u 2 1 1 1 1 1 1 1 2 5 v S z z z z c z z x z c z b c b b B N z S z q 5 2 u b.M.M.n.M.n.f.s.C.F.A.A.Z.A.A.A.A.A.Z.A.A.C.A.u.,.,.,.,.1.,.1.2.8.,.,.2.q.p.2.+.~ | | ..4 = % O o O O % t b.c.2.r.r.i.p.r.i.i.k.l.h.j.j.k.p.i.n.c.b.p O o . >                                                                                                                                       ",
"                                                                                                        y . + X X + + X X X . X X + + X o o o o X + X X X o X o o o h XXx.M.+Xn.b.s.n.n.d.N.l.l.d.p.B.+X+X@X+X+XOXOX$Xb.O.u u 2 2 2 2 1 1 2 2 5 5 l z z c c c b c c b c b c b n C n n n b b l 5 5 5 S n.+X+XM.M.+XM.q.q.B.A.G.F.A.A.A.A.C.C.C.C.C.C.u.+.>.,.>.,.,.>.>.1.i.2.2.2.b.&.x...s s | 3 % % O o O O % t b.n.b.p.i.r.3.>.i.l.w.l.k.j.z.p.p.c.p.q.b.p O o X >                                                                                                                                       ",
"                                                                                                        > > 6 y y a a a h h h h h h h h h h h a a a - X o o X X X + h {.XXXXb.c.b.c.c.c.c.p.i.i.p.i.b.&. . .s p | p p u 4 2 5 2 5 5 5 5 5 5 5 l l b N b n n n M n n n n n n m M m m M m n b b l l 5 l X.O.@.@.%.&.q.b.n.C.C.A.Z.C.A.C.A.A.A.C.A.B.C.p.8.2.2.2.2.1.1.r.2.r.2.&.&.%.@.%.s i t t = % % O O - 3 = 4 %.c.b.c.i.i.5.>.3.p.u.d.l.l.z.p.d.d.n.c.b.p % o + ;                                                                                                                                       ",
"                                                                                                  . X X o.tXtXtXqXqXqXqXqXqXqXqXqXqXqXqXqXtX$XOXOXoXh & o X . . . X - r t t u #.#.#.O.{ O.O.{ O.O.O.+.p = * * * * * = 1 1 5 l z l l l l l l z b b M M K M M M M M K M M M K J J K F K J m M n n b l 5 2 1 = * = = p c.q.2.q.7.9.8.2.8.q.q.q.q.q.7.q.2.+.+.+.#.>.{ >.>.] X.#...4 3 3 & % * % * % O o o % s  .| | O.O.X._ >.2.>.] { w.d.d.e.l.k.p.c.d.n.b.b.p % o X ;                                                                                                                                       ",
"                                                                                          # X X - , - - $.$XqXqX$XqX%XqXqXqX%XqX%X%X%X$X%XOXoXXXoXoXo.O X . . @ . X X O % * = &.&.#.#.#.#.#.#.O.O.#.x.p = % * * % * * 1 2 q l b b N N N N M M M M K K J K J m J J J J J J J J J G F G J K K M n N b z 5 1 1 * * = | +X&.#.x.&.+.2.&.2.+.+.+.+.+.+.+.#.#.O.O.O.{ +.2.O.u 1 ~ ..= * & O O % % % % O o o O i | | ! Z u u u O.>.:.] [ w.B.d.u.l.i.p.p.c.c.b.b. .6 O X +                                                                                                                                       ",
"                                                                                        + # X & 6.$XoX$XoXqXqXS.@X@X@X@X%X%X%X%X%X%X%X%X%XS.v.b.b.oX$.% o X . . . + X o O % * @.&.&.#.#.+.#.#.#.#.@.#.t = * * * = = = 2 5 l b L M M M M M M K K F F F G G F F F J F K F K F K G J J F J K K K M M b z 5 2 1 = = = p XXm.x.m.x.m.x.q.x.x.x.x.x.x.&.x.&.7.&.+.&.&.&.&.&...! ..| * % O O O O O % O o o o O r i p ! u u Z Z { 2.>.] [ l.l.N.k.k.p.i.n.c.q.n.b.&.s O + .                                                                                                                                       ",
"                                                                                      - + + o & $XtXqXqXqX%X4X@XK.=X=X=X4X=X&X4X&X&X3X4X&XS.v.g.b.+X%.* % X . . . X o o O O *  .@.@...@.@...@.o.@...@.4 1 1 1 1 1 1 2 5 l N N M M K L K J J F F F G G G H G G F G F F F F F F F F G G F F J J K M b l l 5 2 1 1 1 | +XXXXXm.m.b.m.m.m.x.x.x.x.&.6.&.&.6.&.%.&.&.&.%.m.%.%.p 6 % * O % O O O & O o o o & r i p Z Z A A 5 _ >.>.` { z.r.l.z.h.z.i.p.b.c.n.x.x.h O X X                                                                                                                                       ",
"                                                                                    , r a h 6 i oXqX@X%XwX%XwX4XK.9X&X4X=X4X6X6X&X5XeX&XH.Z.9.C.n.b.x.s i 6 o X o X X o + O % & & = = = = = = = = = 2 2 5 5 5 5 l l l z b M L L K F K F P F G G G H H G H H H G G G F F F F J F G K G F F F F J K n b c l l 5 5 5 e Z p u t t t t t t t t r t 6 t r t 6 t t t t r t t t 3 3 * % % * * % % % O O O o o O r t t e u Z u Z ( :.>.] ] 5.e.z.h.z.N.i.p.p.p.n.x.x.h O X .                                                                                                                                       ",
"                                                                                . X X oXMXOX$XOX$XwX3X3XwXH.9X5XP.1X&X6X:X6X4X&X5X&X&XH.D.Z.7.s.t.c.M.m.m.$.& o o o o o o o o O % % * * * * = * = = 1 5 l z z z z z b N L L L P P P P P I P I H H I H H H H H G G G F F G G F F G G G G F G G F K J M M b b z S l 5 2 1 = = 1 = % % % % O O O O O O O O % O O % % O O O O % * = = 1 1 = = = % % O O O o & O * 1 p ! Z u ( O.{ ] [ z.N.N.z.z.N.p.p.c.p.n.x.x.h O X .                                                                                                                                       ",
"                                                                              $ X X h tXtXtXqXwX@X%X3XwXeX-X;X;X0X8X-X9X>X>X2X:X5X&XK.D.G.Z.s.C.n.b.n.M.XX$.O o o o o O O O O % % % % * * * * * = 1 2 l z z N b b b M M K P P P P P P P P H P H P H I H P H G G G G G G G G F G G G G G G G G G F J K K M M N D z 5 2 2 1 1 = * % % % % % O O O O O O O O O % % % O O % % % = 1 1 1 1 1 = = = = 3 * % O O O % = t p t 4 ~ X.X.X.] r.N.i.z.z.z.z.p.p.p.n.x.x.h O X X                                                                                                                                       ",
"                                                                              # X + 6.yX$XqXwX3X3X6X&X0X-X0X-X8X-X-X-X1X>X-X>X6X&X6X4XG.A.f.p.n.c.b.b.XXoX$.& & O O O % % * * * * * * = = = = 1 1 2 5 l z b N N N N M K P K P P P P I P P P P P H I H I H G F G G G F F G F F G G H G G G G H G G F F F K J M N z l 5 2 2 1 1 = = * * * * % % % % % % % % % % % * * % * * * 3 4 2 2 2 8 1 1 3 3 1 = * % O % % * = 3 3 t | ..X.#.O.i.n.p.B.N.i.z.p.p.p.b.x.x.h O o X                                                                                                                                       ",
"                                                                              + + % XXtXqX3X%X3XwXwX1X9XJ.0X-X9X9X&X&X&X1X:X&XJ.K.*X*XG.A.p.q.q.b.M.M.XXoX$.& O % % * = 1 1 2 1 1 2 1 2 1 2 2 2 5 5 z D D N D N N L L L L P I P I P I P P P P P I P I I P G G G G G F G H G G G H G G G H G H G G F F F P J M M b z l 5 5 2 2 2 2 2 1 1 1 1 = = = = = * = = = = = = = 1 = 1 8 8 8 8 8 8 8 8 8 8 2 1 1 = * = * * * = 3 t t u u ! ~ #.c.+.i.p.i.p.i.i.i.p.&.x.h O o X                                                                                                                                       ",
"                                                                          ; y $.$.o.$XqX%XwX3XeXwX9X9X&X9X9X4X4X6XG.S.S.&X6X:XL.G.Z.f.A.C.p.p.c.b.XX@.t i 6 % * % = 4 u e l S l S S S S S S S S N D D =.Y U Y Y Y Y T W W W W E E E E E E E E E E E E E E R R R I I I R R H G G G G G G G H H G G G F F F J K K M n N z z l l q l q 5 5 5 5 8 2 8 2 2 2 2 2 2 8 8 8 8 8 8 8 8 8 q 9 9 q 9 9 8 8 e e e e 7 e e 7 1 = = = * = = 1 4 ..@.~ _ >.p.p.i.p.i.p.&.x.h O o X                                                                                                                                       ",
"                                                                        X + o.yXtXtX@XwX4XD.rX3XeXJ.S.g.Z.v.C.C.C.f.s.a.G.4X<X2XF.f.7.s.d.i.b.c.c.M. .= = % * * = 1 e A D D D D D D D D D D ) Y D Y Y =.=.} } } W W W } } W W W W W E W E W W W W W W W E E E E E E E E E P F F F F G G G G H G G G G F F J K J K K M M N N N N N z z z z v v v v q q e q q q q q q e v q q w 9 q q 9 9 q w w v S S e S S S Z e 8 1 = * % * = = 4 o.@.~ ! >.p.i.r.i.i.p.&.x.h O o X                                                                                                                                       ",
"                                                                      + X o 6.tXqX@X4X@XS.wXD.3XwXH.g.a.g.9.7.7.8.t.s.s.G.=XG.G.Z.v.a.d.c.c.+Xb.XX+X| * = * = = 1 2 q D D D U U D D D D D D Y D Y Y Y Y Y } W W W } } } W W W W W W W E W W E E E W E E E E E E E E R R R P F F F F F F G G F G G H G F F F G J F J J K K M M N B N B b c c z l x l 0 0 0 0 0 q v 0 v 0 0 0 w w w w 9 w w 0 w w S S S v S 0 S q 8 2 1 = = % % = 6 o.%.@.X.+.p.2.2.2.q.p.&.&.| O o X                                                                                                                                       ",
"                                                                      X X + $.qX%XOXD.S.Z.K.S.H.4XK.V.a.a.g.a.9.8.t.8.f.A.G.*XZ.Z.a.7.n.n.x.&.x.m.x.p * = 1 1 2 2 5 l N L L L L U L L U L U U Y D U D Y Y } } } W -.} -.} T W W W W W W W T W E E E E E E R E T E R E R I F F F J F F F F F F G G G G G G F G F G F F J J J J m M m n n n n b c c c c x l x x 0 x x x x x 0 0 0 0 w w w w 0 0 0 v v S S v v v 0 9 8 2 1 = * % % 3  .@...~ O.>.2.q.2.q.q.x.&.| % O X                                                                                                                                       ",
"                                                                      o + O $.tXqX%XK.A.f.A.V.D.K.6X&XJ.J.&XK.G.f.d.C.C.F.C.A.f.a.7.9.n.XX| 3 3 3 1 = 2 u u S S S z N L L L L U U U U Y Y Y Y Y Y Y Y =.=.-.=.=.-.;.-.-.} T W W W W W } W W W W R E E E R I T T T R I R R R I I I I I I P F F F F G G G G G G G G F F F F F F J J m m m M M C C V V B b B B B c c c c c c x c x x x x 0 0 0 0 0 w 0 0 w 0 0 v v 0 w q 8 2 = % % % & = = 1 ~ #.X._ O.2.2.&.&. .% o o                                                                                                                                       ",
"                                                                    /.o O & %.qX@XD.G.A.v.F.D.&X4X0X0XeX0XwX6X=Xf.d.F.F.F.C.f.s.t.8.c.c.+Xp % % * = 1 q A D D D D D U U U I T T Y -.} Y Y =.=.=.=.=.=.=.=.=.} =.=.-.-.-.Y U W Y W } W } } Y } T R E E R I I T T T R E R E R E R R R E R P F F G G G G G G G G G F F F F F F F J J J J J K K M M M N M C N V B B B B c B c c B B B c c c x x 0 0 0 0 0 0 0 v 0 v 0 0 q q 8 2 = * % % * * = s @.! ! O.2.2.&.%. .% o +                                                                                                                                       ",
"                                                                  < a o.%.%.XX@X@XF.F.A.Z.K.&X9X9X9X5X8X8X1X6X=Xs.s.C.G.A.A.s.s.s.b.b.x.oXi % & * 1 2 l z D U U U T T T W W } } } } } Y Y Y Y *.Y *.Y =.Y =.Y } =.=.=.-.Y U Y W } } } } } } } T T E E R R R R R R E E E R R R E R R E R F F F G F F G G F G G F F F F F F F F F J J J J J C J m M C M M C M V V B B B B B B B B B B c c x x x 0 0 0 0 0 0 0 0 0 v v v v q 8 1 = % % * * * 6 p s Z X.q.2.&.x.o.O + o                                                                                                                                       ",
"                                                              . + . o.OXOXM.+XF.+XZ.C.A.S.&X1X0X0X0X0XrX0X1XwX4Xf.n.C.F.C.A.b.n.b.b.XXXXXX6 % * = 2 5 N L L U L T I I T T Y Y Y =.Y =.;.=.` ) ' ' ' ' *.*.;.=.=.=.Y =.=.Y U Y T } } -.-.=.-.-.W T T R E E R R T T T R R R E R R R E E R F J F F F F G F G K G F G F F F F F F F F J J J K J K J J J K J K J m C V B V B V B V B B B B c x x x x x 0 0 0 0 w x v v S S v w 9 8 2 = * * % % 3 6 p u ..2.#.%.&.h O O o                                                                                                                                       ",
"                                                              . . + o.oX+X+X+Xq.c.f.C.G.K.5X0X0XrX0XrXrXeX8XwXK.g.f.C.+XC.M.C.+X&.| s o. .= * 1 2 5 l N U U U I T T T U Y } =.=.=.Y Y *.` <.q.c.i.5.z.<.*.*.Y Y =.Y =.=.Y Y } Y } -.;.;.;.;.;.-.W T T E E E R I R R R R R R R R I R E R P P P P P P P P G F G F G G F G F F F F F F F F F F F K J J J J J J J m C C V C V V V V V B B B c c c x c x x x 0 0 0 x x v x 0 0 v v q 2 1 = = % % & 3 1 4 X.X.@.@.o.h h h a                                                                                                                                     ",
"                                                              # X +  .XXb.p.B.d.9.v.S.wXwX1X0X8X0X8X8X0X0X0XwXG.a.f.n.n.C.n.+X@X%.3 * = = * 1 5 v z b N L L U T W W Y Y Y =.*.*.*.*.*.` :.$XtXMXtXtX$XM.[ *.*.*.*.*.;.=.=.-.-.-.-.;.;.;.;.;.;.;.} Y T W W W W W T T R R I I I R R R E E E E E E R E R I G F F G F G F G F G F F F F F F F F F F F G F F F J F J J C C C C C V V V B B B B c B c c c c c x 0 0 0 x x x x x v v 0 9 8 8 3 = % % * = 1 X...X...o.6.m.$.& o #                                                                                                                                 ",
"                                                              . . o o.+Xn.C.A.d.a.v.V.wXeX0XrXrX0X0XrXrX1X5X4XD.g.f.f.n.C.c.b.M.%.* * % * 1 2 l N N N L U L U Y } -.} } =.=.*.*.*.:.:.' x.tXMXMXMXMXtXXXX.:.:.*.*.;.;.=.=.;.;.-.;.-.;.;.;.;.;.;.Y T T W } } -.-.} T I I R R R I R R R R E E R R E E R P F F F F F F F F G F F F F F F F F J F F F F F F F F F K K J J m K C C C V V B B B B B B c B c c x 0 0 0 x 0 x x v c x 0 w 9 q 7 7 = % * = 1 #.~ X.....%.@.%.6 + . .                                                                                                                               ",
"                                                              . X o o.XXn.A.C.v.a.Z.D.eXeX5X0X0X0X8X1XrX0X&X4XG.S.A.C.n.A.M.b.+X%.* * * * 1 5 z N L N L U U U } -.;.-.=.=.;.*.*.' :.O.X.m.MXCXCXCXMXMXm.#.#.<.[ ' :.*.*.=.=.-.-.-.;.;.;.;.4.;.;.=.Y Y } Y } ;.-.} T I T R R R R R I R R R R R I R R E I F J F F F F F G F F F G G G F F F F F F F F G F F F F G G G F J K K C C V V V V V V V V B B c c x x x 0 0 x x x x x v x x 0 v e 7 1 * * * 3 @.@.@.@...@. .%.& O X X                                                                                                                               ",
"                                                              . X o o.XXb.C.C.S.H.3X3XeXeXeXrX0X0X8X5XJ.&X&XK.*XG.=X*Xf.9.c.b.c.~ = * * = 2 5 z N L L L Y Y Y -.-.;.=.=.=.*.*.:.:.#.%.%.m.MXCXSXSXCXtX6.@.@.O.X.[ [ ` *.*.=.=.-.} -.;.-.;.;.4.;.=.Y Y Y Y Y -.-.} T U T T R E E R T R T R R R R R I R I G F G F G F F F F G F G G G G G F G F G F F F F F J F F G G G F J K C C C V V V C C C V V B B B c c x x x x 0 x x 0 0 0 x x 0 8 8 1 = = * = p s | ! ! .. .o.% O X X                                                                                                                               ",
"                                                              . X O  .XXb.n.v.K.wXwXeXeXwXeXeX0X9X1XJ.D.H.=XG.<X=X*XG.f.7.q.c.X.4 = * = 1 2 l N L L U U Y W } -.=.=.=.;.*.*.z.$XtXtXMXMXMXCXCXCXCXCXCXMXtXtX$X$X$X$X+X#X5.*.=.=.=.-.;.;.;.;.=.;.4.;.4.4.;.;.4.;.;.} T T T T T R R R R R R E R R E R E E R E E E I G F F F G G G G G G G G G G G F F F F F F J F G G G G J K C C C V C V C C C C V V B B B c c c x x 0 x x 0 0 x 0 0 5 9 8 2 = = = = * * * * u @.%.$.= % o X                                                                                                                               ",
"                                                              . X O  .M.c.c.g.=X&X5XeXeXwXwX1X9X1X&XH.D.G.G.F.G.G.F.A.f.c.n.+X%.1 1 1 1 2 5 l N L L I T W } } } ;.;.4.4.4.:.b.tXMXMXCXCXCXCXSXCXCXSXCXCXMXMXMXMXMXMXtX$Xz.*.*.=.=.=.;.;.-.=.=.=.;.4.4.4.4.4.4.4.4.} U T T T R T R T R T R E R E R R R R R R E E R G F F F F G F G G G G F G F G F F G F F J F F G G G K K J K C C C C V C C C C V V V B B c c x x x 0 0 0 0 0 0 0 0 5 9 q e 8 7 3 3 % % * = s @.m.%.& % X X                                                                                                                               ",
"                                                              . X O  .M.c.q.s.=X4X4XeXeXwX6X5X5X6XH.H.4X=XG.*X*X*X*XF.M.M.M.+Xx.1 1 1 5 l z N M K P I E W } } } =.=.;.4.*.:.+XtXCXCXCXCXSXSXCXSXGXGXCXCXCXCXMXCXMXMXtX$Xz.` *.*.=.-.;.;.=.} Y =.;.4.4.4.4.4.4.4.;.Y U T T W E E R R R R R T R R E R R E R R R R I F F F F G F G G G G G G G G G G G F F F F F F G G F F K K J C C V C C V C V V V V V V V B B B x c x 0 0 0 0 w v w q q 8 e 8 e 7 7 * % % = o.%.%.$.O O X X                                                                                                                               ",
"                                                              . X O h XXb.c.f.G.wX=X=X4XwX6X9X5X:XH.G.=X*XF.*XG.G.F.A.+X+X&.&.#.1 2 5 l z L L L P P I E W } =.=.;.;.*.*.*.:.$XMXMXCXCXCXGXGXAXAXSXAXCXCXCXMXMXMXMXMXtX$XN.' *.*.;.;.;.;.-.} Y =.;.4.4.4.4.4.4.4.4.-.Y T T T T W R T T T R R E R T R R R R I R E I F F F F F G G G G G G G G G F G G F F F F F F F K F J J J J J C m C C C V C V V V V V V V B B c c x x x 0 0 0 w 9 9 9 9 q 9 9 8 2 = * % * o.%.%.$.O o + X                                                                                                                               ",
"                                                              . X O h XXc.q.s.C.A.A.A.*X6X6XeX6XU.L.F.Z.v.B.B.d.B.n.M.+X&.2 2 4 q l z b b M L L L P I W -.} -.=.=.;.=.4.4.<.@X$XtXtXCXCXCXGXGXGXGXGXCXCXtX$X$X$X$X$X#X+X5.' *.=.=.=.=.;.;.-.} =.} } -.;.;.;.;.;.-.Y Y Y Y W W W T T T R R T R R E E E R E R R E I F F F F F G G G G G G G G G G G G G G G G G G F F F F F G F J J J C C C C C V V V V V V V V B c c x x x 0 0 0 w / A / S q v v q 8 1 = = = s s h a & X + .                                                                                                                               ",
"                                                              . X o h m.c.q.8.t.8.a.f.*XwX<XwX5XK.<XG.s.t.d.t.t.d.d.M.+X&.1 1 5 / ` D N m K L L P P I W -.-.} =.-.;.;.4.*.:.5.c.&.6.tXCXCXSXJXSXAXGXCXMXXX%.%.O.O.:.[ :.*.Y =.=.=.=.=.-.-.} Y Y Y Y Y -.=.Y Y Y } Y Y -.;.;.-.T T E T R T R R R R R R R R R R E R G F F F G G G G G G G G G G G G G G G G G G G G F F F F G G F G K J C C C C V C V C V V V V B B B c c x 0 0 9 v ^.#X#X^.v 0 0 0 q 2 1 = * 3 % & O + X + .                                                                                                                               ",
"                                                              . . X h XXb.p.w.t.+.f.v.wX4X=X<XL.6X<XG.s.u.B.,.8.d.C.b.n.#.2 2 l D Y D n M J P I P P T } -.-.-.} =.;.;.;.4.:.<.2.c.XXtXMXCXCXJXSXSXSXMXCXoX%.&.[ :.*.*.*.*.*.=.=.-.=.-.;.-.} } } Y } -.;.-.Y U Y -.Y Y ;.;.;.} Y T T T T E R T T R T R R R R E E I F F F F F F G G G G G G G G G G G G G G G G G G F G F F F K F J J K m C C V C C C C V V V V V V B c c c 0 w 9 v #X#X#X^.w w 9 w q 8 8 1 7 = % % O o o . #                                                                                                                               ",
"                                                              . X +  .XXb.B.l.,.,.s.n.=X*X*X*X*X*XK.F.f.8.8.i.p.c.M.+XM.2.2 5 z Y =.Y M J J P P P L I } -.} } -.=.;.;.;.4.4.4.5.5.c.$XtXCXMXCXCXCXCXMXMXXX&.<.[ *.*.4.*.=.=.=.=.=.-.-.-.} -.-.Y } } ;.;.-.Y T } } Y Y ;.4.4.-.Y T T R E R T R T R R R R R R R E R F F F G F G G G G G G G G G G G H G H G G G G G G G G G F F F K K K J C C V C C C V V V V V V B V c B c 0 w 9 w ^.#X#X/ q w q 5 v 8 e 7 7 = * % o o o X .                                                                                                                               ",
"                                                              . . o  .oXn.B.N.1.w.i.p.C.B.B.C.B.A.C.f.d.r.r.C.b.#.&.m.&.X.5 5 z D Y Y m m F I I P P P } -.-.} -.=.=.;.*.;.4.4.4.5.3.+X$X$XtXtXtXtX$X$X+Xi.3.5.4.*.*.*.=.=.=.=.=.=.-.-.} } -.} Y T W } } W T U T W T T -.-.-.} T T R R R E R R R E T E R R R E E R F J J F F F G G G G F G G G G G G G G G G G F G G G F F F J J F F K m m C C C C C V V V V V V V V B c c 0 w 9 w v w w 9 w q v v v 5 8 q e 3 * O X X . X .                                                                                                                               ",
"                                                              . X o  .XXx.q.z.N.j.1.r.0.,.,.1.1.8.8.0.0.r.i.+Xx.u = 1 2 q l l b L U U m J P R I I L U } -.-.-.} =.=.;.=.;.*.4.*.4.:.<.<.:.#.#.O.2.>.>.:.[ *.*.*.*.Y =.Y Y =.Y Y Y Y W Y } } T T T U I T U T T T T T T T T T W E E E R E R R R R R R R R R R R E E P I I R P G F G G G G G G G G G G G G G G G G G G F F F J F F J F K J m K K K C C C V V V V V V V B B c x 0 w 9 9 9 0 9 v ^.^.^.S v e q 8 1 * O # . . . #                                                                                                                               ",
"                                                              . X O o.oXm.q.p.i.r.,.0.8.,.8.,.,.,.,.r.,.i.i.+Xb.3 = 1 2 5 z b N M L P J F I E R I P T } -.-.} -.-.-.=.;.=.;.;.*.4.4.4.4.:.<.<.<.<.<.<.<.4.4.4.*.;.=.=.Y Y Y Y Y W T T W W W T I R I I I I R E E I E T W T T T E R E R R R E R R R T R R R R E R E I R R R P G G F F F G G G G G G G G G G G G G G G G F F F F F J F J J K K K K C C C V V V V V V V B B c x 0 0 0 S w 9 w 9 ^.#X#XA S q 8 7 2 = % + X X . .                                                                                                                               ",
"                                                              . X O h oXXXb.n.d.r.0.w.0.w.t.8.0.i.3.5.i.n.n.M.m.= 1 2 2 z N U n J J J J G I E R E T T } -.} -.} -.-.-.-.=.=.;.;.4.4.4.4.4.4.4.5.5.<.3.4.4.4.4.4.4.;.;.Y Y T Y } T W W W W W R R I R R R R R R E R E R E T T T E E R E R E R R R R T R R R E R E R P P P P J J F F G G G G G G G G G G G G G G G F F F F J J J J K J J J J K K K C C V V V V V V V V B B c x x 0 0 9 0 0 w 9 #X#X#X/ 5 S e q 8 1 3 O o + . .                                                                                                                               ",
"                                                              . X o a XXXXm.x.b.q.p.w.0.t.8.8.i.3.3.2.p.q.b.b.x.2 1 2 5 z b M L P P F F G R E R W T W W W W } } } } -.;.-.=.=.;.=.*.*.*.4.*.*.*.4.4.4.4.*.;.4.4.;.-.-.Y W Y W T T W W T W W R I I I R R R I R R R E R T T T T T E R R R R E R E T E T E E E R R T I R E R P F F F F F G G F G G G G G G G G G F G F F F F J J F J J J K K K K K C C V C C V V V V V V B c c x x c 0 0 w 9 9 :.^.^./ S S e q q 8 u 3 * o X #                                                                                                                               ",
"                                                              . X X - i 6 i  .&.#.q.8.r.w.q.2.q.2.p.2.#.4 4 4 4 2 2 5 l b L m J G P G F G R E R E T T T T T T T T T W -.-.-.=.=.=.*.;.*.*.*.*.*.*.*.*.4.*.;.*.=.=.-.-.} T T W } W } W W W W R I R R R R R R R E R E T T W T T T R E R R E R T T R T R E R E R T W T W W W I F F F F F G G G G G G G G G G G G G F F F J J J J m J J J P K K K K C C C C V V C V V V B B B c c c x x w w w 9 v v v / ^.^.^./ ! Z S p 3 O o X f                                                                                                                             ",
"                                                              . . X X o & % t  ...+.2.>.>.>.>.>.2.q.q.X.1 1 1 2 v l l b M m J K P G G F P E E E E E E T E W T T T T W -.-.=.} =.=.=.=.*.=.*.*.;.*.=.*.=.;.=.;.=.-.=.-.Y } } T T } -.-.} W W T I I R R R R R R R T R T R T T E T E T E R T T T T T E E R R E R R E W W W W I F F F G G F G G G G G G G G G G G F F F J J J m m m m J K K K K K K C V V C V V C V V V V B B c c c c x 0 w w 9 w 0 w / #X#X#X^.Z Z S S 8 * O X # . X .                                                                                                                       ",
"                                                              . . . X # o O t  ...#.#.>.>.>.#.>.#.&.x.@.1 1 2 5 S N b n M J K F G F G F P E E E E W T E E T E R T I W -.-.} } =.=.=.=.-.=.;.=.=.;.=.;.;.=.=.=.=.-.-.-.T W W T T W } } W W } W I R T R R R R R R R R R T E E E R E R T R T R T R R T I R I W E W E W E W W I F F F G G G G G G G G G G G G G G F F J J J J m m m m m J K K K K K C C V V V C C V V V V B B B B B c x 0 9 9 9 0 0 w A #X#X#X^.A / / S 7 = % o X X X .                                                                                                                       ",
"                                                              . # . . . + + i $.@.%.%.%.&.&.%.%.%.%.%.o.1 1 2 5 z b n M K J J F P G P F P E E E E E E T E E E T I T W } -.} } } } } } } -.-.-.=.-.=.=.-.-.-.-.-.} -.-.} W W T T W -.-.W T T R I R R I R R R R R E R R R R E E R R E R E R R R R T R R R R E R W W W W W W R F F F G P G G G G H G G G G G G F F F J J J m m m n m m K K K K K K C C C C C C C V V V V V B B B B B c 0 w 9 w v 0 0 D #X#X#X^.A S Z e 7 * % & X . . .                                                                                                                       ",
"                                                                  > # X + X 6 i y i i i p i p i p i i t 1 2 5 l c n M m J K F J F F P P I R R R E E E E E E E E T T T } } W W W W W T W } -.-.} -.=.=.-.-.-.-.} } } W -.W E T T W -.-.W P P I T I I I I R R R R R R R R E E R R R R E E E E E E E E R E E E I I P I E W W I G F G G G G G G H G G G G G G F F F F J F J m m m n m m J m M m C m C M C C V C V V V V V B V B B B B x x x w 0 0 0 0 v / / O.#X^.^./ q 7 1 * % o # . .                                                                                                                       ",
"                                                                    > . X + X + X + o o o o o O O % * = 2 5 l z b M M m J P P F G P P I I R I R R E E E E E E T T T W W W W W T T T T T W -.-.} -.=.-.=.Y T Y W T W R } T T I T U T U L L L L I I I I I I I I R R R R R R E R R E R E R E R R E E E R E E E P F J P W W W I F F G G H G H G G G G G G F F F F F F F J J J m m m m M M m n n n n M K K C V C V C V V V V V B V B B c c c x 0 x 0 0 0 9 9 v #X#X#X..q e e 8 = - + . .                                                                                                                       ",
"                                                                    d # X X + X X X . X X X X o o O * = e l l b b n n m K I I R R R R E E R R R R R E E E T E T T T T W } W W W W T T T W } } } } } } } Y T T T T T U T T W U U L L L L L L L L L L I I I I I T R I R R R R R R R R E R E E E R R E R R E E P F J P } W W I F G G G H G G G G G G G F F G F F F F F J J K K M M M K K M n m n m C L K C C V V C V V B V B V V B B B B c x x v 0 w 0 w v v #X#X#X/ q S S q 7 r % X .                                                                                                                       ",
"                                                                    f . X X X + . . . . . . X X o O * 1 e l z b b M M m K R R I R E E R R I R I R E E W E T E T T T T W W W W W W T T U T } } } } W } } T T Y T Y Y U U U Y U D D D D D L D L L U U U U U U U U U U I R R R R R R R E E E E R E E E E E E E P F J P W W W R G G G G G G G G G G G G G F G F F F F F F F K K K K K K K m n m n n K L K C C C C V V V V B V B V B B B B c c x x 0 9 0 0 0 v #X#X#XX.q v v v q 7 3 o X                                                                                                                       ",
"                                                                    < X . + X . . . . . . . X X o o * 2 S z N b n V n m K P P I I R I R I R E E E E W E E E T W E T E W W W W T T T P L U Y } } } } } W U L U T Y U Y D Y *.D D D D D D D D D D D D D D D D U U U U I R R R E R T E T E E E R E E E E E E E P F F P W E W I F F G H H H G G G G F F F F G F F F F F F J K K K M M K M M n m m n M L K C C C V V V V V V V B V V B B B B B x x 0 w 0 x x v ^.^.^./ 0 S x S S e = O o                                                                                                                       ",
"                                                                    , . . . X . X . . . . . X X X O * 2 S z b b n n m m J J F G G H H I P R R E R E E R I R E E T R T R R I R R I T P I T } } W } Y } } U U U U U N N z l l l l l S l q 5 5 l 5 5 5 5 5 l l b D D U U I R E I T I T I R R E I E R I R R I E W W W I F G H P F F H H H G G G F F F F F F F F G F G F F F J J M M n M n M K K K K m m C C V C V V V V V V V V V B V B B B c x 0 0 0 0 0 0 v 0 v v 0 x x x v S q = % O -                                                                                                                     ",
"                                                                    , # . . X # + + + . . X X o O % = 2 S z b n n m m m J J J F G G F G F R E E E E R P P I E E E R R E R R I R I I P I I W T U Y Y Y U N N N b N z z l 5 2 2 2 2 2 1 1 1 1 1 1 2 1 1 1 2 2 l N D D L L L T L U L I P I I I I R E P P F F P W } } I F F G G F G G H G G G G F F F F F F F F F F F F F J m m m n n n n K L K I K m C C C V V V V V V V V V V V V V B B B c x x x 0 0 0 v v x v v x c v v v v e 1 * O + X .                                                                                                                 ",
"                                                                    ; . . X o 6 r r > + X o o o % % = 2 S z b n n m m m J J J J P G F F F R E E E W E F F I E E R R R R R R I I I P P I L I L M M N N N N N z l l l S q 2 1 = = = = * * * * * * * % % * * 1 q S S S D N N N N L L L I I I I I I E I P F P I W -.} I F F G G G F G G G G G G G G G F F F F F F F F J F J J m m n n n n K K K K K m C C C V V V V V V V V V V V B V V B B c c x x 0 0 x 0 x 0 x x 0 x v v 0 q q 2 * % O X + .                                                                                                               ",
"                                                                      . . X o r r y r o o o o O * = 1 5 z z b n m M m m J J J J F K G P P I R R R E R P F I W E E E E E R R R R I I P R I L N N D N b z N D l 5 5 2 8 2 3 * * & & % % O O % % O % O O O & 3 4 4 8 5 5 z N D N N M L I R I I I R I P F P F P T W W I G G H H H H G G G H G G G G G G G G G F G F F J J J m m n m m m m K K L L K m m C C V V V V V V V V V V V V V B B B c c c x x x x 0 0 0 0 w 0 x v S v v e 8 1 * % o X + >                                                                                                             ",
"                                                                          + & 6 r i r o o o O % 3 8 q l z b n n m m m J m J J J F F F G P G P H I H P G F I E E R I R H I H H H P P P I L N z z z S l 5 5 5 2 2 2 1 3 7 r r r y r r r r r y r r r r , r r r 6 3 1 1 8 5 5 5 5 l b U P I I I P I R R I R I P P P P F F F G G H G F F F G G G G G G G G G G F F F F J J m m n n n C m C K K K L K m C C C C V V V C V V V V V V V V V V B B B c c c x x 0 0 0 w 0 v w x v v w q 8 1 * 3 & o X <                                                                                                             ",
"                                                                            - & r i r O O o O * 2 e S l b n M m m m J m J J J J J F P I R G G G G G G G G I E R H H H H H H H F F G F J M D l 2 2 2 1 1 1 1 = 7 t 7 i r y y y y y y d y f y y y y y y y y y r 6 3 = 1 = = 1 2 5 z U L P P I P I R E E E E F F J H G G G G H H G F F F F F G G H G H G G F F G F F J J J m n n n m m m K K K K K C C m C C V V V V V C V V V V V V V B V B B B c c c x 0 0 0 0 w v 0 v w v 9 q 8 7 7 3 O O X <                                                                                                             ",
"                                                                            r - r y r o O O % = 8 v z z b n m m m J J m J J J J J J I R E H G G G G G G G H R R H H H H H H H G F G F J N D l 1 = * * * % % & 6 y r y y y y f f f f f f f f y y y f f f y y y r r 6 r 3 % * 1 2 z D L L L U L P I E E E R G H H H H H G G G G F F F F F F G G G G G G G F F F F F J J m n n n n n n V K K K L K m C C C C V V V V V V V V V B V B V V B B B B B c x x 0 w 0 w w w w 9 w 9 9 9 e 8 p 7 % O + $                                                                                                             ",
"                                                                            g y a y r o O O * 1 q z z b N n m m m m m m m m J m m J P P R F F F G F G G F P I P G H H H H H H H G P F K N z 5 = * O O O o + - y y r y y y y y y f f f f f y f f f f f f < < y y y , r - - & = = 2 l N L L L P P P E R W I H H H H H G G G G G F F F F F F F F F F F F F F F F F F F J J m n n n n n n C C n K K C C C C C V V V V V V V V V V V V B V V B B c B c c x 0 0 0 w w 9 w 9 w w 9 9 e e 7 7 & o o $                                                                                                             ",
"                                                                            a , , r > O % = = 2 5 z z N b n n m m m m m n m C m m M L T I J F J F F F F F P I P P P P H H H P P F J K M D A 8 * O O O - $ , , < y f y f ; , > > ; > , > , > > ; , > , > > , < d < , y y r 6 % = 1 q D D D L K P P P I P H H H H H H H G G F G G F G F F J F J J J J J J J J F F J G J J J n n b b b N n M n m K C m C C C C C V C C V V V V B V B V V B B B c B c x x 0 0 w w w 9 9 9 9 9 9 9 q e 7 7 % O X $                                                                                                             ",
"                                                                            # o X o o O 3 7 8 q z z z b b n n n n n n n n n n M n M L U L K K J K J J J J J K J M K F P F P K M L L L b l S 4 * O + - , < < > < , < , , g |. X X X.X.X X.X X X.X X|.}.}.[.g < d f y r y y r O % = 4 S z l N L P F F F G G G H H H H G G F F F G G G F F J J m m m m m J J F F F G F J J m M U =.=.=.=.D n C m m C C C C V V V V C V V V V V V B V B V B B B c c c x 0 0 w w w 9 9 9 9 9 w 9 9 9 e e 7 * o X $                                                                                                             ",
"                                                                            X X X o O * t u v S z z z b N N n M M n b n b n b n n M M M M M M M M M M M m M M M M M M K J M M M N N b l 5 8 3 & - > > > > > > < ; > ; # g JXJXGXDXHXGXJXGXJXGXJXSXJXGXJXJX/.> > , y < y < y r 6 3 1 1 2 5 N L K F F P G G H H H H G F F F F G G G G F F J m n n n m m J J J F F F J J J m K -.^.4.^.^.D b n m m C C C C C V V V V V V V V V V V V B V B B c c c x x 0 0 w w 9 w 9 9 9 9 9 9 8 9 e 7 7 3 O X $                                                                                                             ",
"                                                                            $ X X o O % 7 e q S l z z z c b b b b b b b c b c b z b z b z b b b b b b b n N M n n M m m M M b b b z z q 2 = 6 r , < , y > , > $ # # $ # < AXAXHXGXHXJXJXJXJXJXJXJXJXSXSXGXk ; , ; $ ; y y y < y y 3 = 1 5 z D M K F G P G G G G G F F F F F G G G F F F J m n n n n m J J J F F G J F K m M Y =.=.;.4.U n C C K C C V C V V V V V V V V V V V B V V B B B c c x x x 0 w w w 9 9 9 9 9 9 9 8 9 9 7 e 7 = O + X                                                                                                             ",
"                                                                            $ . X o O % 7 e e S v v S z z z x z z z x z z z l l l z l z z z l l l l l z z z z z b b b b b b b z z v q 8 1 = 6 r , < > < , , ; > g d ; $ f ZXJXJXDXDXGXSXJXGXFXFXHXSXJXJXJXk # ; $ # $ < < f f a r - % * 1 S D N L K K F F F G F F F K F F F G G F F F J J m n n n m m J J J F F F F J J m m M M b N L L M M K C C V V V V V V V V V V V V V V V V V V V B c x c x 0 0 w w w 9 9 9 9 9 9 9 9 8 9 e e 7 = % O +                                                                                                             ",
"                                                                            > + X X X O 6 t e e q q 5 q q q q q 0 q q q q q 5 q S S v e q q 5 q 5 5 q 5 5 5 l 5 l l l l l l l q 5 q e 7 3 3 r y < < < ; > # . g bXZXbXbXnXVXGXZXDXDXGXAXJXFXHXHXAXGXJXJXSX Xk k k k < ; $ d f y y 6 & 3 3 u S z b M K J F F P J K J J J F F F F F J J J J m n n m m m J J F F F J J J m J M C n n M M L C C K C V V V V V V V V V V V V V V B V V V B B B c c x x 0 0 w w w 9 9 9 9 8 9 9 8 9 9 9 8 8 1 = O +                                                                                                             ",
"                                            # @ . X . . . . . . . . . . . . + . . . . + - 6 7 7 1 1 1 1 1 1 1 1 1 1 2 1 1 1 1 1 p p p u 4 * = = = = = 1 1 1 1 1 = 1 1 1 1 1 1 1 1 1 3 6 r 6 r < d , > < f d d [.AXJXZXJXVX}.|. X|.|.|.|. X X X X.XFXGXAXGXJXFXDXHXZXj > , < < < y r r i 3 1 2 5 l N M J J F J J J J J J J F J J J J J m m J m m m J J J F F F G J J m m m n m m M K L L C V C C C V V V V V V V V V V V V V V V V V V V B c x x x 0 w w w w 9 9 9 8 9 8 9 8 9 9 8 9 7 1 3 & O + #                                                                                                         ",
"                                      . . . . . . . . . . . . . . . . . . . . # . . . X X O % * * % % * * * * * * * * * * * * = s h h h r O % O O O % % % % % % % % % % % * * * % % & 6 r > r < < ; ; }.VXJXZXAXJXJXJXDXbX[.[./.[.[.[.[.[.[.[.[.}.GXGXJXSXGXHXFXAXHXj $ > > < d y f a a 6 3 2 5 l N N n M K J K M M M J J m J J M M m m M M K J K J J J F J F F J m m m m m M M m J K K C C C V V V V V V V V V V V V V V V V B V V B B B B c x x x 0 w w w 9 9 9 9 8 9 9 8 9 8 8 8 8 7 7 3 - o X X .                                                                                                     ",
"                                    . . . + X X X . + . X X X . X X . # . . # . . . . . X X o O O O O O O o % O O O O O O O o - a h h g r X o X o o o o o o o o o X o o O o o O + - > r < < < , ; ; #  XJXJXAXJXJXGXGXFX.X/.}.}.[.[.}.}.[.}.}.[.|.AXGXJXJXSXJXHXFXFXf ; $ ; , f d f f f r 3 = 2 q S z N b n n n n M b b b N n n n M n M n n L M M K K J J J F J J m m n n m m K J K P K K C C V V n V V V V V C V V V V V V V V B B V B B c c c x x 0 w w 9 9 9 9 8 9 8 8 9 9 8 9 9 8 e e 7 6 o X . .                                                                                                     ",
"                                  < . X X X h .XoX{.oXoX{.{.{.{.{.{.$.X X X . . # # . X + X X o o + + + + o + o + + # o # + + ; f g g g y X X . X X X X X X X X X X # X X + + # - < , , < < , , ; > # |.SXSXJXVXmXVXAXAX.Xk /.[./.[.[.[.[.}.[.[.|.VXAXAXZXVXGXFXHXAXd # > < > , g f d f y 6 6 3 4 u v S z z z z z z z z z b z N b b b b n n n n m m m m J J J J m m m m m m J K J K K K C V V V V V V C C C C C V V V V V V V V B V B B B B B c c x 0 w w 9 9 9 9 9 8 9 9 8 9 8 8 8 9 e e 7 6 O o X .                                                                                                     ",
"                            . + . + a 6.6.$.{.yXyXyXyXyXyXyXyXyXyXMX$X- o X X + X X . ; , ; > , > > > , , , < < > , y y < y , < y < , < y < < y < < < < < < < < y < f y y y , ; > , < y < , > k k j g  XJXJXAX}././.[.[. XnXmXmXmXnXmXmXmXVXmXmXbX X|.}.}.}.nXHXAXAX|.[. X.Xf > < f d f a i t = 1 4 2 2 5 5 5 5 5 q 2 q q 5 l l z c b b n M n m K K J m m m m n m m m m m J J K J J J m n V V B n V n V V V V V V V V V V B V V V V B V V B B B c x 0 w w w 9 9 9 9 9 8 8 9 8 9 9 8 9 e e 8 3 O o X .                                                                                                     ",
"                          + # X & o {.MXyXOXoXOXqXqXrXrXrXrXrXyXyXyX$X6 i a 6 o X + X , , , , , , > > , , r < < y < f y y f y d d < , < d f d d d d d f d f f f f f g g g j y > ; > < y < > > bXJXJXJXJXJXSXZX[././.[./..XAXDXFXDXAXFXDXFXFXHXHXAX X}.}.}.[.VXFXHXHXJXSXJXJXj , > f < f y y 3 * * 1 1 1 1 1 1 = = = = 1 1 2 5 5 0 S z N b n n n m n m C m m m n m m m m m J K K J m n n n n V V V b V V V C V V V V B V V V V V V V V B V B B B c x 0 w 0 w w 9 9 8 8 9 9 8 9 8 8 9 9 e e 8 3 % O X .                                                                                                     ",
"                          # r h a o.oXtXqX%X%XqXqXeXeX8X8XeX8X3XqXrXtX{.oXOXo.o o o X > ; < < > , > > , , , , > < < d < , < < , < d f f d f d d d d d d d d d d f f g g g j y > ; > < < < , $ .XSXAXSXSXSXJXJX[././.[./.lXHXDXSXSXAXJXGXSXSXJXJXFX X[.|.}.[.VXFXAXHXGXSXSXVXg ; , d d g f a 6 * * * = * = = * * % % * * = 1 1 2 8 S 0 z c c b n n M n n n n n n n m m m C J K K K m n n C C C C V V C C V C C V V V V V V V V V V V V V V B c c c x 0 w w w 9 9 9 9 9 8 8 9 9 8 9 8 9 v e 8 1 * % o X                                                                                                     ",
"                    X + X $.CXtXtXqXqX3XwX3X%X3X3X3X%X3X3X3X%X3X5X3X3X%XoX$X%.% O o o > > , , , , > > ; > , > , d d f d , < < , > < d d < f f f d d f d f d f f f f f f f g < , < < < d d < #  XJXGXGXJXJXSXSX|.[.|.|.[.bXDXHXFXJXGXJXJXJXJXJXJXZX|.}. X|.[.mXHXHXFXJXJXJXVXd $ < d f f y y - O % % * * * * % % % O % % = = = 1 1 8 8 5 l l l z z z b b b b n n n m K K K K K L K M n C C C C C C n C V C C V V V V V V V V V V V V B V B B c x x 0 w w w 9 w 9 9 9 8 9 9 8 9 8 8 9 w v v 8 2 = % o X                                                                                                     ",
"                  + X & o oXtXtXeX3X%X3XD.wX&XwX%X5X%X5XwX3X3XwXH.eX3XOXoXOX$.% O - r - , > > < , > > ; > , > , d d d , : < < < < d d f d f d d d f d f d d d f d d $ ; ; , , d f d d f f , $  XGXJXJXnX.X.XbXmXAXAXZXVXGXJXAXGXJXSXSXSXGXJXSXAXSXVXZXVXmX.X|.|.}.[.nXSXJXVX, # $ , < > < > 6 6 r 6 t t t 4 t t 6 6 t t 6 3 u t = 1 1 1 2 5 2 5 5 5 0 l l b n n n M K K K M K L M M V V C C C C C V C C C C V V V V V V V V V V V V B B B B x x 0 w 9 9 9 9 9 9 9 9 9 8 9 8 9 9 8 9 w v S q 8 8 = O X                                                                                                     ",
"                > > r - h OXqXqX%X3X0XH.0XJ.6X5X&XeX3X5X3X4XqX4X5X5X5X3X3X%Xm.6 t $.6.- > , , , > > , > , : ; > , , < , , < d f < d d f d d d f d d d d d d d f d f $ $ $ @ ; f f f f d d > $  XJXJXJX}.k [.k nXSXJXJXJXJXJXJXJXGXJXJXJXSXGXSXGXFXGXFXAXAXmX/././.j bXJXSXZXk j j k , . # X y oXOXXXoXoX+XM.+X+XoXoXoXOXoXoXOXo.* * * = 1 1 1 1 1 2 2 5 l z b M n M M M M n M n N V b n C V C C V V V V V V V V B V B B B V V B B B B B B c x x 0 w 9 9 9 9 9 9 9 8 8 9 9 9 8 9 8 9 w v S v e e 3 % X                                                                                                     ",
"            X + X oXyXqXqXrX%XqX3X3X5X3X4X4X5X5X&X5X1X1X5X4X3X5X1X-X5X3XwXwXOXoXm.oX6.- - > > , > , > > : , > > : < < < , < d d d d d d d f f d d d d f d f d d f d $ $ $ $ > d d d f < < , @ |.SXJXJX X/.[./.mXHXHXJXJXJXJXGXGXJXGXGXJXJXGXGXGXSXHXFXZXAXbX[.[.}.k bXJXJXSXJXHXFXnX< X + + 6 oXOXXXoXoXM.M.+XM.V.XXOXoXoXXXOXo.& * * = t 3 = * = = 2 2 5 z z b b n b N b b b N n n n B n V V V V b V V V V V V B B B B B B B B V B B B B c x 0 0 9 9 9 9 9 9 9 9 9 9 9 8 9 9 9 9 9 w v S v S e 1 * o                                                                                                     ",
"          # # X a tXyXtXrXeXrX8X5X5X5X5X5X&X5X5X1X1X1X>X-X>X5X9X0X5XwX5XwX3XOXOXoXoX6.- - , , ; ; > > : > , > ; , < < < < < < < d f f d f f f f d f d f d d d d d d $ $ $ $ : d d f f d < d , |.GXJXJX.X[.|.[.nXHXHXJXJXJXJXJXJXGXGXGXJXGXGXGXGXGXFXFXVXAXnX}.[.}.k nXJXSXJXSXGXSXVXy X o + & oXoXm.XXv.g.M.v.v.v.v.V.g.XXXXOX%.i t 3 = 6 = * * * = 1 1 5 v z z z z z N z D b b b n n b B b b b B B B B b B V V B V B B B B B B B B B B B c x 0 0 w 9 9 9 9 9 9 9 8 9 8 9 9 9 8 9 9 w v S v S e 1 * o                                                                                                     ",
"          . X + $.qXqXyXrX3X8X8X8XwX8X5X5X1X>X>X>XI.;X;XI.I.P.-X5X3X5X3X3XD.V.V.V.oX$.& - > , > ; > > ; ; : ; : , d < < < < , < d d d f d f d f d d d d d d d d d d $ $ $ $ > d d f < , ,  XnXVXJXGXGX.X[.|.[.mXHXHXJXJXJXJXJXJXJXGXGXJXGXGXGXJXJXHXSXVXZXnX}.}.}.k .XSXSXJXbX[.k h > - r h $.OXS.V.@X%X@XF.G.G.K.D.D.S.OXV.XXm.%.&.%.@.x. .| | p | u u u q 5 5 v 5 5 5 5 z l c b B B B B c z z B B N V B V V V V V V B B B B V B B B B c c x 0 x 0 w w w 9 9 9 9 9 9 9 9 9 9 9 9 9 w v S S v e 1 * O                                                                                                     ",
"          + - & $.tXrXqX3XeXrX8X8X8X8X1X1X>X>X>X7X7X7X7X;X>X>X>X6XwXeXwXeX%XS.V.oXOX6.- - - > > > , , > > ; > < > , , , < , > < d f f f f f f d f d f d d d f d f < $ $ $ $ : d < d f < $  XJXGXSXSXJX.X/.}.[.mXHXHXJXJXJXJXJXJXJXGXGXJXJXGXJXJXGXHXHXZXVXnX}.[.[.k .XSXJXJXj X X X a oX6.OXOXOXS.S.4XeX4X=X4X4X4XeX&XD.%XwX@XS.@X@X@X+XOXM.b.b.XXm.XXM.Z 1 2 1 1 1 1 2 2 5 0 S c c c c z z z z c c B B B B V V V V V V V V V B V B B B B c c x x 0 w w w 9 9 9 9 8 9 9 9 9 9 9 9 9 w 0 v S v e 1 * O                                                                                                     ",
"          o O & $.qXrXrXrX0X-X8X8X8X7X>X>X>X>X>X7X7X;XI.>X>X2X9X&X4X5X3XwX3X%XOXoXOX6.& & > > ; > > > , < , , < , , > > < d < d f f d f d d d f d d d d d d d d d < $ $ $ $ > d d d < < ,  XJXJXSXJXJX.X/.}.[.nXHXHXJXJXJXJXJXJXJXGXGXGXJXJXJXGXGXFXHXVXVXbX}.}.}.k .XSXSXJXh + + O h OXXXm.g.@XS.S.G.4X4X=X=XK.&X6XH.D.D.wX@XS.+X+X+Xb.x.c.b.c.c.&.x.M.| = = = * * * = 1 1 2 v 0 v x 0 0 0 0 v v x c c c B V B V B V V V B V B V B B B B c c c c x 0 w w 9 w 9 9 9 8 9 9 w w 9 9 9 w 0 v S v e 8 * O                                                                                                     ",
"          O o 6 $.rXwX3X5X8XeX8X8X8X7X>X>X>X>X>X>X>X1X1X1X6X6X4X4X9X6XwXwXeXqXOXM.oX6.% O > > > ; ; > < f d < < < ; ; ; d f d d f f d f f f f f d d f d d d d d d , $ $ $ @ , d < d d , >  XJXJXJXJXJX.Xk }.}.nXFXHXJXJXJXJXJXJXJXGXSXGXJXJXGXGXJXSXFXVXBXnX}.|.|.k .XHXGXGXk X O O s oX+Xa.Z.<XK.K.K.4X<X4X4X<X9XL.H.&XD.D.S.S.F.@XK.@XV.@X@XA.+XM.M.+X! = * * * * * * = = 8 e 8 q 7 q q q q q q q 0 v c c B b B V B B B V B B B B B B c B c c v x 0 w w 9 w 9 9 9 9 9 w w w 9 9 w w w v v v e 8 * O                                                                                                     ",
"        h h h o.6.%X3XeXeX9X9XeX8X9X1X1X5X5X5X5X1X1X1X1X5X4X<X=X=X6X4XeX5XwX3XOX+XOX6.& O - ; ; > > , d f f < < < > , , d f d f f f d f f f d f f d d d d d d d d : $ $ $ $ , d < < d < > .XJXJXGXSXJXlXk }.[.bXFXHXJXJXJXJXJXJXJXJXJXGXGXGXGXJXJXAXDXZXVXnX[.[.}./.bXDXGXJXk o O % s oXb.g.Z.G.L.>XL.6X&X&X:X2X>X2X>XJ.J.5XeXeX&X&XwX3XD.%XK.@Xn.+Xb.b.x.@. .o.s p s p t p 4 * * * * * = = 1 1 1 1 2 q v v c c c c B B B B c c B c B c B c c c c 0 w 9 w 9 9 9 9 8 9 9 9 w w 9 9 q w w 0 v q e 8 * %                                                                                                     ",
"        - {.oXXXXX%XrXwX3XrX5X1X9X9X1X6X6X6X6X6X6X&XH.D.S.D.G.G.K.=XK.eX%XwXwX@X+XOX6.& O # ; $ ; > > , , , , , , ; , > < < , < < , < < < < < < < < < < < < < < < : # $ $ $ , d d f < , ; bXSXJXJXGXJX.Xk [.}.mXFXHXHXJXJXJXJXJXJXJXJXJXGXGXGXJXAXVXmXmXmXnX}.|.}.[./.[.}.[.h i a p o.XX+Xg.C.<XU.2XJ.>X>X>X>X-XP.>XI.>X0XJ.5X5X9X5X0XH.D.S.S.S.s.n.n.+X+X+X+X@X+XM.@X@XM.$X .% O O o O O % * = * = 1 8 e v 0 x z c z x c x c c c c c c c c x v v 0 w 9 9 w 9 w 9 9 9 9 w w 9 9 9 w w w 0 w w e 8 = * &                                                                                                   ",
"    , - i m.+XM.S.4X5XeX3XwX0X6X-X1X-X:X:X&X&X:X&X&XS.V.a.Z.g.g.D.4X4XwX%X3X3XS.+XoX6.% + $ # > $ > , > ; > > ; ; ; ; ; ; ; ; ; ; : ; ; > ; > ; $ ; $ ; ; ; $ $ # $ # # ; # ; d d d d , > lXJXJXJXJXGX.Xk }.[.nXHXHXDXDXJXJXSXJXSXGXJXJXJXSXGXJXGXmXnXmXBXlX}.}.[.}., @ X X 6 6.%.%.&.M.M.g.V.K.L.J.P.>X>X>X>XP.>X>X>X>X>X-X-X-X1X0X5XD.Z.Z.V.v.g.s.v.M.n.M.M.+Xn.M.F.M.x.+Xo.% & o X o o o % * * * = 7 e e q q v S v z 0 z x x c c c c x x c 0 0 w w 9 9 9 w w 9 9 9 9 9 9 w 9 9 9 9 9 v w w v 8 1 * &                                                                                                   ",
"  . X O a oX+Xn.V.3XwXeX8X5X6X&XJ.7X2X2X9X:XD.D.S.D.S.Z.g.g.a.g.v.Z.S.K.&X5X5XS.+XOX6.O X . # > > > > > > > > , > > > > ; ; > > , > ; > > ; > ; ; ; ; $ $ $ $ $ $ $ $ ; $ $ , < d d d < > bXJXJXJXJXHXlXk }.}.nXDXSXVXVXFXGXSXGXJXHXJXHXJXFXJXHXAXnXbXnXmXbX|.}.}.|.< @ X o r m.x.&.x.M.C.v.Z.=X:XL.U.>X>XI.>XP.-X-X:X:X>X-X5X5X1X-X5X6X=XK.K.=XZ.g.g.s.f.f.s.s.a.g.M.c.&.+XoX6.$.h a a a a 6 6 6 = 3 7 3 1 1 2 8 2 5 5 v v v v x v x c x x v x 0 w w 9 w w w w 9 9 9 9 9 w 9 9 w 9 w 9 w w v v e e 7 3 % X X                                                                                             ",
"  X + O a m.m.b.V.4XwXeX5X5X5X>X>X9X6XH.&X&XZ.V.g.S.D.4XG.Z.v.v.Z.V.v.G.4XwX&XZ.+XOX6.& . # , $ ; $ ; > > ; ; ; ; ; ; ; ; ; ; ; $ > ; # $ ; $ $ ; ; $ ; $ $ $ $ $ # . $ ; $ ; , d d d < > bXJXJXJXJXFX.Xk [.[.bXBXmXnXmXAXHXHXHXHXFXFXFXFXFXHXHXAXmXnXmXmXnX}.[.[.}., . . X 6 x.x.&.&.n.M.g.Z.=X2XU.U.>XI.I.>XI.-X-XU.U.-X>X5X5X-X1X9X0X6X4X6X6XG.Z.Z.g.C.C.n.f.a.@X4X@XZ.OXrXqXqX%XtX$XqXtXOX$XtXo.s O % & % % = 1 1 2 q q q q w q 0 v 0 x x 0 0 w 9 9 w w w 9 9 9 9 9 w 9 9 9 w 9 w w w w w v e 7 e 7 % O X +                                                                                           ",
"  . X o a XXm.b.V.4X5X8X5X-X:X2X>XP.&XD.D.D.S.S.V.D.H.wX4XV.v.a.v.g.g.F.=X4XG.V.M.+X6.& . # # $ $ # @ # # # # $ # # # # # # # # @ @ f j > . . . . . . . . . . . . @ $ ; $ $ < d f d f < > bXJXJXJXJXJXlXk [.}.nXBXmXnXmXZXDXDXZXDXDXAXDXDXDXDXDXZXmXnXmXnXnX|.|.}.}., . X + t x.&.7.+.n.M.f.Z.<XU.J.L.I.P.I.>X>X-X-XU.U.-X>X5X1X-X1X9X6X4X<X&X&XS.Z.Z.g.C.M.f.C.v.K.4XK.wX3XeX3X%XOXqXOXOXqXOX%XOXs i & & % O & % * * = 7 e e 8 8 e q q w v v 0 0 w 9 9 w w 9 9 9 9 w 9 w 9 w 9 w 9 w w w w w v S q 7 7 % O X .                                                                                           ",
"  X + o a m.x.c.v.&X5X8X8X1X&XU.7XJ.0XH.S.D.H.eXeXrXeXeXwXD.D.Z.g.g.v.G.K.=XG.Z.n.+X6.o X . #  XnXnXmXmXmXmXmXnXmXmXmXmXmXmXmXmXVXnXAXZX X[.}.|.|.|.|.|.|.|.|. X X.Xk # # $ , d f f f < , nXJXJXJXJXJXlXk [.}.bXmXnXnXnXmXmXmXnXnXnXnXnXmXnXnXnXnXnXnXnXbXlX}.[.[.}.> . X o 6 &.x.&.7.n.C.v.C.L.L.J.J.P.P.I.>X>X>X-XU.U.-X>X5X5X8X-XP.0X0X&X&X9XD.D.S.V.Z.v.s.f.a.D.9XH.5XJ.1X8XS.D.%XD.3XeX3XeXOXo.s h - & 3 % % % * * = = 3 1 1 7 8 8 8 q w w w w w w 9 9 9 9 9 w 9 w w w w w w 9 w w w w w v S e 8 7 * O o X                                                                                           ",
"  X X o a XXm.a.v.=X&X8X1X1X>XU.U.J.:XD.g.v.D.rX3XeX5X3X3X%X%XD.Z.C.C.A.Z.F.A.n.b.+Xm.O X . . mXJXJXGXSXGXJXJXJXJXJXJXJXJXJXJXJXSXJXJXAXSXJXSXJXSXGXGXJXJXJXJXJXAXSXbX; @ $ < f f f d < , mXJXJXJXJXJX.Xj /.[..XlXlXlXbXbXnXbXnXnXnXnXmXnXnXnXnXnXlXlXdXlXbX}.}.[.}., . X o 6 x.x.7.7.n.Z.v.C.L.<XL.U.I.P.I.>XI.>X>X:X:X>X>X5X5X8X>X>X9X9X1X6X0X&XwX4X=XD.v.f.C.g.D.0XJ.0X0X;X-XH.9X6X&X&XH.H.%XeX3X%XyXOX$XOXo.p s s a & * * * * * * 1 1 2 8 9 w w w w w 9 9 q 9 9 w w w w w w w w 9 w w 0 0 v v S e 7 = O o X                                                                                           ",
"  X + o i 6.m.c.v.K.&X1X3X-X7X2X2XU.D.Z.Z.D.J.rX5XrXrXrXrXeXwX3X=XK.F.C.v.F.A.n.n.M.6.O . . . bXGXJXJXJXJXJXJXGXJXJXJXJXJXJXJXJXJXJXJXJXJXSXJXSXGXGXSXSXGXGXJXJXJXJXbX# # $ ; f f d d d , mXJXJXJXJXJXbXk k [.lXbXbXlXmXbXmXnXmXnXnXmXmXmXmXmXmXmXmXnXbXnXlX[././.[.> . X o 6 x.x.q.7.B.A.C.C.L.>XU.>X>XI.I.>XI.I.>X:X:X>X>X5X5X1X9X7X-X-X1X1X-X-XeX5XeXF.g.f.C.a.S.wXJ.J.J.;X7XK.L.=X=X4X1X1X3X3X%XeX%X3XqX$X@Xx.$XtXoX& O o O O % O * * 1 7 q q w w w w 9 9 9 9 w w 9 w w w w 9 w w w w w w v v q e 7 = % o X                                                                                           ",
"  X X o a 6.m.7.g.G.<XeX-X-X>XP.D.D.v.v.J.eXwXwXrXrXeXeXeXrXwXeX&XwX=XZ.g.Z.C.b.c.M.$.O + . . bXJXJXJXJXJXJXJXJXJXJXJXJXJXJXJXJXSXJXSXSXGXGXJXSXGXSXSXSXSXJXJXJXJXJXmX$ # ; > d f d d < < mXJXJXJXJXJX.Xj j k  X.XdXdXnXlXnXlXbXlXbXnXnXnXzXnXnXnXNXnXlXbXdX/./.k /.; . X o 6 &.x.q.+.f.C.f.v.*X:XU.U.>XI.I.>XI.I.-X:X>X1X1X5X5X1X-XJ.>X>X-X-X8X;X0XD.eXD.g.f.f.v.S.4X5X;X;X;XJ.L.<X<X=XK.J.-X-XeX8XwXD.3XwX4XS.#.&.m.6.& O O o O O O O O & 7 7 8 9 9 9 9 9 9 9 9 9 w w w w w w 9 w w w 9 w w 0 S q e 7 * % o X                                                                                           ",
"  . X o a 6.&.+.s.G.4X&X&X9XU.U.D.g.g.g.H.wXeXrXeXrXrXrXrXrXeXwX&X6X4XK.Z.v.v.q.q.b.%.O X . . nXGXJXJXJXJXJXJXJXJXJXGXGXJXJXJXJXJXJXJXJXGXGXGXGXGXGXGXJXGXGXGXJXJXJXnX$ # $ , g d f d d < j k  XJXJXJXZX.XbXbX}./.[.}.}.sXsXdXdXlXdXdXdXlXdXlXbXlXsXsXsX|./. XBXVXnX# . X o 6 x.&.7.+.f.A.v.Z.*X2XL.>XP.J.0XJ.>XP.P.-X-X-X>X-X-X>X>X>X>X;X;X;X;X8X8X-X6XD.g.f.f.f.S.4X&X-X;XI.I.L.<X<X<X5X-X3X;X3X5X5X3X3XwX&XD.V.g.OXoX6 O - o O o O o o & 3 3 8 2 8 8 9 w 9 9 w 9 w 9 w w w w w w w w w w w v v e e 7 * O o X                                                                                           ",
"  X X o i 6.&.+.s.G.4X=XH.&XH.J.D.g.g.V.K.eXwXeXeXeXqX8XeXeXrXrXeXeXwXK.V.g.f.q.q.b.%.% X . . bXJXJXJXJXJXGXGXGXJXJXJXJXJXJXJXJXJXJXJXJXJXJXJXJXGXGXGXGXGXGXGXJXAXJXVX$ # ; , f g g f d , $ . /.JXZXAXSXGXJXDX/.k k k k  XlXlXlXdXdXdXlXbXbXlXlX|././././.k sXDXJXVX$ . X o 6 x.x.q.9.C.v.f.v.<X<XL.U.P.P.0XP.>X>X>X>X>X>X>X>X;X1X1X1X1X>X;X;X8X;X;X-X5XD.g.f.f.g.F.4X-X-X;XI.I.L.L.<X<X-X-X;X;X;X8X;X3X3X8X8X%X%XeXrX%XoX{.$.a i i i r - o O * = 1 8 8 9 9 8 9 9 w 9 w w w w w w w w w w w w 0 v e e 7 * O o .                                                                                           ",
"  X X + i 6.x.7.s.F.*XK.K.6X:X>XD.v.g.V.K.eXeXrXrXrXrXrXeXrXrXeX0XeXwX&XZ.v.v.9.c.b.%.% o . . bXJXJXJXJXJXJXJXJXJXJXJXJXJXJXJXJXJXJXJXJXJXJXJXJXGXGXGXGXGXGXJXJXGXJXVX; # # d g g f f f d > . k JXJXJXSXJXVXHX[.j /.k k  XdXsXdXdXlXlXlXdXlXbXnX|././.[.[.k |.FXGXmX# . X O 6 x.c.7.7.s.a.g.g.=X=XU.L.U.J.>X>X>X>X>X>X>X>X5X;X>X1X1X1X1X>X;X;X;X-X;X-X5XD.g.f.f.f.S.<XP.I.;XI.I.P.P.U.U.-X;X;X;X;X;X;X;XJ.-X8X3X8X8XqXOXeXqXOXOXOX6.oX{.r o & % * = 7 8 8 q 8 9 9 9 w w w w w w w w w w w w w v v e 7 7 * O o .                                                                                           ",
"  . X o i m.x.+.8.C.F.F.G.<X=X<XG.v.g.v.K.wXeXrXeXrXrXeXeXeXeXwX8X9XwX&XD.S.Z.s.c.b.$.O o X X bXJXJXGXJXJXJXJXGXGXJXJXJXJXJXJXJXJXJXJXJXGXGXGXGXGXJXJXJXJXJXJXJXJXGXVX, $ # < g f f g f d > # k AXAXSXGXGXZXGX/.j k k k |.dXsXlXsXdXdXdXdXdXdXdX}.k k k /.j  XFXGXmX# . X O 6 x.c.7.9.g.s.v.g.*X<X0X<X>XJ.J.>X7X>X>X>X>X>X>X1X1X1X1X1X>X>X>X>XI.-X;XP.:XD.g.f.v.f.F.:XP.I.;XI.I.P.P.P.>X-X;X;X;X;XI.I.;X-X3X-X3XeX%X3X%X3XOX%XrXg.h $.o.o & o % % * 7 8 1 2 8 8 9 9 9 w w w w w w 9 w w w 0 0 v v e e 7 * O X .                                                                                           ",
"k . X o i m.x.#.+.C.G.G.G.*XK.=XD.v.v.V.K.eXwXeXeXeXeXqX8XeXrXeXeX0X6XK.D.D.S.9.c.b.$.O X . . bXJXDXSXHXGXHXJXJXJXJXJXJXJXJXJXJXJXJXJXJXJXJXHXJXJXJXJXJXJXJXJXJXJXJXZX; # ; , f g g f g f $ @ k AXGXAXVXAXJXJX[.k k j j |..XdX.XdXdXlXlXlXnXnXbX|.k j j k g |.JXJXVX$ . X o 6 x.b.9.9.9.7.g.g.K.=X4XH.6X>X>X7X>X>X>X>X>X>X>X;X;X7X1X>X>X>X>X>X>X>X>X&X:XD.g.f.f.g.F.:XU.I.;XI.I.I.I.>X-X;X;X;X;XI.I.>X>X-X&X5X&X5X%X%X3X%X%X3XD.V.g.6.{.o.h a 6 r * % = 1 1 2 8 9 9 9 9 9 w w w w w w w w w w 0 v e e 7 * O X .                                                                                           ",
"k X X o r m.x.#.>.B.C.C.A.=X=X<XG.v.g.V.K.wXwXrXeXrXeXeXrXrXeX&XH.K.K.K.D.G.A.9.q.m.$.O X . . bXJXDXSXHXZXAXSXJXJXJXJXJXJXJXJXJXJXJXJXGXSXAXAXSXGXJXJXJXJXJXJXJXGXGXJX.XbXnX X, < d d f f > ; f g < > k AXSXAXVXnXVXmXnX X[.}.}.}.}.}.[./.[.}.}.[./.[.}. X/..XGXGXmX# . . o 6 m.b.7.7.a.g.v.V.S.Z.Z.V.H.9X0X7XP.>X>X>X>X>X;X;X;X1X1X>X>X>X>X>X-X>X>XU.:XS.g.g.f.g.D.>XU.I.;XI.;XI.-X;X-X;X-X;X;XI.P.I.>X&X:X6X4X6X6XH.9X5XwXeX3X3X8XrX%XyXyXqXyXtXh % * = 1 8 8 8 9 9 w w w w w w w w w w 0 w v v e e 7 * O o .                                                                                           ",
"k . X + r m.x.+.{ 8.,.+.s.G.=X=XG.v.g.v.K.wXeXrXeXrXrXrXrXeX%XZ.V.V.S.G.K.G.A.9.x.m.$.O X . . bXHXHXFXDXnXnXnXVXGXJXJXJXJXJXJXJXJXJXJXSXAXZXZXAXGXJXJXJXJXJXJXJXJXJXJXJXSXAXmX; > d g g d d < > . # @ g JXJXZXJXAXJXDXDX.Xj j k k k k k k k k j /.VXHXSXFXSXJXJXJXVX$ . . + 6 m.c.9.s.G.4XK.=XV.a.a.g.H.9X0X>X-X>X>X>X>X>X;X;X;X>X>X-X-XU.U.U.P.U.:XL.:XS.g.g.v.g.D.4X:X-X8X-X;X-X3X;X-X-XP.P.>XP.U.>X:XU.>X6X:XU.-XJ.0X9X%XD.3XeX%XeX%XeXqXtX%XyXh % = = = 1 8 8 9 9 9 9 w w w w w w w w 0 w 0 v v e 7 * O o .                                                                                           ",
"  . . o r 6.x.+.>.0.>.{ 9.G.=X=XG.v.g.V.K.wXwXeXeXeXeXeXrXeXH.V.v.v.V.G.K.G.A.a.x.m.$.O X . . bXGXFXFXDXbX.XbXmXSXHXHXJXJXJXJXJXJXJXJXJXAXAXAXSXGXJXJXJXJXJXJXJXGXJXJXGXJXJX.X$ > d d f f d < d ; # . j ZXJXJXSXJXJXAXJX.Xg j /.k k k /.k k j k j VXFXHXSXJXJXGXSXmX# . . o 6 m.m.9.a.F.=XK.wXS.g.g.V.&X0X1XJ.1X6X2X>X>X>X>X;X;X>X>X>X:X:X:X:X:XL.U.L.<XS.g.g.v.g.S.4X&X-X1X-X;X3X;X-X3X-XP.U.U.J.U.2X2X&XU.>XP.J.>X7XJ.J.wX3X%X%X3X5X3X3X%XwXqXrXh % % * = 8 7 8 8 9 q w w w w w 9 w w 0 0 w 0 v v e 7 * O o .                                                                                           ",
"  . X X r m.%.c.] { { { u.G.@X*XG.f.g.v.H.5XeXeXeXrXrXeXrXeX@XV.V.v.Z.F.G.*XC.b.&.m.$.& X X . nXAXFXDXZXlXbX.X.XDXHXHXDXAXFXAXSXJXGXJXSXAXSXSXJXSXJXJXGXJXJXJXJXJXJXJXJXSXJX|.; > > , < d , d d $ $ @ g SXAXJXGXJXGXAXJX Xg k k k k j k j k k j j mXJXZXAXJXJXJXJXmX@ + X o 6 m.b.9.s.Z.*X*X@XZ.g.g.V.5X0X5X&X9X6X<X9X:XU.9X>X-X2XJ.2XL.9X9XU.L.<XL.L.6XZ.g.v.g.V.S.&X6X-XP.-X-X;X-X-X;X-X>XI.I.P.P.P.>X>XP.P.P.>XJ.-X>XJ.J.-X&X>X-X5X1XeX3XwXqXeXo.& 3 3 = = 3 1 8 2 9 9 w q 9 9 9 w w w 0 0 v v q e 7 * O o .                                                                                           ",
"      + - $.%.#.X.{ ,.,.8.F.*X*X@Xv.f.g.G.K.5XwXeXrXeX3XwXwXK.D.D.S.S.G.F.F.A.c.x.XXo.O X + # mXJXHXFXZX X.XlX.XZXAXSXHXDXHXGXJXJXGXGXZXGXSXSXGXGXJXJXJXJXJXJXJXSXJXSXJXJXGX|.> , f , $ $ < < , > $ . j ZXmXbXbXAXAXJXGX.X}.|.|.}.|.}.}.[.|.}.[.[.bXAXJXJXVXmXnXbX}.# . X o r 6.m.7.7.s.C.C.Z.S.Z.V.S.H.D.H.&XwX4X=XL.L.:X2XP.>X>X>X0X2X:XJ.J.:X2XL.H.D.Z.S.D.S.D.J.>X2X>X-X>X>XI.;X-XI.-XI.I.I.P.P.P.>X>XP.P.P.>XP.U.>XP.U.>XJ.P.>X>X0XwX3X%X%XwXOXoXXXoX6.= % 3 = 1 8 q 8 9 9 9 9 w w 0 w 0 0 v e q 7 * O X .                                                                                           ",
"        a & 6 4 t ~ +.+.t.C.A.A.F.F.F.v.Z.v.S.4XwXeXwX5X9X1X&X5X9X<XF.G.A.A.C.c.x.OX$.& + > < mXJXGXFXFXmXVXVXmXVXVXZXDXSXJXZXAXAXJXJXGXZXbX.XnXJXJXJXJXJXJXJXJXJXJXSXJXGXSXGXVXVX.X, ; > , > , , # $ > , > ; , VXJXAXAXFXDXHXSXFXFXFXDXDXHXJXJXJXJXSXSXZXj $ > > ; # + + o r 6.b.9.7.t.C.f.Z.G.=XZ.F.V.V.V.V.v.v.V.V.D.9X9X1X7X9X-XH.1X9X9X9X9X&XS.V.g.V.H.0X9X>X2X>X:X-X>X>X;X;XI.I.-XI.I.-XI.I.P.P.>X>XP.P.P.>XP.U.:X:X2X2XP.>X7X&X5X%X%X3X3X%XeXqXOXtXoX* * = * 1 7 q q 9 9 9 w w w w 0 w w v e e 7 * O X .                                                                                           ",
"          o O % 6 @.#.7.t.d.f.C.A.G.G.B.f.9.f.4X6XeX0X1X9X5X&X9X:X&XS.A.B.d.c.c.&.x.o.O X X ; VXSXSXSXHXHXHXZXVXVXmXZXFXGXJXAXmXbXnXAXJXSX X XlXJXJXJXJXJXJXJXJXJXGXAXSXJXGXJXAXSX.X; $ > , < d > < < > # $ $ > VXAXJXJXGXHXHXHXFXDXHXHXHXFXJXJXGXGXJXSXSXk , < , > > # X + r 6.m.9.7.s.A.v.v.F.*Xv.V.a.V.V.Z.v.v.V.v.D.6X&XJ.&X&X-XH.1X&XJ.P.1X1XZ.V.v.D.-X>X&X:XU.U.-X-X>XI.-X;X;XI.-XI.-XI.I.P.I.P.>X>XP.P.P.>XP.&X&XU.2X2XP.J.>X5XwX5X3X&X3X3X%XOXOX$XoX3 = * * 3 7 8 e 8 9 9 w w w w w w v v e e 7 * O X .                                                                                           ",
"          + o O - $.@.x.7.s.B.C.C.F.F.C.C.B.C.4X6X6X6X5X1X&X&X5X5X<XF.Z.C.B.c.M.m.6.o.O + + $ mXGXGXSXAXHXAXZXmXmXmXSXJXGXJXGXlX.XbXSXJXSX.XnXmXJXJXJXJXJXJXJXJXJXJXJXJXJXSXJXJXJX|.# # $ < d < < d , , $ $ # > mXSXAXZXSXFXHXGXGXJXJXJXJXJXGXGXJXJXHXGXAXj $ , < d , # . + r 6.m.c.8.s.A.C.f.C.F.A.F.Z.G.V.V.V.V.Z.v.S.K.H.&X4X6X6X&X0X6X5X9X0X9XS.V.v.H.>XJ.J.U.U.-X>X>X>XI.I.I.I.I.I.I.I.P.P.I.I.P.>X>XP.P.-X>X-XJ.H.J.6X6X-X&X1X1X5X5X%X&X%X5X%XH.OX@XOX3 % % * 3 3 3 8 8 9 9 9 w w w w w w v e e 7 * O X .                                                                                           ",
"          . + + - $.@.x.c.B.f.s.f.B.C.B.C.B.f.A.K.G.K.4XwXwX&XK.K.G.A.f.C.M.b.+Xm.XX$.& X + > mXJXSXHXAXFXFXFXnXmXmXSXGXSXSXSX.X XlXGXJXZXbXAXJXJXJXJXJXJXJXJXJXJXAXSXSXJXAXAXGXSX.X. # ; , < , , > , < $ > ; d bXVX}.[.nXSXHXJXAXJXJXSXAXGXSXAXZXSXZXSXHX/., d f f , X o O r 6.x.c.7.t.C.f.g.C.G.4X4XK.=Xv.g.v.g.v.g.g.v.C.Z.A.S.Z.V.S.D.D.D.D.S.Z.v.v.D.1X1X7XU.U.>X>X>XP.I.;XI.;XI.-XI.P.I.I.I.I.P.I.I.P.P.-X-X>XJ.D.H.:X:X-X9X1X5XJ.&XH.6X6XH.6XD.V.V.oXs p  .a & = = 3 1 8 9 9 9 9 q w w e v e e 7 * O X .                                                                                           ",
"          . . X & i i p @.n.f.d.B.C.A.A.A.C.v.Z.G.S.D.=XwXwX@XM.n.b.c.+.c.x.@. .s s o. X X|.}.VXGXGXJXJXJXJXSXnXmXVXAXJXJXJXJXVXmXVXJXJXJXGXJXJXJXJXJXJXJXJXJXJXGXJXJXJXJXJXJXSXGXVXf ; $ > d , ; < ; , d d , > < , ; $ d j g d d f d < d d d d f d < < f d d < , f d $ o o 6 m.m.c.q.s.A.f.v.F.=X4X<XK.K.H.D.&XK.=XG.Z.f.f.s.s.f.g.v.g.g.a.a.g.g.D.G.H.:X9X:XJ.U.P.I.>XI.P.I.I.;XI.I.P.I.I.P.I.I.I.P.I.I.P.P.-XP.7XJ.D.H.&X&X5X-X>X-X9X6X&X&X&XH.0XS.V.S.+XM.XX$Xm.& % % = 1 8 9 8 9 9 q w w v v e e 7 * O X .                                                                                           ",
"          . . X + o % * t &.n.t.u.d.A.A.C.Z.A.F.=XS.S.@X@X@X+Xq.q.q.q.7.c.#.s % & O y VXmXnXVXAXAXJXAXJXJXAXAXSXAXJXSXJXGXGXGXGXGXJXJXJXSXJXSXJXJXJXJXJXJXJXJXJXJXJXSXJXJXAXJXAXSXSXZX}.< > > ; $ , f d < f < > ; $ $ > $ # # # # # # # $ # @ $ # $ $ ; $ ; < f f f > + X & 6 %.x.&.&.b.A.s.s.Z.G.H.6XwX&XwXJ.6X4X4X=XZ.s.f.f.f.f.s.f.s.f.f.g.g.a.K.<X4X<X<XL.:XP.P.P.>X>XI.I.;XI.I.I.I.I.P.I.I.I.I.P.I.I.P.P.-XP.9X&XD.H.&X&X5X9X9XP.9X5X&XJ.&X6XK.K.g.v.+XM.x.m.%.% % & % = 8 8 8 8 8 q w w w e e e 7 * O X X                                                                                           ",
"            X . o & O % 3 x.b.c.c.C.B.B.C.F.G.F.F.C.F.G.F.F.B.q.2.i.b.c.#.m.h O o X , lXnX XmXVXSXGXSXGXJXGXGXJXGXGXGXGXJXJXJXGXJXJXJXJXJXJXJXJXJXJXJXJXJXJXJXJXJXJXJXJXJXGXSXSXAXGXSXnX$ ; . ; ; d d f d , < , ; $ ; ; $ $ $ ; $ $ $ ; # # $ $ ; ; $ ; > < d f d d < + X O r %.x.&.c.q.n.n.t.F.4X&X6X5XD.rX5X5X&X<X*XC.s.f.s.f.f.s.f.s.f.s.v.a.g.G.<XK.6X:XK.U.P.P.I.I.I.I.I.I.I.-XI.-XI.I.I.I.I.>X>X>XP.P.-X>X-X-X:X:X:X&X&X&X-X7XJ.1XH.6X4X<XK.=X*Xg.g.n.c.&.m.%.* % & O 3 7 8 8 q 8 q q w v v e e 7 * O o .                                                                                           ",
"              + X o % O 6 6.m.M.M.C.n.B.2.q.B.B.B.s.d.p.p.2.p.,.,.q.b.c.m.oXh + + . @ }. XbXlXVXFXHXHXHXJXSXSXJXGXJXJXJXJXJXJXJXJXJXJXJXJXJXJXJXJXJXJXJXJXJXJXJXJXJXJXJXJXJXGXSXJXAXJXlX@ # . $ $ d < , > f d < > , < ; ; ; ; $ ; $ $ $ # $ $ $ $ ; d < < d d d d f f # X o - %.m.%.%.b.+Xb.f.F.*XeX&X6X9X1X5X:X&X<XK.Z.v.v.f.f.v.v.C.f.v.v.V.v.v.D.&XH.:X:XL.>XP.I.>X>XI.I.I.;XI.I.-XI.I.P.I.I.I.>X>XI.P.P.-X>X-X-X:X:X5X:X&XP.-X7XP.2X:X9X<X<X*X4X=Xv.n.n.c.&.b.&.= % % O & 3 3 8 7 8 8 w w w v e 7 7 * O o X                                                                                           ",
"                  + o O 3 s o.@.%.#.#.+._ >.r.1.>.,.{ >.>.>.,.,.r.q.&.@.$.o.y X . @ j .XsXbX.XZXFXFXFXHXGXJXJXGXGXJXJXJXJXGXJXJXJXJXJXJXJXJXJXJXJXJXJXJXJXJXJXJXJXJXJXJXJXJXGXGXAXGXJXnXg g g , $ $ , < d d f , d f f f f d d f d < < , , < < > , , < < < d < f g d < . + + % i 6 t p %.b.q.c.n.A.G.v.D.<XJ.:X&X&X:X<XH.K.L.K.L.=XK.=XK.4XK.&X&XH.6X9X>X-XP.P.P.P.I.>X>XI.I.I.;XI.I.P.-XP.-XP.P.I.I.>X-XP.P.-X>X-X-X:X:X5X:X&X-X-X>X-X2X9XK.S.S.F.G.G.n.f.n.b.q.b.&.= * % & O * * = 1 8 8 9 w w v e e 7 * O o X                                                                                           ",
"                  X + O O & * * 3 u @.c.q.2.[ 3.{ 1.,.{ +.,.{ 7.q.x.| 3 - + X . @ # |.VXbXlXbXBXFXSXSXFXSXJXJXGXGXGXJXJXGXGXJXJXJXJXJXJXJXJXJXJXJXJXJXJXJXJXJXJXJXJXJXJXJXJXGXGXGXJXSXJXJXJXJX.X> $ > g d < < , d f f g g f f g g f f f f f d , , < , d d d d d d d f # # X + o % % t @.#.#.+.b.B.s.9.v.Z.K.4XJ.L.L.J.J.U.U.P.U.U.L.U.J.6XJ.&X1X-X-X>XP.P.P.I.I.I.I.I.I.I.I.I.I.I.I.-XP.P.P.P.P.P.I.-X-X-X-X>X>X-X-X:X:X5X:X:X&X>X>X>X:X9XS.g.g.s.f.f.c.c.d.c.2.n.x.p p h a & % % * * 7 8 9 q v v e e 7 * O o X                                                                                           ",
"                  X X o O o % * % = %.m.X.#.q.i.q.q.q.+.q.+.#.c.x.XXi O o X @ . # @  XVXbXlXbXBXFXDXHXHXSXJXGXSXGXGXGXGXJXJXJXJXJXJXJXJXJXJXJXJXJXJXJXJXJXJXJXJXJXJXJXJXJXJXGXGXJXGXJXGXJXZXZXnX. $ $ < > , ; d < f g f g f g f f f f f f f d , > > < d , < , > ; > > . X X + & & O 3 o.@.@.#.c.n.s.t.C.C.=X<XK.<X<XL.U.>XP.J.P.P.P.J.J.>XJ.J.>X-XJ.J.-XP.I.;XI.I.P.I.I.>X>XI.I.;XI.P.-XP.-XP.P.P.P.-X-X-X-X>X>X-X-X:X:X:X&X:X&X1X1X6X&X0XS.a.a.s.s.t.s.d.d.s.q.b.q.~  .o.s & O O % * 7 8 8 q q e e e 7 * O o X                                                                                           ",
"                    # X o o O O * * p  .@.@.X.&.&.#.#.x.&.#.&.m.m.XXr & X . @ $ @ # |.nXbXnXlXZXFXDXDXFXSXHXSXGXGXGXGXGXJXJXJXJXJXJXJXJXJXJXJXJXJXJXJXJXJXJXJXJXJXJXJXJXJXJXJXGXJXSXSXSXJXSXJXmX> . # $ ; ; . # < f f g g g f f g f g f f g f d > > < d < , # ; # # @ . X # . + + O - o.%.#.&.b.c.C.B.F.F.*XG.G.K.=XK.L.>XP.I.P.P.P.P.P.-XP.P.-X7X>X>X>XI.I.I.P.P.P.P.I.>X>XI.-XI.I.-XP.-XP.J.P.P.P.-X-X-X-X-X-X-X-X:X:X:X:X:X:X9X>X6X&X9XS.a.f.f.f.s.n.d.p.d.d.c.&.! ! s s % % O O * 3 7 8 8 8 e e e 7 = O + X                                                                                           ",
"                      . X & O & O * 6 6 6 6 t p i s i s s p i p h h - X X @ , T.k T.lXnXnXlXdXBXDXDXAXAXVXZXVXGXJXJXJXJXJXJXJXJXJXJXJXJXJXJXJXJXJXJXJXJXJXJXJXJXJXJXJXJXJXJXJXGXSXJXJXJXGXSXJXmX[.k /.[.g d < g < d < g f f d f f d d d d d < < > , , d < < > , $ ; $ $ . ; , ; X + O r t u | #.q.c.C.C.A.A.f.Z.G.=X*X<X:XL.>XU.U.U.U.>XU.:X:XL.L.L.L.L.P.U.U.P.P.P.P.P.>X>XI.-X;X-X-X-XP.-X-X-X-X-X-X-X-X-X-X-X>X>X:X:X:X:X:X:X1X&X5X&X4XS.a.f.s.d.s.d.t.u.d.u.q.x...! ! | & O O O * = 7 7 8 7 e e e 7 = O + X                                                                                           ",
"                      < X - o.h h r O % O O % % & 6 6 & 6 6 % & o + # . @ @ : /.[.sXsXnXlXlXlXBXDXHXHXZXbXbXbXSXGXJXJXJXJXJXJXJXJXJXJXJXJXJXJXJXJXJXJXJXJXJXJXJXJXJXJXJXJXJXJXGXJXJXJXSXJXJXZXJXJXJXJXSXSXAXJXnX, ; < ; , ; , > > > > > > ; > $ > , > < $ k AXmXnXnXbXmXnXVXZXj X # # - % * 4 #.c.O.M.t.s.f.7.s.A.G.G.K.L.L.>XU.L.L.U.>XJ.U.:XJ.L.:XU.L.L.U.U.U.U.P.P.P.>X>X>XI.I.I.>XP.P.P.>X>X-X-X-X-X-X-X-X-X>X>X:X:X:X:X:X5X5X&X9X6X6XF.a.s.s.f.u.d.u.d.d.8.b.c.+.~ ..o.3 O O O % % = 1 1 7 e q 7 7 - O + X                                                                                           ",
"                      ; o 6 $.o.$.r O O o o O O % & O & - & + o X + @ . . @ : T.T.|.fXzXzXfXbXVXDXDXDXZXlXbXnXDXJXJXJXJXJXJXFXFXJXJXJXJXJXJXJXJXJXJXJXJXJXJXJXJXJXJXJXJXJXJXJXJXJXJXJXJXJXGXGXJXGXJXJXJXJXJXGXSXf > , , < > < > > > > > > > > > , , , , $ }.GXJXGXJXGXJXSXSXHXj . $ @ # O * i #.x.+.b.c.B.C.s.C.G.*X*XG.L.L.>X2XL.L.U.U.P.P.P.>XU.U.U.U.U.U.P.P.U.U.U.P.P.I.I.>XI.I.I.I.I.I.I.;X>X>X>X>X-XI.-X-X>XJ.>X-X1X1X&X5X8X-X1XD.6XS.a.f.f.s.t.u.d.d.u.u.d.n.#.~ ~  .3 % % o O % * 3 1 7 e e e i * o o .                                                                                           ",
"                        + r o.o. .a O + o o o o o O X o X X X X . . X @ @ @ : k T.uXfXzXzXbXlXBXFXFXFXAXlXnXmXFXSXGXGXJXGXJXHXHXJXJXJXJXJXJXJXJXJXJXJXJXJXJXJXJXJXJXJXJXJXJXJXJXJXJXJXJXGXGXGXJXJXJXJXJXJXJXJXSXd $ , ; , , > , > > > > > , > > ; , > , $ }.JXSXSXJXSXAXGXGXDXk $ ; , > + % 3 ..#.+.q.2.p.d.t.d.A.Z.v.Z.K.L.L.J.L.L.U.>X>X>XP.J.U.U.U.U.L.U.U.P.U.U.U.U.P.I.I.>XI.I.I.I.I.I.;XI.>X>X>X>X>X>X>X>X>X>X7X-X1X1X-X5X8X1X1X&XwXD.s.f.f.d.u.u.d.u.u.u.p.N.2.X.X.o.6 % & O O O * 3 3 e e e i i & o + X                                                                                           ",
"                          i h o.$. .% o o o o o o o X X . . X X . . . X @ . : k (.(.fXxXxXzXdXBXDXFXDXZXlXbXnXAXJXJXJXJXJXJXFXFXJXJXJXJXJXJXJXJXJXJXJXJXJXJXJXJXJXJXJXJXJXJXJXJXJXJXJXJXJXGXGXGXJXJXJXGXJXJXJXSXf $ , # # ; # $ $ $ $ $ $ $ $ $ $ ; @ # @ [.JXJXJXJXSXJXJXSXAX}./././.d o O % i | ..X._ O.>.{ +.8.t.7.C.K.K.L.:XL.:XP.J.J.P.P.P.U.U.L.L.L.L.L.U.U.U.U.U.U.U.U.>X-X>X>X>X>XI.;X;X>X>X>X>X>X>X>X>XP.>X>XJ.P.>XJ.5X>XP.H.&X4XG.s.B.f.d.u.u.u.u.t.u.p.N.2._ X...4 % % % O & * 3 3 7 7 p i a - X X .                                                                                           ",
"                          r - 3 s i 6 - - & o o X X X X . . X . . X . X . @ , Y.(.(.fXxXjXxXfXBXDXDXDXZXbXnXmXAXJXJXJXJXJXJXJXSXGXJXJXJXJXJXJXJXJXJXJXJXJXJXJXJXJXJXJXJXJXJXJXJXJXJXJXJXJXGXJXGXJXJXJXJXJXJXJXGXbX.XlXbXlX.X.X X.X.X.X.X.X.X.X.X.X.X.X.X.XmXJXAXGXSXSXGXJXAXZX}.T.|.|.f X o O 6 | ....~ O.>.{ 2.2.q.+.C.=X4X4XL.L.9XU.P.P.>X>X>XU.L.L.L.L.L.L.L.U.&XU.U.U.U.U.>X>X>X>X>X>X>X>X>X>X>X>X>X>X>X>X>XP.9X7XP.1X9X1X0X1XJ.D.D.G.Z.9.s.d.u.u.p.u.u.t.u.i.i.,.( ....u = % * O O % & * * = r r y - X X .                                                                                           ",
"                            o % 3 r s s i & o + + X X . . . . . . X . . . @ , Y.(.(.gXzXjXfXxXBXDXAXDXHXAXAXSXJXGXGXSXGXJXJXJXJXJXJXJXJXJXJXJXJXJXJXJXJXJXJXJXJXJXJXJXJXJXJXJXJXJXJXJXJXJXJXJXJXJXJXJXJXJXJXJXJXJXJXSXJXJXJXJXJXJXJXJXJXJXJXJXJXGXSXJXGXJXJXGXJXGXJXJXJXGXHXZX/.T.(.[., @ + o i $.%.....+.+.>.2.+.2.{ c.C.Z.Z.V.S.>XU.7X>X>XP.J.U.L.L.<X<XL.L.L.L.L.U.U.U.U.U.:X>X>X>X>X>X>X>X>X>X>X>X>X>X>X>X>XJ.>X-XJ.-X-X-X&X0X:XK.K.=XA.s.s.u.s.u.s.u.u.u.u.p.i.2.] O.#...p s h i - O O % % % - - , # X @ .                                                                                           ",
"                            o O & a s h i & % 6 - + X X . X . . . . . . @ @ : Y.T.(.aXxXhXfXjXNXBXnXmXDXJXJXSXSXHXHXHXHXJXSXGXJXJXJXJXJXJXJXJXJXJXJXJXJXJXJXJXJXJXJXJXJXJXJXJXJXJXJXJXJXJXJXJXJXJXJXGXJXGXJXGXJXSXAXJXJXGXSXAXAXSXSXGXGXGXGXJXJXJXJXJXAXJXGXZXGXGXSXGXGXAXFXDX[.[.(.uX< @ . X y s  .t s @...X.X.O.#.O.+.q.9.a.9.v.&XJ.:X&XU.J.J.L.L.<X<X<XL.L.L.L.P.U.U.U.U.U.-X>X>X>X>X1X1X1X>X>X>X>X>X>X>X>X>X>X>X>X7X1X5X1X&X:XK.G.G.*XA.s.t.u.u.d.u.u.u.t.u.l.p.i.>.2.2.O...| o.s - O O & & - r > , # . . .                                                                                           ",
"                              o O r t s p 6 6 i 6 + o o X X . . . . . . . @ : T.`.`.aXhXhXgXfXxXzXlXnXDXJXJXGXGXFXDXDXHXHXSXSXJXJXJXJXJXJXJXJXJXJXJXJXJXJXJXJXJXJXJXJXJXJXJXJXJXJXJXJXJXJXJXJXJXJXJXJXJXJXJXJXJXJXGXJXSXSXGXSXJXGXGXGXGXGXJXJXJXSXSXJXGXJXJXJXJXHXFXSXJXJXDXDX|.}.uX|.g $ $ $ $ O - % t  .....X.>.#.#.q.n.n.n.9.V.4X=X4X&X6X:X6XL.L.L.L.L.L.L.L.L.L.U.U.U.>X-X>X>X>X>X>X>X>X1X1X>X>X>X>X>X>X>X>X>XJ.J.9X-XJ.5XH.4X=XS.A.A.C.s.t.u.d.u.u.u.u.u.u.u.k.r.>.2.>._ ~ ! | p % & & + X > < < d # @ . @                                                                                           ",
"                                6 r s | ! t t t 6 % O O o + X . . . . . @ @ : (.pXiXgXhXjXxXfXjXjXlXmXDXJXGXJXJXVXVXVXDXHXJXGXJXJXJXJXJXJXJXJXJXJXJXJXJXJXJXJXJXJXJXJXJXJXJXJXJXJXJXJXJXJXJXJXJXJXJXJXJXJXJXJXJXJXJXJXJXJXGXGXGXJXJXGXGXGXGXJXJXJXJXJXJXAXJXJXGXGXHXAXJXJXSXZX}.[.}./.uX[.}.k $ X o & r  .@.~ X.+.O.+.2.c.b.f.7.v.<X*X<X=X<XL.L.L.=X<XL.<XL.L.P.L.L.P.U.-X>X>X>X>X;X>X-X>X>X>X>X>X>X>X>X>X>X-X-X0XP.J.0X6X:X0X&XS.V.9.9.9.s.t.u.u.u.u.u.u.u.y.u.u.l.w.1.r.>._ ~ Z | s % O + # $ > , , < @ @ . .                                                                                           ",
"                                  a i p ! u 4 u 4 = = 3 - & X X . . @ . @ @ : uXgXpXpXhXhXgXhXjXjXNXzXZXJXGXJXJXVXnXVXFXHXJXJXJXJXJXJXJXJXJXJXJXJXJXJXJXJXJXJXJXJXJXJXJXJXJXJXJXJXJXJXJXJXJXJXJXJXJXJXJXJXJXJXJXJXJXJXJXGXJXGXJXGXGXJXJXJXJXJXGXJXJXJXJXJXJXJXJXFXHXJXSXJXJXAXbXbXnXlX|.[.}.[.@ @ X X r $.$.p | X.#.O.#.+.+.+.+.s.C.C.v.V.Z.Z.F.Z.:XK.:XL.U.J.J.P.>XJ.P.P.7XP.I.I.;X7X;X;XI.;X8X>X1XJ.>X>XH.-X0X>X-XJ.&X&XS.&XD.s.a.s.8.s.d.d.u.u.u.u.u.u.u.y.y.u.0.p.i.N.2.{ O.X.#. .3 O # # + > > < < # . . .                                                                                           ",
"                                  - 6 p Z ! Z Z p u t p i i + X . . . . @ @ : |.gXaXaXgXgXhXjXxXxXzXlXVXFXJXJXHXVXmXVXFXHXJXJXJXJXJXJXJXJXJXJXJXJXJXJXJXJXJXJXJXJXJXJXJXJXJXJXJXJXJXJXJXJXJXJXJXJXJXJXJXJXJXJXJXJXJXJXJXJXJXJXJXGXJXJXJXJXJXJXJXJXJXJXJXJXJXJXJXJXGXJXSXJXJXJXAXDXFXAX|.}.|.k # @ @ # $ & 6 * 3 | ..~ X.O.+.+.+.8.f.n.f.f.f.a.a.g.K.G.L.J.U.P.P.L.2XJ.P.P.I.P.P.-X;X;X;X-X-X-X;X>X1X>X7X>XJ.P.>X>X0X6X&XK.V.S.v.9.9.f.s.s.t.u.u.u.u.u.u.u.u.0.e.u.t.d.u.N.r.{ { O.#.%.3 % + # # > < < , $ . . .                                                                                           ",
"                                  o & s ..~ ! ! Z Z u p i i % o o X + . @ @ : uXhXpXiXiXpXgXjXhXjXjXfXBXHXHXHXFXDXAXDXHXJXJXJXJXJXJXJXJXJXJXJXJXJXJXJXJXJXJXJXJXJXJXJXJXJXJXJXJXJXJXJXJXJXJXJXJXJXJXJXJXJXJXJXJXJXJXJXJXJXJXJXJXJXJXJXJXJXJXJXJXJXJXJXJXJXJXJXJXJXSXJXJXJXGXJXJXSXAXAX|./.|.}.< : d j , X O O * o.%.@.#.+.2.#.>.c.n.n.f.f.f.f.s.f.G.K.<XK.L.J.J.L.U.L.2X>X>X>X;X;X;X;X;X;X;X;X;X-X>X9X-X-X1XP.&XH.:XK.=X=XS.=XG.t.8.t.u.d.d.u.u.u.u.u.u.u.e.u.t.u.8.u.0.p.2.{ { O.#.@.3 % O + + ; $ # $ # . +                                                                                             ",
"                                  + - s ..! Z A Z ! ! ! ! i * % o X X . @ @ : |.gXiX`.(.uXgXhXhXxXxXxXBXAXZXAXZXDXHXHXJXJXJXJXJXJXJXJXJXJXJXJXJXJXJXJXJXJXJXJXJXJXJXJXJXJXJXJXJXJXJXJXJXJXJXJXJXJXJXJXJXJXJXJXJXJXJXJXJXJXJXJXJXJXJXJXJXJXJXJXJXJXJXJXJXJXJXJXJXDXJXJXJXJXJXGXAXFXDXDX|.|.lXdX}.|.|.}.$ @ X o & o.$.%.#.&.&.#.+.n.C.n.n.n.f.f.f.B.*X*X<X=X6X2XU.L.<XL.2XU.P.7X7X>X;X;X;X;X;X>X>X-X>X0X&XJ.0X:XJ.9X6XK.=XF.s.C.B.t.t.d.u.u.u.u.d.y.y.u.u.u.u.e.e.u.t.u.w.p.r.{ { { O.@.t t i & o + # $ +                                                                                                   ",
"                                  X O - 6 u Z ! Z A Q ! | p 3 = & & o X . @ : pXgXiX(.`.uXaXgXjXxXxXjXzXzXzXnXbXZXDXSXGXJXGXGXGXGXJXJXJXJXJXJXJXJXJXJXJXJXJXJXJXJXJXJXJXJXJXJXJXJXJXJXJXJXJXJXJXJXJXJXJXJXJXJXJXJXJXJXJXGXJXJXJXJXJXJXJXJXJXJXJXJXJXJXJXJXJXJXJXJXJXJXSXGXJXGXSXAXDXDXmXmXnXdX|.|.uX[.@ @ @ X X r r i i o.@.X.O.#.2.+.2.c.q.t.t.t.B.C.C.v.Z.Z.V.Z.Z.Z.S.S.S.:X2X1X>X>X>X1X>X>X-X>X:X0XP.J.0X6XH.D.K.*XwX*Xs.s.8.8.w.d.u.w.u.u.k.e.k.u.u.u.u.e.t.u.w.u.w.p.r.{ :.{ >.#.@. .$.- o X $ # .                                                                                                   ",
"                                  $ X o % 3 ! ~ A A Q Z ! ! u p t r & o . @ : |.gXiX`.`.uXuXpXhXvXxXxXxXzXzXzXlXVXJXGXJXJXGXJXGXGXJXJXJXJXJXJXJXJXJXJXJXJXJXJXJXJXJXJXJXJXJXJXJXJXJXJXJXJXJXJXJXJXJXJXJXJXJXJXJXJXJXJXJXJXJXJXJXJXJXJXJXJXJXJXJXJXJXJXJXJXJXJXJXJXJXJXJXGXGXSXHXHXHXZXFXAXnXbX}./.[.(.g d d f < X o & % | o.~ ! ~ ~ ! X.q.c.q.q.w.u.u.s.t.s.a.a.9.s.t.a.g.v.<X6X6X6X6X1X6X1X6X:X:X:X0X1X&X9X:XD.D.F.A.v.t.8.t.t.8.w.u.u.w.d.u.0.k.k.u.u.u.u.u.u.w.w.w.w.i.r.{ { { { #.O. .o.3 O # $ $ .                                                                                                   ",
"                                    . + O % s Z A Q ( Q ! Z u Z p s 3 O X @ : sXfXpX`.].`.`.uXgXxXxXvXzXvXzXnXlXZXJXJXJXJXSXHXGXJXJXJXJXJXJXJXJXJXJXJXJXJXJXJXJXJXJXJXJXJXJXJXJXJXJXJXJXJXJXJXJXJXJXJXJXJXJXJXJXJXJXJXJXJXJXJXJXJXJXJXJXJXJXJXJXJXJXJXJXJXJXJXJXGXJXJXJXJXGXSXHXAXDXDXAXDXBXnXsX}.uXuXuXuXuX|.k @ X + %  .%. .| ....Z ..c.c.c.i.r.r.u.u.u.s.f.f.f.B.f.f.g.v.4X<X<X:X4X5X4X5X:X:X:X:X6X9X&X:X:XD.V.Z.A.f.8.t.8.8.0.e.l.k.1.w.w.l.u.u.u.u.u.u.u.u.u.u.u.p.p.i.:.:.:.:.O.X.!  .6 % # # # #                                                                                                   ",
"                                    X X o & | | Z A Q Q Z Z u Z p | 6 O o @ ; sXhXpX`.`.].`.iXkXvXxXvXvXzXjXzXlXVXDXGXJXJXSXJXFXJXJXJXJXJXJXJXJXJXJXJXJXJXJXJXJXJXJXJXJXJXJXJXJXJXJXJXJXJXJXJXJXJXJXJXJXJXJXJXJXJXJXJXJXJXJXJXJXJXJXJXJXJXJXJXJXJXJXJXJXJXJXJXJXSXJXGXJXJXJXGXFXHXFXFXZXmXbXZXsX}.uXuXuX|.`.uXj @ @ # o a o. . .....! @.n.b.c.p.p.i.p.p.d.d.s.d.d.B.B.f.f.C.4X=X4X4X6X6X6X6X6X6X6X6X4X0X<X<X6XK.V.Z.F.B.t.u.0.p.r.0.0.e.0.k.0.u.e.e.e.e.u.u.y.y.w.w.w.i.i.r.{ [ :.:.[ #...@.t % o ; # X                                                                                                   ",
"                                    . X + & p | Z A A A A Z Z p Z s t % o @ : |.fXpXuX`.`.].`.aXgXjXjXxXzXxXzXzXzXZXBXZXDXHXSXSXJXSXJXJXJXJXGXJXJXHXFXFXHXJXJXJXJXJXJXJXJXJXJXJXJXJXJXJXJXJXJXJXJXJXJXJXJXJXJXJXJXJXJXJXJXJXJXJXJXJXJXJXJXJXJXJXJXJXJXJXJXJXJXJXJXJXJXJXJXJXJXJXGXHXHXVXlXnXmXsX[.`.(.(.`.uXpXT.@ @ @ . y o. .h o. .s o.x.x.+.+.>.2.2.q.>.2.2.8.q.q.c.d.7.n.G.F.F.G.G.G.G.D.K.K.G.K.D.G.G.*XG.F.A.f.C.d.d.u.r.i.1.] [ _ ,.e.8.0.0.u.u.e.u.y.u.y.u.u.0.i.N.r.{ [ [ [ [ { @.@.i % o - # X                                                                                                   ",
"                                    $ + X - i p Z A / / Q Q ! ~ ! | t % O . $ fXgXaXuX`.].iX`.].iX`.`.gXzXfXjXxXfXlXfXnXZXFXHXJXHXSXGXDXGXGXSXSXGXGXDXFXFXFXGXGXJXJXJXJXJXJXJXJXJXJXJXJXJXJXJXJXJXJXJXJXJXJXJXJXJXJXJXJXJXJXJXJXJXJXJXJXJXJXJXJXJXJXJXJXJXJXJXJXJXJXJXJXJXJXJXJXGXSXHXDXZXDXDXnX[.T.T.T.(.uXuXT.g g g j d $ & & & & % = 3 p ..! _ O.X.O.X.{ +.8.2.8.q.c.2.q.n.s.f.f.Z.Z.C.Z.C.Z.v.C.v.v.f.f.B.f.f.s.f.u.p.d.p.z.1._ ] _ ,.e.8.,.w.u.u.u.u.u.u.y.w.e.0.u.l.3.[ ] ] ] ] _ ~ @.i % O - # .                                                                                                   ",
"                                      + X O p  .Z Q ( / / / / ..~ | i % o @ : sXaXpX`.`.].].'.`.`.(.(.aXvXjXjXzXfXfXfXzXAXDXFXAXAXAXSXGXSXGXGXJXHXGXDXDXFXFXJXJXJXJXJXJXJXJXJXJXJXJXJXJXGXJXJXJXJXJXJXJXJXJXJXJXJXJXJXJXJXJXJXJXJXJXJXJXJXJXJXJXJXJXJXJXJXJXJXJXJXJXJXJXJXJXJXJXHXSXFXDXFXFXFXVXdXsXsXdXuXuXuXuX`.uX`.uXg @ o X o o O % % p @.! ..O.#.#.O.#.#.+.t.t.u.p.p.t.n.f.B.B.F.A.C.A.A.Z.C.C.C.C.d.f.B.B.B.f.B.u.w.l.k.z.r._ _ ] ,.k.l.w.w.u.u.u.u.u.u.u.w.k.u.k.l.r.<.<.<.>.3.#...@.p = - & + X                                                                                                   ",
"                                      X + & s p p Q ( ( ( ( / Q | s i O X @ : |.aXaX].iX].].).'.`.`.(.aXxXjXjXfXfXfXfXdXBXDXHXFXDXHXSXJXSXSXSXSXGXSXFXHXHXHXGXGXJXJXJXJXJXJXJXJXJXJXJXJXGXGXJXJXJXJXJXJXJXJXJXJXJXJXJXJXJXJXJXJXJXJXJXJXJXJXJXJXJXJXJXJXJXJXJXJXJXJXJXJXJXJXJXJXJXJXGXFXFXDXHXDXZXFXDXDXsX(.`.`.`.`.uX`.j @ @ . X X X O % a $. .o.@.%.%.@.#.+.s.t.8.t.p.d.p.B.n.B.C.A.A.C.A.A.A.B.f.B.B.d.B.B.B.B.B.B.p.k.l.z.N.1.[ ] ] ,.0.w.0.w.u.u.u.u.e.u.u.w.u.u.e.l.l.k.l.N.z.B.p.X.@.| t h 6 + +                                                                                                   ",
"                                        X O i s u ! Q Q Q / / ( ! | i O o . : sXaXpX`.].`.].].'.].`.(.pXjXjXjXgXhXjXfXfXBXAXZXZXZXDXZXGXGXJXJXSXFXFXFXFXJXHXGXJXJXJXJXJXJXJXJXJXJXJXJXJXJXJXJXJXJXJXJXJXJXJXJXJXJXJXJXJXJXJXJXJXJXJXJXJXJXJXJXJXJXJXJXJXJXJXJXJXJXJXJXJXJXJXJXJXSXJXJXHXHXFXFXFXHXFXFXDXsX[.uX`.).'.].].Y.@ @ @ . # X X o - i h h o.o.@.@.@.@.7.c.2.p.d.p.r.N.8.r.C.C.A.C.C.A.A.B.t.u.d.d.N.N.N.d.p.l.1.0.>.{ [ ,.r.1.,.w.w.0.0.w.u.u.u.e.e.u.u.w.u.u.w.e.u.l.N.N.j.B.r._ O.~ p h - O +                                                                                                   ",
"                                          y - 3 = u ~ ( ( / Q Q ! | i % + . $ j j j T.pX].iX`.'.].`.).aXcXjXjXhXaXhXaXsXfXzXnXZXBXFXDXHXZXVXAXAXZXAXDXFXGXHXJXJXJXJXJXJXJXJXJXJXJXJXJXJXJXJXJXJXJXJXJXJXJXJXJXJXJXJXJXJXJXJXJXJXJXJXJXJXJXJXJXJXJXJXJXJXJXJXJXJXJXJXJXJXJXJXJXJXGXJXGXJXGXFXSXSXHXAXDXAXsX|.uXuX`.iX'.].Y.: $ : $ : @ $ , ; + O & & & & = 3 t  ...! _ X.( ( ] ( ( 2.,.p.u.8.t.s.,.] { { { { { { { [ { { 1.{ _ ^ ,.B.N.w.l.u.u.u.e.w.w.u.e.u.u.u.w.u.u.u.u.u.u.u.l.N.B.r._ O...u i & % & +                                                                                                 ",
"                                            O O % t ~ ../ Q Q Q Z ! i & o X @ @ @ @ j vXgXpX`.).`.).`.aXcXgXhXjXhXjXhXjXfXsXfXlXnXFXDXFXbX X.X.X.XmXDXHXJXHXSXAXJXJXJXJXJXJXJXJXJXJXJXJXGXJXJXJXJXJXJXJXJXJXJXJXJXJXJXJXJXJXJXJXJXJXJXJXJXJXJXJXJXJXJXJXJXJXJXJXJXJXJXJXJXJXJXJXJXJXGXJXJXJXJXJXHXDXHXDX|.}.uX(.`.pX].].`.!.T.(.T.(.T.T.T.< X X X o O % O * 3 s | p ! ~ ! ! _ X._ 2.,.p.p.w.q.p.,.] { [ { [ :.{ :.{ { >.1.{ ] _ >.l.u.8.0.0.w.u.e.w.w.u.u.e.u.u.u.k.u.u.u.d.l.u.0.k.k.8._ O.~ t t = % % O                                                                                                 ",
"                                            o O % t | ~ Q Q / / ! ~ t * O X . . @ @ j NXhXgXiX).`.).).pXkXjXjXgXhXgXaXhXaXgXxXsXlXAXAXFXnX.XlXlX.XmXDXHXGXGXJXJXJXJXHXJXJXJXJXJXJXJXJXJXJXJXJXJXJXJXJXJXJXJXJXJXJXJXJXJXJXJXJXJXJXJXJXJXJXJXJXJXJXJXJXJXJXJXJXJXJXJXJXJXJXJXJXJXJXJXJXJXJXSXJXJXJXHXAXFX}.[.|.uX`.`.iX(.`.).!.(.(.Y.Y.(.T.: @ . . . X + O & 3  . .| | o. .~ X.#.#.2.>.i.i.p.q.i.>._ { :.:.:.:.:.>.<.>.>.<.{ { >.,.d.p.l.u.w.l.w.e.0.w.y.y.y.u.u.e.e.u.u.w.u.l.u.w.l.k.p.{ >.>.~ ..i = & O                                                                                                 ",
"                                              + O r |  .~ ~ Q ( ! ! u % O X # . @ @ k NXxXhXuX!.`.).!.iXkXkXgXkXgXhXgXhXgXgXfXpXfXAXAXDXmX.XsXdXsXmXFXFXHXFXHXHXGXJXJXJXJXJXJXJXJXJXJXJXJXJXJXJXJXJXJXJXJXJXJXJXJXJXJXJXJXJXJXJXJXJXJXJXJXJXJXJXJXJXJXJXJXJXJXJXJXJXJXJXJXJXJXJXJXGXJXGXJXJXJXJXJXJXJXDXBXBXBXdX(.`.`.(.(.(.E.Q.).Q.W.Y.j @ @ @ @ . @ $ @ - & r r r r t t 3 p x.#.2.#.2.2.2.2.2.{ O.>.:.[ >.>.:.<.:.3.{ >.i.i.p.d.0.u.u.0.w.w.u.e.e.y.y.y.y.u.u.k.k.u.u.u.u.u.u.u.u.l.k.1.i.>.#.&.@.3 6 & & +                                                                                             ",
"                                                & y h s ! ! ( A Z Z i * O X + . . @ j BXzXhXaX`.).).~.].cXkXkXgXaXaXgXgXgXgXgXpXfXZXZXDXmXsXlXdXlXmXDXHXHXSXHXHXJXJXJXJXJXJXJXJXJXJXJXJXJXJXJXJXJXJXJXJXJXJXJXJXJXJXJXJXJXJXJXJXJXJXJXJXJXJXJXJXJXJXJXJXJXJXJXJXJXJXJXJXJXJXJXJXJXGXJXGXJXJXJXGXGXJXJXFXZXDXDXlX`.uX`.(.!.!.W.Q.W.W.Q.!.R.: : < < < g j k k > o o o o O % * 6 ..| ~ ~ Q ! ! Z ! ~ Q Q A ^ ^ Q ^ Q Q ^ A { N.p.p.d.w.u.u.0.w.w.e.e.u.u.u.y.e.e.u.u.k.u.u.u.u.u.u.d.d.d.k.2.r.>.>.&.#.| %.s & O o                                                                                           ",
"                                                  y O * = t ! Z Z p i % O X + @ @ @ k NXzXvXgX`.~.).~.].cXkXcXkXiX`.`.`.aXhXgXaXaXfXsXdXbXAXZXAXZXmXbXnXnXmXDXHXJXJXJXJXJXJXJXJXJXJXJXJXJXJXJXJXJXJXJXJXJXJXJXJXJXJXJXJXJXJXJXJXJXJXJXJXJXJXJXJXJXJXJXJXJXJXJXJXJXJXJXJXJXJXJXJXJXJXJXJXGXJXJXGXSXJXJXFXAXDXBXsXuXaXiX`.(.(.).).!.R.W.).!.!.(.`.T.!.T.(.T.T., @ X X X X o O & h | s | ! Z ! Z ! ! Z Z A A A A A A ^ ( Q { p.i.N.l.w.u.u.w.u.w.w.e.e.u.u.u.u.u.u.u.u.u.u.u.u.u.u.u.0.u.u.,.>.>.{ O.X...%. .* & O                                                                                           ",
"                                                    + & * t ! Z Z p p * % O + X . @ j NXzXvXvX].).).!.].kXaXgXgX).Y.!.!.aXgXgXhXaXfXdXsXdXDXZXDXFXnX.X.X.XnXFXFXFXJXJXJXJXJXJXJXJXJXJXJXJXJXJXJXJXJXJXJXJXJXJXJXJXJXJXJXJXJXJXJXJXJXJXJXJXJXJXJXJXJXJXJXJXJXJXJXJXJXJXJXJXJXJXJXJXJXJXJXGXJXGXGXJXJXJXGXDXFXZXlXuXaXuXuXaXkXvXcXpXW.Y.Q.Q.!.!.Y.Y.!.(.!.T.T.< @ . # @ . # o & h h s | s ! | ! ! Q ! ! Q Z A Q A A Q Q Q { r.1.r.u.w.e.0.u.u.u.w.w.w.0.0.u.u.u.u.w.u.e.u.e.u.e.e.d.u.d.N.1.,.,.>.>.O.O.#.| = * O                                                                                           ",
"                                                    X o % 4 @.~ Z Z p * % O o X @ . j NXzXvXkXiX!.).Q.].kXgXgXkX'.W.!.(.gXgXgXgXjXaXpXxXdXBXDXZXDXmXbXbXlXnXHXHXFXJXJXJXJXJXJXJXJXJXJXJXJXJXJXJXJXJXJXJXJXJXJXJXJXJXJXJXJXJXJXJXJXJXJXJXJXJXJXJXJXJXJXJXJXJXJXJXJXJXJXJXJXJXFXFXJXJXJXJXSXGXSXSXSXSXGXHXHXFXAXNXzXBXvXvXNXvXBXNXaXY.!.!.Q.!.!.!.!.!.~.(.`.!.< @ @ @ @ . @ . # 6 - & 3 = 1 3 1 1 u ! Z ! Q ] :.:.>.>.>.1.i.p.k.N.u.u.e.e.u.u.u.w.w.w.w.0.w.u.u.u.w.u.e.u.k.e.u.u.k.w.l.p.,.,.,.>.] X.X.O.~ 4 6 6 r h                                                                                       ",
"                                                    X & & 3 | ! Z Z u 1 * * O o X X j nXxXxXvX`.W.~.~.).].pXaXgX'.W.W.!.kXgXaXgXgXaXaXhXsXBXFXFXDXZXnXbXdXnXHXHXFXJXJXJXJXJXJXJXJXJXJXJXJXJXJXJXJXJXJXJXJXJXJXJXJXJXJXJXJXJXJXJXJXJXJXJXJXJXJXJXJXJXJXJXJXJXJXJXJXJXJXJXJXJXFXFXJXJXJXJXSXGXSXSXJXAXmXmXnXnXZXZXZXZXBXNXzXfXvXvXpXY.(.!.~.).(.).).~.Q.Q.(.(.j g j g g g g f f X o O % % * * = = p ~ ! Q Q :.i.3.r.h.l.B.0.,.1.e.w.u.u.u.u.w.y.w.u.w.e.e.u.u.y.u.u.u.k.k.e.e.k.e.k.k.p.k.r.r.k.1.] O.[ O.O...o.$.i o . .                                                                                   ",
"                                                    X o % 6 ..~ ! _ ~ ! ! s 6 % o X . $ |.NXhXpX).).'.Q.W.Q.~._.Q.Q.Q.~.aXgXgXkXgXgXhXaXxXAXVXZXVXBXbXbXlXmXFXDXFXJXJXJXJXJXJXGXJXJXJXJXJXJXJXJXJXJXJXJXJXJXJXJXJXJXJXJXJXJXJXJXJXJXJXJXJXJXJXJXJXJXJXJXJXJXJXJXJXJXJXJXJXJXFXFXHXHXJXJXSXJXSXSXSXAXbXlXlXfXBXZXZXVXZXDXBXzXzXgXiX!.!.).`.`.Y.!.!.~.~.).~.!.(.(.(.Y.T.T.T.T.k . X o O % % % * = u ! Z ! Z [ N.3.3.1.1.l.w.e.l.y.w.d.u.u.u.w.u.y.u.u.k.k.k.k.e.e.u.u.k.u.k.e.e.e.e.k.u.w.p.p.N.r.] [ ] ] _ ..o.o.i X - +                                                                                   ",
"                                                    + X O 3 | ! A _ ( X.@.@.i % O X X @ }.xXjXiX(.W.).Q.~.~.~.~.Q.~.~.).kXkXkXkXaXhXhXgXfXzXzXnXlXnXlXbXlXmXDXHXFXJXJXJXJXJXJXGXJXJXJXJXJXJXJXGXJXJXJXJXJXJXJXJXJXJXJXJXJXJXJXJXJXJXJXJXJXJXJXJXJXJXJXJXJXJXJXJXJXJXJXJXJXHXHXHXHXHXJXJXSXJXSXGXHXGXbXlXlXfXBXAXFXAXDXDXnX|.jXxXhXiXpXkXcXgX!.!.Y.~.~.).).!.).!.(.!.!.!.T.(.j @ X o o % * = * = 4 ..! ! A [ i.1.1.z.e.k.0.e.l.w.0.d.u.u.u.0.u.u.u.u.k.k.u.u.u.e.e.e.e.e.e.k.k.e.0.l.k.r.p.p.l.,.[ _ ] O._ ~ ..o.6 O X .                                                                                   ",
"                                                    X . O 3 ..~ Z ( _ O.~ #.t * O + . @ |.xXfXpX(.`.).~.~.~.~._.~.~.Q._.kXgXkXkXgXgXgXhXaXjXxXdXlXlXlXzXlXnXDXFXFXFXJXJXGXJXJXJXJXJXJXJXSXJXJXJXJXJXJXJXGXJXJXJXJXJXJXJXJXJXGXJXJXJXJXJXJXJXJXJXJXJXJXJXJXJXJXJXGXJXJXSXJXGXGXFXHXHXGXGXJXJXAXSXZXHXlXlXlXfXZXDXDXAXAXDXmXdXzXvXjXhXcXcXvXkXY.W.W.Q.~.~.Q.~.~.!.!.!.!.!.(.!.j @ . X & i s p i p ~ X.O.X.>.r.i.r.h.h.h.e.e.u.u.u.u.u.u.u.k.k.k.k.u.u.u.u.y.y.y.y.e.e.e.u.e.e.e.e.w.e.k.k.0.k.N.1.[ ] [ [ _ Q ~ o.r o + +                                                                                   ",
"                                                      + + % ..! Z Q O.2.#.#.p * % o X @ |.lXfXaX`.!.).Q.W.~._._.~.Q.W.~.kXkXgXkXkXkXhXjXhXxXjXfXfXjXlXlXlXmXFXHXHXHXHXJXSXGXSXFXSXGXHXHXJXJXJXJXJXJXJXJXJXJXJXJXJXJXJXGXJXJXGXJXGXGXGXGXGXJXGXJXGXGXJXGXGXGXGXGXJXJXJXGXJXHXHXHXSXHXFXHXFXAXDXFXAXDXlXdXdXdXBXAXFXDXAXDXmXdXfXhXxXxXjXjXcXgXY.!.Q.W.~.).).!.~.~.!.!.!.!.~.!.j @ . X & h | |  .~ ..O.#.#.2.p.i.w.r.h.h.e.e.u.e.e.u.u.u.u.e.k.k.k.u.u.u.u.y.y.e.e.e.e.u.u.u.u.u.u.u.u.k.k.w.k.p.,.[ [ _ _ _ ~ .. .i O o X                                                                                   ",
"                                                      . X %  .! A Q O.2.>.O.u = % O X @ k [./.(.uX(.(.E.Q._._._.~._.~._.kXkX].iXaXkXgXjXhXjXjXjXjXzXzXxXzXBXAXZXZXZXFXFXJXJXJXHXHXFXFXSXJXJXJXSXGXJXJXJXJXJXJXJXJXJXJXJXJXJXJXGXGXGXJXGXJXGXJXJXJXJXJXGXFXGXFXGXJXGXJXJXHXFXFXSXZXVXmXVXVXZXFXFXAXDXnXlXnXnXBXZXZXZXZXAXNXlXxXxXxXcXxXvXcXgXY.Y.!.W.!.~.).Q.Q.!.!.!.!.Q.(.!.j @ . X O h p p | ! ~ X.X.O.q.i.r.e.r.h.h.e.e.e.u.e.k.k.k.u.e.e.e.e.u.u.u.u.y.e.e.e.e.e.u.u.u.u.u.u.k.k.u.k.e.k.e.>.^ [ ^ ] Q ! ....6 O & o a                                                                                 ",
"                                                      , o % | #.#.>.i.i.q.>.! u t r - . @ @ @ : uXpXiX~.~.Q._.~.~.~.~.~.].).E.W.].kXkXjXjXhXjXzXxXzXzXzXlXzXzXlXlXmXDXFXHXFXVXbXnXbXnXVXHXJXJXAXGXGXJXJXGXGXGXJXJXJXJXJXGXGXGXGXJXGXJXJXJXHXJXHXJXFXJXHXHXHXFXHXJXGXHXHXGXGXFXDXnX.XdXdXbXZXAXAXZXAXZXVXZXBXlXlXdXdXdXzXlXfXjXjXhXhXjXvXvXgX(.(.).`.!.!.~.).~.~.!.!.Q.Q.~.!.g @ @ o & h p s ~ ~ ~ X.O.{ 2.r.0.h.h.h.h.e.e.u.u.u.u.k.k.k.u.u.u.u.y.u.u.u.u.u.e.e.e.y.y.y.u.y.u.u.u.u.w.k.k.k.e.,.[ { _ { Q Z ! ~ t = & - y $ #                                                                             ",
"                                                      $ o % s c.2.p.z.5.3.<.Q Z p s r # . @ @ d zXjXkX`.W.W._.Q._._._.).~.W.Q.Q.].cXcXcXjXjXjXjXvXxXzXzXzXlXlXlXbXmXFXDXFXDXmX.XlXdXdXBXFXJXGXJXJXFXHXHXJXJXJXJXJXJXJXJXJXJXJXJXJXJXJXJXJXGXJXGXJXJXJXJXJXJXHXHXFXSXGXGXSXSXFXFXnXsXzXdXlXDXAXDXAXZXZXAXDXZXdXdXfXfXfXjXxXjXxXxXzXxXzXjXvXcXhXcXvXvX].`.~.).~.Q.!.Q.Q.Q.!.!.g @ . o % s p ! ! ! O.+.2.+.8.w.w.e.h.h.h.e.e.u.u.u.u.u.u.u.u.u.u.u.y.y.e.e.u.u.e.e.e.y.y.y.y.y.u.u.w.u.w.u.k.k.k.0.r.r.r.p._ Q ~ ....| | o.6 X + .                                                                           ",
"                                                      $ + % s c.2.b.i.3.3.3.Q u p p 6 o X . @ d lXfXgX(.E.Q._._.~.~.~._.~.W.~.Q.].cXkXkXcXcXcXvXvXxXzXvXzXxXxXNXzXnXDXDXDXFXBXlXbXlXdXBXDXAXAXSXFXFXFXFXJXJXJXJXJXJXJXJXJXJXJXJXJXJXJXJXJXJXJXJXJXJXJXJXJXJXFXFXSXSXFXHXGXFXDXDXnXsXfXsXdXDXZXAXDXZXVXZXZXBXdXlXxXxXxXxXxXxXxXxXjXxXzXgXxXxXvXvXvXcX!.!.Q.~.Q.!.Q.Q.Q.!.Q.!.g @ . o & s s ! ! ! #.c.p.r.r.e.w.e.e.e.e.e.u.u.u.u.u.u.u.u.e.e.u.u.y.y.y.y.u.u.u.e.y.y.y.y.y.y.y.y.e.k.w.e.u.e.e.e.N.j.p.p._ X._ ~ ..~ @.o.r O X @ #                                                                         ",
"                                                      $ X O s x.q.q.r.5.3.3.Q u u i r o X . @ f lXzXvXiX).Q.W.~.~.~._.'._.).~.Q.iXcXkXcXcXgXgXjXgXjXvXzXxXxXlXzXzXnXDXFXAXAXmXlXlXzXlXBXDXAXSXHXFXFXFXFXGXGXJXJXJXJXJXJXJXJXJXJXJXJXJXJXJXJXJXJXJXJXJXJXJXJXJXJXFXHXSXSXGXHXDXAXnXdXdXdXlXZXAXZXAXZXZXDXZXBXlXfXjXjXjXjXjXxXjXxXjXzXzXfXvXjXxXjXcXjX!.(.~.~.Q.Q.Q.Q.Q.Q.!.!.g @ . X & s s p ..~ 2.n.B.i.w.h.0.0.e.e.e.e.u.u.k.k.u.u.u.e.e.e.e.u.y.y.y.u.u.u.e.e.y.y.y.y.y.y.y.y.e.k.0.0.u.w.e.k.1.h.k.2.( ( ( _ ( ~ ! @.6 o X . #                                                                         ",
"                                                      , X O s x.c.+.2.5.3.<.) u u p 6 o X X . < |.|.[.(.(.~.~.~.~._.'.~._.].).).iXcXkXvXkX`.(.`.(.pXxXvXzXNXzXzXzXlXNXNXlXnXlXlXNXNXzXlXnXbXVXDXHXHXFXFXJXJXJXJXJXJXJXJXJXJXJXJXJXJXJXJXJXJXJXJXJXJXJXJXJXJXJXJXHXDXVXmXVXFXDXDXZXZXNXBXNXzXBXnXNXzXlXnXzXzXfXxXjXxXcXhXjXxXjXxXxXxXjXjXzXfXxXxXxXcX!.).`.~.Q.Q.Q.Q.Q.Q.Q.!.g @ @ X O s p u X.! #.i.p.r.r.0.h.k.e.e.e.u.u.e.u.k.u.u.u.u.e.e.e.e.e.e.e.u.u.u.u.u.y.u.u.u.u.e.y.y.u.k.0.0.u.0.u.u.l.j.r.p.2.2.>.2.Q Q ~ ..i O X # #                                                                         ",
"                                                      , X o s x.x.2.r.<.5.3.) u Z t 3 O X X . @ @ @ @ : pXiX(.).Q.~._._.~._.'.~.iXcXvXvXkX(.uX`.(.aXvXvXzXvXzXzXzXlXlXlXfXlXfXjXBXBXNXzXlXlXbXZXHXFXDXFXJXJXJXJXGXGXJXJXJXJXJXJXSXGXGXGXGXGXSXSXSXSXSXSXSXSXGXJXHXZXbX.XbXmXAXDXFXDXDXZXzXfXfXsXfXfXfXfXdXfXfXjXjXcXcXcXxXxXxXjXxXjXjXzXfXfXvXjXvXgXkXgXkXaXW.W.Q.W.Q.Q.Y.!.g @ . X + i i p ~ ! #.i.B.1.k.l.1.k.e.e.e.u.e.u.e.u.u.u.u.y.e.0.u.u.e.e.u.u.u.k.k.k.k.k.k.u.e.u.u.e.u.u.u.u.e.e.w.e.h.j.r.i.p.i.i.r._ Q X...t O X . #                                                                         ",
"                                                      ; X o a m.x.+.q.3.5.:.) u 4 u t % X . . . . @ . $ zXxXjXgX_.~.~._._.).).!.iXcXvXcXkX(.(.(.(.aXvXxXcXzXzXxXzXlXxXxXxXjXfXxXNXBXBXlXlXdXdXBXDXDXDXFXHXJXJXJXJXJXJXJXJXJXJXJXJXJXJXJXJXJXJXGXGXGXGXDXDXFXFXFXDXZXbXnXbXlXAXDXDXDXAXZXlXsXfXfXhXfXfXfXfXfXxXxXjXcXjXcXjXxXxXfXjXhXjXxXxXxXxXhXjXhXkXkXcXgXQ.Q.Q.Q.Q.Q.W.(.g @ @ . + h i p | ! O.2.q.,.1.z.1.e.e.u.e.u.u.u.e.e.u.u.u.y.y.y.y.y.e.e.u.u.u.u.k.k.k.k.u.u.e.e.e.e.u.u.u.u.e.i.w.u.h.j.r.r.i.i.r.r.Q A _ ..i % + X #                                                                         ",
"                                                      > X o i m.x.+.2.2.5.<.<.] _ @.p O O + X X . $ @ : zXNXNXcX'.~._._._.~.).).iXvXvXcXkX`.`.uX(.aXvXvXvXxXvXzXzXlXxXjXjXxXjXzXNXBXBXlXfXdXdXZXFXFXFXFXFXDXDXJXJXJXGXFXFXJXDXDXDXDXDXDXDXDXDXDXDXDXDXDXJXDXFXDXFXAXdXdXlXNXZXDXFXAXFXZXdXsXgXhXhXjXhXfXfXfXjXjXjXjXcXjXjXjXxXjXxXjXxXxXvXxXxXxXhXcXgXgXgXaXQ.W.Q.Q.Q.W.Y.~.g @ @ . @ y i p p ~ O.O._ _ [ r.e.h.e.e.e.u.w.u.e.e.u.u.y.y.y.y.y.y.k.e.e.u.e.e.e.k.u.u.u.u.e.e.e.u.u.u.u.u.e.e.u.u.h.j.0.w.i.r.r.1._ ^ Q X.| % - + -                                                                         ",
"                                                        X + i 6.x.&.2.>.3.<.<.>.>.c...* % O o X . . . ; lXBXBXvX`.Q._.~.'.'.).).iXkXkXkXgX`.(.).(.pXcXcXcXhXjXxXzXxXjXjXxXxXcXxXNXvXzXfXfXfXfXBXBXZXZXZXAXAXAXDXAXAXAXAXAXZXAXZXZXZXZXZXZXZXZXZXZXZXZXZXZXZXZXZXZXBXdXzXsXsXBXDXZXZXVXBXlXfXxXhXjXhXjXjXjXxXjXjXjXjXjXjXjXjXjXlXxXjXxXhXxXpXuXpXuXpXkXkXkXgXQ.W.W.Q.W.Q.Q.!.R.g g g g # O % * | @.X.( ( [ r.j.1.e.u.u.u.w.u.e.k.u.u.u.e.u.u.u.u.k.k.u.u.e.e.e.e.e.e.e.e.u.u.u.u.u.u.u.u.u.u.u.u.h.j.0.w.u.w.r.r._ Q X.~ ..o.$.$.h &                                                                       ",
"                                                        . X r 6.&.&.q.2.r.1.>.<.>.>.#.p t t i O + X . $ lXNXNXNX`.!.)._._.).~.).).).).~.).~.`.`.).aXvXcXkXaXgXjXjXjXjXxXxXxXjXhXxXjXxXzXxXfXfXfXzXzXzXzXlXlXlXlXlXlXlXlXlXlXfXlXlXfXlXfXlXfXlXfXfXdXdXfXdXfXlXlXfXzXfXsXsXzXdXlXlXdXlXlXsXfXhXhXjXjXhXjXjXjXjXjXjXjXjXcXjXjXjXxXcXjXxXxXcXuX!.(.!.!.kXkXcXgXQ.W.Q.Q.Q.Q.Q.Q.Y.Y.T.Y.k @ + % % s @...X._ [ 1.h.h.w.w.u.u.u.u.e.e.u.u.u.u.u.u.u.u.k.k.k.u.e.e.e.e.e.e.e.u.u.u.u.u.u.u.u.u.u.u.t.u.h.k.w.w.u.w.r.r.] Q O.( ..@. . .o.& o + .                                                                 ",
"                                                        X o 6 6.x.&.q.+.2.r.:.>.<.:.O.! ! s s & o + X # bXnXNXNXiX!.~.).).~.~.'.'.).'.'.`.`.'.).).pXvXcXaXuXpXhXcXxXjXxXxXjXjXhXxXxXxXvXjXfXxXfXfXfXdXfXfXlXlXlXlXlXfXfXfXfXfXfXfXfXfXfXfXfXfXdXfXfXfXfXfXlXjXfXxXfXfXzXxXxXxXfXfXfXsXfXfXjXxXjXhXhXhXjXjXhXhXjXjXxXxXxXxXcXcXcXxXjXcXcXvXiX!.(.!.Y.kXkXkXgXQ.W.Q.Q.Q.Q.W.W.!.Y.Y.Y.j @ @ O % p @...X.Q ] r.h.h.w.u.u.u.e.e.e.e.u.u.u.u.u.u.u.u.k.k.k.u.e.e.e.e.e.e.u.u.u.u.u.u.u.u.u.u.u.u.u.u.w.k.w.u.u.0.0.r.:.( ( X.X.....@.$.& O X .                                                                 ",
"                                                          o & $.XX&.q.2.2.1.:.:.3.5.:.Z u u i * O o X $ lXmXNXNXaX`.!.)._.].'._._._._._.).'.).).'.aXvXcXkXiXaXcXkXcXjXxXjXfXxXxXxXcXcXjXgXhXxXxXjXxXxXxXjXxXlXjXlXfXlXfXfXlXfXfXfXfXfXfXfXfXfXhXfXfXfXfXhXfXjXfXjXjXxXfXfXzXfXjXxXxXjXfXjXxXfXjXjXjXjXxXjXjXjXxXxXxXxXxXcXjXcXcXcXcXjXjXjXuX!.!.!.Q.kXcXcXgX~.W.W.Q.W.Q.Q.Q.~.!.!.Y.j @ @ o % i @...X._ :.i.r.1.w.u.u.u.e.e.e.e.u.u.u.u.e.e.u.u.k.k.k.u.e.e.k.k.k.k.k.k.u.k.u.u.u.u.u.u.u.u.y.y.w.u.w.u.u.0.0.r.] Q ] X.( O...X.| 3 o o X                                                                 ",
"                                                            o i  .| #.q.2.,.3.3.<.3.[ A Q ! | 3 % o O o g /.T.(.pXpX`.`.~.'._._._.'.].'.'._.).'.'.iXkXgXkXiXiXaXpXkXjXvXxXfXxXxXhXjXcXjXjXxXjXfXhXjXxXxXxXxXxXxXxXjXjXfXjXjXhXhXjXhXhXhXjXjXhXhXhXhXhXhXjXjXhXhXxXjXjXxXxXhXjXxXhXvXhXhXjXjXfXxXjXjXjXxXjXjXjXxXjXjXxXxXcXcXjXcXkXvXcXcXcXiX(.(.!.!.pXaXgXpXQ.W.W.Q.Q.Q.Q.W.Q.W.Y.Y.Y.@ @ O o p o.@.X.X.[ ,.1.0.w.u.u.u.e.u.e.e.k.u.u.u.u.u.u.u.k.k.u.u.u.k.k.k.k.k.e.e.k.k.u.u.u.u.u.u.u.u.y.y.w.u.w.u.u.0.w.i.{ ( ] X._ X.X.X.@.= O o .                                                                 ",
"                                                            > X O % p x.2.2.>.8.,.1.:.^ Q Q ! t 3 & - O o @ @ @ uXaXpXiX].].'.'._.'._._.'._._.'.'.'.'.].].`.`.`.).gXcXxXjXxXfXgXgXkXkXkXhXjXjXxXxXjXjXxXjXxXjXxXhXjXjXjXfXjXjXjXhXhXhXfXhXfXjXjXhXhXhXjXkXhXjXhXhXjXjXjXjXjXjXjXjXhXjXjXhXjXfXjXjXjXjXxXfXxXxXjXjXxXjXxXhXuX`.(.).`.).).(.aXcXcXkXgXY.!.Q.W.Q.Q.Q.Q.Q.Q.Q.Q.Q.!.!.Y.Y.: @ @ o a o.@...~ ] >.l.w.w.t.d.t.0.0.h.j.k.u.u.u.u.u.u.u.e.u.u.u.u.u.e.e.u.u.u.y.u.k.u.u.u.u.u.u.u.u.y.y.k.u.u.w.0.8.w.i.{ _ ] ' ] X.X.@...= O o .                                                                 ",
"                                                            , . X O p x.2.2.,.8.,.r.[ A A A / Z s s a & o X @ @ |.xXaXaXiX`.'.).).'.].'.'._.)._.).).).).).).).).(.aXcXcXjXhXpXuXpXgXkXjXhXjXhXhXzXzXxXxXjXjXjXxXjXjXjXfXjXjXhXhXhXjXhXjXhXhXjXhXhXhXhXhXhXkXhXhXjXhXhXjXjXjXjXjXjXhXjXjXhXjXhXjXhXxXjXxXjXjXxXxXjXjXjXcXgX(.(.!.!.!.!.(.!.aXNXvXvXcX!.Q.Q.Q.Q.Q.Q.Q.Q.Q.Q.Q.Q.Q.!.!.(.f @ @ O r s p ..! O.2.>.w.8.8.8.t.y.l.k.e.u.u.u.u.u.u.u.u.e.u.u.u.u.e.u.e.u.u.u.u.k.k.u.u.u.u.u.u.u.u.e.e.k.u.u.u.0.0.w.i.[ ( ] ] X.X.X.X...= O o .                                                                 ",
"                                                              . X O i x.2.2.,.8.,.r.[ A A A ! ! ! | s - o . . @ }.fXfXaXuX`.!.).'.'._.~.)._.'.]._._.)._.'.`.).).).pXvXjXhXgXuX`.iXjXjXhXhXxXjXjXhXjXjXxXjXcXcXxXjXhXhXhXhXjXhXhXjXhXhXjXjXjXhXhXjXhXhXkXhXhXhXhXkXhXhXhXhXjXjXjXjXhXjXjXhXjXhXjXxXvXjXjXxXhXhXxXxXhXcXvXkX(.(.!.(.!.!.`.Y.aXNXcXvXgXW.!.~.~.Q.Q.Q.Q.Q.Q.Q.Q.Q.Q.!.!.Q.d @ @ X r h s o.! X.2.2.,.,.w.p.p.u.w.0.w.u.u.u.u.u.u.u.u.u.u.u.u.u.u.u.u.k.k.e.k.k.k.u.u.u.u.u.u.u.u.e.e.u.u.u.u.t.e.i.p.[ _ ] ' ] X._ X...= O o .                                                                 ",
"                                                            < . X O i x.2.2.,.,.2.i.[ A S A A ! ! s s & + . @ @ |.sXfXxXuX(.(.`.`.).'.'.].'._._._._._.).'.'.).).).iXcXkXcXjXuX(.uXjXcXjXcXvXjXcXcXvXcXjXhXcXjXhXjXjXhXjXjXjXjXhXhXjXjXhXjXjXhXjXhXhXhXhXhXhXgXhXhXhXhXhXhXjXhXjXcXhXjXcXjXxXjXxXjXxXhXxXvXcXjXcXcXkXcXcXgX(.!.!.!.!.Y.(.!.pXvXvXNXkX!.~.Q.~.Q.~.Q.~.Q.Q.Q.Q.~.Q.W.!.).g : g g a > - o. ...#._ _ _ >.8.u.t.u.l.d.u.u.u.u.u.u.u.u.u.u.u.u.y.y.u.u.k.k.k.k.k.k.u.u.u.u.u.u.u.u.e.u.k.u.u.u.u.u.p.p.{ _ ] [ ] X._ X. .= O o .                                                                 ",
"                                                            d . X O t x.q.2.,.,.2.i.:.A A A A Q ! ! s 3 O X X @ < f d : [.BXfXNXcX].).).'._._.'._._._._.'.).).).).iXvXkXkXgXpXaXaXvXcXaXpXpXpXcXgXcXcXkXgXhXaXgXcXjXjXjXjXjXjXjXjXhXjXjXhXhXhXjXhXhXhXhXhXhXhXhXkXhXkXjXhXjXjXcXjXkXjXxXhXxXjXxXxXvXxXcXhXcXcXaXaXpXpXaXaXpXpXpXpXpXpXaXpXaXkXgXkXaX~.~.Q.~.Q.~.Q.Q.~.Q.Q.Q.Q.!.).Q.E.!.(.T./.g X > r i ..2.2.( _ ,.r.p.u.u.w.w.u.u.u.u.u.u.u.u.u.u.u.u.y.u.e.e.k.k.k.k.u.u.u.u.u.u.u.u.u.u.e.u.u.w.w.u.p.u.i.l.{ _ ] [ ] X..... .= O X .                                                                 ",
"                                                            f . X O t m.q.2.2.,.q.i.:.A A Q A Z Z Z | 6 O X X . @ @ @ @ }.BXBXBXvX`.).).'._.'._.'._.'.'.'.'.'.).).].aX].].).].cXvXNXvXuX!.!.).cXvXvXkX`.!.!.(.iXkXhXjXjXhXhXjXjXjXjXjXhXjXjXjXjXkXjXkXjXhXhXhXhXhXhXhXhXhXjXjXjXcXhXjXcXjXxXhXxXjXxXhXuX(.pXiX).).).).`.].gXvXvXcXvXvXvXvXpX(.!.).).Q.~.~.~.Q.~.Q.~.Q.~.Q.Q.Q.Q.Q.Q.(.~.!.T.(.< # X % s #.#.] ^ ^ 3.i.l.u.u.u.u.u.u.u.u.u.u.u.u.u.u.y.y.y.y.e.e.k.k.k.k.u.u.u.u.u.u.u.u.u.u.u.k.u.w.w.u.u.u.k.l.{ _ ] ] X.X..... .= O X .                                                                 ",
"                                                            f . X O t x.i.2.1.,.i.q.:.Z u A A A Q Q ~ i % O + X X . @ @ [.BXNXNXjX(.!.).`._.'._._._._._._.).).).).).'.).].).`.kXvXvXvX`.!.!.).cXcXcXvXuX!.!.Y.uXhXhXkXhXhXhXjXjXjXjXjXjXcXkXjXkXjXhXjXhXhXhXhXhXhXkXgXhXhXhXkXjXcXjXcXxXjXxXjXxXxXvXcX(.!.iXiX].iX].`.).).gXcXcXcXvXcXcXvXpX!.).~.~.Q.Q.Q.~.~.~.~.~.~.~.Q.~.~.Q.Q.Q.~.E.!.(.Y.d . X - a | ~ Q u A 3.j.l.0.k.u.u.u.u.u.u.u.u.u.u.u.u.y.y.y.y.e.e.u.u.u.u.u.u.u.u.u.u.u.u.u.u.u.k.k.w.u.u.u.w.u.l.:.] ] [ X.X._ .. .& O X .                                                                 ",
"                                                            f . X O 6 x.q.,.1.,.r.i.>.A A ^ ^ Q A Z ! p * % O o . . @ @ |.mXBXBXxX(.!.!.).).'.'._._._._._._.'.'.).).).~._.Q.`.vXNXvXNX`.!.(.`.kXcXjXjX(.Y.!.Y.`.cXjXkXkXhXhXhXhXjXxXcXcXcXcXjXkXjXjXhXhXhXhXhXhXkXhXhXkXhXjXjXcXcXcXcXcXxXxXjXxXjXjXvX!.!.).`.].'.].'.'.~.gXcXvXvXvXcXcXvXaXQ._.~.~.).~.~.).Q.Q.~.Q.~.Q.~.Q.Q.~.~.Q.Q.Q.!.(.T.: @ + & % t ~ ! A ( z.i.z.e.N.l.u.l.u.u.u.u.u.u.u.u.u.u.u.u.u.e.e.u.u.u.u.u.u.u.u.u.y.u.y.u.u.u.u.k.e.k.u.u.w.u.z.>.] [ [ ] X..... .& O X .                                                                 ",
"                                                              . . O t x.c.2.0.,.i.i.2.[ [ 5.z.:.[ O.O.! = = % O o X @ . [.BXmXNXzXuX`.pXiX].)._.'.~.'._._.'.).'.).~._._.~.~.].gXkXaXgX`.(.!.).cXkXcXjXuX(.!.(.iXgXcXkXkXcXcXgXxXjXxXvXcXcXvXcXcXvXhXhXhXhXhXjXhXhXgXgXjXjXhXvXcXvXcXcXvXcXxXxXjXvXjXvXiXiXiX'.].'.'._.).).iXgXkXgXaXgXgXkXpX~.Q._.~.).~.).~.~.~.~.~.~.~.Q.~.~.Q.Q.!.Q.Q.!.!.Y.: . X o O t | ! ! _ i.p.i.i.l.N.w.l.u.u.u.l.u.u.u.u.u.u.u.u.u.e.e.u.u.u.u.u.u.u.u.u.y.y.y.e.e.e.u.w.k.k.0.u.u.l.l.{ ] _ { X.~ ..~ | & O + .                                                                 ",
"                                                              . X o 6 x.c.2.,.0.u.l.z.1.3.N.N.j.3.2.2._ u p p i o X X # ; $ ; : j NXNXNXvXgX).E.Q.Q.~.Q.~._.'.'.'.)._._._.~.~.).).(.`.!.!.~.).cXvXxXxXjXvXNXcXaXiX].].iXuXjXvXxXhXpXpXpXpXaXaXaXjXjXjXxXjXgXhXgXcXkXkXgXhXgXpXiXiXuXiXiXpXhXxXjXxXjXvXaXpXiX'.].'.].'.).~.).).).~.~.).~.~.~.Q._._.~.Q.~.Q.~.~.).Q.~.~.~.Q.~.~.Q.'.W.Q.Q.!.Y.T.@ @ X + % 3 t t 4 u ~ ~ _ >.p.l.l.l.l.u.u.u.u.u.u.u.u.u.u.u.u.u.u.u.u.u.u.u.u.u.u.y.y.u.e.u.u.u.u.w.w.u.w.d.u.k.l.>.>.:.>._ ! ~ | | & o o .                                                                 ",
"                                                              . . o r XXm.b.8.u.w.u.l.j.h.h.j.5.3.r.2.Q 4 u s s & o . # @ @ @ @ d NXzXzXBXaXR.W.R.W.E.R.E.Q.'._.'.'._._.'.'.~.Q.~.).~.~.).).'.kXcXvXvXxXvXcXvXgX(.!.).).(.kXcXcXhX(.(.!.!.!.!.(.iXhXhXjXjXhXcXkXhXkXhXaXkXjX(.!.!.!.!.!.(.gXjXjXvXvXcXaX].].'.'._.'.'.].).).~.Q.Q.~.~.Q.~.~.~.'._._.Q.~.Q.).!.~.~.).~.~.Q.~.!.~.Q.W.).!.!.T.T.$ @ + o o 6 s 4 4 u ! ! Z O.n.p.p.i.l.w.w.u.u.u.u.u.u.u.u.u.u.u.u.u.u.u.u.u.u.u.u.u.u.u.e.e.e.u.u.e.0.u.u.d.u.u.l.r.r.3.2.X.~ ..| | & o o .                                                                 ",
"                                                              X + o a {.x.b.q.t.d.d.N.N.N.N.z.N.N.n.N.O.A Q X...* % + X . . @ @ j zXNXzXxXiXR.Y.R.E.R.E.E.Q.'._._.'.'._.~._._._.~._.~.).~.~.'.cXcXcXvXcXxXhXcXkX).~.`.).`.cXcXvXxX(.(.(.(.(.(.(.iXvXzXjXhXhXcXgXkXkXcXkXcXvX`.(.(.).(.!.(.cXcXjXcXcXkXpX`.].].'.].'.'.'._.).).)._._._._._._.~.~._._.W.~.Q.~.Q.Q.Q.~.~.~.~.~.~.~.!.~.!.!.(.}./.$ X o o % & i 3 1 u ~ Z Z #.M.n.N.p.B.p.p.u.u.u.w.u.u.u.u.u.e.e.e.u.u.u.u.u.u.u.u.u.u.u.u.y.y.y.u.k.e.u.u.d.u.w.k.r.r.2.>.X.~ ..| | & o X .                                                                 ",
"                                                                    h 6.XXm.x.n.d.d.l.d.N.l.l.N.B.N.B.r.<.>.2.@.= * % o + + @ . j nXbXNXzXfX`.Y.Y.W.R.R.R.W._.'.'.].'.'._._._.'.~._.'.'.~.~.].cXvXcXkXcXcXcXvXkX'.~.'.`.).kXvXcXjX(.!.!.!.(.!.!.uXjXjXhXjXkXcXkXkXkXkXcXkXgX`.).).`.`.).`.cXcXcXcXcXcXcX].`.'.].].'._._._._._.'.~._._.~.~.~._._._._.W.W.W.!.'.].].).~.~.~.~.~.!.!.).!.Y.j j j $ + O % % % 4 3 4 u ..! Z O.2.2.>.{ p.p.p.u.u.w.u.u.u.u.e.u.u.e.e.u.u.u.u.u.u.u.u.u.u.k.u.u.y.y.y.w.k.u.w.u.u.u.u.1.,.<.2.X.! ~ | | & o X .                                                                 ",
"                                                                      & & 3 @.M.b.B.B.N.d.u.u.d.B.d.N.N.p.i.p.#.Z p i i O X + . d }././.T.T.aXpXpXpX).Q.W.Q.~._._.).~._.).~.~.~.~.~._._._.~.).].pXiX].].].`.].].).~.).).).gXgXaXaXpXpXiXuXiXiXuXaXjXjXjXjXiX].iXpXiXpXiX].].).).~.).).~.).gXaXpXgXgXgXkX].'._.'.'.'.'.'.'.'.'._._.'._._._._._._._._.Q.Q.W.Q.pXkXgX].).~.~.~.!.!.~.(.(.d @ @ + 6 h a p p | p 4 u Z _ Q Q Q Q Q A Q ,.i.p.r.u.w.u.u.e.u.u.u.u.e.e.u.u.u.u.u.u.u.u.u.u.k.u.y.y.u.u.w.l.u.w.w.d.u.u.0.r.i.p.#.~ ~ | | & o X .                                                                 ",
"                                                                      X & % o.b.c.d.B.B.d.s.d.B.f.d.d.d.p.i.N.>.! .. .| & O & . @ . # . @ g zXhXhXkXgX).W.W.E.R.E.E.E.W.W.W.W.E.Q.E.~._.'.'.).).).).'.).`.`.).~.).'._.'.`.aXaXpXuXxXNXNXvXvXvXvXzXzXNXxXjX`.).).'.).`.).).).).).].'.'.'._.].'.).).).`.'.).].].].'.'.'.'._._._._._.'._.'._._.~.~.~.~.E.Q.E.Q.gXcXkX`.Q.Q.~.Q.).(.`.!.!.: @ # o a $.| | | ! ! ( ( Q ( / ( ^ Q Q Q Q r.p.N.w.p.0.w.u.u.u.u.u.u.u.u.u.u.u.u.u.u.u.u.u.u.k.u.u.y.u.e.u.d.u.u.u.d.d.u.w.r.i.p.#.! ~ | | & o X .                                                                 ",
"                                                                      + X O o.XXn.n.N.N.d.t.t.d.d.s.8.d.p.i.p.{ ( _ X.| * O o + X . @ . @ g lXfXhXjXkX!.R.E.E.E.R.E.E.R.R.R.E.E.R.R._.'._._.'.'._.'.'.~.).).).'.).).'.].!.pXkXaXaXNXvXvXvXNXvXNXvXvXNXhXgX`.`.'.'.'.].).].'.).'.'._._.'.'._.'.).].`.].]._.]._.'.'.'.].'._._.'.'._.'._.'._._._._.'.~.E.Q.W.~.kXcXvX].~.~.).!.(.!.!.(.T.< @ o O i | | s ..~ ( ( ( ( ) ) ( Q ( ^ Q Q ,.r.i.r.N.u.u.u.u.u.u.y.y.y.y.u.u.u.u.u.u.u.u.k.k.k.u.u.u.e.e.u.l.w.w.w.d.u.u.e.r.r.q.O.! ~ | | & o X .                                                                 ",
"                                                                      X o O o.m.b.n.d.N.d.u.u.u.B.u.w.d.B.l.j.>.Q Q _ ..3 % o X + . X @ @ d nXfXfXvXxX(.R.E.E.W.R.W.R.E.R.E.R.E.E.R._.'.'.'.'.'._.'._.'.'.'._.).'.).).`.).iXvXgXaXvXvXvXvXvXNXvXvXvXvXcXcX].).`.'.'.'.'.'.'.'.'.).'.'.'.'.'.'.].'.'.'.).].'._.'.'._.'._.'.'._._.'.'._._._.'._.~._.~.E.W.E.Q.].aXpX).Q.~.~.!.!.T.T./.[., X O 3 s @...~ ~ _ ~ ( ( ^ _ ^ _ A ( Q Q A 2.N.r.i.i.w.d.u.u.0.u.y.y.0.l.k.u.u.u.u.u.k.u.k.k.u.u.u.u.e.e.u.u.u.u.u.u.u.e.0.i.r.i.O.! ~ | | & o X .                                                                 ",
"                                                                      + o O a XXb.n.p.p.u.w.u.u.u.w.0.u.u.0.r.>.^ ] ] ~ 4 = & & o o + X X , k k T.T.T.aXiX`.).).].].W.E.W.W.E.E.E.E.Q._.~._._.~.~.~.~._.~._._.).).)._.'.).].kXgXiXkXkXgXkXgXgXaXkXkXkXgXkXiX`.].'.'.`.].'.`.'.'.`.'.`.'.'.'.'.'._.'._._.].'.'.'.'.'.'._.'.'.'._.'.Q.E.E.Q._.~._.'.~.R.R.E.Q.W.E.E.Q.~.!.!.(.Y.d , < f ; + % 3 ~ O..._ ~ _ ( ( ( ( ^ ( _ ] [ ] ] ] ] [ { >.i.w.e.0.l.u.u.u.0.0.e.0.0.w.u.u.k.k.e.e.u.u.u.e.e.e.u.u.u.u.u.u.u.u.w.w.r.r.c.O.! ~ | | & o X .                                                                 ",
"                                                                      X o & s m.c.n.N.N.N.k.u.u.w.u.w.u.w.w.k.r.>.3.>.+.X. . .s 3 % o X @ @ @ @ @ @ : zXvXjXcXvXvXcX!.R.R.R.R.E.E.E.E.E.R.R.E.R.E.E.E.E.E.E.E.E.~._.'.].'.).'.'.).).`.`.].).).`.`.`.].`.].'._.'.'.'.'.'.].'.'.'.'.'.'.'.'.'.'.'.'.'._.'._._.'._._.'.'._.'._.'._.~.W.R.R.E.E.R.W.Q.~.~.~.~.~.W.W.!.Q.W.~.!.(.g @ @ @ # # h $.@.x.c.2.+.2.+.2.q.i.i._ ^ _ i.B.N.p.i._ A ^ ] e.l.k.u.l.,.{ { { 0.e.k.u.k.k.k.l.k.k.k.k.k.u.u.u.u.u.w.w.w.w.w.w.w.0.0.8.r.i.X.Z ! ! | & o X .                                                                 ",
"                                                                      X o O s m.c.n.d.l.N.l.u.0.u.u.w.u.0.u.w.w.w.p.i.p.+...@. .4 % % + X . @ # @ @ : lXlXxXvXvXxXvX(.R.R.W.E.E.R.E.R.E.R.E.E.E.E.E.E.E.E.R.E.E.Q._._.'.'._._.'.'.'.'.'.].].).].'.].]._.'.'.'.'.'.'.'.'.'.`.'.`.'.'.'.'.'.'._._.'.'._.'.~._._._._.'._._.'._.'._._.~.E.R.E.R.R.Q.~._.'._.~._.~.~.~.Q.~.).!.(.g @ @ o + & $.%.x.M.b.q.q.b.c.n.B.B.p._ ^ Q 2.p.N.B.N._ Q _ ] l.l.k.u.u.{ _ ] { e.r.l.w.w.0.k.e.e.k.l.l.u.u.u.u.u.u.u.u.u.u.u.u.u.u.w.r.p.q.X.! ~ s | & o X .                                                                 ",
"                                                                      X o & s XXb.n.i.r.l.k.w.w.k.k.w.w.0.u.0.8.u.0.w.i.>.Q O.X.4 * * O X . @ . . . > .XbXlXlXzXzXzX(.R.R.W.E.E.E.E.R.W.E.E.E.R.E.E.E.E.E.E.E.E.~.].'.'.].'.'.].'._.'._.'.'.~.'.'.'.'.'.].'.'.].].'.].'.'.'.'.'.'.'._.'.'.'.'._._._._.'._.'._.'.'.'.'.'.]._.'._.'.~.E.R.W.E.R.Q.Q.Q._.'._.'.).~.Y.!.(.!.T.`.g @ o & % & o.%.x.n.b.q.q.n.c.n.b.p.p.O.] [ p.B.p.p.r.] ^ ^ _ e.e.k.u.l.>.] { { k.r.k.0.1.w.N.e.k.l.l.l.u.l.u.u.u.u.u.u.u.w.w.u.u.e.0.,.i.q.X.! ~ s s & o X .                                                                 ",
"                                                                        6 % p b.b.n.i.z.N.l.w.u.0.u.k.u.w.u.0.w.B.0.w.u.>.^ ] _ u 4 t = O & X . # . > }. X|.|.lXdXsX(.!.R.E.R.R.R.E.R.E.E.E.E.E.E.E.W.E.W.E.E.E.~._.'._.'.'._.~.'.'.'.'.'.'.).'.'._.'.'.].].].].'.].'.'.'.'.'.'.'.'.'.'._.'.'._.'._.'._._._.~.~.'.'.'._.'._.'.'.'._.E.E.E.R.W.!.Q.~._._.~.~.Q.Q.).!.!.Y.Y.k y + o & % 3 o.m.b.b.c.7.+.q.9.t.c.t.q.{ +.2.r.p.r.z.r.>.[ ] [ k.k.l.d.d.>.] _ { e.z.e.k.1.0.N.1.l.k.k.k.u.u.u.u.u.u.u.u.w.0.w.w.w.0.,.] { >.X.Z ! s s & o X .                                                                 ",
"                                                                            6.XXb.b.,.,.1.,.,.u.0.u.k.1.0.e.0.u.0.u.d.u.,.[ :.:.A u u 4 = - - - # X . X @ @ $ $ $ : j iX].].'.`.].].].Q.E.E.E.E.E.E.E.E.E.E.W.E.W.Q.W.W.W.Q.~.Q.Q.Q.Q.Q.Q.Q.Q.).].].'.'.'.'.'.'.].'.'.'.'.'.'.'.].'.'.'.'.'.'.'.'._.~.Q.Q.W.E.W.].].].~.~.~._.~._.~.W.W.E.E.pXkXcXcXiX).Q.~.!.Y.!.j : : , $ y $.$.%.@.#.&.7.7.Z.C.f.g.f.v.v.Z.A.C.7.+.q.w.p.i.r.p.w.p.l.l.B.N.l.d.d.,.>.{ >.r.z.r.l.>.{ >.[ e.w.k.k.u.u.u.u.u.u.u.u.u.u.k.k.e.e.,._ [ O.X.Z ! s | & o X .                                                                 ",
"                                                                            oXm.M.q._ A Q ^ { p.B.B.N.1.h.e.h.k.w.d.d.8.e.h.h.<.2.2.x.%.t = 6 6 O o X X . . @ . @ @ j vXvXcXkXcXkXkXgXQ.R.R.E.E.W.W.W.W.W.W.W.W.W.E.W.W.E.W.W.E.W.W.E.W.W.W.E.~.'.'.).~.~.'.].].].].].].].].].].].].].'.'.'.].]._.~.E.E.W.R.R.R.].iX].Q.E.W.W.W.W.E.R.W.R.R.gXvXcXNXiX!.!.!.Y.!.Y.j @ $ $ X a XXm.b.b.q.c.9.v.=X=X=X=X=X6X=X=X4X*XZ.C.F.C.f.p.u.d.w.l.N.l.k.N.l.l.d.w.u.w.p.r.e.1.N.[ ^ _ _ l.l.l.u.u.u.u.u.u.s.u.u.u.w.w.w.r.r.<._ [ O.( Z ! p s & X . .                                                                 ",
"                                                                            6.m.XX+._ u A Q [ F.F.A.B.1.j.3.j.j.1.k.l.e.k.l.j.e.r.q.q.&.t 3 t 6 & O o X . X . @ @ @ g xXhXhXcXjXhXhXaXQ.E.Q.E.W.W.Q.E.E.W.Q.E.Q.W.W.Q.W.W.Q.W.W.W.W.W.E.~.W.R.).'.).].~.Q.).iX].'.iX].iX].].iX'.Q.~.Q.).].).'._.'.~.E.R.R.R.R.R.].].'.E.E.E.E.W.E.E.E.Q.E.Y.kXcXvXvXiX!.!.!.(.Y.(.j $ $ X O i m.m.x.c.q.s.g.D.&X6X4X4X6X6X4X4X9XwXD.G.G.A.A.B.u.8.u.l.0.l.d.u.d.d.u.u.t.p.0.e.l.p.N.[ ^ ^ { k.l.u.u.u.u.s.u.u.u.d.u.u.u.e.l.e.j.<.] ] #...Z Z p s & X . .                                                                 ",
"                                                                              oXoXx.~ Q ^ Q ] C.F.C.N.1.1.e.h.N.1.k.k.e.e.e.e.e.i.i.i.2.u 4 4 3 = % % O o X @ @ @ @ g zXjXxXfXzXfXxXgX!.R.E.R.W.W.W.W.W.R.E.W.R.Q.W.Q.Q.W.W.W.Q.W.W.Q.E.W.W.E._.'.].].).Q.).].].].iX].].].].].].W.E.E.~.].'.]._.'.'.Q.R.R.R.R.R.'.].].W.E.W.E.W.Q.E.E.W.R.Y.kXNXvXNXiXY.!.!.(.Y.T.g @ X O % p m.b.c.c.9.g.a.S.-X6X4X4X6X5X&X-X1X6XZ.S.S.F.*XA.s.d.d.d.B.d.u.u.t.s.s.s.t.w.0.w.w.0.k.{ [ { >.e.e.u.l.u.u.u.u.u.u.d.u.w.l.k.l.1.3.:.] ] O...Z ! p a % X . .                                                                 ",
"                                                                              {.6.%...~ ! A [ C.A.B.k.1.0.k.1.j.r.e.e.r.e.w.0.u.e.r.r.{ Z u 4 4 2 = = * & X . . @ # < [./.[.[.|.}.|.pX`.W.W.W.~.).~.E.~.~.~.Q.~.Q.W.W.Q.W.Q.W.W.W.W.W.E.W.W.E.Q.Q.W.Q.Q.Q._.].].iX].].].].].].iX~.E.W.Q._.~.~.W.Q.Q.E.R.E.R.R.W.'.].'.W.R.W.W.W.W.E.W.W.W.E.iXaXpXpX`.Y.!.Y.d : , $ + r 6 6 | x.x.2.c.d.g.g.D.8X6X5X5X1X1X>X>X7X0XH.D.S.D.F.v.7.s.s.t.B.s.f.A.C.C.s.9.8.8.u.l.u.k.l.0.u.l.0.l.l.u.u.u.u.u.u.d.u.e.u.u.l.,.>.[ [ _ ( _ X.~ Z ! p p % X . .                                                                 ",
"                                                                            h - & 3 #.c.d.i.2.>._ _ Q _ ,.,.e.0.j.j.h.h.k.w.0.e.j.j.r.>._ _ ! ! ~ ~ ..| i o + # . . @ @ @ @ @ @ @ $ g pXpXgXiX`.pXaXaXgXpXaXpX'.W.W.Q.W.W.Q.Q.W.Q.W.W.W.W.Q.E.E.W.E.R.W.Q._.'.].].).W.W.~.~.Q.Q.Q.E.W.W.W.W.E.R.E.E.R.R.E.R.R.R.Q.Q.W.E.R.W.E.E.W.W.~.Q.W.Y.Y.Y.R.Y.Y.R.Y.j : @ @ X - 6.%.&.m.XXb.M.A.A.G.Z.S.5X9X1X1X7X1X;X;X>XP.&X:XH.H.K.S.Z.A.C.f.C.v.F.*XG.*XC.t.s.t.u.u.u.u.l.u.N.B.w.l.l.u.k.u.u.u.u.u.d.u.d.N.d.>.[ ] ] Q Q ( ( ~ Z p p i O X . .                                                                 ",
"                                                                            y O % = x.n.c.p.i.>.A ^ A ^ ,.8.u.w.l.j.r.h.k.w.0.w.h.j.j.,.{ { ] X._ ( X.~ p % O o X + # . # . @ . @ @ g fXuXpXaXaXaXpXaXaXaXcXcXaXE.W.~.W.W.W.Q.W.Q.W.W.Q.W.Q.W.E.E.W.E.Q.W.~.].iXiX).E.W.Q.W.W.W.E.E.Q.E.R.E.E.R.R.E.E.E.R.E.E.R.R.R.R.E.E.W.E.E.E.E.W.E.E.W.Y.Y.Y.Y.j Y.T.T.: @ o O 3 %.%.%.&.M.b.n.G.4XG.S.%XwX5X5X>X1X>X-X-X>XJ.U.U.L.2X6XH.S.F.Z.g.f.v.*X*X*X=Xv.9.f.s.t.t.u.u.u.u.u.N.0.u.u.u.u.u.u.u.d.u.u.d.d.l.d.,.{ :.[ ( ( ( ( ~ p u i i O . . .                                                                 ",
"                                                                              o % * @.n.p.N.p._ Z Q A _ { 8.7.u.u.e.r.r.e.h.0.0.1.h.h.>.] _ _ _ ( ^ X.~ p = * % O o o o + . . @ . @ f fXsXjXfXfXzXjXhXxXvXxXgXpXR.E.Q.E.W.W.Q.W.W.W.E.W.R.E.W.W.E.W.E.W.E._.].].].~.W.W.Q.W.W.Q.Q.W.Q.E.E.W.E.E.E.E.E.E.R.E.W.E.E.R.E.W.E.R.R.W.E.E.W.E.Y.Y.Y.Y.j T.T.j k T.# + O & t #.#.#.&.b.g.g.v.S.9XwX&X3X5X5X1X1X>X-X-X>X7X2XL.L.:XL.S.v.V.v.a.a.g.K.K.6X=Xg.7.7.9.t.t.u.u.d.l.l.l.u.u.u.u.u.u.u.l.u.l.u.u.d.u.p.>.{ >.{ _ ( ( ~ ~ u u i t o . . .                                                                 ",
"                                                                              X O * @.b.q.r.r.{ _ _ ] t.s.v.f.v.t.w.r.1.h.h.0.w.e.e.h.3.[ ] [ [ ] ^ _ ~ ..! u 4 3 3 * % O O X . @ . : g g g g g j g j j j T.vXaX`.).'.~.'.).`.).).`.).].).'.~.E.E.W.E.W.E.~.].~.~.Q.~.Q.Q.W.Q.Q.Q.W.Q.E.E.E.W.W.E.E.E.E.R.R.R.E.W.E.R.E.Q.Q.Q.~.!.!.).Y.Y.Y.Y.Y.j k T.k k k > & 3 t | O.X.X.M.=XD.D.&X2XL.K.4X4X&X5X5X1X>X,X>X>XJ.L.L.U.:XL.H.D.D.S.S.Z.Z.F.G.<X=XS.g.a.f.f.d.t.u.d.u.u.u.u.u.u.k.k.k.k.u.u.u.u.u.d.d.N.>.[ >.:.( ( ( ~ ~ u p i i O X . .                                                                 ",
"                                                                              X O % %.#.+.,.2.>.>.{ ,.G.=XG.<XZ.8.w.0.h.h.h.w.u.e.h.1.1.<.<.5.3.1.>.2.>.q.q.#.~ ~ ~ p 4 6 r 6 X X . @ @ @ @ . @ @ @ @ @ @ d zXhXcXgXkXkXkXgXgXkXkXkXkXvXvXvXiXW.E.E.W.~.W.W.~.W.Q.E.Q.W.W.Q.W.W.W.E.W.W.Q.E.E.E.E.E.E.E.E.E.R.R.E.R.R.Q.pXgXgXaXgXgXpXR.j g g , : < : , $ - a i  .%.#.O.{ +.C.4X3X1X-XP.L.L.=X<X&X-X5X>X:X:X>X>XU.U.:X2XU.J.U.U.H.H.L.<XD.g.v.v.v.G.6XK.*XF.A.s.t.d.u.u.u.u.w.u.u.u.u.u.u.u.k.u.u.u.0.l.,.>.2.:._ ( ( ..! p p i i o X . .                                                                 ",
"                                                                              X o % ..q.2.>.1.>.{ >.+.F.=XK.K.F.s.8.0.e.1.h.1.0.h.h.h.h.h.h.h.e.j.i.r.r.p.p._ Q X.~ ~ t p i 6 O o X X . . @ . . @ . . @ @ d zXfXhXkXgXkXgXgXgXhXgXhXgXcXcXcXiXE.E.Y.E.E.W.E.Q.W.W.W.W.W.W.W.W.W.W.W.W.E.E.W.W.E.R.E.E.R.R.R.R.E.R.R.E.W.pXaXgXaXgXaXaXj g j f $ $ . $ @ + + a p | &.#.+.O.{ A.=X5X;X;X-XJ.&XL.<X&XP.-X-X>X-X-X-X:XU.&XP.P.P.P.P.U.:X:X>XH.g.g.g.g.H.L.L.G.*XC.s.s.u.f.w.u.u.u.u.u.l.u.u.u.l.k.e.l.u.k.l.>.>.+.{ _ Q ( ( ! p p i i O X X .                                                                 ",
"                                                                              + o & o.#.>.>.>.{ [ >.t.F.=XK.<X*Xf.7.8.k.,.w.0.1.1.h.h.h.h.5.h.h.h.e.r.r.i.r.( A ( _ ~ u u t 3 % O o o + X . . . . @ @ . @ f lXfXfXhXhXhXgXgXfXfXfXfXaXgXhXvXiXY.W.Q.W.W.!.E.W.W.E.W.W.W.W.W.W.W.W.W.W.E.E.E.E.E.E.R.E.R.R.R.R.R.R.R.R.Y.iXpXpXiXaXaXpXj d g g > + ; . $ & - 6...@.#.O.O.+.+.A.4X5X-X;X-XJ.J.L.L.&X-X-X>X>X>X-X-X-X-X-X-XP.P.P.J.J.&XL.L.D.a.9.9.9.S.L.H.F.K.Z.s.t.u.d.w.u.w.e.l.u.u.u.u.u.k.k.e.k.k.z.z.>.{ 2.+._ _ ( / ~ p p a a o X . X                                                                 ",
"                                                                                o O o.#.#.{ ] 8.w.8.t.C.A.F.G.S.a.9.7.8.0.w.,.1.0.h.h.h.1.h.1.h.h.i.k.i.p.i.] ( ( ] Q u u t 3 * % O o o o o o X . X . . + f |.sXsXsXsXfXsXsXdXdXfXsXpXsXaXpX`.(.(.Y.Y.W.R.E.W.E.E.W.E.E.E.E.E.E.W.W.W.E.E.E.E.R.R.R.R.R.R.R.R.R.R.R.Y.).pXpXpXaXpXsXpXj g j r - % O & O % = %.&.#.@.+.2.+.+.F.K.&X-X-X;X-XP.L.L.&X-X-X>X>X>X>X>X-X-X-X-X-X-XP.J.P.>XU.U.H.Z.S.S.D.H.U.J.L.=Xv.s.t.f.u.u.u.w.w.u.u.u.u.u.e.k.k.e.k.k.z.z.>.>.+.>.( _ ( ~ ~ p i a y X X +                                                                   ",
"                                                                                  6 @.%.2._ +.d.F.F.*XA.7.+.7.a.v.A.f.f.B.u.,.1.0.h.h.h.h.h.h.h.1.h.h.r.r.i.>.{ r.i._ Q ~ ! p t t i i r r r - o o + X + X . $ # $ $ $ : ; $ ; ; : : : : : : d j (.aXpXpXiXpX].iX].].].].].].].].].uX].`.`.`.`.`.)._.'.`.`.).).).`.pX).g < < : : : : : $ $ - i r 3 t a i i  .&.O.#.c.n.7.9.9.S.6X&X-X;X-X-XJ.U.U.&X-X-X-X>X>X>X-X-X-X-X-X>X>X-XP.J.U.L.>XU.L.9X9X2XH.J.H.:XL.v.f.s.f.t.u.u.w.w.u.0.u.u.e.e.u.k.u.u.u.e.k.>.>.,.>.X.Q ( ..! 3 3 & + +                                                                       ",
"                                                                                    %.%.O.] O.B.F.G.*XC.{ 7.7.a.F.4X*X=XG.u.l.0.w.u.e.e.j.h.h.j.j.j.j.h.j.z.j.i.N.z._ Q ( ..~ ! ..| o.|  .o.r % O o X X X X . . . @ @ @ @ . @ . @ # @ @ @ @ @ @ k NXNXvXjXvXkXcXcXcXcXkXkXkXkXjXkXcXcXkXkXhXkXgXgXgXkXkXgXgXgXgXkXvXaX: @ @ @ @ @ @ @ @ @ & $.%.%.m.XXm.m.b.c.q.+.@X=X@X*XG.&X4X&X>X>X>X-X-XU.U.P.P.-X-X-X-X-X-X-X-XP.P.-X>X>X>XJ.P.P.>X>XU.U.P.>XP.9XH.L.<XS.F.f.f.8.u.u.u.u.k.u.u.e.e.u.u.u.u.u.u.e.k.,.,.2.>.X.~ ....s * % o X                                                                         ",
"                                                                                      o.@.#.+.t.F.*X=XG.9.a.{ { v.=XG.=XG.7.8.8.w.u.k.e.e.h.j.j.h.h.j.r.h.h.j.h.h.5._ Q Q ( ( ~ ~ ! ~ | |  .t * O O O o o o X X . X . . . . . . . @ . . @ @ @ @ g zXxXfXaXhXgXgXaXaXaXaXaXaXaXgXaXgXgXgXaXaXaXaXaXaXaXaXpXaXgXaXgXaXuX$ @ @ @ @ @ . @ X + 6 $.%.&.x.m.m.c.@.9.n.9.F.4X4X&X&X9X5X-X-XU.U.P.P.&XP.P.P.P.-X-X-X-X-X-X-XP.P.P.>X>X>X>X>XJ.U.U.>XP.P.J.J.U.H.H.K.Z.F.F.B.t.u.w.e.k.e.e.y.e.e.u.w.u.u.w.l.k.k.>.>.>.>._ X...~ s = O + X                                                                         ",
"                                                                                      | @.x.#.f.A.K.=XZ.{ +.{ 7.Z.6X=X=X*X9.7.s.t.u.u.k.e.h.h.h.j.j.j.j.z.h.j.h.h.5.] Q A Q A A Q ! ~ ~ | | t * % % % O O o O o o o X X X X X X + . . # @ . . @ g mXlXxXNXzXfXfXjXhXhXfXfXfXjXxXxXxXxXxXxXxXlXfXlXxXxXjXfXxXNXjXlXfX}.@ . + o o X X X + o % o.@.@.b.#.c.&.#.g.+.a.S.4X&X9XJ.H.1X-XU.:XU.&XP.P.-XP.P.P.-X-X-X-X-X-X-XP.P.-X-X-XP.>XP.J.P.J.>XU.7XP.J.H.>X:XL.A.F.F.f.s.u.u.e.e.h.e.e.e.e.e.u.u.u.w.l.u.i.>.>.>.>.~ X...| s % o X X                                                                         ",
"                                                                                    r 6 s #.7.v.G.G.K.G.S.K.Z.v.Z.F.G.*XF.9.9.g.s.s.s.u.k.e.h.j.h.h.j.j.j.h.j.h.h.h.:.) ^ ) ) ^ ^ _ Q Q ! ! ! 4 4 3 3 3 3 * & & & & % % O O % O O o + X . . @ @ d sX|.sX X|.sX|.|.uX|.uXuX|.|.|.|.|.|.|.|.|.|.|.}.}.}.}.}.|.sX}.}.}.k # X + o % O o O O & 3 | #.7.+.9.+.#.a.S.D.G.S.wXH.D.J.8X-X>X:X:XU.L.P.-X-X-X-X-X-X-X-X>X>X-X-X-X-X-X-XP.J.7X>XU.2XP.U.J.>XJ.>XJ.L.H.K.C.f.C.8.t.w.w.e.e.1.e.0.e.k.u.w.u.u.u.l.w.i.2.2.2.>._ ~ .. .s O +                                                                             ",
"                                                                                    i % t &.+.v.F.S.G.6X&X6X6X6XS.7.7.g.4X=XH.<XC.s.s.u.u.e.l.h.e.h.h.h.k.e.h.j.j.j.h.5.1.3.3.3.3.5.<.( Q X.~ ..X.....~ ~ | ..|  .| | p p p p i i a - o X X . . @ @ @ # @ @ @ @ @ @ @ # @ @ @ @ @ @ @ @ @ @ @ @ @ @ @ @ @ @ @ @ @ . . o 6 h h h s |  . .| @.&.x.+.8.+.>.+.b.4X4X6X6X1X;X;X;X;X;X7X>XU.U.:X>X-X-X>X-X-X-X-X-X-X-X>X-X-X>X>X-X>X7XJ.0X>XJ.U.9XH.J.-X-XU.D.6X=Xa.7.7.8.8.u.u.e.h.h.e.u.e.0.w.u.u.0.u.l.i.i.{ >.>.O.X.~ ! s r O                                                                               ",
"                                                                                    y O t 6.&.v.A.C.S.&X&X-X:X6Xv.7.7.g.6X6X&X6XZ.a.a.t.u.w.l.l.k.k.k.e.e.e.h.e.h.h.h.h.j.5.5.5.j.z.3.( ^ _ ( _ _ ( ( .._ ( X.~ ....~ Z Z Z ! ! p s 3 % O X . . @ . @ . . . @ . @ @ . @ . @ . @ . @ . @ . @ . . . . . . . . . . . X X O 6 o.o. ...........%.x.7.+.,.,.>.+.c.=XwX4X6X1X;X;X;X;X8X7X>X:XU.:X>X;X-X>X-X-X-X-X-X-X-X-XP.P.-X-XJ.P.>X>X>XJ.P.P.>XP.>X>X>X2XH.=XG.s.8.t.t.u.u.k.e.e.e.0.k.u.0.w.w.0.8.8.r.r.>.Q ( ( ( ~ ~ 4 * O o                                                                               ",
"                                                                                      + 6 6.x.n.C.f.S.&X5X8X9X0XS.a.a.V.wX0X8X0XV.9.a.s.s.t.w.w.w.w.u.u.w.e.e.e.e.h.h.5.h.5.j.5.5.z.3._ ^ _ ( _ _ ( ( _ ( ( _ ( _ ( Q Z Z Z Z ! u p 3 * % O o + + X @ X . . . . . . . . X X . X X X X X o o o o o o X X X X X X o O O % 6  . .| ~ ~ ~ ! Q #.2.+.+.,.2.2.2.c.*X=X4X:X>X;X;X;X;X;X>X>XU.U.:X>X;XI.>X-X-X-X-X-X-X-X>XP.P.>XI.P.P.>X0X-XJ.7X&X&X&X2X6X&X&X<X4X*Xf.8.t.w.u.u.u.e.e.e.0.u.u.0.k.0.1.1.{ { ,.{ ( _ ( Q ~ ..4 % O o                                                                               ",
"                                                                                      X 6 6.x.b.A.C.=X&X5X5X1X-XH.V.g.V.&X9X8X8XS.a.a.a.9.t.t.u.t.t.u.u.w.k.k.e.e.e.h.h.h.5.5.5.5.j.<._ ^ _ ^ ( _ ^ ( _ ^ Q ( ) ( ( ( Q A A A Z Z Z 4 = * % O o O X o X X X . . . . X . X X X O o O O O O O O O % O O O O O O O O O % * 6 | | ! ~ ~ Q A Q +.c.t.8.t.q.+.+.n.wX4X:XU.>XI.;X;X;X>X>X>X>X:X>X>X;X;X>X-X-X-X-X-X-X-X>X>X>X>X>XP.P.>X7X7XJ.-XU.:X&X:X6XD.v.v.v.B.u.8.w.w.w.w.e.e.e.e.w.u.u.0.k.r.r.r.{ { i.2._ ( / / ~ ..6 % + X                                                                               ",
"                                                                                      X - 6.m.n.A.Z.K.H.wXeXeX5X0XH.H.J.0XeX0X0XH.V.V.V.v.C.C.C.A.f.s.u.u.k.k.h.e.k.j.j.h.5.j.j.j.j.h.:.:.>.{ { { { >.>.] ( ` ` ) ` ` ` ( ( / / / _ ~ ! s s s s i - & O + X . X . . + X o O - 6 6 t t i i i p p p p s h  . . . . . . .| ..#.@.O.#.O.O.] O.B.G.F.S.F.A.n.n.S.0XJ.:XU.P.>X>X>X>X>X>X>X>X>X>X>X>X>X>X>X>X-X-X-X-X-X>XP.I.>XP.J.J.I.H.P.V.V.D.6X&XJ.9XS.a.9.+.8.w.u.u.k.k.k.e.e.w.w.w.w.w.0.e.r.h.z.{ ^ _ _ ( _ ( ( ! | 6 O o X                                                                               ",
"                                                                                      . & %.m.b.n.9.9.v.4X5X5X5X0X8X0X9X5X5X5X1X0X&X0X9X4XeX=X=X*XC.s.t.w.k.l.h.e.k.l.j.h.h.j.j.j.j.j.j.z.N.z.N.p.N.N.z.:.` ) ) ) ` ` ` ( ' X.` ` _ _ ~ ......o.s = % O O X . X . . X o O & i s s | | ! ! ! p s | | @.x.m.m.m.x.m.x.x.x.x.q.&.2.c.c.q.2.t.G.wX4X6XwXwX4X=XK.>XJ.>XU.U.U.>X>X>XU.U.>X>X>X>X>X>X>X>X>X>X>X-X-X-X-X-XP.I.>XP.J.J.;X7X7Xg.a.D.0X9X6X6XD.a.s.t.u.u.u.k.k.k.k.k.k.e.w.w.w.w.0.1.h.h.r.] Q Q Q Z A A ~ ! | r O + +                                                                               ",
"                                                                                      X - 6.M.M.M.a.+.a.wXwXwX5X5X-X8X8XJ.>X9X0X0X5X6X&XK.wXK.4X=XC.t.t.w.u.l.e.e.k.k.e.h.5.h.5.j.j.j.z.z.z.z.N.p.N.N.N.:.` ) ` ` ` ) ` ) ' ` ` ' ` _ ( X...X.O.~ 1 = % % o . . X X X o O % p s p Z Z Z Z ! ! Q ! ~ #.b.b.c.c.x.c.x.q.c.q.2.>.2.s.c.t.8.t.G.6X-X-X5X4X=X4XL.7X7XI.U.U.U.:X>X:XU.U.-X>X>X>X>X>X>X>X>X>X>X-X-X-X-X>X-X>X>XI.J.P.>X>XJ.a.a.S.&X&XJ.4XF.7.9.t.u.k.0.e.e.e.e.k.k.k.u.u.w.0.u.1.h.3.:.` ^ Q Q Q ~ Q Q ! | 6 o X X                                                                               ",
"                                                                                      X + $.m.m.b.c.#.a.4XwXwX3XeX8X8X0X1X0X9X5X0X9X0X6X5XeXH.4X=Xv.9.t.u.u.k.h.e.e.e.e.j.j.j.j.h.h.h.l.l.k.l.l.l.l.z.z.:.) ) ` ) ) ^ ` ) ` ^ ^ ) ) ` ( X._ _ ..! 1 1 * % o o X X X o % * = p p Z Z Z A Z A Q Q ( _ 2.n.p.q.c.c.c.i.c.i.q.2.,.8.9.9.t.7.9.S.:X>X>X9X4XK.6X>XI.P.>XU.U.U.U.>XU.P.&X-X>X>X>X>X-X>X>X>X>X>X-X-X-X-X-X-X>X>XI.J.P.>X>XJ.v.Z.H.<X4X<X4XG.9.s.t.u.k.e.l.k.k.e.k.k.u.w.u.w.0.l.,.h.<.] ^ _ Q ( Q Q ! ~ ! s 6 O X .                                                                               ",
"                                                                                        - 6 6 s x.&.@.a.*X6XeX5X8X8X1X>X>X;X8X8X8X-X-X1X9X&XJ.&XH.V.f.C.C.C.w.w.k.e.l.1.h.h.h.j.h.e.k.l.l.k.k.k.k.l.j.1.>.[ [ [ [ [ [ [ :.' ) ' ) ` ` [ ] Q ( ] Q u 4 t t 3 O o o o i p u t ! A Z A Q A ( [ [ { >.,.1.i.N.p.p.d.p.B.B.p.n.8.t.C.A.S.A.Z.S.G.:X>X-X-X&X&X&XU.P.P.U.U.:X:X:X:X:XU.&X-X-X-X-X>X>X>X>X>X>X>X>X>X>X>X>X>X-X-XP.P.-X-XP.>X&X:X6XS.v.v.A.v.a.s.u.t.u.w.u.u.k.k.k.k.k.u.u.l.w.,.e.r.1.[ Q ( ( Q ! Q ! ! !  .6 O + X                                                                               ",
"                                                                                        h o & = %.x.#.a.4X6X5XeX8X1X1X2X>X;X8X8X1X1X5X-X>X9X1X-X:XH.K.=X*XF.t.w.w.1.h.h.N.N.j.h.h.e.k.j.k.k.k.u.0.e.l.z.j.j.j.z.j.z.N.N.N.:.) ^ ^ ^ Q Q / ( ` ( ( ( _ X. .6 % O O & h | | ~ Q A A A A A [ 5.1.h.r.j.z.z.z.z.p.p.p.d.d.p.f.s.f.=X=X4XwX6X6X9X0X1X>X-X-X-XU.U.U.U.U.U.:X:X:X:X&X&X&X&X-X-X-X-X-X>X>X>X>X>X>X>X>X>X>X-X-XP.P.P.P.P.-X>X:X:X4XZ.g.g.v.f.t.t.t.t.t.u.u.u.u.u.u.u.u.e.w.l.l.e.j.r.3._ Q ( ( Q ~ ~ ..| |  .r o +                                                                                 ",
"                                                                                          & O 6 &.&.@.9.4XeXeX3X8X8X1X2X2X>X8X8X8X1X>X-X-X1X>XP.9X<X6X<X*XF.7.8.u.0.k.k.N.N.e.h.h.e.k.e.e.k.k.k.e.e.k.j.z.z.z.j.z.j.z.5.5.[ ) ) ` ^ ) ) / ( ( / ( Q _ ..~ t % % % % p p Z Q A A A A Q A [ 5.3.1.h.z.z.j.z.z.l.p.p.i.d.f.d.t.t.*X4X4X4X4X:X6X5XJ.>X>X>X-XU.U.U.U.U.U.U.U.U.U.U.U.-X-X-X-XP.;X-X-X>X>X>X>X>X>X>X>X-X-X-XP.P.J.J.J.J.-X&X<X=Xv.a.9.f.Z.A.A.A.C.u.u.u.u.u.u.u.u.k.k.w.w.h.1.3.r.1.] Q ( ( / ! ! | u 6 i 6 o                                                                                   ",
"                                                                                          o O 6 %.%.#.a.&XwXeXeX8X8X1X2X>X1X8X8X9X-X-X1X7X-XP.P.:XH.L.K.*XF.7.9.t.w.u.u.w.0.w.k.h.e.k.e.e.k.k.e.k.e.e.j.j.j.j.5.z.j.z.5.3.' ^ ^ ^ ^ / ^ / / / ` ` ^ _ ~ ..u * * * = s | ! Q Z A A A A A [ 5.<.3.1.r.h.h.e.r.r.i.p.w.t.s.9.a.t.=X4X&X&X&X&X5X1X>X>X>X>X>XU.U.U.>XU.-XU.>X:XU.U.U.-X-X-X-X-X-X-X-X>X>X>X>X>X>X>X>X>X>X-X-XP.P.P.J.P.2X:X4X4XV.a.a.s.F.*XG.*XA.t.8.w.w.u.u.u.u.k.k.k.w.l.k.r.z.i.] Q ( ( ~ Q ! | t % & o                                                                                     ",
"                                                                                          X & & $.%.@.9.wXwX3XrX8X8X1X:X:X5X5X1X1X-X-X7X7X>X>X>XP.J.6X6X4XF.7.+.7.7.8.t.8.8.u.w.w.k.k.e.e.e.j.e.k.k.e.j.j.j.j.j.j.h.j.5.3.' ) ^ ^ ` ^ Q ^ Q ^ / ^ / ` ( ..u 1 = = = Z ~ A A A A A Q A A [ 3.3.5.j.j.j.z.z.e.r.u.p.u.s.s.9.g.a.D.4X4X6X6X5X1X7X;X;X;X>X>XI.P.U.>X>X>X>X>X>X>X>X>X>X>X>X>X>XI.I.-X>X>X>X>X>X>X-X>X>X-X-X-XP.P.P.J.&X>X:X4X<XV.s.s.f.F.G.F.F.A.u.u.u.u.u.u.k.k.u.u.k.0.k.1.{ >.>.( Q ( ( ( ! |  .6 O X $                                                                                     ",
"                                                                                          & O & $.%.@.7.wXeX3X3XeX8X1X:X:X4X5X5X5X1X>XP.P.>X7X>XP.>X6X6X&XD.g.g.v.v.f.C.C.A.B.8.w.u.k.u.w.e.e.e.e.e.j.h.h.1.h.h.1.1.h.h.5.3.3.5.<.5.3.3.<.` ^ ) ^ ^ ) ^ _ ! Z Z Z u Z Q Z / >.:.[ :.:.:.:.<.<.5.1.3.3.r.k.k.p.B.A.G.*X*XF.K.S.H.5X5X6X1X-XP.-XP.;X;X>X>XI.I.>X>X>X>X>X>X>X>X>X>X>X>X>X>X>X>X>X>X>X>X>X>X>X>X-X>X-X-XP.P.P.P.J.J.&X:X:X<X=Xv.a.a.v.F.G.F.G.F.s.u.u.u.e.u.k.u.u.u.e.0.r.{ Q ( _ Q ( / ( ~ ! |  .6 + . @                                                                                     ",
"                                                                                          X % & $.%.+.9.=XwXwXeX8X8X1X>X:X:X5X1X>X7X>XJ.J.>X;XP.J.>XJ.>X:X:X&X9X4X4X*X4X=X=XF.t.t.u.d.u.w.k.k.h.h.e.e.h.5.h.5.j.h.1.j.h.j.1.h.5.:.:.:.5.<.) ^ ^ ) ) ) ` [ ` ( X.X.( Q ( A ' 5.5.h.1.1.h.h.j.3.3.1.8.1.w.d.d.B.A.F.=X4X4XK.9X:X0X0X9X1X1X-X;X8X8X;XI.I.I.>X>X>X>X>X;XI.I.>X>X>X>X>X>X>X>X>X>XI.>X>X>X>X>X-X-X-X>XP.P.P.P.U.U.P.P.>X9X6X6X4XZ.g.g.a.Z.G.G.G.F.8.8.0.w.w.u.k.k.e.e.e.e.l.,.^ ( ( Q ( / _ ~ ~ ~ o.r + . $                                                                                     ",
"                                                                                          X O & o.%.@.O.@XwX5XeX8X8X1X:X:X:X5X6X-X-X-X>X>X>X;X;XP.>XP.0X1X1X1X6X&X6X:X6XK.K.F.a.s.s.d.u.u.l.p.u.h.e.e.e.h.h.h.h.j.h.h.1.1.1.h.1.[ Q ^ ` ) ^ ^ ) ) ) ) ' ` ) ) ' ( / Q ^ Q [ 5.j.h.1.1.h.<.<.3.1.0.0.8.8.t.t.t.s.C.G.4X6X:X6X&XJ.1X-X-X;X-X;X;X;X;XI.I.I.>X>X>X>X>X;XI.I.>X>X>X>X;X;X-X-X>X>XI.>X>X>X>X>X-X-X-X>XP.-X-X>X>XU.U.U.P.>X:X:X<XV.a.a.g.Z.*XG.G.A.s.d.u.u.l.l.l.k.e.e.l.r.r.:.Q ^ / Q / A ( Z Z p p - o . #                                                                                     ",
"                                                                                          X o &  .#.@.O.*X*X4X%X1X9X0XL.L.2X:X1X1X>X>X>X>X>X>X>X;X-X-X;X>X>X1X9X7X7X1X1X0X9XD.a.a.f.s.t.8.u.t.u.u.0.1.e.h.j.h.h.j.h.e.0.j.h.h.h.] Q A A Q ^ ^ ) ^ ' ) ) ` ` ` ` ` ) A ^ ^ 3.j.z.0.h.1.0.,.,.3.1.0.8.8.s.s.a.a.a.V.K.0X6X-X9X8X;X8X8X8X8X8X;X;X;XI.;X>XI.I.I.I.I.7X;XI.I.>X>X>X>X>X>X>X>X>XI.P.P.>X>X>X>X>X>X>X>X>X>X>XP.P.U.P.J.9XJ.6X6X<XZ.g.g.V.F.*X*XF.F.f.d.l.l.d.u.l.N.k.0.h.l.z.3.( ( ( Q A ( A Z Z ! p - o X ;                                                                                     ",
"                                                                                          X + %  .@.O.#.F.A.V.D.5X1X9XL.U.2X&X1X>X>X>X>X>X>X>X>X>XI.;X;X;X;X1X8X8X8X8X1X7X1XD.v.g.V.v.g.f.C.f.8.u.w.w.k.1.h.h.h.h.h.h.1.h.1.1.1.[ ^ ` ) ) ` ) ` ) ` ) ) ) ` ' ' ) ` ` ' ' 1.h.e.e.k.0.w.,.,.,.>.+.7.t.v.A.A.S.S.D.&X5X1X1X;X;X;X7X;X7X;X8X;X;X;XI.I.I.I.I.I.I.I.>X;XI.I.>X>X>X>X>X>X>X>X>X>XI.I.-X>X>X>X>X>X>X>X>X7X>XU.U.>XU.P.0X>X:X&X<XH.G.=X=XF.g.g.s.s.t.t.u.u.l.u.k.k.,.{ >.1.r.>.Q Q / Q ( ..! ..Z p t % o . #                                                                                     ",
"                                                                                          . + &  .&.#.O.q.f.9.S.6X6X2XL.U.>X-X1X>X>X>X>X>X>X-X>X>X>X>X>X-X1X8X8X8X8X8X8X8X0X>XD.J.6X<XG.*X=XG.t.8.0.0.0.,.e.k.l.e.e.e.h.h.h.h.h.1.,.h.h.3.5.5.5.:.' ` ' ` ' ` ) ` [ 5.5.<.z.k.w.1.0.,.,.,.B.G.G.G.G.G.*X6X<X<X6X6X1X-X-X;X;XI.;X;XI.;X;X;X;X>X>X>XP.P.P.I.>X>XI.>XI.I.I.>X>X>X;X>X>X>X>X>X>X>XI.-X-X-X>X>X>X>X>X>X>X>XU.U.>XU.P.J.-X&X9X9X9X4X6XwXS.7.9.s.t.t.u.u.u.l.l.N.l.>.] [ >.>.[ Q ( / Q ~ Z Z | s s t O o #                                                                                       ",
"                                                                                          + X & s %.#.c.c.c.+.v.4X4X:XL.U.>X-X1X>X>X>X>X>X-X-XP.P.>X>XP.-X1X8X8X8X;X8X8X8X0X0X7X2X9X4X4X4X=XG.9.t.t.u.d.k.k.h.h.e.h.h.0.1.h.h.h.1.1.j.j.1.j.z.N.:.) ` ' ) ' ) ) ` [ z.j.r.N.u.w.u.u.0.8.8.C.*XG.K.<XK.K.4X:X6X0X1X7X>XJ.;X7X;XI.I.I.>XI.>X>X>X>X>XP.J.P.>X>X>XI.I.I.I.I.>X>X>X>X-X>X>X>X>X>X>X>X-X-X-X-X-X-X>X>XU.U.U.U.P.U.P.P.J.2XD.D.S.K.K.=X=XA.7.s.f.u.u.u.u.w.k.u.l.l.>.] { <.>.] ( ( / ! ~ X.! s s | i O o X                                                                                       ",
"                                                                                          # X O s %.#.&.#.c.c.g.=X4XL.U.U.U.:X>X>X>X>X>X>X-XU.U.U.>X-XP.-X1X8X1X8X-X;X8X;X>X>XI.>X:X:X6X9X4X=Xa.9.9.8.u.w.u.h.e.e.e.h.0.1.h.h.1.h.0.h.h.1.j.j.z.:.) ' [ ) ` ) ` ) ' h.1.w.u.u.u.d.u.8.7.7.Z.<X<X<X0X:XL.2XJ.H.J.P.>X>XP.>X7X>X>XI.I.I.I.-X-X-X>X-XP.J.P.>X>X>XI.-X-XU.,X:X:X:X:X>X>X>X>X>X>X>X>X-X-X-X-X-X-XU.U.U.U.P.U.>XU.P.P.U.2XS.V.g.G.4X4X=XF.t.t.u.0.e.k.l.u.k.w.k.k.>.] :.1.3.[ Q Q Q Q ! | p p h h h X X .                                                                                       ",
"                                                                                          X X o h %.%.m.&.&.7.b.K.4X<XL.:XU.:X5X1X>X>X>X-X-XU.U.:X:XU.-X-X1X1X5X7X-X>X7X>X7X7XI.7X2X:XU.:X9XK.a.9.9.9.t.8.w.k.l.e.k.e.h.1.h.h.h.h.1.1.h.h.h.j.h.>.) ] ] ' ' ) ` ` [ z.l.d.u.t.t.8.t.8.9.9.Z.L.J.H.U.L.U.2X:X>X>X-XP.-X7X7XP.J.7X>X>X>XI.>X>X>X>X-X-XP.P.>X>X>X>XU.>X>X>X:X:X:X>X>X>X>X>X>X>X>X>X-X-X-X-X-X-XU.U.U.P.P.U.U.P.P.L.H.U.G.G.v.A.F.C.A.C.8.t.w.k.k.k.l.u.l.k.l.z.<.{ :.3.<.[ Q ( ( Q ! | | 3 O o ,                                                                                             ",
"                                                                                              y y h  .@.&.q.&.c.@X4X<X<X:X:X6X-X1X1X>X;X-XU.:X:X2X:X:X>X5X5X5X1X6X:X2X2X2X7X0X>X7X2X>X>X&X6XK.V.v.A.A.C.u.u.0.1.1.h.1.1.3.1.1.1.h.0.h.e.h.e.j.j.>.] [ [ <.:.` ) _ { N.d.d.s.f.f.f.n.s.s.a.Z.H.P.H.U.U.P.U.U.7X>X>X-XU.2X2XU.P.2X>X>X>X>X>X>X>X>X:X:XU.U.>X>X>X>X:X>X>X>X:X:X:X:X:X:X>X>X>X>X>X>X>X>X>X>X>X>XU.U.U.P.P.P.U.P.J.L.L.L.K.=Xg.7.9.7.9.t.8.w.e.k.h.j.e.w.u.w.k.z.3.:.>.<.>.[ ( X.( Z Z @.s & o # ,                                                                                             ",
"                                                                                                o O % 4 #.x.+.9.@X4X4X<X<X:X9X-X1X>X>X-X-XU.:X>X2X>X:X1X1X5X5X1X6X:X6X:XP.I.>XP.>XP.>X0XL.6X6X9XK.6X*XC.8.8.w.w.1.w.0.h.1.h.h.h.h.0.h.k.h.h.k.k.j.j.N.z.N.:.` ) ^ { u.t.t.f.G.*XG.=X*X=XK.L.>X>XJ.2X7X7X>XU.7XJ.>X7X>XJ.U.2X2X>X2X>X>X>X>X>X,X,X:X:X>X,XU.U.>X>X>X2X2X2X:XU.:X1X6X1X>X>X-X-X>X>X>X>X>X>X>X>X>X>X>XP.P.>X>XU.L.L.H.S.F.=Xs.+.t.t.8.t.t.u.0.h.1.j.e.u.u.r.p.z.3.:.<.<.<.O.( _ ~ u 3 = 3 O X .                                                                                               ",
"                                                                                                X o O 3 @.&.#.7.G.4XK.4XJ.1X-X0X>X>X>X>X>X-X>X>X>X>X>X>X1X1X1X8X1X1X1X>X>X>X>X>XP.P.>X>X>X-X-X:X:X<X=XF.7.8.u.8.0.0.,.0.1.0.e.1.1.0.w.0.w.k.k.k.z.z.z.j.N.3.^ _ _ ] d.d.9.a.<X=X4X4X4X4X:X>XU.>XP.I.>X>X-X-X>X>X:X>X-X-XU.U.>X>X>X>X>X>X>X>X-X-X-X>X>X-X-X>X>X>X>X>X:X>X>X>X>X>X>X>X>X>X>X>XU.U.-X-X>X,XU.U.U.U.P.U.P.>XJ.U.L.L.U.D.F.*Xd.t.0.w.w.w.w.w.e.e.j.j.j.k.l.r.i.N.2.>.r.<.>.O.~ ....p * % % o . ;                                                                                               ",
"                                                                                                X + O & $.&.#.9.G.*XG.9X0X0X-X;X>X>X>X>X>X-X>X>X>X>X1X8X1X1X8X8X1X5X>X>X>X>X>X>XP.I.>X>X>X>X>X>XJ.<X6XG.7.7.8.,.8.8.8.w.,.1.1.,.1.0.0.0.w.u.e.e.h.h.z.N.B.1.^ ^ _ _ w.s.9.a.=X0X:X:XU.U.U.U.U.U.I.I.>X>X>X>X>X>X:X:X-XP.P.-X>X>X-X-X-X>X>X-X-X-X-X>X>X-X-X>X>X>X1X1X>X>X>X>X>X>X>X>X>X>X>X>XU.U.U.-X,X,XU.U.U.U.P.>XP.>XJ.U.L.<XH.g.a.C.w.0.0.u.w.w.w.u.e.e.h.h.j.h.l.r.p.p.>.] [ [ [ ] ~ .. .t % O o X .                                                                                                 ",
"                                                                                                . X O - @.%.#.7.F.4X*XG.D.6X1XP.>X>X>X7X1X>X>X1X1X1X1X1X1X1X1X1X5X5X>X>X>X>X>X>XI.>X>X>X>X>X>X-XU.:XL.Z.7.+.9.8.8.7.,.8.,.w.8.u.h.e.e.e.e.k.e.e.j.h.j.z.N.1.] ] [ { t.s.g.g.H.5X9X9X7X>X>X>X2X7XI.I.>X>X>X>X>X>X>X:X>X-X-X-XI.>X-X-X-X-X-X-X-X-X-X>X>X-X-X>X>X>X1X1X>X>X>X>X>X>X>X>X>X>X>X>X:XU.:X>X>X,X>X>X>X>XP.>XP.>XJ.L.L.<XK.a.7.t.,.0.1.0.w.w.u.u.u.e.h.h.j.1.k.i.p.i.>.] ` ` [ _ ~ ....i % O o X #                                                                                                 ",
"                                                                                                # X o - @.%.+.#.8.t.7.9.v.6X9X0X1X1X1X1X1X1X1X1X5X5X1X1X1X1X1X1X5X5X>X>X>X>X>X>X>X>X>X>X>X>X-X-X7X>XL.D.Z.A.G.F.G.F.F.F.A.A.8.8.0.h.e.e.w.e.h.h.k.k.z.z.N.N.r.p.p.d.F.*X=XK.0X0X>X>X-XP.P.P.P.P.I.I.>X>X>X>X>X>X2X>X>X>X>X>X>X>X-X-X-X>X>X>X>X>X>X>X>X-X-X-X>X>X1X1X>X>X>X>X>X>X>X>X>X>X>X>X:X>X>X>X>X>X>X>X>X>X>X>X>X>XL.U.U.2XD.a.9.t.,.u.k.e.0.w.w.w.u.e.h.h.h.0.e.r.r.i.:.' ] ' ' _ X.....t O o o + .                                                                                                 ",
"                                                                                                X X o - @.@.#.O.O.+.t.9.v.6X&X6X1X5X5X5X5X5X1X6X5X5X6X6X5X4X5X5X5X5X>X>X>X>X>X>X>X>X>X>X>X>X-X-XJ.J.U.U.:X2X6XK.<X=X<X<X*XF.7.,.0.h.h.e.e.u.u.w.1.h.l.l.l.d.l.d.t.C.*X=XwX9X0XJ.;X;X7X7X7X;X>X;XI.I.>X>X>X>X>X>X>X>X>X>X-X-X-X-X-X-X-X-X>X>X>X>X>X>X>X-X-X-X>X>X>X>X>X>X>X>X>X>X>X>X>X>X>X,X>X>X>X>X>X>XU.U.U.I.J.I.J.-XJ.L.L.<XF.s.s.u.8.k.e.u.w.w.w.0.w.h.h.h.1.e.e.i.r.z.:.) ` ' ' ] ..! | 3 O o #                                                                                                     ",
"                                                                                                . + o & $.%.#.c.+.+.7.#.g.eXwX9X5X&X&X&X&X&X5X5X5X5X6X6X5X5X5X5X1X5X>X>X>X>X>XI.7X>X>X>X>X>X>X-X>X2X2XU.:XU.U.L.L.L.L.K.K.F.9.s.0.h.e.w.w.u.w.w.w.l.N.N.d.d.d.s.t.A.=X=X:X>X8X-X-XI.I.I.I.-XP.P.;X;X>X>X>X>X>X>XU.U.-X-X-XP.P.P.-X-X-X-X-X-X-X-X-X-X-X-X-X-X>X>X>X>X>X>X>X>X>X>X>X>X>X>X,X>X,X>X>X>X>X-XP.P.P.P.>X7X>X7X:X2X<X4XG.a.t.u.w.w.1.e.u.w.w.0.0.0.h.h.1.l.r.i.i.N.:.) ` ' ` _ ..| | 3 O X $                                                                                                     ",
"                                                                                                  X X - $.%.%.#.#.+.7.9.Z.=X&XwX1X5X-X5X5X5X5X5X5X1X1X1X6X6X6X1X1X1X1X>X>X>X>X>X7X>X>X>X>X>X>X-XP.U.L.H.H.H.P.7X2X9X0XL.<XZ.7.8.8.8.0.8.8.8.8.8.8.8.u.d.d.d.B.d.s.A.4X6X6X1X0X8X;X;X7X7X;X;X;X;X;X;X>X>X>X>X>X-XU.U.-X-X-X-X-X-X-X-X-X-X-X-X-X-X-X-X-X-X-X-X>X7X>X>X>X-X;X;X>X>X>X>X,XU.U.>X>X>X>X;X>X>XP.P.P.I.P.P.J.&XK.L.K.K.F.8.8.w.u.k.0.l.u.u.w.w.w.h.h.h.1.l.3.:.<.<.[ ) ' ' _ ~ ..o.s & + X X                                                                                                     ",
"                                                                                                      y h s  ...#.+.+.+.v.K.wX5XwX1X5X8X9X1X1X1X1X1X9X1X1X6X6X1X9X1X1X>X>X>X>X>X7X>X>X>X>X>X>X-XJ.U.2XL.9XJ.J.J.>X>XP.H.6XS.9.9.t.t.t.t.t.s.t.s.s.8.u.B.d.d.d.t.f.Z.=X9X0X>X7X;X7X;X;X;X>XI.>X;X;X;X>X>X>X>X;X-X:X:X>X>X>X>X>X>X>X>X>X-X-X-X-X-X-XP.-X-X>X-X>X7X>X>X>X-X-X-X>X>X>X>X>XU.U.,X>X>X>X;X>X>XP.-XI.>X7X7X>X2X4X6X=X*XG.u.u.w.u.k.1.e.u.u.e.e.e.e.h.h.h.h.:.^ ) ^ ^ ^ ( _ X.u 4 i 6 O X #                                                                                                       ",
"                                                                                                      r O % = 3 @.&.7.9.g.4XeXwX5X8X8X-X0X0X-X8X8X8X8X>X7X>X>X>X-X1X>X>X>X-X-X>X>X>X>X>X-X-X-X-XL.L.U.L.L.P.-X>X>X>XP.P.J.L.K.*X*X*X*X*X=X*X*X*X*Xf.s.d.d.s.d.s.s.Z.4X6X6X7X0X7X;X>XI.I.P.>X-X>XI.-X-X-X;X>X1X1X:X>X>X>X>X>X>X>X>X>X>X>X>X>X>X>X>X>X>X>X>X>X>X>X>X>X>X>X>X>X>X,XU.U.U.>XU.>X7X7X>XP.P.7XJ.-X7X-X7XP.&X:XS.S.S.F.C.d.u.w.0.e.k.0.0.1.k.h.h.0.j.h.<.z.:.Q ^ ) ^ ^ ( ( X.4 = & & # ;                                                                                                         ",
"                                                                                                      y + O & 3 @.x.&.7.g.wXwX4X5X-X0XrX8X;X8X8X;X8X;X;X>X>X-X-X-X>X>X>X-X-X-X-X>X>X>X;X-X-X-XU.U.U.U.U.U.U.>X>X;X;X>X>X2X2X2X6X4X6X4X6X6X6X6X4X=Xv.d.f.d.d.d.d.f.Z.4X6X2X7X0X7X>X>XI.I.-X-X>X>X>XI.-X-X-X>X1X1X>X>X>X>X>X>X>X>X>X>X>X>X>X>X>X>X>X-X-X-X-X-X>X>X>X>X-X-X-X-XU.U.>XU.U.P.J.U.>X>X>X;X>X0XJ.P.>XJ.>XH.:X<Xa.7.9.8.8.0.w.k.e.e.e.w.k.h.k.r.h.r.h.h.5.N.<.^ ^ ( Q ( ( ~ ..3 & O -                                                                                                             ",
"                                                                                                        X O % 6 %.x.x.7.b.wX4XwX5X5X8X8X-X;X8X;X;X8X;X;X;X;XP.>X-X-X-X-X-X-XP.P.-X-XP.P.P.P.I.U.U.U.U.U.U.U.>X>X-XI.P.P.U.:X<X<X:X>X>X>X1X1X4X4X<XC.f.B.f.d.d.d.s.Z.<X4X>X2X7X7XI.I.>XU.U.>X>X>X>XI.-X-X-X>X>X>X>X>X;X-X>X>X>X>X-X-X-X-X-X-X-X-X>X-X-X-X-X-X-X-X-X-X-X-XU.U.U.U.2X>X2X>XP.>X2X>X>X7X>X0XP.>X2XJ.&XL.6XwXC.7.8.8.w.u.l.k.w.0.1.0.h.h.h.1.j.r.3.1.3.5.:.( ^ ( Q ( ~ ~ p 6 O o >                                                                                                             ",
"                                                                                                        X o & 3 $.m.x.q.b.=X*X4X&XrX0X1X0X0X8X8X-X;X;XI.;X>XP.-X-X-XP.-X-X-XP.P.P.P.P.P.P.P.I.>XU.U.U.U.U.U.>X>X>X;X>X>X:X>X<XU.1X1X1X1X1X7X6X6X<Xv.f.f.B.d.d.d.s.C.=X<X:X>X7X>XI.I.>X,X>X>X1X1X;X;X>X>X-X>X>X>X:X:X-X-X-X-X>X>X>X>X>X>X>X>X>X>X>X>X>X>X-X-X-X-X-X-X-X-XU.U.>X>XL.L.:X:XP.>X>XJ.J.I.J.7XP.>X2XH.L.6XK.*XA.8.,.u.k.l.u.w.k.e.w.k.1.1.h.1.j.<._ _ ) _ Q A Q / Q ~ ! .. .& O X ,                                                                                                             ",
"                                                                                                        X + o - $.m.x.c.c.M.g.g.Z.9X5X5XH.D.H.;X-X1X1X-X>X>X-X-X-XP.P.P.>X>X-XP.P.P.P.P.P.P.I.>XP.U.U.U.U.U.U.>X>X>X;X>X>X9X9X2X7X8X8X8X8X8X0X9X<Xv.s.f.f.d.d.s.s.Z.=X<X:X>X7X>XI.I.>X>X>X>X1X1X;X;X>X>X>X>X>X-X:X:X-X-X-X>X>X>X>X>X-X-X-X-X>X>X>X>X>X>X>X-X-X-X>X>X-X-XU.>X:X>XU.U.U.U.P.>X2XP.P.8XP.0X>XU.2XL.K.4X=X*XF.t.,.k.0.e.w.e.l.k.w.e.k.j.j.5.5.<.^ ^ Q Q Q Q / Q Q ! ~ | | & O X >                                                                                                             ",
"                                                                                                          y o & $.m.x.c.7.7.7.+.Z.6XwXeXV.g.D.0X5X8X1X>X1X>XU.U.-X-X-X-X>X>X-X-X-XP.P.P.P.P.I.>XP.U.U.U.U.U.U.-X-X>X-X-X>X>X2X:X>X;X;X;X>X1X1X6X4XC.s.f.B.d.d.d.s.Z.=X:X:X>X7X>XI.I.U.>X>X>X5X5X>X-X>X>X>X1X>X>X:X:X-X-X>X>X>X>X-X-X-X-X-X-X-X-X-X-X-X-X-X-X-X-X>X>X-XP.U.U.U.U.2X>XU.J.J.>X2XP.J.0X-X0X2XL.2X6XS.v.Z.A.B.u.w.1.e.k.k.k.u.w.0.h.h.r.5.1.5.3.^ ^ ( ( ( ( Q Q ~ ~ ..| p - X +                                                                                                               ",
"                                                                                                            o % h @.&.x.q.7.q.7.V.4X4XwXV.g.H.0X5X9X1X-X1X:X&XU.P.-X-X-X-X-X-X-X>X-XP.P.P.P.I.>XP.-X>X>XU.U.U.-X7X7X;X;X;X>X>X-X>X>X>X;X>X>X1X9X6XC.s.f.d.d.d.s.s.C.=X<X>X>X7X>XI.I.I.-X-X>X5X-X;X-X>X>X1X1X1X>X:X:X-X-X-X>X>X>X>X-X-X-X-X-X-X>X-X-X-X>X>X>X-X-X>X>X-XP.U.U.U.U.U.L.L.H.H.P.P.J.S.D.S.J.U.H.U.<XS.9.9.8.8.w.e.h.e.e.k.k.w.u.l.l.j.h.j.j.z.5.^ Q ^ Q Q Q Q ~ ~ ! |  .s % o o                                                                                                               ",
"                                                                                                            o o - i @.&.x.+.+.+.s.wX=XwX&X&X0X1X5X9X1X5X5X-XL.L.&XP.>X-XP.P.-X>X>XI.P.P.P.P.-X>XP.>X>X>X>X>XU.>X>X>X>X-XP.-X-XP.-X>X>X>X>X>X1X9X4Xv.s.f.d.d.u.u.9.v.K.L.:X>X7X;XI.I.I.-X-X>X-X-X-X-X>X>X1X1X1X1X:X:X-X-X-X>X>X>X>X>X-X-X-X-X>X>X-X>X>X>X>X>X>X>X>X>X>X-XU.U.U.U.:X>X>XU.U.2X2XJ.V.V.g.D.>XU.6X<XV.a.f.t.d.l.r.z.j.e.k.l.k.k.l.e.j.<.[ ' [ :.^ ( ( ( ( ( ~ ~ Z 4 t i r                                                                                                                     ",
"                                                                                                            X + & 6 o.@.&.q.c.#.f.*X*X@X&X5XH.2X:X2X8X8XeX-XU.2XU.>X>X>X>XI.I.J.P.P.P.>X>X:X>XJ.-X>X-X>X>X-X-X-X-X>X>XJ.>XJ.J.7XJ.9X>X>X&X0X-X6X6Xv.a.s.s.d.u.u.t.f.=X:X&X>X8X;X;X>X>X>X>X>X>X1X1X1X>X>X>X>X2X2X2X:X>X>X>XP.P.>XP.>X7X>X>X>XJ.>X&X:X>X>X>X>X>X-X>X>XI.P.P.P.U.U.U.:XL.L.K.L.L.H.g.g.g.D.9X:X<X=XZ.9.8.s.u.w.e.e.h.e.l.l.w.w.u.k.z.:.) ) ) ^ ) ^ / ( A ~ ( ~ p * % O O                                                                                                                     ",
"                                                                                                                r & % 3 #.M.2.q.7.7.&.7.V.4X6X:X2X2X5X3X;X-XL.L.&X-XP.P.P.I.>X>X7XI.P.J.J.U.6X:X9X9X-X>XP.-X-X>X>X>X>XJ.>XJ.>X0X9X0X>X0X>X9X9X:X9XD.S.f.t.w.w.u.t.f.<X6X2X>X-XJ.I.I.P.U.U.U.U.>X1X>X>X>X>X>X>X>X:XU.P.-X>XP.P.-XP.>X>XP.>X7X&X9XJ.J.J.P.-X>X>X-X>XU.U.P.P.P.U.U.U.>XL.L.<XL.L.K.V.S.S.D.S.S.F.G.C.s.u.d.l.k.k.h.k.e.e.k.l.l.l.k.z.:.) ` ` ) ^ Q ( ( X.Q ! ~ p * O O >                                                                                                                     ",
"                                                                                                                  O O * %.&.+.q.>.>.2.2.f.*X<XL.=X<X&X5X5X8XU.K.:X:X2X>X>XP.P.P.>XU.U.>X:X:X:X:X1X1X-X1X-X1X-X-X7X7X>XP.>XP.>X0X7X9X&X0X2X&X0X2X2XL.K.v.t.u.u.w.t.s.*XG.J.P.>X>XP.P.U.U.U.:X:X>X1X>X>X>X>X>X>X>XU.U.-X-X-XP.P.P.-X>X>X-X7X7XP.9X7X7X2X>X>X>X-XJ.U.U.U.P.P.P.P.P.>X2XL.U.>XU.:XU.6X0X6XK.a.9.a.t.t.8.u.l.u.k.l.e.k.h.e.k.l.l.l.z.z.:.) ` ' ' ` Q ( A ~ ~ .. .p O o X ;                                                                                                                     ",
"                                                                                                                  o % & | XX&.q.2.>.>.>.d.*X=X*X*X4X<X4XH.9XK.K.L.K.L.J.U.J.P.U.P.P.U.U.2X2X:X6X:X1X1X9X-X0X-X1X>X>X>X-X>X-X>X7X-X7X-X9X2XJ.9X9XU.6X*Xf.7.w.w.u.0.t.*XK.6X2XU.P.P.U.>XU.U.>X>X>X>X;X-X>X>X>X>X:X:XU.-X>X>X>X>X>X>X>X7X>X7X>XH.J.H.J.U.>X-X-X>X>XU.U.U.U.U.P.P.P.U.>XH.J.L.J.J.L.K.K.K.G.9.9.s.t.t.u.l.u.w.e.k.e.j.e.l.l.l.r.j.N.N.<.' ` ` _ ( Q ( X.~ ~  .o.a O X X                                                                                                                       ",
"                                                                                                                  X o % i  .%.%.&.2.>.>.d.G.G.K.*X=X<X<XH.6XK.<X=XK.<XH.L.L.U.2X9X2X>XL.2X9X6X0XJ.&X1X1X&X9X-X9X1X1X1X1X-X-X1X1X7X0XU.H.:X2XL.2XJ.2X*Xs.+.8.8.u.u.s.G.F.=XH.H.L.J.U.U.&X-X>X>X5X;X5X>X>X>X>X>X>X:X:X>X2X7X>X>X>X>X>X7X>X7XJ.S.S.Z.D.P.2XU.P.I.2XU.U.U.U.U.U.P.P.>X>XJ.J.U.J.P.H.<X*X=X=Xs.t.u.u.u.k.k.l.k.e.k.k.k.j.z.z.z.<.>.3.<.[ ` ` ( _ ( ( ( X.u 4 & - ,                                                                                                                             ",
"                                                                                                                      r 3 * t t ..2.>.,.8.d.a.Z.G.=X=X4XK.K.V.A.S.S.<XL.:XU.U.U.J.J.U.P.>XH.Z.S.V.S.5X1X1X9X-X1X1X>X-X1XJ.1X9X9X-X-XS.V.H.0XL.2XJ.2X=XZ.f.f.8.0.w.,.u.7.a.a.V.K.&X:X:X:X-X1X1X1X>X;X>X1X>X>X>X>X:X:X:X2X7X>X>X>X>X>X>X>X>XH.S.S.Z.D.>X7X>XP.P.>XU.U.<XU.U.U.U.P.>X>X>X7X2X>X>XH.Z.f.C.C.t.w.0.w.h.0.h.e.k.e.e.k.l.e.z.z.z.[ ) ' ` ) ` ` ( _ ( ( ~ ~ t * O o                                                                                                                               ",
"                                                                                                                        6 % % * | &.{ 2.+.9.9.V.K.=X=X<XK.Z.+.7.7.g.K.H.:X:XU.U.P.U.0X0X0XJ.v.g.a.v.5X5X9X1X&X5X5X5X-X1XJ.1X9X1XJ.H.g.g.S.2X>X2XL.2X<XG.*XF.8.,.0.8.8.8.9.7.C.=XK.<X6X5X5X1X8X8X1X1X1X1X1X1X1X1X>X>X>X2X2X>XU.>X>X>X>X>X2XJ.D.D.S.D.J.P.U.U.>X>XU.U.U.U.U.U.U.U.J.J.L.>XJ.L.:XD.9.7.7.8.0.k.e.l.z.l.j.j.l.k.e.k.l.e.j.z.z.' ^ ) ` ) ' ` ( ( ~ ~ ~ ..p % o X                                                                                                                               ",
"                                                                                                                          O O * | &.O.8.{ +.7.v.=X*X*X*X=XS.+.7.7.g.<XK.4XU.:X2X9X-X-XJ.-XJ.V.V.a.V.9X&X1X&X-X9X-X-X>X0X&X1X1XP.7XP.g.v.V.H.>XL.>X>X<XK.*XA.7.8.8.8.8.t.t.7.v.*X*X<X4X:X&X5X1X5X1X1X1X1X7X7X1X1X>X>X2X2X2X>X:X>X7X>X>X-X9X>XH.J.U.U.>XU.>X>XU.P.U.>XU.>XU.U.U.U.L.H.L.:XK.<X2XF.9.t.t.8.0.0.1.l.j.j.e.h.e.l.l.l.N.k.l.z.N.[ ) ' ` ) ' ` _ X.X.X.~ o.6 O X X                                                                                                                               ",
"                                                                                                                          + o % | @.O.>.{ 7.9.Z.=X*X*X*X2Xg.{ +.9.9.=XH.<X:X:X2XJ.0X>X-X>X-X-XJ.H.&X-X5X5X5X5X6X-X5X9X1X-X1X9X1XP.H.v.g.V.H.U.>X>XU.J.<X<XF.7.{ 8.,.u.w.8.8.B.*X*X=XK.eX5X&X0X1X>X9X7X>X7X0X1X>X>X>X>X>X>X>X>X>XJ.-X9X9XU.J.U.0X0XU.2XU.U.J.2X>X2X>X2X>XL.L.J.U.2XL.<X<X<X*X<XF.8.8.u.w.w.1.e.j.j.1.e.k.e.k.k.u.B.0.e.B.z.:.` ) ' ` ` ` X._ ~ @.@.6.r o X                                                                                                                                 ",
"                                                                                                                          X o & i #.X.[ { t.s.Z.A.F.*XA.F.S.a.g.g.v.=X=X6X6X9X-X-X0X8X8X0X;X8X0X5X1X9X9X1X5X5X5X5X5X1X>X-X1X9X>X-X-XD.D.S.J.7X>XP.P.J.L.L.G.v.f.d.8.w.u.l.w.B.F.F.*XG.S.H.eX5X6X-X7X7X>X1X1X>X1X7X>X>X>X2X2X2X>X>X-X-X>X2XU.L.L.U.L.2X2X2X>X2XU.U.P.P.L.U.U.U.H.D.F.F.G.F.F.G.A.8.8.u.u.w.h.e.h.j.h.j.j.e.l.N.d.w.{ [ :.:.' ) ` ` ' ) ` ( ~ u t a r                                                                                                                                       ",
"                                                                                                                          X + O p #.X.>.>.>.8.w.8.t.s.+.9.D.K.=X=X4X<XH.H.H.6X1X-X1X-X1X;X-X-X8X1X1X1X1X1X1X1X1X1X1X1X>X-X1X9X>X8X-X-X0XJ.P.0X>X2XP.U.2X:X<XG.G.A.8.8.0.k.8.8.d.t.f.g.9.v.6X:X&X5X9X0X9X1X>X>X7X1X1X1X1X>X>X>X>X7X>X-X-X>X2X2X2XU.2X2X>XL.U.L.J.>XP.U.U.2XL.K.g.a.9.9.s.8.8.u.8.8.t.u.u.0.e.e.1.h.1.h.h.h.k.k.p.i.] ] [ ' ' ' [ ^ [ ` X.O.@.1 * O o                                                                                                                                       ",
"                                                                                                                          + X O p O.X.] _ { r.,.>.{ ,.{ 7.G.<X4X*X=XZ.a.g.g.Z.P.1X1X-X-X8X8X;X-X1X5X5X5X1X1X1X1X1X1X1X1X-X1X9X1X0XJ.J.0X2XL.U.J.U.J.U.U.L.L.K.*XA.t.8.w.N.l.l.u.8.t.9.9.v.G.eX6X5X1X9X9X9X1X>X7X1X1X1X1X>X>X>X>X>X>X>X>X>X2X2X2XU.2XL.U.H.J.H.L.U.U.U.J.:XK.G.9.a.t.t.u.8.8.0.0.0.w.w.u.0.e.h.1.j.h.j.h.j.z.i.l.r.] ] ] ` ' ) ' ' ` X...! o.3 & O o                                                                                                                                       ",
"                                                                                                                          + X o i ..#.2.>.>.>.3.1.>.,.+.a.G.*XG.=X4XS.7.a.7.g.:X9X1X1X-X>X0X9X>X9X9X1X1X1X1X1X1X>X>X7X>XP.-X>X1XrX9XJ.&X2XL.L.J.:XJ.L.J.K.L.K.*XZ.8.8.0.l.k.k.e.u.t.9.a.C.G.4X4X:X5X&X&X1X1X1X1X7X1X1X1X1X1X>X>X>X>X-X-X2X2XU.H.L.L.L.2XK.L.L.2X:XU.L.K.=XK.=Xs.t.s.t.u.0.u.0.0.u.u.0.k.0.e.h.h.h.1.1.h.j.i.r.z.j.] ` ` ` ' ) ' ` O.O.@.%.m.i o +                                                                                                                                         ",
"                                                                                                                            + o i $.&.@.X.2.>.<.3.:.>.+.9.G.*X*X4X=XG.7.9.7.9.H.0X1X9X-XJ.-X>X>X1X1X1X1X1X1X1X1X>X>X7X>XJ.J.-X>X1X0X6XJ.>X<X9X2X2XU.2XL.L.K.K.*XF.8.8.u.l.0.h.k.e.0.8.7.Z.=XG.4X6X9X6X5X1X1X1X1X1X1X1X1X1X>X>X>X>X>X-X-XU.>X2X9X2XL.:X2XL.L.:X<X<X<X<X=X=X*X*Xv.t.t.w.u.u.k.0.w.l.w.0.e.0.h.h.h.j.h.j.j.5.5.5.z.5.' ) ) ' [ ` X.X.~ ~ @.s a                                                                                                                                               ",
"                                                                                                                                - r i i p ..] { :.<.>.2.t.C.C.C.C.V.S.g.v.g.V.H.6XJ.6X9XU.U.U.9X-X-X1X1X>X>X>X7X>X>X>X>XJ.J.>X>X>X5X6X4XL.S.D.D.S.D.<XK.<XK.G.K.F.9.8.u.l.h.j.l.h.w.t.7.A.=XS.G.D.6X0X9X1X1X1X1X1X1X>X>X>X>X>X-X>X>X>X>XL.H.K.L.G.D.<X6XL.<X<XS.S.F.F.F.A.A.C.s.t.8.u.w.k.k.h.h.k.0.h.h.h.1.h.1.h.1.h.<.:.[ :.:.:.` ^ ) ' ` / _ ..u = * O +                                                                                                                                               ",
"                                                                                                                                - o O * = | 2.>.:.3.,.2.2.+.,.,.+.9.G.4X<X4X&XD.H.Z.D.6X9X2XU.9X>X1X9X2X>X:X>X2X2XU.:X>XP.>X7X7XrXH.&X9XD.9.9.9.9.V.K.L.2XK.G.=X=Xg.t.u.k.e.e.1.h.w.w.7.s.f.s.7.g.D.6X9X5X5X1X1X9X7X1X1X1X>X>X>X>XP.P.7X>XD.v.a.a.g.G.<X4X6XL.g.a.t.9.9.8.t.t.t.u.w.d.w.k.e.0.w.e.h.l.e.j.h.j.1.h.j.j.:.^ ^ ^ ^ ) ` ) ` ' ( ( O...4 * % o X                                                                                                                                               ",
"                                                                                                                                + + o % 3  .#.[ [ ,.>.8.7.+.,.r.8.9.G.4X9X&XrXH.S.S.K.6X:X0X-X-X>X&XU.:X>XJ.2XU.:X9XH.9XP.>X-X>X1X5X6X<XG.9.7.7.7.S.<XH.U.L.L.L.G.g.9.s.w.h.1.h.1.,.,.8.u.s.t.s.g.K.6X0X1X0X-X0X9XU.>X9XJ.>XP.>X>XU.U.L.<XD.a.9.a.7.K.<X6X4X4Xa.a.t.t.t.t.t.w.u.u.u.l.l.l.k.e.w.k.k.h.h.1.h.1.3.j.<.z.:.) ) ^ ^ ( ` ( ( ( O.X...@.t O o X X                                                                                                                                               ",
"                                                                                                                                  + o o %  .#.O.O.{ >.,.w.i.r.,.,.t.G.=X4X5X5XD.g.g.D.4X:X0X7X;X9X9X0X9X9XL.2XU.U.>X>X2XU.7X>X9X-X&X:X<XG.9.7.7.9.S.K.L.2XH.L.2X<XV.9.9.8.0.,.,.r.r.l.i.w.8.,.d.v.*X<X6X5X0X5X9X9X2X>X2XU.0X7X0XI.P.J.H.L.D.g.a.9.7.=X=X<X<X4Xa.t.u.t.w.0.w.w.u.w.w.w.u.e.u.e.k.u.0.1.z.j.j.5.1.z.1.z.:.( ) ) ` ` ( ( X.X.~ ....o.r                                                                                                                                                       ",
"                                                                                                                                    X o & h @...X.{ 2.>.1.r.r.2.+.f.*X4X*X4XG.&XS.S.H.0X5X9X>XP.J.:X&XJ.P.J.2X>X9XU.0XU.:X>XJ.>X0X6X4X4X*X9.9.9.9.S.<X6X9XL.L.2XL.F.f.9.8.0.8.0.1.,.,.,.w.d.d.C.A.=X=X=XK.6X&X:X&X9X<XL.J.>XJ.P.I.>X7X>XL.S.a.7.7.7.=X<X<X=X=Xa.u.u.u.u.u.u.u.k.l.k.k.k.k.l.l.l.w.e.j.j.<.3.<.<.<.>.<.[ ) ) ` ` ` ( Q X...u 4 3 O                                                                                                                                                         ",
"                                                                                                                                          - 3 3 t X.2.>.<.>.>.2.>.q.f.s.t.g.g.=XwX4XeX4Xv.v.D.9X:X9X&XH.U.>X2X>XU.H.J.J.:X>X&X&XD.D.F.F.F.s.t.t.s.G.*XF.D.H.9X2X<X=XF.v.f.u.,.,.8.8.p.p.w.u.8.u.d.C.C.C.Z.F.Z.Z.Z.=X<X<XU.2X-X7XI.I.P.P.J.D.V.V.g.9.G.*X*XG.F.s.u.u.u.k.k.k.k.e.e.k.k.l.l.k.k.k.l.N.z.<.) ` ` ^ ^ ) ) ( ( / ) ( ( _ ~ ....i % o +                                                                                                                                                         ",
"                                                                                                                                          O O % * ..#.:.:.>.2.2.>.+.,.,.8.8.9.=XwXwXeX5Xg.a.S.6XJ.2X&XJ.-X>XP.J.>X7X2X9X6X6XD.g.7.9.7.8.s.8.t.8.t.F.F.v.v.S.6XL.6X6X=X*X=XF.s.8.t.8.8.t.u.p.>.{ ] ] ] +.s.v.9.7.a.G.*X<XL.L.J.>XP.I.P.>X2X:X<X4XG.9.a.s.t.s.d.u.u.k.k.k.k.e.e.e.h.e.j.j.j.z.z.l.l.z.j.:.^ ) ) ^ Q ^ Q Q / / ( / A Q ~ ! | r o + +                                                                                                                                                         ",
"                                                                                                                                          # o O 3 %.#.O.:.>.q.2.2.2.r.2.w.,.+.F.=X&X4X&Xg.9.C.G.L.2XL.&XJ.J.P.P.P.0XJ.D.D.<X<Xv.7.t.8.8.u.u.d.t.t.A.A.v.V.Z.<XL.L.H.K.K.<XA.s.s.s.t.s.B.d.p.{ _ ^ ^ _ ,.B.C.s.t.s.*X=X4X<XK.H.J.J.P.P.:XU.L.=X=X*Xa.t.s.d.u.u.w.k.k.k.k.k.k.j.j.z.j.j.k.j.l.z.z.h.r.z.3.^ ^ ^ ) ^ ) / / ^ / / / ( Q ..s o.r X X .                                                                                                                                                         ",
"                                                                                                                                            . X - h ....~ ( O.{ >.3.<.>.3.,.t.G.=XwX6XK.a.7.v.*X*X<XK.:XL.:X>XU.H.L.9X<X=X=X*Xf.t.d.u.u.p.u.u.t.s.A.A.v.v.V.6X0X0X0X0XL.G.v.a.g.a.9.a.B.d.B.{ _ ] _ ] ,.u.u.t.t.f.*X*X=X=X*X=X<X<XU.K.L.K.K.4X<XG.s.8.t.w.l.l.N.l.l.l.l.l.l.l.k.l.l.j.j.e.e.e.j.N.j.N.j.` ^ ^ ` / / ^ / Q Q A Q ( Z p t a > X . X                                                                                                                                                         ",
"                                                                                                                                              X + & 3 4 2 4 ( :.:.5.3.3.1.r.8.s.F.F.F.*XA.s.s.f.s.g.v.D.L.2X:XH.V.a.V.v.v.f.f.d.8.u.u.l.l.u.u.t.9.A.F.Z.v.V.:X-XP.J.7X:X:XS.V.S.D.F.F.A.8.t.,.8.e.1.,.r.k.w.w.u.d.A.C.C.C.C.Z.C.C.Z.Z.S.A.Z.A.C.C.t.u.u.u.N.k.e.l.k.k.j.l.l.j.z.l.l.z.z.N.l.l.z.3.{ >.:.^ ) ) / ) / ( ( Q Q Q ~ ~ u = % o o . X .                                                                                                                                                         ",
"                                                                                                                                                  o & & = 4 ~ ` [ 3.5.3.1.r.w.u.s.t.s.s.s.s.s.7.9.9.7.A.<X=X<XF.9.9.a.t.s.t.0.0.w.u.u.u.u.p.u.8.f.F.=X6XJ.J.0XP.rX;X-X0X0X>X6X9X9X<X6XG.C.s.t.t.N.u.N.N.w.k.u.8.0.8.8.8.8.t.8.8.8.8.8.8.9.9.9.8.8.t.u.d.l.l.k.k.l.l.k.k.l.N.l.l.l.e.l.k.l.l.k.z.[ ^ Q ) ^ ) ) ) ) / / / ( ~ ! ~ ..t * % o X . . .                                                                                                                                                         ",
"                                                                                                                                                  + + & 3 t ..` :.3.3.>.,.r.8.8.w.8.w.8.0.8.8.,.,.,.+.C.*X*X=XG.9.7.9.t.u.u.u.l.u.u.u.w.u.p.s.t.C.=X6X9X9X1X9X-X;X8X;X;X7X5X1X0X9X&X6X4XG.C.f.f.B.u.u.u.w.u.w.0.w.w.0.0.0.w.0.0.8.8.0.0.0.t.t.t.w.u.u.d.N.l.l.l.k.l.k.k.l.k.k.l.j.j.l.l.N.N.l.z.{ ` ` ' ) ) ` / / ) ( Q ~ ~ ! p o.6 & O X X . . .                                                                                                                                                         ",
"                                                                                                                                                  . X + % 4 ~ ( :.5.3.>.,.r.0.u.u.w.k.w.w.8.w.0.w.0.8.A.*XG.*XG.s.t.u.u.u.0.0.k.k.u.u.w.w.u.s.t.C.4X4X&X9X8X8X8XJ.rX0X-X1X9X9X0X0X6X6X4XG.g.v.A.C.s.t.u.u.w.0.0.e.w.0.w.w.0.w.0.0.0.h.0.w.w.0.w.u.u.u.l.l.l.l.l.e.u.l.l.l.k.N.N.z.l.z.z.j.z.z.z.[ ) ) ` ) ( ` ) ) ` Q Q ! ~ ..| s & O o . X . X .                                                                                                                                                         ",
"                                                                                                                                                    + + O 3 ~ Q _ [ ` ] <.j.1.1.h.e.e.e.0.0.0.0.,.,.,.B.C.C.C.C.u.8.u.u.l.e.h.k.k.u.u.u.u.u.t.9.C.4X4X&X9X1X8X0X0X0X0X5X5X9X5X1X&X0X0X&XS.a.g.A.v.a.t.t.w.w.0.k.e.w.w.w.0.w.h.h.h.h.h.h.h.w.w.w.u.e.u.k.l.k.k.k.e.u.l.N.l.l.N.l.N.z.N.z.z.N.z.N.:.) ^ ) ` / ) ` ) ` ( X.~ u p i i & O o # . . . .                                                                                                                                                         ",
"                                                                                                                                                    # o % 3 | ! ( ( Q ( :.3.3.5.r.r.r.r.r.1.1.1.1.1.,.1.,.1.0.w.8.8.u.k.k.l.e.e.k.u.u.u.p.u.t.9.v.=XwX9X5X&X9X1X0XS.V.V.v.v.v.g.g.D.&X&XK.S.S.S.Z.Z.C.s.w.w.0.u.w.w.w.w.e.0.0.e.h.h.e.h.h.h.h.0.e.e.e.k.k.k.k.k.l.k.l.l.z.j.1.>.:.>.3.3.3.3.<.<.[ ^ ) ` ' ) ( ) A Q Q ..Z = = * * & & & > X X # .                                                                                                                                                         ",
"                                                                                                                                                    $ O & 3 | ~ ..X.( _ ) ' :.5.5.h.r.r.h.h.3.1.h.h.h.1.,.1.,.0.0.k.l.k.0.l.e.e.l.u.u.u.u.u.s.t.C.=XwX4XJ.J.9X0X0Xg.9.a.9.a.9.9.7.v.H.H.6X0X6XK.=X6XG.s.t.w.8.u.w.w.u.w.w.e.h.e.h.w.h.h.w.h.h.h.e.e.e.e.k.k.k.k.N.k.j.z.z.z.<.` ) ` ' ' ` ` ) ^ ^ ^ ` ) ` ) ` / A Q Q ..u = = * % i h h h + X . .                                                                                                                                                         ",
"                                                                                                                                                      o % 3  ...X...( ` ^ ' :.3.5.r.,.1.1.1.3.1.<.<.1.1.1.h.1.w.1.w.k.k.e.l.k.l.k.k.u.w.u.u.t.a.Z.6X6X&X6X5X0XeX:Xg.9.a.9.a.9.a.a.V.6X&XK.6X:X6XK.<XS.t.8.u.0.u.0.w.w.w.w.w.e.u.e.e.w.e.e.e.e.e.e.e.e.k.l.l.k.k.N.z.z.z.z.z.<.) ` ` ' ) ) ) ) ) ) ` ' / ) / ` / A A Q ..u = * * * p o.h s o X + .                                                                                                                                                         ",
"                                                                                                                                                      & % * i t t u Z Q A ) :.3.3.5.,.3.3.1.3.5.5.3.1.1.3.h.3.0.1.0.e.l.e.l.w.l.w.w.w.w.t.t.t.9.v.wX6X&XeX1XJ.&XD.g.a.9.a.a.7.9.a.v.wX4X&X9XU.9XJ.<XS.9.t.u.8.w.0.w.w.w.0.w.w.e.e.e.e.u.e.e.e.e.l.k.j.z.N.N.l.l.N.z.N.z.z.z.<.) ) ` ' ` ` ' ` ` ) ^ ) / ` / ` ( A Z A ..u = * = = p o. .s O o X .                                                                                                                                                         ",
"                                                                                                                                                      , o % & = = 4 u A S ^ ' :.<.<.:.:.:.:.3.3.<.1.3.3.1.h.,.1.h.k.e.l.l.k.l.u.u.t.d.t.9.g.g.a.S.K.9X&X1X7X9X-XD.9.g.a.a.g.9.g.a.g.D.V.Z.U.2XH.J.H.Z.a.9.s.s.t.t.t.8.u.0.h.h.1.j.h.e.0.k.w.k.k.r.i.>.3.3.1.1.1.3.5.<.3.3.<.[ ` ` ` ` ` ` ` ` ` ) / ) ) / ) ( Q A A A X.u 1 1 = 1 p  . .s % o . .                                                                                                                                                         ",
"                                                                                                                                                      < + O % * * 3 u A A ^ ^ ^ ) ^ ^ ^ ^ ` :.:.:.:.:.3.1.3.,.1.,.k.N.l.u.u.u.8.t.C.@X*XG.K.D.D.&X9X0X>X9X8X8X1X5XD.6XD.D.4XK.G.v.a.V.v.V.L.9X2XU.:XK.D.D.G.F.A.F.F.C.u.,.0.h.j.h.h.e.k.l.u.p.l.p.3._ _ _ _ _ _ ` ] ) ` ` ` ` ) ) ` ` ` ` ` ` ` ` ) ) ` ) ) ` ( ( ( Q _ ~ ! ~ ~ ! | |  .s % o X .                                                                                                                                                         ",
"                                                                                                                                                      $ o O O * = 4 u A S A A A A A A A A ^ ' ] ' ' [ 1.1.1.,.1.1.l.d.u.u.u.u.t.t.A.4X4X<X9X9X6X9X9X1X>X9X1X8X8X0X9XrX5X6XeXwXwXD.S.&XH.H.U.U.U.U.U.U.L.L.:X<X*X*XG.A.t.8.u.w.w.h.l.l.k.u.k.k.l.z.3.` ) ` ) ` ' ] ` ) ` ) ) ` ` ) ` ` ) ` ` ` ` ` ) ` ` ) ) ) ) ` _ ] ( Q Z ~ ! ~ ~ ! .. .& o X .                                                                                                                                                         ",
"                                                                                                                                                      ; + & % * * 4 u Z S A A A A A A A A ^ ) ) ' ' :.1.1.1.0.8.w.8.t.8.8.t.7.8.7.Z.*XK.J.6X0X9X1X>X>X>X8X8X;X8X0X0X8X5X5X&X6X9X6XH.6XU.J.J.I.7X2X2X>XL.J.K.L.<X=XG.F.8.8.t.8.8.0.u.0.0.8.w.w.N.N.h.' ` ' ) ` ' ' ) ) ] ` ` ` ) ` ` ` ` ` ` ` ) ` ) ) ` / ) / ) ` ^ ( ( ( A Q Z ! ~ ! | | * O X X                                                                                                                                                         ",
"                                                                                                                                                      > o O % % = 4 u Z A A A A A Q A A A Q ^ ^ [ ' :.1.1.1.0.8.t.8.t.9.9.9.7.7.7.Z.<X2X>X>X>X;X>X8X8X8X8X8X;X;X0XrX8X1X1X9X0X9X0XH.J.H.J.I.>XI.>X2X7X2XL.J.K.L.L.G.S.9.7.7.7.s.8.t.8.t.u.l.u.N.N.1.) ) ` ` ) ` ` ^ ` ` ) ) ` ` ` ` ` ` ) ` ` ` ` ` ) ) ) ) ) ) ` ^ ` ) ` Q / A ! ~ ~ | | * O o X                                                                                                                                                         ",
"                                                                                                                                                      > X O % & = 4 u Z A Q ' :.[ :.:.[ ' :.:.:.<.:.<.1.j.,.,.t.C.A.A.C.v.Z.Z.Z.v.H.L.2X9X>X;X;X-X0X7X1X-X8X;X8X;X8X-X0X0X8X9X>X9X-X9X>X7X7XI.J.P.P.P.I.>XU.J.J.L.L.K.S.F.S.Z.F.Z.A.Z.A.F.C.d.d.N.k.>.,.<.<.<.,.<.<.<.' ) ) ` ' ` ` ` ) ` ` ` ` ) ` ) ` ` ) ) ` ` ) ' ) ^ A Q Q A ~ Q ~  .* O X X                                                                                                                                                         ",
"                                                                                                                                                        + O O 3 i p Z A A A [ 3.3.1.3.<.<.1.<.3.5.5.1.h.N.8.,.u.G.=X=XK.K.L.6X6XU.2XJ.P.7X;X;X0XP.7X-X>XP.8X1X8X;X;XJ.rX0X;X>X>X>X-X7XP.>X>X7X7X>XI.P.P.I.>X>XU.H.J.L.2X9X0X:X&X6X9X4X<X=XA.f.f.B.B.d.B.d.l.N.N.N.z.5.' ) ^ ) ) ) ) ) ) ) ) ` ` ) ` ) ` ` ` ) ` ) ^ ) ) ` ` ` ) ( ( Q ~ ..* O o .                                                                                                                                                         ",
"                                                                                                                                                        X o O a  . .! A Q ^ :.3.3.1.3.<.<.3.<.3.3.j.h.3.N.0.8.s.*X=XK.4X6XL.U.J.L.2XJ.>X0XJ.P.0X>X9X:X9X1X0X>X8X8X8X;X0X-X0X0XJ.9X-X>XP.0X7XI.J.>X7X7XI.P.P.P.P.>X7X>X2XJ.U.6X6X0X9X6X&X4XZ.f.B.s.s.t.f.s.d.B.d.l.z.1.` _ ` ) ) ) ) ) ) ) ) ) ) ) ) ) ) ` ) ^ ) ) ) ` ` ` ) ` ' ` ] _ ~ ..= O X .                                                                                                                                                         ",
"                                                                                                                                                        + X + r s @.! ( A ^ [ <.<.3.<.<.<.<.3.1.3.5.1.h.k.0.t.t.G.4X6X<XH.2X>XJ.L.I.I.7XP.P.-X9X9X:X6X<XJ.9X&X7X;X;X;XI.;X>X>X-XU.>X>X>XU.,X,XI.>X>X>XI.P.P.P.P.>XI.>X>X>XP.&X>X0X9X9X6X4XA.s.C.C.s.f.s.t.C.f.B.N.N.r.[ ) ` ' ^ ` ) ` ^ ) ` ) ^ ` ` ) ` ` ` ) ` ) ) ` ) ` ` ` ` ] ( _ ~ ..= O o +                                                                                                                                                         ",
"                                                                                                                                                            o - s  .! Q A Q [ 3.3.5.3.3.5.1.h.1.h.3.3.h.l.u.s.s.*X=XL.>XL.>XU.>XP.I.P.>XJ.P.&X2XJ.S.Z.Z.S.L.J.>X7X;X7X>X>X>X>X7X>X>X>X>X>X>X>X>X>X>XI.I.I.I.P.P.I.P.I.>X>XP.-X>X0X1XS.D.*XA.f.s.f.f.A.A.Z.A.s.t.l.l.j.1.<.3.3.<.<.3.5.:.' ` ) ) / ) / ) ) ` ` ' ) ) ` ` ` ` ` ` ` X.X.....3 O o .                                                                                                                                                         ",
"                                                                                                                                                              O - 6 ! ~ A A [ 5.<.3.3.3.<.3.5.3.j.1.1.k.d.B.f.C.<X<X<X2X:XU.P.>X>XI.P.I.P.>X:X6XK.v.a.a.v.K.<X2X>X7X>X>XI.U.2X7XU.>X>X>X>XU.>X>X>XU.P.P.>X>X>XP.P.P.P.>X>X-X>X2X6XH.a.g.C.C.f.f.f.C.*X=X*XG.s.8.0.0.h.e.j.h.h.5.5.5.5.:.[ ' ) ) ` ' ` ' ' ' ) ) ` ` ` ' ` ) ` ' ` ] _ ~ ..= % o .                                                                                                                                                         ",
"                                                                                                                                                              o O * | ..Q Q [ 3.3.3.5.5.3.3.j.1.r.r.w.8.t.s.9.g.<X6X9X2XU.>X>XP.>X>XP.>XU.9X6X6X=Xv.a.a.v.L.:X>X>XI.I.P.P.P.P.P.P.P.U.>X>X>X>X>X>XU.U.U.>X>X>XU.P.P.P.>X>X>X>X2X6X6Xg.f.f.s.f.f.g.C.*X=X*XG.t.8.0.e.0.0.h.h.1.h.5.3.<.` ` ' ` ^ ) ) ^ ^ ^ ` ` ' ` ` ` ' ) ` ) ` ` X.( ( ~ = O o # <                                                                                                                                                       ",
"                                                                                                                                                              X & % s ! Z A [ 3.3.3.3.3.<.3.r.,.0.l.t.8.f.f.9.g.K.:X2X2X:XU.>X>X>X>XJ.P.P.2X6X6X*Xv.s.g.v.H.<XU.U.U.P.P.P.P.J.H.J.J.P.>X>X>XI.I.-X>X>X>XI.I.I.>XU.U.U.>X2X2X2X2X2X9Xg.f.s.s.f.v.s.V.K.*X*X*Xs.w.0.e.h.1.h.h.1.h.j.j.3.^ Q ) ) ^ ) ` ` ` ) ` ) ^ ` ' ` ' ) ` ` ` ( ] ( X...= % O X X X X X                                                                                                                                                 ",
"                                                                                                                                                              X o O s | Z A [ 1.1.1.3.1.1.1.r.8.,.t.8.8.F.*XS.D.:X&X>X7X9XP.U.7X>X>XP.P.J.2X:X<XK.g.s.g.g.D.:XU.>XU.P.P.P.P.J.H.J.J.P.>X>X>XI.P.>X>X>X>XI.P.I.>X,X,X,X>X2X2X>X>XU.J.v.v.C.Z.f.v.a.v.K.<X=X*Xd.8.,.0.h.0.h.h.h.1.1.1.3.) ^ ` ) ) ) ) ) ) ^ ' ' ` ` ' ' ` ` ` ` ` / _ ( X...1 % O o & X X X                                                                                                                                                 ",
"                                                                                                                                                              . X O s @.X._ { ,.,.,.<.,.,.,.8.u.8.s.t.f.G.4X<X&X0X1X7X>X0X-X>X>X>X7XI.>XJ.:X<X4X=Xg.a.g.g.G.2XL.U.P.P.P.I.I.P.P.J.P.I.I.>XI.>X>X>X>X>X>X>X>X>X>X>X>X>X>X>X>X:X-X7X>X&X<XwX<Xv.g.a.v.H.4X=X*Xs.,.0.0.e.e.h.h.h.h.h.h.j.<.1.h.3.<.5.5.5.j.5.5.5.<.` ` ' ` ` ` ` ` ' ` ( _ ~ 4 = & & + o X X                                                                                                                                                 ",
"                                                                                                                                                              . X O i %.2.2.,.1.,.0.8.8.,.,.u.A.G.*X*X=X<X&X9X9X1X7X7XJ.>X7X0XP.P.>X>X>XJ.:X:X4X<Xg.9.g.g.G.<XH.L.P.P.P.P.I.I.I.P.I.I.I.I.I.I.;X>X>X>X>X>X>X>XI.>X-XU.U.:X>X:X-X>X-X0X&X9X&Xv.Z.v.V.&X6X=X=Xf.8.w.1.0.0.1.1.h.h.1.3.h.1.j.j.h.j.z.z.N.N.z.N.N.5.' ) ` ` ` ` ` ' ` ) _ X.X.! s s  .- o + . ;                                                                                                                                               ",
"                                                                                                                                                              . o O i x.2.,.3.>.8.0.8.q.8.9.t.=X4X4X6X6X9X6X6X9X0X1X>X9X9XJ.9X7XJ.>XJ.2XL.L.2X2XK.v.a.a.g.K.4XK.2XJ.U.P.P.7XI.P.I.I.-X>X>XI.I.;X;X;X>X>X>X>X>X>X>X7X2X>XU.:X>X:X1X>X>X9X>XH.H.J.&XH.J.9X<X=Xv.7.8.8.8.0.1.1.1.h.h.1.h.h.h.1.1.j.5.j.N.z.N.z.B.3.` ' [ ` ' ' ' ` ) ' ' _ X.~ ~ |  .r o X . ,                                                                                                                                               ",
"                                                                                                                                                              . X o 6 x.#.,.1.3.,.,.7.7.9.a.g.=X6X6XwX9X6X5X5X1X>X-X1X0X9XH.>X1X>X9XU.0X2X>X:XU.K.g.9.a.g.F.G.G.4XJ.:XP.P.>XI.I.I.>X>X>X>X;X;X;X;X8X>X>X>X>X>X>X>X>X2X>XU.:X,X:X-X&X-X>X>XP.P.>X9X2X2XL.*X6XA.9.8.8.8.8.0.h.1.1.1.h.5.1.1.3.3.j.5.5.N.j.z.5.B.N.[ ) ` ` ' ' ` ' ) ` ` ( X.~ Z Z | 6 o X . ,                                                                                                                                               ",
"                                                                                                                                                              . X & t %.+.>.<.,.3.,.8.8.7.9.g.K.&X&X5X1X5X>X1X7X>X>X7X;X7XP.>XP.1X9X>X9X>XU.U.U.G.g.a.a.9.a.f.S.=XL.>XP.P.I.P.>X>X>X>X>X>X;X;X;X;X>X>X>X-X>X>X>X>X>X2X>X:X:X>X:X>X>X>X7X7X>X>X2XJ.U.L.H.K.<XZ.9.t.t.w.8.1.w.1.1.1.h.h.1.1.1.1.h.N.3.3.z.N.z.j.<.] ) ' [ ` ' ) ' ) ` ] ( O.X.Z Z | t o X .                                                                                                                                                 ",
"                                                                                                                                                              + . o 6 %.x.+.<.<.3.,.8.B.f.v.S.&X9X9X9X0X9X>X>X>X>X0X0X-X8X0X0X-X-X7X2X>XL.L.>X2XD.g.a.a.9.a.9.C.=X:XU.P.I.I.P.7XI.I.-X>X;X;X;X;X;X>X>X>X-X-X>X>X>X>X>X,X:X>X,X>X-X>X>X>XP.P.P.J.>X2X2X<X<X=XF.A.A.F.F.u.8.0.1.h.h.j.1.3.j.z.j.j.h.` ^ ) ^ ^ ' ' <.5.5.3.` ' ) ` ) ` ] ( ] _ A ! ~ t o X .                                                                                                                                                 ",
"                                                                                                                                                              . X o r m.@.&.2.>.,.>.8.G.=X<X5X-X0X1X>X;X8X7X;X;XI.;X0X;X0X;X;X;X>X>X7XP.P.U.>X2XL.S.Z.f.a.s.9.C.*X<XL.L.I.I.I.>XI.I.>X>X;X;X;X;X;X>X>X>X-X>X>X>X>X>X>X>X>X>X:X>XP.>X>X>X>X>XU.L.U.J.D.Z.Z.v.C.*X=X*X*Xd.8.8.0.e.h.h.1.1.h.l.j.e.z.) A ) ^ ^ ^ ^ 5.B.N.j.[ ` ` ) ` ` ` _ _ ( ( ~  .t O X . >                                                                                                                                               ",
"                                                                                                                                                                . X 6 6.m.m.&.q.,.>.,.G.<X&X9X8X8X-XP.-X;X;X7X8XI.P.8X0X8XD.S.J.0X>X7XP.>X2XU.J.L.<X<XC.9.9.7.C.*X<XJ.L.>XI.>XI.>X>X>X>X;X;X;X;X;X>X>X>X>X>X>X>X>X>X:X,X2X,X:X,X>X>X>X>X7X2X>XU.:XU.S.a.9.9.v.*X*XG.G.s.8.8.h.h.1.h.h.h.1.h.e.e.1._ Q ^ A Q ^ Q r.B.z.N.5.' ' ` ' ` ` ` ` ( X.( ~ t O X . ;                                                                                                                                               ",
"                                                                                                                                                                      r s o.@.&.2.,.,.F.*XH.eXeX0X0X9X7X>X>X>X>X>XP.8X8X;XS.V.H.0X>X7XJ.I.>XU.J.L.L.K.f.9.s.8.C.=X=XK.L.U.P.7XI.>X>X>X>X;X;X;X;X;X>X>X>X-X>X>X>X2X:XU.>X2X,X:X,X>X-XP.-XU.P.J.J.:X2XD.g.a.a.v.*X<X*X*Xs.8.0.1.1.h.1.j.j.1.h.k.e.1.] A ^ ] <.[ [ h.z.j.z.z.` ) ) ' ) ) ) ` / / Q ~ t O X . $                                                                                                                                               ",
"                                                                                                                                                                      + O % 6 %.q.7.7.G.6X:X5XD.H.J.-X7X1X>X>X>X7X>X7X;X9XH.S.J.>X>X0XJ.J.P.>X2XL.<X*Xf.9.s.8.C.*X=XK.:XL.P.7XI.I.I.P.P.-XI.I.I.;X>X>X>X-X>X>X7X2X:XU.>X2X>X:X>X>X>X-X>X2X>X:X>XL.L.F.g.g.a.f.*X<XK.=Xs.8.0.0.e.h.1.h.j.1.h.l.h.h.h.:.:.1.B.h.N.z.N.z.j.N.' ' ' ' ` ` ) ' ) Q / ~ t O + X $                                                                                                                                               ",
"                                                                                                                                                                      o o O 6 6.x.7.7.F.<X&X3Xa.+.V.6X9X&X1X6X7X:X1X1X9X9X1X1X9X>X>X>X>XI.I.P.L.2XU.*Xv.a.t.t.f.C.Z.S.<XL.7XJ.I.>X>XP.P.;X;X;X;XI.>X>X>X-X-X>X>X:X>X2X2X:XU.U.U.>X>X-X-XU.U.U.L.H.9XD.S.Z.v.F.=XK.=X<Xs.8.u.0.k.h.1.h.j.e.h.h.j.z.z.j.h.j.z.j.j.z.N.h.N.<.' ' ) ` ` ) ' ` ` / Q ~ i % X X +                                                                                                                                               ",
"                                                                                                                                                                      X X o 6 6.x.9.9.G.4X4X&X7.+.v.6X0X6X9X6X&X:X:X6X1X1X1X1X1X>X>X>X>X>XI.P.P.U.L.K.v.s.t.9.t.7.a.Z.<XU.7XI.7X>X>XP.P.>X;X;XI.>X>X>X>X-X>X>X>X:X>X>X>X:X:X:XU.>X>X-X-X>XU.U.L.<XK.K.G.V.G.G.6X=XG.=Xs.7.0.u.1.e.h.h.j.j.j.e.j.j.z.j.j.z.z.z.l.k.h.j.N.<.) ) ` ` ` ) ` ` ` / ( ..t % O + X                                                                                                                                               ",
"                                                                                                                                                                      . X o 6 6.m.x.7.*X=XK.4X9.#.v.4X6X&X9X6X4X:X:X:X:X5X5X5X>X2X>X>X>X>X>XI.P.U.2X<Xv.s.s.t.s.7.9.F.2XU.>X>XI.>X>X-X-X>XI.I.I.>X>X>X>X>X>X:X>X:X:X:X:X:X:X:XU.>X>X-X>X>X>XU.L.<XL.K.G.g.Z.v.D.K.<X4Xf.t.t.0.0.e.e.j.j.j.j.j.k.j.l.j.j.l.N.z.l.l.0.N.N.1.' ` ` ) ` ) ) ) / / / ..t % O o X . # @ .                                                                                                                                       ",
"                                                                                                                                                                      . X o 6 6.6.x.7.=X=X@X4X9.7.V.wXwX&X6X6X:X:X:X:X6X:X:X:X:X>X>X>X>X>X>XI.I.P.>XL.v.9.a.s.s.s.a.G.6XL.J.>XI.>X>X-X-X>X>X>XI.>X>X>X>X>X>X>X>X:XU.U.:X:X>X:XU.>X>X-X-X>XU.U.L.H.<XL.Z.a.a.a.D.=X4XK.9.7.7.t.u.u.k.k.k.j.e.j.k.j.l.j.j.j.k.e.e.l.e.l.1.<.[ ' ) ) ) ` ` ` ` / / ( p 1 3 6 # . . . .                                                                                                                                       ",
"                                                                                                                                                                      X o O 6 6.m.m.&.@X=X4X4X+.+.V.4XwX5X9X6X:X:X:X>X>X>X>X>X>X:X:XU.I.I.I.I.I.P.2XJ.V.g.v.s.t.s.9.G.<XL.P.7X>X-X-X-X-X-X>X>XI.>X>X>X>X>X>X>X>X:XU.U.:X:X>X:XU.-X>X-X-XU.U.L.L.2XL.0Xv.9.g.a.4XeX<X<XV.a.a.B.t.0.u.l.k.e.e.j.k.k.l.k.e.e.e.e.k.l.d.e.e.j.5.5.:.[ ' ) ) ` ` / / / ~ p s  .y # . . #                                                                                                                                       ",
"                                                                                                                                                                      X o O 6 6.m.m.7.@X=X4X=Xg.g.S.4X6X5X9X6X>X:X>X>X>X>X>X>X>X:XU.U.U.I.I.I.I.>X7X2XH.G.*Xv.9.t.7.F.<XL.>X>XP.-X>X>X>X>X>X>X>X>X>X>X>X>X>X>X>X:XU.:X:X:X:X:X:X-X>X-X-XU.:X:XL.,XH.J.S.a.v.v.D.&XK.<XK.<X=X*Xf.8.u.l.k.e.e.l.l.k.l.e.e.j.e.e.k.0.u.0.l.N.j.z.j.<.' ) ) ` ) / Q / ( ~ .. .r o X . .                                                                                                                                       ",
"                                                                                                                                                                      X o O 6 x.m.x.&.@X=X*XK.4X4XwXeX9X5X1X>X>X>X>X>X>XI.I.>X>X:XU.U.U.I.>XI.;XJ.>X>X:X4XwXZ.9.s.9.G.:XU.2XP.P.>X>X>X>X>X>X>X>X>X>X>X>X>X>X>X>X:X:X:X:XU.:XU.:X:X-X-X>X:X:X:X:X:X9X&X6XH.H.5X&X6X6X&XH.9X=XG.s.9.s.u.u.e.l.l.e.e.l.k.e.k.e.e.k.l.w.k.e.z.1.5.5.3.` ) ` ' ` ` / / / / ! | i O X X .                                                                                                                                       ",
"                                                                                                                                                                      X o % 6 m.m.m.&.@X*X*XG.wX9X5X1X&X>X9X>X>X>X>X>XI.I.I.I.>XU.U.U.U.I.>X;X;X-X;X1X&XK.<Xv.9.g.a.G.<XJ.7X>X7X>X>X>X>X>X>X>X>X>X>X>X-X>X>X:X>X:X:X:X:XU.L.U.:X>X>X:X>X>X>X>X:XL.>X9XH.0X&X5X9X5XJ.:X:X6X<X=Xg.9.t.u.w.u.l.k.h.k.l.e.k.k.e.0.u.k.1.l.1.z.h.j.N.3.) ^ ) ) / ` / / / ( ~ ..t & X . .                                                                                                                                       ",
"                                                                                                                                                                      X o % 6 m.m.b.q.n.C.C.g.=X9X1X1X1X0X>X7X>X>X>XP.I.-XP.P.I.U.U.U.U.I.I.I.I.;X-X7X:X<X4XZ.9.s.a.F.<XL.>X>X>X>X>X:X:X>X>X>X>X>X>X>X>X>X>X:X>XU.U.U.U.U.:X:XU.U.U.U.U.:X:X:X:X2X2X6X6X6X6X5X:XP.P.>XU.&X0XK.a.a.s.d.d.e.N.h.e.k.u.y.y.u.u.u.w.k.w.k.e.l.h.j.z.5.) ) ^ ) ) ) / ) / X.~ ..i O . X .                                                                                                                                       ",
"                                                                                                                                                                      X o O 6 m.m.c.q.c.t.a.9.G.9X1X1X>X0X>X7X>X>X>XP.>X-XP.P.-XU.U.U.U.I.I.I.I.8X-X7X1X<X4XZ.9.s.a.F.<XL.2X2X>X>X>X:X:X>X>X>X>X>X>X>X>X>X>X:X:XU.U.U.U.U.<X<XU.U.U.U.U.:X:X:X:X>X>X:X:X:X:X:XU.-XJ.>X7XH.H.D.g.t.t.u.u.0.l.h.l.k.u.u.u.u.e.u.u.u.w.e.e.e.h.e.z.<.) ^ ) ) ) ) / ) ( ` ( ..i O X . .                                                                                                                                       ",
"                                                                                                                                                                      . o O 6 m.XXb.b.s.q.9.a.K.9X1X1X-X9X>X>X>X>X-X-X-X>XP.P.-XU.U.U.U.>X>XI.I.;X-X1X>X&X4XV.9.a.a.F.<XL.2X2X>X:X:X:X:X>X>X1X>X>X>X>X>X-X-XU.:XU.U.U.U.<XU.U.U.U.U.U.U.:X:X:X:X:X:X:X>X>X:X:XU.2XP.H.-XU.:XL.g.s.d.d.d.u.l.1.k.k.u.e.e.e.e.u.u.u.u.w.k.h.h.e.z.<.^ ^ ` ) ` ) ) ^ ) ` ` ..i % o + .                                                                                                                                       ",
"                                                                                                                                                                      . X O 6 m.b.b.c.s.t.s.a.G.6X>X6X-X7X-X>X>X>X>X-X>X>XP.P.>XU.U.U.,X>X>X>X;X;X-X7X1X<X4XZ.9.a.9.F.<XL.2X>X>X:X:X:X:X>X>X>X>X>X>X>X>X-X-XU.U.:X:XU.U.U.U.<XU.U.U.U.U.:X:X:X:X:X:X>X>X>X>X:X:XJ.2X>X>XU.2X9Xg.7.9.u.u.u.l.0.l.k.u.k.u.u.u.k.k.k.k.w.k.0.e.e.z.3.) ^ ^ ^ ) ` ` ^ / ' ( X.s 6 6 o + .                                                                                                                                     ",
"                                                                                                                                                                      . X O 6 m.m.c.q.c.t.s.a.D.6X:X>XU.2XU.2X>X>X>X-X>X>XP.P.>XU.U.,X,X>X>X>X;X8X;X9X1X4X6XZ.9.a.a.F.4X<X9X2X>X:X:X:X:X>X>X5X>X>X>X>X-X-X-XU.U.>X>X:X:XU.U.U.U.:X:X:X:X:X:X>X>X>X>X>X>X>X>X>XU.2X2XH.J.:XH.K.g.9.s.f.d.u.l.0.l.k.k.k.u.e.e.k.k.e.k.0.k.1.e.e.l.<.) _ ^ ` ) ^ ^ ` ) ' / ( ..p a O + #                                                                                                                                     ",
"                                                                                                                                                                      . X O 6 m.m.b.c.s.t.a.a.G.4X:X,XU.2XU.>X>X>X-X-X>X>X>X>X>X>X,X>X>X>X>X>X;X;XI.7X1X:X6XZ.9.a.a.F.4X<X9X>X>X:X:X:X:X>X>X5X>X>X>X-X-X-X-X:X:X>X>X:X:XU.U.U.U.:X:X:X:X:X:X,X,XU.,X>X>X>XU.U.U.>X&X:X0XH.a.V.F.G.G.G.C.t.u.w.k.e.k.k.k.e.e.k.k.w.e.w.e.h.e.j.j.h.>.<.>.3.:.` ) ) ) ` ` / ..t 6 % o -                                                                                                                                     ",
"                                                                                                                                                                      . X O 6 x.m.c.q.t.8.9.9.G.<XL.:XU.,XL.>X>X:XU.-X>X>X>X>X>X>X>X,X>X>X>X>X;X;X-X>X>X&X4XV.9.a.a.S.:X:X9X>X-X:X:X:X:X>X>X5X>X>X>X-X-X-X>X:X:X>X>X:X:X:X:XU.U.:X:X:X:X,X>X,X,X,X,X,X,X>XI.P.P.9XJ.L.2X&Xa.g.S.6X<X=XA.8.u.u.l.e.k.k.e.e.e.e.k.e.e.e.h.e.e.e.h.e.h.j.1.5.<.) ) ) ` ` [ ( ~ t % O +                                                                                                                                       ",
"                                                                                                                                                                      . X o 6 x.m.c.2.t.t.9.7.G.<XL.:XU.2XL.:X:X:XU.-X>X>X>X>X>X>X>X,X>X>X>X>X>X>XI.7X>X:X6XV.9.a.a.D.6X:X0X7X>X:X:X:X:X:X>X5X>X-X-X-X-X-X>X:X>XU.U.U.U.:X:XU.:X:X:X:X:X>X>X,X,X2X2X2X2X>X>XI.P.P.U.2XU.&Xg.a.g.<X=X<XA.7.t.u.u.k.j.k.k.e.e.e.e.e.h.e.0.e.0.h.1.j.z.j.1.5.<.) ) ) ` ) ` ( ~ p % O X                                                                                                                                       ",
"                                                                                                                                                                      . X O & m.x.c.2.8.t.s.7.G.<XK.L.L.U.L.2X:X>X:X>X-X>X1X1X7X>X>X2X2X2X>X>X>X7XP.7X-X:X6XZ.a.a.a.S.:X>XU.>X>XU.>X2X:X:X1X1X>X>X>X>X>X>X>X:XU.>X>X,X>X:X:X:X:X:X:X:X:X>X>X,X>X,X,X>X>X>XI.I.I.P.U.:X:XJ.v.v.V.:X6X=XS.t.t.u.u.l.j.k.e.e.e.e.e.h.h.e.h.h.1.h.h.h.e.h.j.j.<.' ' ` ] ] ( / ..t % o X                                                                                                                                       ",
"                                                                                                                                                                      . + & & %.x.&.c.t.7.t.s.*X<XL.:XU.U.L.:XU.>X:X>X>X>X1X1X7X>X>X2X2X>X>X>X-X7XP.9X-X:X9XD.Z.D.S.H.6X2X>X>X-X:X2X2X>X:X1X1X>X>X>X>X>X>X>X:X:X,X,X,X,X:X:X:X:X:X:X:X:X,X>X>X>X,X,X>X>X>X>X>XI.-X>X:X9X9XH.H.J.0X0X4XS.9.t.u.k.k.j.e.j.e.e.e.e.h.h.e.h.h.h.h.h.h.h.1.5.z.5.3.5.r.r.[ ] _ ..p & o X                                                                                                                                       ",
"                                                                                                                                                                      X X X - 6.x.b.q.8.s.t.s.F.<XL.>XU.>XL.2XU.:X:X>X>X>X1X1X1X>X>X2X2X,X>X>X>X>X-X9X-X&X9X:XL.6XK.&X2X2X7X7XP.>X>X>X>X:X>X1X>X>X>X>X>X>X>X>X>X,X,X,X,X>X,X,X,X>X>X>X>X,X,XU.U.-X>X>X>X>X>X>X>X>X-X:X:X9X6X0X1X9X0X<XZ.9.u.u.k.k.e.e.e.e.e.e.h.w.h.e.h.h.0.h.h.h.j.h.1.j.z.z.N.z.N.] ] ( ..s * & + #                                                                                                                                     ",
"                                                                                                                                                                      . X + - %.m.&.c.8.7.t.9.*X<XJ.U.U.>XU.2X>X:X:X>X>X>X1X1X1X1X>X>X>X>X:X>X>X>X-X7XP.J.2X9X9X6X<X:X>X>X9X9X-XU.U.:X:XU.-X-X-X-X-X-X-X-X-X-X-X>X>X>X>X>X>X,X,X,X,X>X>X>XU.U.U.-X-X-X-X-X-X>X>X9X>X1X6X:X9X0X1X&X5X<XZ.9.d.u.e.e.e.e.e.e.e.e.h.h.h.h.h.h.h.h.h.h.e.h.1.5.5.5.j.r.p.] _ ( ..Z * O o #                                                                                                                                     ",
"                                                                                                                                                                        X X O {.XXXXx.c.7.7.s.*X:XP.>XU.>XL.,XU.:X>X>X>X5X5X5X1X1X1X>X>X:X:X:X>X>XP.>XP.&X2X2X2X2X2X2X2X>X>X7X>XU.U.U.U.U.-X-X-X-X-X-X-X-X-X-X-X>X>X>X>X>X>X,X,X,X,X,X>X>XU.-X-X-X-X-X-X-X-X-X>X1X-X1X9X&X:X9X9X5X1X6XZ.t.d.u.h.e.e.e.e.e.e.e.w.w.w.h.h.e.e.e.e.0.k.l.j.j.j.h.h.k.p.[ ] ( _ Z = * % O                                                                                                                                     ",
"                                                                                                                                                                              o.$.@.#.b.s.f.7.G.>XP.>X>X2XU.2X,X>X>X1X1X5X5X5X5X1X1X>X:X:X:X:X:X>XP.P.P.U.>X2XU.:X9X2X>XP.-X>X>X,XU.:X>X>X-X-X>X-X-X>X>X>X>X>X>X>X>X,X,X>X,X,X,X,X,X>X>X>X>X-X-X-X-X-X-X-X-X-X>X-X-X1X9X&X&X&X9X9X1X6XZ.9.d.e.k.e.e.e.e.e.e.w.0.w.w.h.h.e.e.e.e.h.e.k.j.j.5.j.h.l.,.[ [ ' X.! u t t r                                                                                                                                     ",
"                                                                                                                                                                              o % = s +X9.7.v.G.:XL.>X>X2XU.7X2X>X>X1X1X5X5X5X5X1X1X:X:X:X:X:X:X>XU.P.>XU.U.2X:XU.2X>XU.>X>X>X>X>XU.U.>X>X-X-X>X>X>X>X>X>X>X>X>X>X>X>X>X>X,X,X,X,X,X>X>X:X:X>X>X>X>X-X-X-X-X>X>X;X8X9X9X:X9X&X9X9X5X6XZ.8.u.h.z.e.e.e.u.u.u.w.w.h.w.h.e.e.j.j.e.e.w.e.e.5.5.h.h.k.,.:.[ [ ' X.X...@. .& + X                                                                                                                               ",
"                                                                                                                                                                              o % * | +Xb.9.v.K.2XU.>XU.,XJ.:XU.>X>X1X1X1X1X5X1X1X1X:X:X:X:X:X:XU.U.U.>XP.P.2X2X:X,XU.,X9X7XU.>X>XU.U.>X,XU.P.-X-X-X-X-X-X>X>X>X>X>X>X>X,X,X,X,X,X,X,X,X:X:X>X>X>X>X>X-X;X-X>X>X-X;X>X>X>X0X&X1X9X5X6XZ.9.u.0.l.e.e.e.u.u.u.w.0.w.w.h.e.e.j.j.e.k.w.e.k.h.j.j.j.e.1.>.' ` ) X.( ..@.s & o # <                                                                                                                             ",
"                                                                                                                                                                              X O % | M.b.a.g.K.>X>X>X-X>X:X:X>X2X>X;X;X;X7X6X>X2X>X:X>X>X:XU.:X:XU.U.U.P.I.;X>XU.:X,X,X2X2X>X>X2X>X:X:XU.:X,X2X>X>X:XU.U.U.U.U.:X:X,X,X,X,X,X,X>X>X-X-X>X>X-X-X>X>X-X-X;X>X>X>X;X8X8X;X>X>X7X1X1X6X6XZ.t.u.e.e.h.h.h.0.0.0.w.w.w.u.e.e.e.h.e.k.e.u.e.h.r.h.h.5.h.h.[ [ ` ` ` [ ( ..p % o X >                                                                                                                             ",
"                                                                                                                                                                              X O % | M.b.a.g.K.:XU.P.P.-X:X:X:X2X;X;X;X8X7X:X:X2X:X:X>X>X:X:X:X:X:XU.U.I.I.>X>X>X>X2X2X2X2X>X>X2X>X:X:XU.:X>X,X>X:X:X:X:X:X:X:X:X:X>X>X,X,X,X,X>X>X-X>X>X>X-X-X>X-X-X-X-X>X>X>X;X;X;X;X;X;X1X1X1X:X4XZ.t.w.u.e.e.e.e.e.e.u.u.u.w.u.k.k.e.e.e.e.e.u.e.e.h.r.h.h.3.1.[ :.' ` / ( ( X.s % o . >                                                                                                                             ",
"                                                                                                                                                                              X O % | +Xg.a.g.=X6X>X-X>X>X2X>X:X>X;X;X;X;X>X>X:X>X,X>X2X2X>X:X2X:X:XU.U.I.>X>XI.>X>X2X2X2X2X>X>X2X>X:X:X:X>X>X-X:X:X:X:X:X>X>X>X:X:X>X>X>X>X,X,X>X>X-X>X>X>X>X-X-X-X-X-X-X>X>X>X;X;X;X;X>X>X1X1X1X:X4XZ.9.w.w.w.w.w.w.w.u.u.u.w.w.u.k.k.k.k.e.e.e.k.e.e.h.h.h.e.j.1.[ [ ' ` ) ` ( X.s * o X ;                                                                                                                             ",
"                                                                                                                                                                              X o % | +Xg.a.g.&X6X>X-X>X>X2X2X:X:X>X;X;X;X8X>X:X2X,X>X2X2X>X>X2X,X:X,XU.I.>X>XI.>X>X2X2X2X>X,X,X2X:X:X:X>X>X>X-X>X:X:X:X:X:X:X>X:X:X>X>X>X>X>X,X>X>X-X>X>X>X>X-X-X-X-X-X>X>X>X>X>X;X;X;X>X>X1X1X:X:X4XZ.9.t.w.u.w.w.e.0.w.0.w.w.w.u.k.k.k.k.e.e.e.k.e.e.h.h.e.j.j.1.[ [ ' ' ` [ X.X.p % O X ;                                                                                                                             ",
"                                                                                                                                                                              X o %  .+Xn.a.g.&X6X:X-X>X>X>X>X:X:X>X;X;X;X>X>X>X2X>X2X2X2X>X:X,X>X>X,X>X>X>X>X>X>X>X>X>X>X>X,X,X,X:XU.,X>X>X-XP.>X:X:X:XU.U.U.U.:X:X>X>X>X>X>X>X>X>XU.>X,X,X:X:XU.U.:X:X:X>X>X>X>X;X>X>X>X>X1X1X:X:X4XZ.9.t.u.u.u.u.e.e.u.e.u.w.u.u.u.u.k.k.e.e.e.k.k.e.e.e.e.j.h.3.[ :.[ ' ` ' X.X.p % o + $                                                                                                                             ",
"                                                                                                                                                                              X o %  .+Xv.a.g.=X4X6X1X>X>X>X>X>X:X>X;X;X;X;X:X:X2X>X2X2X2X>X:X:X>X>X>X-XI.>X>X>X-X-XU.U.U.>X:X>XU.:X,X>X>X>X>X>X>X>X:XU.U.U.U.U.U.U.U.>X>X>X>X>X>X>X>X>X>X>X,X:XU.U.:X>X>X2X2X>X>X;X>X>X>X>X1X1X:X:X4XZ.9.t.w.u.u.u.u.u.u.u.w.w.u.u.u.k.k.k.e.w.w.e.e.e.e.e.e.j.j.1.[ [ ` ' ` ` X.X.s * o o $                                                                                                                             ",
"                                                                                                                                                                              . o %  .OXM.a.g.=X6X6X9X9X1X1X>X2X>X>X;X;X;X-X:X:X>X>X>X7X2X>X:X>X>X:X>X-X>X>X>X>X-X-XP.P.U.U.>X>XU.U.>X>X-X-X>X>X>X>X>X>X-X>X>X>X-X-X-X>X>X>X>X>X>X>X>X>X>X>X>X>X-X>X>X>X>X7X>X>X>X>X>X>X>X>X>X1X:X:X4XZ.9.9.t.t.w.w.w.w.w.0.w.w.k.u.u.e.e.e.e.w.h.e.e.e.e.e.e.e.j.3.[ [ ' [ ` ) X.X.s * o + #                                                                                                                             ",
"                                                                                                                                                                              . o %  .OXM.a.g.K.4X6X9X1X1X>X:X>X>X>X;X;X;X-X-X:X>XI.>X7X2X>X:X>X,X>X-X-X>X>XI.>X>X-X-XP.U.U.U.U.P.U.>X,XP.P.>X7X>X>X>X>X>X>X>X>X-X-X-X-X>X>X>X>X>X>X>X>X>X>X>X>X>X>X>X>X7X7X7X7X>X>X>X>X>X>X-X>X:X:X<XV.7.9.9.8.t.w.w.u.u.u.e.e.k.e.e.e.e.e.e.0.0.h.e.e.e.h.e.e.h.1.<.1.3.5.:.( X.X.p * O + +                                                                                                                             ",
"                                                                                                                                                                              X o O o.+X+Xa.a.K.G.4X9X5X-X8XP.:XL.>XP.8X;X;X>X:X>X>X>X>X>X>X7X7X>X>X>X>X>X>XI.I.>X>X>X>X>X>X>XU.>X2X>X>X>X>X>X7X>X>X>X>X>X>X>X>X>X>X>X>X>X>X>X>X>X>X-X-X-X-X>X>X>X>X>X>X>X>X>X>X>X>X>X>X:X:X:X:XJ.6X&XS.v.f.C.C.t.8.0.u.u.w.w.k.e.e.e.e.e.e.e.h.e.e.e.e.e.e.e.e.e.z.h.j.z.N.:.` _ X.! = % O X                                                                                                                             "
};
